P3
256 256
255
200 193 200 
251 78 96 
255 210 255 
255 255 255 
255 255 255 
255 255 255 
203 63 89 
255 193 255 
255 85 85 
255 255 255 
216 91 191 
255 134 134 
0 0 0 
255 169 179 
132 41 41 
125 125 255 
255 251 251 
255 255 255 
255 208 208 
255 173 255 
215 67 67 
132 41 41 
119 73 179 
255 135 196 
255 148 255 
255 90 182 
255 123 255 
255 255 255 
255 255 255 
255 170 214 
255 237 255 
197 147 173 
255 120 169 
255 201 232 
255 32 32 
190 190 255 
255 255 255 
255 19 44 
110 110 250 
255 198 255 
255 60 123 
255 233 255 
255 162 236 
67 67 153 
222 149 149 
255 255 255 
187 145 145 
255 193 193 
255 153 153 
255 221 221 
255 255 255 
255 239 255 
221 198 249 
255 25 25 
255 239 239 
255 252 252 
255 255 255 
255 80 177 
255 125 125 
145 77 156 
255 249 249 
255 203 221 
255 221 221 
255 224 255 
255 249 255 
255 236 255 
255 90 90 
255 255 255 
122 122 222 
165 161 255 
255 232 240 
255 97 255 
140 140 140 
0 0 0 
250 152 152 
255 255 255 
255 137 255 
187 145 145 
255 255 255 
255 255 255 
223 92 223 
188 181 255 
255 255 255 
255 229 229 
0 0 0 
132 41 41 
255 255 255 
255 255 255 
208 64 124 
136 56 136 
255 110 250 
255 74 93 
255 66 66 
255 93 255 
67 67 153 
89 69 162 
255 255 255 
255 255 255 
255 242 255 
174 143 224 
255 99 204 
41 41 132 
92 92 255 
151 141 151 
86 86 86 
192 92 250 
255 194 255 
255 133 255 
255 131 255 
166 57 183 
255 244 255 
209 209 255 
255 179 242 
255 255 255 
235 104 157 
255 255 255 
255 247 255 
210 210 255 
255 255 255 
255 255 255 
77 77 195 
255 207 255 
255 244 244 
255 255 255 
255 154 193 
255 255 255 
153 153 201 
0 0 0 
247 96 255 
255 152 255 
241 141 168 
145 145 187 
255 145 255 
255 185 238 
255 255 255 
132 41 41 
255 58 58 
171 106 106 
198 85 149 
255 159 221 
255 255 255 
255 255 255 
0 0 0 
255 255 255 
228 159 221 
255 255 255 
119 52 169 
255 104 255 
255 243 243 
140 140 140 
0 0 0 
0 0 0 
255 64 64 
255 98 98 
41 41 132 
201 201 255 
0 0 0 
255 104 255 
255 255 255 
253 97 185 
230 230 230 
255 119 255 
255 216 223 
244 157 206 
255 50 134 
255 255 255 
255 144 255 
255 240 255 
215 90 222 
255 141 141 
184 67 140 
255 180 214 
147 82 255 
255 255 255 
150 46 255 
255 141 255 
132 41 41 
140 140 140 
247 194 255 
255 255 255 
255 130 255 
255 95 255 
140 140 140 
255 226 255 
250 152 152 
67 67 153 
0 0 0 
255 105 160 
0 0 0 
224 73 120 
203 99 255 
152 152 250 
255 231 255 
255 115 166 
132 41 41 
147 50 109 
242 123 255 
177 83 181 
255 255 255 
147 147 255 
255 120 169 
246 76 76 
255 90 181 
140 140 140 
212 104 255 
229 173 255 
255 255 255 
140 140 140 
255 249 255 
0 0 0 
255 114 255 
169 158 255 
255 154 255 
255 255 255 
255 167 204 
215 148 181 
255 40 131 
225 99 204 
222 100 255 
255 142 255 
145 145 187 
234 179 255 
255 120 255 
255 93 255 
255 145 145 
209 164 209 
132 41 41 
255 240 255 
255 139 255 
255 255 255 
202 106 255 
196 189 255 
56 56 180 
255 255 255 
255 255 255 
255 255 255 
255 180 180 
255 117 175 
204 167 255 
255 255 255 
204 204 255 
172 94 172 
255 85 255 
164 92 224 
255 255 255 
255 255 255 
73 44 143 
255 189 255 
41 41 132 
168 24 70 
255 192 255 
208 145 189 
255 46 88 
76 76 246 
255 255 255 
249 198 221 
255 183 190 
255 72 72 
132 41 41 
255 55 79 
167 45 170 
255 231 255 
255 112 255 
32 32 234 
255 185 235 
255 255 255 
255 40 255 
255 255 255 
41 41 132 
228 188 255 
255 46 88 
255 177 177 
255 52 52 
255 50 175 
194 145 155 
255 178 255 
248 85 148 
255 255 255 
255 151 151 
193 153 224 
255 97 189 
140 140 140 
212 145 151 
255 174 174 
216 152 255 
255 82 255 
255 255 255 
103 32 73 
255 212 255 
255 151 162 
136 56 136 
217 67 67 
132 41 41 
255 255 255 
255 255 255 
0 0 0 
255 158 238 
255 229 255 
255 255 255 
144 76 218 
222 69 89 
152 152 250 
222 149 149 
124 12 61 
108 50 162 
96 87 137 
255 162 162 
255 76 255 
255 255 255 
195 156 252 
255 212 255 
255 255 255 
255 101 255 
255 225 225 
255 255 255 
255 255 255 
255 95 183 
132 41 41 
255 169 255 
86 86 86 
255 145 146 
255 154 255 
255 118 149 
180 56 56 
0 0 0 
180 56 56 
255 181 201 
152 152 250 
255 255 255 
255 200 255 
255 255 255 
229 85 85 
255 32 32 
255 255 255 
255 191 255 
136 56 136 
255 203 255 
132 41 41 
255 182 255 
255 123 255 
239 201 201 
205 87 158 
140 140 140 
67 67 153 
255 98 156 
199 43 62 
255 255 255 
195 156 204 
227 195 195 
190 136 229 
255 255 255 
41 41 132 
237 82 172 
255 156 156 
255 255 255 
168 52 168 
255 255 255 
255 255 255 
255 166 255 
255 154 178 
255 105 255 
255 134 252 
215 67 67 
255 81 102 
255 204 255 
0 0 0 
109 109 255 
255 156 212 
255 164 237 
0 0 0 
255 255 255 
255 194 255 
255 198 255 
223 91 182 
86 26 86 
255 243 243 
67 67 215 
255 243 255 
255 223 223 
110 110 250 
255 109 109 
106 86 255 
255 255 255 
255 132 220 
195 77 77 
153 153 201 
255 208 208 
255 93 255 
255 224 255 
195 195 227 
217 67 67 
255 215 255 
41 41 132 
255 215 255 
153 153 201 
190 149 190 
255 206 255 
195 77 77 
255 175 255 
255 187 247 
140 140 140 
215 67 67 
255 111 174 
255 230 255 
215 67 67 
255 181 255 
255 95 109 
109 109 255 
255 204 204 
169 68 155 
140 140 140 
255 191 255 
153 93 93 
255 101 255 
255 171 255 
255 236 255 
255 167 167 
255 255 255 
86 86 255 
179 83 188 
255 104 255 
255 95 119 
255 47 186 
143 17 56 
73 44 143 
201 201 239 
41 41 132 
255 153 255 
92 92 255 
0 0 0 
193 193 193 
255 106 255 
255 237 255 
86 86 86 
157 100 157 
41 41 132 
206 170 255 
67 67 215 
255 255 255 
255 98 219 
253 172 255 
255 156 234 
143 98 143 
255 190 255 
187 145 145 
75 56 192 
0 0 0 
255 109 109 
255 218 255 
255 201 255 
67 67 153 
255 149 255 
189 174 255 
184 67 140 
0 0 0 
147 50 109 
177 82 255 
145 145 187 
255 255 255 
255 161 255 
219 81 255 
255 255 255 
255 97 97 
167 99 252 
0 0 0 
255 126 230 
204 151 255 
41 41 132 
255 57 255 
255 126 255 
255 114 255 
255 255 255 
120 120 255 
255 139 183 
56 25 255 
67 67 215 
255 255 255 
255 125 125 
160 85 190 
76 76 255 
255 237 255 
255 143 255 
255 255 255 
255 148 148 
67 67 215 
255 255 255 
67 67 153 
195 56 184 
41 41 132 
245 174 255 
255 187 255 
247 167 204 
45 19 255 
187 145 145 
255 214 255 
255 255 255 
215 140 142 
255 196 255 
255 221 221 
235 50 255 
93 74 255 
255 239 255 
255 102 255 
255 231 255 
210 69 202 
180 73 149 
237 231 255 
255 227 255 
149 46 255 
255 255 255 
132 41 41 
109 109 255 
255 107 228 
255 202 255 
149 85 198 
255 133 255 
255 237 237 
255 255 255 
255 116 118 
218 76 144 
255 255 255 
140 140 140 
255 157 157 
180 56 56 
255 142 158 
255 191 191 
147 58 147 
255 159 205 
140 140 140 
255 189 194 
255 153 250 
180 56 56 
193 193 193 
135 22 104 
255 255 255 
255 202 207 
255 245 255 
255 233 249 
255 237 255 
255 255 255 
187 145 145 
255 255 255 
193 85 255 
255 219 255 
255 164 164 
255 255 255 
255 255 255 
255 246 255 
255 67 255 
255 255 255 
153 67 67 
195 156 204 
255 255 255 
255 255 255 
255 83 255 
232 164 239 
224 92 223 
255 85 85 
255 182 182 
217 67 255 
255 255 255 
255 183 255 
255 192 255 
255 81 81 
255 162 255 
255 82 159 
255 255 255 
223 92 163 
255 255 255 
180 56 56 
255 202 255 
255 186 255 
0 0 0 
255 179 255 
208 147 158 
255 239 255 
0 0 0 
255 41 100 
170 121 255 
255 195 204 
255 77 81 
255 112 255 
255 255 255 
255 126 237 
227 195 195 
67 67 153 
207 46 79 
255 155 222 
253 226 255 
255 255 255 
255 63 159 
255 199 222 
183 57 166 
68 47 255 
255 255 255 
0 0 0 
255 93 181 
255 152 152 
255 90 200 
255 134 188 
255 237 255 
255 255 255 
255 255 255 
224 224 255 
255 209 255 
187 145 145 
183 126 255 
255 251 251 
255 255 255 
255 92 92 
255 189 255 
255 135 255 
255 255 255 
153 67 67 
255 168 255 
86 86 86 
255 191 191 
255 255 255 
255 94 255 
255 160 198 
255 194 194 
153 67 67 
255 245 255 
178 132 254 
255 211 211 
255 159 188 
255 93 93 
241 167 212 
204 99 167 
255 255 255 
167 99 252 
255 141 255 
255 140 255 
233 230 255 
226 172 255 
255 255 255 
230 230 255 
255 255 255 
255 155 246 
88 46 255 
255 56 135 
132 41 41 
246 200 246 
255 255 255 
129 74 240 
125 81 253 
67 67 215 
211 176 255 
67 67 215 
255 255 255 
255 255 255 
255 115 255 
221 83 133 
140 140 140 
149 85 198 
255 255 255 
0 0 0 
166 115 255 
132 41 41 
255 219 225 
255 73 169 
132 41 41 
255 255 255 
255 117 117 
255 207 255 
255 191 255 
255 126 130 
140 140 140 
158 86 215 
153 67 67 
245 109 143 
255 255 255 
255 158 172 
255 255 255 
255 255 255 
255 131 219 
255 255 255 
49 15 157 
255 255 255 
255 219 255 
255 243 255 
255 202 255 
255 255 255 
255 198 255 
163 92 223 
255 125 127 
201 181 255 
140 140 140 
32 32 234 
255 105 105 
255 142 255 
255 174 255 
235 198 255 
255 255 255 
140 140 140 
255 104 255 
0 0 0 
215 67 67 
223 92 163 
140 140 140 
67 67 153 
145 145 187 
255 115 255 
108 50 162 
255 255 255 
255 241 255 
86 86 86 
230 177 255 
234 204 255 
204 156 195 
193 193 193 
186 74 255 
255 64 187 
215 151 243 
153 67 67 
255 97 166 
152 152 250 
140 140 140 
255 236 255 
255 255 255 
193 193 255 
221 221 255 
203 44 233 
41 41 132 
226 186 255 
49 15 157 
41 41 132 
255 193 255 
255 144 255 
255 165 255 
255 255 255 
255 147 255 
180 56 56 
174 72 255 
56 56 180 
255 238 255 
125 125 255 
255 86 86 
0 0 0 
0 0 0 
115 115 255 
255 56 136 
140 140 140 
255 179 179 
41 41 132 
145 113 255 
255 133 255 
63 63 255 
255 255 255 
255 255 255 
255 99 99 
255 117 255 
119 52 169 
152 152 250 
246 155 246 
231 100 255 
255 183 216 
41 41 132 
162 90 255 
213 194 213 
239 102 255 
160 160 255 
255 204 253 
255 255 255 
225 155 221 
255 237 255 
41 41 132 
145 145 187 
162 50 108 
255 242 255 
243 151 215 
255 118 255 
255 195 255 
255 87 87 
255 95 204 
255 174 217 
255 165 165 
255 67 153 
255 161 204 
255 241 255 
255 139 219 
217 72 255 
102 32 102 
218 118 226 
217 67 67 
255 198 198 
230 111 255 
0 0 0 
255 255 255 
255 144 162 
255 89 89 
255 181 255 
255 75 255 
255 190 255 
255 65 97 
255 232 255 
226 126 255 
255 36 69 
41 41 132 
255 255 255 
255 166 166 
222 149 149 
162 50 81 
130 90 109 
195 156 204 
255 125 125 
209 63 209 
255 255 255 
255 109 191 
255 142 158 
255 255 255 
255 46 255 
253 226 255 
215 67 67 
255 255 255 
255 179 255 
117 36 117 
255 255 255 
195 156 252 
255 155 165 
255 218 255 
147 78 216 
255 255 255 
255 99 255 
255 71 255 
255 147 147 
255 183 190 
255 86 86 
255 255 255 
255 200 200 
255 217 255 
174 141 147 
255 255 255 
255 255 255 
199 68 255 
187 145 145 
153 153 201 
255 182 182 
255 162 172 
255 112 196 
255 144 184 
255 226 253 
62 19 62 
255 255 255 
255 235 255 
222 149 149 
255 226 255 
255 171 232 
86 86 86 
255 120 255 
255 253 255 
255 127 183 
255 211 211 
190 69 177 
132 41 41 
255 124 255 
255 255 255 
0 0 0 
255 255 255 
184 67 140 
115 115 255 
86 86 86 
255 255 255 
255 255 255 
255 185 253 
255 255 255 
132 41 41 
253 207 209 
255 255 255 
255 156 156 
255 173 255 
0 0 0 
255 211 255 
255 255 255 
255 144 255 
233 60 218 
255 201 255 
190 149 190 
255 204 255 
255 230 255 
255 141 255 
198 85 149 
255 255 255 
255 255 255 
255 255 255 
62 19 62 
191 69 151 
158 15 34 
255 174 255 
234 204 255 
219 186 255 
255 252 255 
255 106 162 
188 89 255 
255 136 255 
255 237 255 
255 91 255 
252 156 195 
255 255 255 
255 255 255 
251 246 255 
0 0 0 
255 240 255 
255 52 52 
255 168 191 
195 77 77 
255 255 255 
255 175 250 
255 255 255 
255 255 255 
255 255 255 
255 116 255 
255 255 255 
225 99 204 
0 0 0 
255 118 149 
228 93 255 
255 152 250 
255 255 255 
255 190 255 
180 56 56 
56 56 180 
255 83 180 
255 255 255 
193 151 255 
255 255 255 
255 255 255 
67 67 215 
215 67 67 
0 0 0 
128 72 255 
255 93 255 
169 143 169 
235 235 255 
220 85 189 
255 127 255 
255 150 206 
255 165 255 
226 86 197 
191 63 255 
255 207 255 
156 77 145 
0 0 0 
164 92 164 
255 190 222 
255 255 255 
177 177 255 
255 104 183 
255 116 255 
255 255 255 
140 67 184 
255 165 208 
255 224 224 
41 41 132 
255 239 255 
157 15 49 
0 0 0 
201 201 239 
168 52 168 
255 237 255 
216 157 255 
255 145 255 
183 105 255 
250 152 152 
140 129 255 
145 145 187 
255 205 255 
246 76 76 
250 152 152 
255 93 255 
255 224 255 
195 156 255 
226 84 255 
246 180 255 
255 79 217 
255 126 255 
255 159 188 
255 109 162 
255 185 255 
0 0 0 
156 156 255 
132 41 41 
208 95 255 
149 85 198 
236 164 255 
0 0 0 
145 145 187 
245 245 255 
41 41 132 
255 255 255 
252 156 195 
255 164 255 
222 149 255 
144 144 255 
255 255 255 
226 79 229 
0 0 0 
153 93 255 
255 221 255 
224 159 205 
77 77 195 
156 99 255 
189 84 255 
215 67 67 
255 250 255 
255 255 255 
85 85 229 
176 176 255 
255 145 255 
0 0 0 
236 230 236 
183 140 255 
255 230 255 
112 21 224 
255 255 255 
201 201 255 
255 234 255 
41 41 132 
136 56 136 
255 255 255 
159 154 255 
187 145 145 
149 149 222 
119 73 235 
140 140 140 
247 219 255 
255 255 255 
255 165 255 
255 197 197 
41 41 132 
255 255 255 
41 41 132 
255 255 255 
255 255 255 
255 255 255 
255 255 255 
169 52 119 
62 19 62 
255 255 255 
255 255 255 
173 81 226 
255 255 255 
255 163 223 
255 142 255 
255 243 255 
255 232 255 
255 244 255 
255 179 221 
102 32 102 
255 255 255 
255 232 255 
255 156 156 
255 190 255 
232 48 138 
255 255 255 
255 156 221 
255 99 99 
0 0 0 
169 93 220 
255 63 116 
255 173 229 
255 207 214 
230 230 230 
67 67 153 
145 77 156 
252 153 153 
187 145 145 
255 172 194 
195 77 77 
250 250 255 
255 248 248 
255 142 255 
255 255 255 
132 41 41 
255 255 255 
255 82 82 
255 151 167 
136 56 136 
255 92 92 
67 67 153 
255 255 255 
255 255 255 
255 255 255 
255 154 202 
238 99 255 
233 196 203 
255 169 211 
255 85 85 
255 211 255 
255 131 255 
67 67 153 
132 41 41 
132 41 41 
231 200 255 
115 115 255 
216 182 255 
220 85 189 
255 240 255 
255 255 255 
255 67 152 
169 103 255 
255 163 255 
86 86 86 
255 177 255 
255 255 255 
153 93 93 
255 255 255 
132 41 41 
255 255 255 
255 225 255 
125 109 195 
255 255 255 
255 255 255 
197 147 173 
255 142 209 
62 19 62 
255 192 255 
255 136 255 
255 255 255 
255 250 255 
255 234 255 
0 0 0 
255 250 250 
255 219 253 
255 207 255 
255 147 173 
180 56 56 
86 86 86 
255 255 255 
152 67 255 
132 41 41 
255 82 147 
246 76 76 
255 237 255 
255 202 255 
255 167 212 
125 82 205 
0 0 0 
132 41 41 
228 106 106 
180 180 255 
132 41 41 
255 255 255 
255 211 255 
255 104 255 
146 104 255 
255 255 255 
255 241 255 
255 235 255 
140 140 140 
162 69 89 
188 147 255 
252 156 195 
0 0 0 
255 255 255 
255 174 181 
0 0 0 
228 197 255 
250 152 152 
255 42 255 
255 255 255 
109 90 130 
132 41 41 
255 153 255 
255 255 255 
255 113 255 
255 160 160 
255 192 255 
207 193 223 
255 255 255 
189 145 208 
140 140 140 
255 172 255 
216 152 216 
135 51 255 
255 255 255 
255 148 181 
103 32 73 
255 156 156 
255 102 255 
255 255 255 
201 164 164 
255 255 255 
255 197 228 
201 78 153 
255 255 255 
187 145 145 
255 111 255 
255 222 255 
255 255 255 
255 68 154 
255 255 255 
184 67 140 
255 97 134 
255 186 226 
255 255 255 
252 156 195 
209 209 239 
56 56 180 
255 109 109 
86 86 86 
255 176 255 
255 67 217 
255 173 255 
255 142 255 
140 140 140 
255 230 230 
190 149 190 
255 91 217 
255 255 255 
255 134 168 
255 232 232 
230 94 199 
255 255 255 
255 255 255 
255 188 255 
255 181 209 
67 67 153 
255 255 255 
192 152 255 
255 211 255 
0 0 0 
0 0 0 
255 126 255 
0 0 0 
222 161 255 
173 145 255 
109 109 255 
93 93 153 
223 142 158 
255 255 255 
255 130 176 
255 255 255 
160 154 255 
160 105 255 
255 154 255 
140 140 140 
203 194 214 
255 255 255 
176 176 255 
0 0 0 
188 82 255 
92 69 255 
255 250 255 
190 149 190 
204 156 195 
41 41 132 
138 43 161 
255 255 255 
255 255 255 
255 255 255 
0 0 0 
67 67 153 
67 67 215 
140 140 140 
41 41 132 
245 65 255 
255 255 255 
255 119 255 
247 212 255 
255 173 255 
163 163 255 
255 224 255 
73 44 143 
240 96 188 
182 85 255 
255 255 255 
230 230 230 
255 255 255 
215 67 67 
207 145 191 
0 0 0 
255 98 221 
241 241 255 
255 255 255 
52 52 255 
140 67 184 
138 43 161 
156 156 255 
255 242 255 
0 0 0 
145 145 187 
255 104 156 
255 255 255 
255 52 52 
255 255 255 
255 255 255 
255 121 255 
255 174 255 
255 117 244 
255 232 232 
255 185 255 
255 255 255 
255 255 255 
255 201 255 
0 0 0 
250 152 152 
255 190 209 
255 170 214 
255 61 127 
122 26 131 
255 255 255 
255 255 255 
194 145 155 
255 255 255 
190 149 190 
250 239 255 
255 156 170 
246 76 76 
255 255 255 
255 222 255 
255 255 255 
180 56 255 
228 106 106 
255 168 255 
255 255 255 
132 41 41 
165 54 255 
255 197 255 
62 19 62 
255 143 154 
255 190 199 
214 194 203 
255 242 255 
255 192 192 
0 0 0 
255 63 63 
255 131 227 
218 89 176 
255 255 255 
255 255 255 
255 255 255 
255 192 197 
140 46 255 
255 92 92 
255 53 78 
222 149 149 
255 95 95 
145 145 187 
255 78 168 
255 255 255 
255 227 227 
147 145 255 
255 177 184 
255 164 255 
255 111 255 
255 152 255 
190 85 160 
153 93 93 
255 205 255 
136 56 136 
162 50 108 
255 148 177 
255 197 216 
163 92 223 
187 145 145 
255 143 143 
162 50 81 
255 119 209 
0 0 0 
255 211 255 
165 63 165 
173 173 255 
255 165 187 
255 164 201 
255 196 255 
255 165 255 
255 204 240 
255 197 197 
173 82 255 
255 169 255 
252 225 255 
255 69 222 
255 255 255 
255 255 255 
255 176 255 
255 203 255 
85 85 229 
255 174 255 
254 170 227 
251 218 255 
255 33 125 
109 94 162 
176 176 255 
140 140 140 
195 77 77 
254 189 255 
255 130 255 
255 255 255 
255 198 198 
255 174 209 
255 145 199 
187 145 145 
255 255 255 
255 82 220 
166 115 255 
158 15 34 
140 140 140 
145 145 187 
255 203 255 
246 76 76 
255 108 168 
255 211 255 
255 185 255 
136 56 136 
149 85 198 
255 255 255 
255 83 255 
73 32 103 
223 92 223 
180 56 56 
255 237 255 
255 112 137 
255 255 255 
255 158 255 
255 41 132 
255 255 255 
110 106 255 
145 145 187 
255 153 255 
67 67 153 
255 113 177 
255 255 255 
255 78 255 
255 124 255 
255 154 234 
153 153 201 
255 156 156 
255 116 116 
108 50 162 
255 245 255 
255 189 255 
255 141 227 
255 70 70 
255 118 255 
255 179 230 
255 73 255 
216 182 255 
255 221 221 
112 112 209 
215 67 67 
0 0 0 
255 52 52 
140 140 140 
237 237 255 
132 41 41 
255 255 255 
255 68 156 
255 255 255 
145 77 156 
255 255 255 
255 255 255 
155 68 169 
78 69 255 
255 233 233 
238 238 255 
255 255 255 
189 189 255 
255 166 255 
209 112 112 
114 63 203 
217 111 174 
255 255 255 
255 83 255 
255 255 255 
217 68 169 
212 200 255 
41 41 132 
184 98 184 
153 67 67 
41 41 132 
179 73 119 
255 155 255 
239 201 201 
145 145 255 
186 145 255 
255 120 255 
237 53 255 
255 120 255 
255 238 255 
255 255 255 
198 85 149 
255 157 255 
156 77 145 
255 255 255 
229 157 202 
255 153 225 
195 119 255 
255 57 202 
255 56 93 
255 255 255 
206 120 255 
145 145 187 
255 187 235 
140 140 140 
215 67 67 
0 0 0 
102 32 102 
174 156 255 
207 160 229 
156 77 145 
190 85 222 
255 106 255 
145 145 187 
197 147 173 
41 41 132 
56 56 180 
227 195 195 
41 41 132 
255 255 255 
255 74 186 
255 190 255 
255 196 255 
140 140 140 
156 77 145 
218 76 144 
67 67 217 
255 255 255 
255 128 255 
147 147 255 
255 221 255 
145 145 187 
255 234 255 
179 73 119 
204 83 255 
244 177 255 
255 235 255 
147 145 205 
86 86 86 
201 153 153 
108 50 162 
213 207 255 
149 149 222 
255 152 249 
255 228 255 
228 228 255 
255 255 255 
255 181 190 
251 159 182 
255 188 246 
203 78 96 
255 145 155 
255 94 183 
255 255 255 
255 116 128 
255 153 154 
255 138 255 
255 156 156 
255 50 50 
255 201 255 
255 143 255 
255 149 255 
255 116 128 
255 154 231 
255 237 237 
180 56 56 
255 255 255 
255 76 218 
255 255 255 
255 255 255 
173 173 255 
255 83 255 
255 166 255 
255 170 170 
200 56 62 
139 64 255 
145 77 156 
255 255 255 
203 100 255 
255 143 255 
255 230 255 
255 103 255 
254 105 254 
255 86 86 
140 140 140 
255 101 255 
190 149 190 
255 127 138 
255 255 255 
255 235 255 
255 255 255 
255 255 255 
255 170 255 
255 156 255 
0 0 0 
255 255 255 
255 148 255 
255 241 255 
255 180 222 
255 255 255 
217 67 67 
255 106 255 
220 77 145 
143 44 73 
180 56 56 
255 76 76 
177 144 177 
255 203 255 
255 97 237 
110 110 250 
232 227 255 
255 255 255 
255 255 255 
242 194 255 
255 249 255 
255 99 255 
255 255 255 
201 153 153 
255 188 255 
250 152 152 
255 255 255 
41 41 132 
255 212 255 
192 151 255 
163 92 223 
255 105 160 
255 255 255 
255 254 255 
153 153 201 
255 129 238 
143 143 255 
255 255 255 
255 209 209 
255 255 255 
198 198 255 
187 145 145 
255 207 207 
255 130 219 
255 149 255 
229 160 254 
255 47 68 
255 255 255 
255 216 255 
234 167 167 
255 185 255 
255 183 224 
167 93 255 
255 92 92 
255 160 160 
255 255 255 
255 41 255 
255 255 255 
0 0 0 
132 41 41 
255 154 205 
255 85 176 
145 145 187 
255 255 255 
255 255 255 
140 140 140 
81 58 188 
255 147 255 
239 209 209 
255 219 255 
160 160 160 
255 255 255 
255 89 151 
255 143 223 
255 214 255 
255 255 255 
149 149 222 
232 232 232 
190 149 190 
154 78 255 
255 113 255 
255 197 255 
212 147 212 
255 255 255 
255 255 255 
227 187 255 
182 182 255 
164 164 201 
255 191 255 
162 153 208 
158 94 255 
140 140 140 
238 208 255 
255 92 92 
255 127 255 
255 198 255 
255 255 255 
255 137 147 
255 160 205 
255 42 54 
255 140 255 
255 50 50 
255 248 255 
93 93 153 
86 86 86 
132 41 41 
255 197 255 
140 140 140 
182 175 255 
255 143 143 
255 184 255 
41 41 132 
255 140 255 
255 255 255 
255 243 255 
255 255 255 
208 109 186 
255 255 255 
187 58 255 
255 255 255 
211 176 255 
242 83 179 
0 0 0 
255 135 161 
255 155 255 
140 140 140 
156 77 145 
245 174 255 
132 41 41 
156 99 255 
255 255 255 
255 255 255 
41 41 132 
120 103 216 
184 127 255 
191 169 251 
190 149 190 
255 255 255 
255 155 255 
255 145 217 
177 177 255 
255 196 255 
255 255 255 
140 140 140 
0 0 0 
180 73 255 
255 255 255 
255 255 255 
140 140 140 
228 211 255 
255 255 255 
141 68 255 
255 71 173 
255 214 255 
255 125 255 
255 246 255 
255 255 255 
255 204 234 
242 136 255 
255 255 255 
255 233 255 
192 92 250 
187 103 255 
255 241 255 
255 239 255 
255 124 255 
82 82 255 
209 164 209 
255 76 255 
255 255 255 
41 41 132 
255 229 255 
153 153 201 
0 0 0 
255 255 255 
132 41 41 
67 67 215 
77 77 195 
218 153 154 
0 0 0 
169 73 194 
77 77 195 
193 193 193 
255 255 255 
124 64 208 
255 126 237 
255 240 255 
255 255 255 
242 235 255 
162 85 208 
56 56 180 
255 84 206 
153 67 67 
139 45 182 
255 231 255 
181 148 215 
129 74 240 
255 255 255 
57 25 184 
152 152 250 
121 73 255 
140 140 140 
220 93 226 
255 128 158 
143 143 255 
255 52 52 
255 255 255 
85 85 255 
255 233 238 
255 186 253 
180 56 56 
255 174 242 
255 238 255 
222 149 149 
255 130 186 
204 167 255 
255 146 218 
255 173 173 
236 160 198 
144 76 255 
255 115 115 
103 32 73 
255 244 255 
132 41 41 
224 153 193 
255 167 167 
255 130 186 
255 255 255 
255 211 248 
251 44 78 
213 194 213 
255 155 255 
255 170 170 
255 98 201 
255 176 176 
255 171 255 
163 92 223 
0 0 0 
180 56 56 
255 159 255 
140 140 140 
189 68 156 
255 255 255 
255 160 255 
255 204 255 
255 255 255 
255 255 255 
255 255 255 
255 153 250 
255 114 159 
255 105 170 
255 50 50 
255 255 255 
255 255 255 
255 200 255 
255 255 255 
228 105 236 
0 0 0 
243 151 215 
187 145 145 
255 224 255 
255 179 179 
255 74 74 
184 67 140 
97 93 255 
0 0 0 
180 56 56 
255 224 240 
255 105 113 
255 255 255 
255 222 255 
229 196 244 
255 201 201 
255 123 255 
255 160 160 
255 253 255 
255 151 231 
182 56 255 
255 81 102 
132 41 41 
255 139 255 
255 143 159 
96 9 30 
255 255 255 
255 255 255 
255 255 255 
255 244 249 
234 167 167 
255 247 255 
211 157 203 
208 78 159 
255 67 140 
140 140 140 
255 244 255 
255 255 255 
255 64 139 
254 229 255 
255 109 208 
255 255 255 
208 165 173 
204 156 195 
255 221 255 
255 255 255 
86 86 86 
255 170 255 
86 86 86 
215 215 250 
255 147 255 
140 140 140 
255 240 255 
210 210 255 
118 118 118 
186 98 143 
255 189 255 
255 255 255 
255 179 179 
212 212 255 
255 255 255 
194 86 255 
255 193 255 
238 200 255 
120 90 255 
163 92 255 
255 123 255 
255 255 255 
225 61 255 
201 201 255 
255 206 206 
255 216 244 
255 255 255 
255 235 255 
255 193 206 
255 181 255 
255 136 255 
255 255 255 
255 237 255 
255 50 50 
255 147 255 
255 255 255 
41 41 132 
193 57 255 
226 70 255 
255 86 160 
255 255 255 
106 106 228 
218 76 144 
255 255 255 
255 255 255 
132 41 41 
255 255 255 
255 233 255 
255 234 255 
255 255 255 
255 164 255 
215 171 171 
77 77 195 
255 225 225 
255 175 255 
255 169 255 
255 255 255 
250 152 152 
255 184 255 
155 106 255 
164 112 174 
128 113 255 
174 174 245 
166 115 255 
255 56 255 
255 142 255 
255 96 155 
106 106 171 
219 89 162 
255 139 255 
176 166 221 
134 96 255 
0 0 0 
93 93 153 
50 50 255 
255 255 255 
164 111 230 
233 203 255 
255 255 255 
86 86 86 
255 124 226 
255 255 255 
239 239 255 
188 83 179 
255 82 82 
255 255 255 
255 253 255 
93 93 255 
153 153 201 
109 109 255 
238 235 255 
201 201 255 
255 255 255 
141 51 149 
231 128 231 
115 115 255 
255 255 255 
255 85 255 
255 82 82 
153 67 67 
149 149 222 
241 135 255 
0 0 0 
255 164 255 
194 33 181 
255 184 199 
255 255 255 
158 147 208 
255 206 255 
255 255 255 
153 67 67 
255 255 255 
255 171 255 
212 119 255 
41 41 132 
255 232 232 
255 195 255 
85 85 255 
239 201 201 
255 149 255 
255 255 255 
67 67 153 
255 210 255 
255 173 173 
67 67 215 
239 239 255 
255 255 255 
204 156 195 
151 151 255 
255 167 204 
255 255 255 
255 134 255 
255 207 236 
233 159 255 
216 91 244 
233 196 203 
0 0 0 
154 86 255 
196 161 255 
255 125 238 
166 157 240 
255 173 173 
255 159 235 
158 77 255 
195 68 148 
39 14 255 
147 141 204 
72 72 255 
255 229 255 
145 145 187 
255 255 255 
211 157 203 
255 255 255 
255 166 233 
153 67 67 
255 255 255 
255 198 255 
177 82 255 
255 255 255 
255 183 255 
255 254 255 
255 119 255 
255 198 206 
255 98 98 
198 145 159 
255 43 255 
251 78 96 
0 0 0 
132 41 41 
145 77 156 
255 103 247 
255 255 255 
255 101 255 
255 89 89 
193 193 193 
255 255 255 
235 87 103 
197 158 255 
206 201 247 
255 187 187 
255 50 50 
255 32 32 
255 255 255 
255 255 255 
167 117 255 
132 41 41 
0 0 0 
255 105 255 
255 167 247 
255 89 89 
255 255 255 
255 255 255 
255 63 63 
217 67 67 
255 255 255 
249 103 255 
255 157 255 
255 102 138 
255 255 255 
255 255 255 
255 255 255 
190 85 160 
255 255 255 
255 120 196 
255 174 255 
136 56 136 
255 163 255 
201 164 164 
255 255 255 
140 140 140 
255 234 255 
255 181 222 
255 255 255 
255 199 255 
255 166 255 
173 173 255 
255 255 255 
255 255 255 
255 122 230 
195 156 204 
255 92 122 
255 244 255 
255 147 188 
86 86 86 
255 186 255 
255 213 253 
184 127 217 
255 219 219 
0 0 0 
255 164 255 
255 255 255 
166 73 120 
89 69 162 
231 109 252 
89 69 222 
255 86 92 
255 255 255 
204 166 255 
255 112 232 
255 177 255 
214 94 98 
255 173 255 
255 85 85 
255 242 255 
156 140 148 
255 226 255 
255 194 235 
169 143 169 
234 32 32 
255 255 255 
77 77 195 
255 158 240 
255 180 255 
255 176 176 
255 255 255 
255 230 230 
252 156 195 
86 86 86 
255 223 223 
255 155 165 
255 254 255 
255 217 255 
255 255 255 
255 255 255 
187 145 145 
227 195 195 
255 191 255 
255 48 96 
255 255 255 
255 248 255 
255 243 255 
255 255 255 
255 218 255 
255 136 255 
255 254 255 
132 132 187 
206 48 189 
157 100 157 
255 255 255 
118 118 118 
255 255 255 
255 195 255 
255 142 149 
167 117 255 
198 198 255 
118 118 118 
255 139 255 
222 181 255 
255 166 203 
40 40 255 
178 178 178 
187 145 145 
255 255 255 
140 140 140 
255 183 255 
178 178 178 
86 86 86 
255 199 199 
255 202 236 
255 230 255 
255 167 212 
255 98 98 
86 86 86 
255 142 255 
255 255 255 
67 67 215 
255 253 255 
171 171 255 
255 255 255 
255 228 255 
171 123 123 
118 118 118 
142 142 255 
255 255 255 
184 67 140 
255 127 170 
215 181 181 
255 127 184 
241 96 231 
255 190 236 
204 99 225 
175 128 175 
255 84 255 
233 28 92 
255 135 255 
255 119 138 
255 255 255 
255 255 255 
147 58 255 
189 189 255 
174 156 255 
255 255 255 
185 47 150 
255 206 255 
255 171 171 
255 190 190 
153 93 93 
227 195 195 
255 204 241 
230 230 230 
144 76 218 
255 88 255 
255 241 255 
255 255 255 
190 190 255 
93 93 153 
255 255 255 
255 235 255 
255 255 255 
255 255 255 
248 147 255 
255 119 196 
67 67 215 
255 255 255 
255 255 255 
255 255 255 
145 145 187 
255 32 103 
250 152 152 
255 204 255 
255 210 255 
255 127 255 
255 164 237 
255 255 255 
255 203 255 
255 159 255 
0 0 0 
207 160 229 
255 185 255 
140 140 140 
81 58 188 
41 41 132 
255 255 255 
149 149 222 
255 114 129 
148 85 248 
41 41 132 
255 255 255 
81 58 188 
253 58 164 
85 85 255 
255 152 249 
255 53 205 
145 77 220 
166 115 255 
255 147 255 
248 98 255 
193 193 193 
255 255 255 
250 152 152 
255 116 171 
240 96 240 
193 193 193 
0 0 0 
156 77 145 
56 56 180 
52 52 255 
255 237 255 
118 115 255 
106 77 255 
255 255 255 
151 141 151 
0 0 0 
155 145 194 
255 255 255 
149 149 222 
145 145 187 
255 255 255 
254 21 210 
201 201 255 
255 202 255 
255 255 255 
255 149 255 
255 255 255 
236 81 172 
255 49 142 
172 64 172 
255 108 142 
180 56 56 
255 121 135 
255 73 162 
255 109 173 
255 92 92 
255 255 255 
132 41 41 
255 237 255 
255 32 32 
240 74 129 
255 255 255 
255 84 84 
246 155 218 
255 113 255 
255 174 174 
187 145 145 
255 255 255 
255 255 255 
255 97 112 
255 82 255 
198 160 236 
255 62 126 
255 103 255 
0 0 0 
255 255 255 
255 255 255 
255 255 255 
187 145 145 
255 201 255 
0 0 0 
255 249 255 
140 140 140 
201 153 153 
101 71 255 
255 158 158 
248 206 255 
217 67 67 
255 120 120 
255 199 236 
255 210 255 
255 255 255 
143 44 73 
255 255 255 
255 207 210 
194 145 155 
173 173 255 
255 197 255 
132 41 41 
255 255 255 
132 41 41 
178 122 255 
246 76 76 
255 106 255 
255 223 255 
200 163 255 
255 159 255 
255 145 255 
102 32 102 
181 56 255 
255 205 255 
255 121 255 
255 170 214 
154 78 224 
207 122 255 
255 183 255 
255 192 237 
255 255 255 
255 112 174 
192 152 255 
255 161 239 
255 255 255 
223 150 150 
241 117 117 
255 210 255 
86 86 86 
255 255 255 
255 220 255 
255 210 210 
255 255 255 
241 117 117 
255 159 254 
255 255 255 
140 140 140 
187 146 146 
255 255 255 
246 184 184 
255 192 224 
153 153 201 
255 252 255 
255 123 255 
255 232 241 
62 19 62 
255 218 255 
246 76 76 
255 104 188 
255 255 255 
255 255 255 
142 19 202 
255 127 240 
183 126 255 
221 112 177 
255 168 168 
255 173 185 
255 116 171 
179 97 134 
255 199 205 
255 171 255 
202 101 132 
145 145 187 
255 255 255 
255 139 139 
255 103 103 
255 229 255 
223 150 150 
240 240 255 
255 177 184 
255 255 255 
255 195 255 
86 86 86 
255 188 255 
255 255 255 
255 255 255 
255 255 255 
255 255 255 
86 86 86 
255 198 245 
228 128 179 
255 255 255 
255 177 219 
255 211 219 
255 129 255 
86 86 86 
0 0 0 
255 255 255 
255 192 255 
249 141 255 
236 159 255 
255 142 152 
255 255 255 
255 255 255 
219 112 131 
255 159 223 
159 83 255 
165 165 202 
255 255 255 
255 141 252 
255 255 255 
245 217 255 
185 185 255 
255 127 174 
212 212 255 
255 210 255 
159 118 121 
255 131 177 
211 102 215 
255 255 255 
255 255 255 
255 255 255 
255 199 199 
118 86 146 
255 238 255 
255 255 255 
142 142 142 
255 117 173 
255 205 255 
132 41 41 
255 181 255 
255 255 255 
161 161 161 
255 250 255 
135 135 255 
212 167 255 
255 255 255 
255 249 255 
255 255 255 
196 196 228 
187 107 168 
255 174 255 
255 255 255 
157 100 157 
255 255 255 
162 56 200 
199 133 255 
156 77 145 
41 41 132 
255 255 255 
215 171 171 
255 212 255 
255 187 247 
212 83 241 
255 255 255 
255 104 255 
181 181 255 
255 255 255 
255 255 255 
255 251 255 
255 152 255 
255 184 239 
255 255 255 
204 167 255 
129 89 255 
255 156 255 
243 139 255 
255 247 255 
86 86 86 
250 152 152 
255 155 231 
255 255 255 
255 229 255 
255 198 198 
255 47 141 
255 94 255 
186 148 220 
255 153 190 
67 67 215 
132 126 255 
249 139 255 
255 255 255 
255 148 255 
177 177 255 
255 255 255 
255 150 255 
0 0 0 
171 116 255 
164 164 201 
73 32 103 
140 67 184 
255 207 255 
183 125 255 
255 248 255 
255 74 186 
62 19 62 
255 255 255 
238 117 255 
255 255 255 
67 67 217 
67 67 215 
224 224 255 
255 255 255 
255 218 255 
255 255 255 
255 176 211 
255 195 227 
172 93 229 
255 121 255 
230 230 230 
255 146 146 
0 0 0 
0 0 0 
236 236 255 
182 158 255 
204 156 195 
222 216 255 
76 76 246 
255 139 243 
255 226 231 
255 182 255 
255 255 255 
255 96 224 
255 255 255 
255 117 255 
255 151 176 
255 189 189 
255 47 206 
255 195 255 
178 144 255 
255 127 255 
255 135 255 
208 64 124 
255 255 255 
255 141 255 
255 104 146 
255 192 192 
255 185 185 
255 207 255 
255 90 138 
255 238 255 
255 76 154 
255 171 255 
255 104 255 
255 255 255 
210 112 255 
62 19 62 
255 148 157 
255 223 255 
255 243 243 
217 67 67 
255 255 255 
217 67 67 
255 159 216 
255 249 249 
213 57 101 
0 0 0 
255 116 254 
255 129 129 
234 204 241 
179 155 211 
147 58 147 
255 239 255 
255 255 255 
255 153 158 
255 156 156 
255 136 153 
255 165 255 
255 157 255 
232 57 72 
255 255 255 
255 86 122 
255 255 255 
255 255 255 
255 255 255 
255 81 124 
140 140 140 
100 88 255 
255 255 255 
194 145 155 
255 226 255 
167 117 254 
255 92 92 
231 152 255 
255 185 255 
255 182 255 
255 255 255 
255 214 236 
153 93 93 
255 233 255 
255 229 255 
218 218 255 
255 144 255 
142 142 142 
255 255 255 
255 255 255 
255 158 160 
255 175 175 
255 255 255 
231 178 180 
255 236 255 
255 188 228 
212 167 190 
232 232 232 
255 144 144 
191 88 219 
255 219 247 
255 255 255 
231 200 231 
255 182 191 
255 255 255 
231 198 255 
255 255 255 
167 154 244 
187 187 227 
255 210 213 
255 242 245 
213 149 213 
255 192 255 
255 255 255 
255 231 255 
255 255 255 
255 255 255 
175 175 246 
255 255 255 
255 149 190 
255 255 255 
188 188 255 
255 255 255 
255 255 255 
255 249 255 
255 255 255 
250 234 250 
255 211 219 
255 220 255 
255 184 225 
255 252 255 
255 233 233 
255 190 190 
255 218 255 
255 255 255 
240 235 255 
165 165 202 
255 169 255 
255 170 255 
252 252 252 
255 255 255 
255 235 235 
255 149 255 
255 184 255 
255 172 172 
255 149 149 
255 255 255 
255 250 255 
255 121 121 
210 210 239 
119 119 255 
255 255 255 
255 180 255 
255 202 248 
255 255 255 
255 224 255 
255 228 255 
255 255 255 
255 255 255 
255 219 247 
255 253 255 
255 156 156 
255 246 246 
255 255 255 
202 154 154 
242 153 241 
181 181 215 
62 43 199 
255 255 255 
255 201 255 
255 235 255 
255 115 147 
118 118 118 
220 187 248 
255 162 162 
255 255 255 
255 205 255 
255 255 255 
255 237 255 
255 172 255 
255 193 255 
255 255 255 
255 205 205 
255 255 255 
255 255 255 
240 198 249 
186 137 215 
255 255 255 
224 224 255 
255 170 197 
248 191 241 
255 205 240 
244 244 255 
250 245 250 
255 255 255 
255 238 255 
255 255 255 
255 243 255 
251 192 255 
255 170 255 
198 151 198 
232 175 221 
253 212 255 
255 255 255 
200 152 255 
175 87 96 
132 41 41 
255 160 210 
255 109 109 
255 194 255 
255 154 255 
166 93 221 
187 145 145 
145 100 200 
255 223 251 
255 107 255 
255 255 255 
255 227 255 
255 181 228 
255 215 255 
52 52 255 
41 41 132 
203 194 214 
100 100 196 
195 77 77 
172 93 229 
193 193 193 
255 160 255 
67 67 153 
255 179 255 
250 152 152 
255 255 255 
196 103 255 
255 255 255 
76 76 246 
255 242 255 
108 50 162 
255 255 255 
255 255 255 
160 160 255 
255 151 255 
201 153 153 
153 67 67 
255 187 255 
108 50 162 
56 56 180 
255 180 181 
56 56 180 
255 255 255 
215 67 67 
41 41 132 
255 225 255 
241 105 255 
255 76 255 
103 87 103 
255 134 255 
255 189 255 
255 171 255 
191 184 255 
163 163 255 
255 180 255 
238 81 255 
255 214 255 
67 67 215 
182 90 255 
255 255 255 
255 140 255 
73 44 143 
201 58 201 
255 95 255 
255 199 255 
236 125 255 
255 123 184 
255 90 255 
255 225 255 
255 232 232 
255 249 255 
255 237 255 
255 86 149 
255 40 40 
255 177 240 
187 145 145 
255 255 255 
255 210 210 
255 176 185 
195 77 77 
255 255 255 
132 41 41 
230 230 230 
255 244 255 
255 162 255 
255 206 255 
255 107 214 
255 255 255 
216 182 255 
255 162 255 
255 198 198 
255 207 207 
77 77 195 
241 152 255 
255 80 172 
89 69 162 
255 65 149 
255 255 255 
218 76 144 
0 0 0 
255 119 253 
255 135 255 
81 68 212 
255 182 247 
255 120 255 
255 255 255 
255 103 119 
255 255 255 
255 184 184 
255 255 255 
255 123 255 
252 153 153 
255 77 255 
240 151 162 
255 255 255 
255 99 255 
255 226 255 
255 243 243 
255 255 255 
255 175 255 
255 52 52 
153 93 93 
255 31 31 
255 79 186 
255 174 174 
255 209 255 
255 176 230 
255 112 114 
132 41 41 
255 187 187 
255 226 226 
255 239 255 
241 178 255 
255 255 255 
255 255 255 
255 255 255 
255 255 255 
255 255 255 
255 255 255 
255 255 255 
255 255 255 
255 255 255 
255 255 255 
255 255 255 
255 255 255 
255 255 255 
255 255 255 
255 255 255 
255 255 255 
255 255 255 
255 255 255 
255 255 255 
255 255 255 
255 255 255 
255 255 255 
255 255 255 
255 255 255 
255 255 255 
255 255 255 
255 255 255 
255 255 255 
255 255 255 
255 255 255 
255 255 255 
255 255 255 
255 255 255 
255 255 255 
255 255 255 
255 255 255 
255 255 255 
255 255 255 
255 255 255 
255 255 255 
255 255 255 
255 255 255 
255 255 255 
255 255 255 
255 255 255 
255 255 255 
255 255 255 
255 255 255 
255 255 255 
255 255 255 
255 255 255 
255 255 255 
255 255 255 
255 255 255 
255 255 255 
255 255 255 
255 255 255 
255 255 255 
255 255 255 
255 255 255 
255 255 255 
255 255 255 
255 255 255 
255 249 255 
255 255 255 
255 255 255 
255 255 255 
255 255 255 
255 255 255 
255 255 255 
255 255 255 
255 255 255 
255 255 255 
255 255 255 
255 255 255 
255 255 255 
255 255 255 
255 255 255 
255 255 255 
255 255 255 
255 255 255 
255 255 255 
255 255 255 
255 255 255 
255 255 255 
255 255 255 
255 255 255 
255 255 255 
255 255 255 
255 255 255 
255 255 255 
255 255 255 
255 255 255 
255 255 255 
255 255 255 
255 255 255 
255 255 255 
255 255 255 
255 255 255 
255 255 255 
255 255 255 
255 255 255 
255 255 255 
255 255 255 
255 255 255 
255 255 255 
255 255 255 
255 255 255 
255 255 255 
255 255 255 
255 255 255 
255 255 255 
255 255 255 
255 255 255 
255 255 255 
255 255 255 
253 226 253 
255 255 255 
251 185 255 
255 251 255 
118 118 118 
255 255 255 
255 255 255 
255 237 255 
187 145 145 
86 86 86 
136 56 136 
255 255 255 
255 255 255 
201 153 153 
255 118 255 
173 159 255 
255 118 190 
230 190 255 
102 32 102 
88 46 255 
201 153 153 
0 0 0 
255 118 255 
181 78 255 
190 149 190 
255 154 246 
93 93 153 
255 255 255 
255 255 255 
255 166 255 
41 41 132 
180 122 255 
255 9 153 
201 153 153 
222 109 255 
255 149 255 
255 255 255 
255 196 255 
255 186 255 
160 85 190 
255 255 255 
255 170 255 
147 58 147 
255 255 255 
145 145 187 
79 67 220 
215 67 67 
255 166 255 
170 105 255 
255 255 255 
225 104 255 
255 255 255 
56 56 180 
255 255 255 
193 180 255 
235 105 255 
255 188 255 
255 198 255 
234 234 255 
255 199 255 
255 239 255 
207 160 229 
93 93 255 
255 153 255 
255 140 255 
255 166 196 
56 56 180 
189 96 233 
67 67 215 
152 92 255 
255 255 255 
255 255 255 
255 197 197 
255 109 255 
164 92 164 
255 109 109 
255 212 255 
255 160 160 
255 241 241 
102 32 102 
113 44 255 
255 183 183 
247 77 143 
255 255 255 
62 19 62 
255 154 255 
200 77 104 
255 204 204 
248 77 255 
255 120 255 
255 117 179 
255 137 164 
184 67 140 
255 109 109 
255 50 134 
255 255 255 
255 192 255 
255 116 131 
175 69 113 
255 255 255 
255 255 255 
173 82 169 
255 119 255 
205 58 137 
255 197 255 
255 208 255 
255 184 234 
255 69 238 
255 92 255 
255 143 143 
255 19 44 
255 125 239 
255 255 255 
162 50 108 
255 232 232 
255 152 183 
196 100 100 
255 255 255 
255 184 223 
255 255 255 
255 211 250 
255 246 255 
208 147 158 
255 69 69 
255 95 255 
255 255 255 
255 255 255 
208 64 124 
228 106 106 
239 209 209 
255 101 185 
67 67 153 
212 168 255 
255 117 167 
223 150 150 
255 179 179 
109 94 255 
174 174 255 
255 255 255 
255 255 255 
255 255 255 
255 255 255 
255 255 255 
255 255 255 
255 255 255 
255 255 255 
255 255 255 
255 255 255 
255 255 255 
255 255 255 
255 255 255 
255 255 255 
255 255 255 
255 255 255 
255 255 255 
255 255 255 
255 255 255 
255 255 255 
255 255 255 
255 255 255 
255 255 255 
255 255 255 
255 255 255 
255 255 255 
255 255 255 
255 255 255 
255 255 255 
255 255 255 
255 255 255 
255 255 255 
255 255 255 
255 255 255 
255 255 255 
255 255 255 
255 255 255 
255 255 255 
255 255 255 
255 255 255 
255 255 255 
255 255 255 
255 255 255 
255 255 255 
255 255 255 
255 255 255 
255 255 255 
255 255 255 
255 255 255 
255 255 255 
255 255 255 
255 255 255 
255 255 255 
255 255 255 
255 255 255 
255 255 255 
255 255 255 
255 255 255 
255 255 255 
255 255 255 
255 255 255 
255 255 255 
255 255 255 
255 255 255 
255 255 255 
255 255 255 
255 255 255 
255 255 255 
255 255 255 
255 255 255 
255 255 255 
255 255 255 
255 255 255 
255 255 255 
255 255 255 
255 255 255 
255 255 255 
255 255 255 
255 255 255 
255 255 255 
255 255 255 
255 255 255 
255 255 255 
255 255 255 
255 255 255 
255 255 255 
255 255 255 
255 255 255 
255 255 255 
255 255 255 
255 255 255 
255 255 255 
255 255 255 
255 255 255 
255 255 255 
255 255 255 
255 255 255 
255 255 255 
255 255 255 
255 255 255 
255 255 255 
255 255 255 
255 255 255 
255 255 255 
255 255 255 
255 255 255 
255 255 255 
255 255 255 
255 255 255 
255 255 255 
255 255 255 
255 255 255 
255 255 255 
255 255 255 
255 255 255 
255 255 255 
255 255 255 
255 255 255 
255 255 255 
255 255 255 
240 240 255 
237 237 255 
255 255 255 
216 126 255 
221 221 255 
255 154 255 
85 85 255 
255 234 234 
255 71 255 
255 255 255 
0 0 0 
255 82 255 
149 118 255 
255 252 255 
255 116 255 
255 255 255 
174 74 239 
195 195 227 
223 102 255 
255 241 255 
145 145 187 
201 163 255 
255 255 255 
230 97 255 
166 115 255 
238 76 255 
255 245 255 
0 0 0 
255 201 201 
255 255 255 
153 67 67 
185 89 211 
255 160 255 
255 197 255 
255 254 255 
255 238 255 
157 15 49 
255 214 255 
255 160 255 
67 67 215 
203 194 214 
255 255 255 
49 15 111 
201 153 153 
255 255 255 
255 213 255 
255 255 255 
255 255 255 
255 255 255 
217 111 174 
255 129 232 
255 255 255 
191 63 115 
198 70 190 
221 188 255 
255 92 252 
214 180 255 
255 117 255 
175 114 255 
125 125 255 
85 85 229 
255 143 255 
255 255 255 
187 145 145 
98 51 255 
196 145 255 
106 71 230 
255 244 255 
255 89 89 
255 109 240 
222 149 149 
255 255 255 
255 128 200 
80 25 182 
136 56 136 
255 69 151 
255 164 207 
255 204 204 
255 255 255 
217 67 67 
255 39 82 
255 154 255 
255 207 252 
67 67 153 
255 255 255 
255 110 110 
255 68 83 
132 41 41 
255 197 197 
180 56 56 
255 255 255 
255 156 231 
233 72 255 
255 249 255 
255 255 255 
255 112 133 
255 92 163 
208 82 197 
255 255 255 
255 115 147 
255 101 207 
255 93 160 
222 149 149 
234 156 156 
255 228 255 
255 255 255 
255 125 173 
255 255 255 
255 255 255 
255 94 94 
255 237 255 
201 146 164 
255 207 255 
255 60 137 
255 191 255 
223 92 163 
255 186 186 
255 41 52 
255 255 255 
220 77 145 
255 198 255 
255 201 219 
255 163 210 
255 218 255 
255 149 255 
255 144 144 
255 185 218 
213 77 81 
255 103 169 
255 222 255 
41 41 132 
224 92 223 
255 255 255 
255 111 111 
209 174 217 
255 183 183 
255 255 255 
255 255 255 
255 255 255 
255 255 255 
255 255 255 
255 255 255 
255 255 255 
255 255 255 
255 255 255 
255 255 255 
255 255 255 
255 255 255 
255 255 255 
255 255 255 
255 255 255 
255 255 255 
255 255 255 
255 255 255 
255 255 255 
255 255 255 
255 255 255 
255 255 255 
255 255 255 
255 255 255 
255 255 255 
255 255 255 
255 255 255 
255 255 255 
255 255 255 
255 255 255 
255 255 255 
255 255 255 
255 255 255 
255 255 255 
255 255 255 
255 255 255 
255 255 255 
255 255 255 
255 255 255 
255 255 255 
255 255 255 
255 255 255 
255 255 255 
255 255 255 
255 255 255 
255 255 255 
255 255 255 
255 255 255 
255 255 255 
255 255 255 
255 255 255 
255 255 255 
255 255 255 
255 255 255 
255 255 255 
255 255 255 
255 255 255 
255 255 255 
255 255 255 
255 255 255 
255 255 255 
255 255 255 
255 255 255 
255 255 255 
255 255 255 
255 255 255 
255 255 255 
255 255 255 
255 255 255 
255 255 255 
255 255 255 
255 255 255 
255 255 255 
255 255 255 
255 255 255 
255 255 255 
255 255 255 
255 255 255 
255 255 255 
255 255 255 
255 255 255 
255 255 255 
255 255 255 
255 255 255 
255 255 255 
255 255 255 
255 255 255 
255 255 255 
255 255 255 
255 255 255 
255 255 255 
255 255 255 
255 255 255 
255 255 255 
255 255 255 
255 255 255 
255 255 255 
255 255 255 
255 255 255 
255 255 255 
255 255 255 
255 255 255 
255 255 255 
255 255 255 
255 255 255 
255 255 255 
255 255 255 
255 255 255 
255 255 255 
255 255 255 
255 255 255 
255 255 255 
255 255 255 
255 255 255 
255 255 255 
255 255 255 
255 255 255 
255 255 255 
255 255 255 
255 255 255 
255 255 255 
255 198 255 
255 229 255 
229 198 229 
252 98 225 
255 183 224 
167 149 255 
255 68 175 
220 104 187 
178 178 255 
255 255 255 
0 0 0 
255 63 63 
255 131 249 
182 25 80 
225 99 204 
255 255 255 
209 92 92 
220 85 189 
255 187 255 
255 181 255 
255 92 231 
41 41 132 
169 73 205 
234 234 255 
180 167 255 
255 255 255 
255 204 255 
56 56 180 
0 0 0 
132 94 255 
248 85 148 
160 85 190 
168 52 168 
255 179 179 
207 160 229 
204 167 255 
41 41 132 
255 255 255 
140 67 184 
255 127 255 
115 115 255 
208 188 255 
255 255 255 
0 0 0 
155 78 226 
177 123 255 
179 169 255 
255 235 255 
193 193 193 
41 41 132 
177 82 255 
204 156 195 
158 142 255 
182 137 255 
255 53 255 
198 198 255 
50 50 255 
255 255 255 
255 103 248 
255 255 255 
255 210 255 
174 111 255 
217 73 241 
255 147 255 
202 202 255 
179 148 179 
255 232 232 
132 41 41 
218 47 88 
255 255 255 
255 117 255 
255 255 255 
214 90 255 
222 159 255 
255 255 255 
143 44 73 
245 76 255 
232 232 232 
255 255 255 
187 145 145 
255 82 124 
255 106 106 
255 148 194 
134 50 236 
255 125 255 
255 211 233 
255 132 255 
255 233 255 
255 247 255 
255 239 255 
255 72 255 
255 255 255 
255 255 255 
255 122 172 
216 90 255 
255 148 157 
255 208 210 
255 229 255 
255 243 255 
255 255 255 
255 67 152 
255 246 255 
218 76 255 
255 255 255 
255 107 215 
245 140 255 
255 46 255 
255 177 219 
197 197 255 
193 92 201 
252 156 195 
247 77 77 
255 172 246 
255 227 255 
224 149 211 
255 164 187 
255 255 255 
255 196 196 
255 211 255 
67 67 153 
0 0 0 
255 255 255 
246 76 76 
255 218 255 
140 140 140 
255 199 225 
255 242 255 
255 154 255 
215 215 255 
255 163 245 
255 141 141 
255 195 234 
255 206 255 
214 166 238 
255 255 255 
255 235 235 
255 255 255 
255 255 255 
255 255 255 
255 255 255 
255 255 255 
255 255 255 
255 255 255 
255 255 255 
255 255 255 
255 255 255 
255 255 255 
255 255 255 
255 255 255 
255 255 255 
255 255 255 
255 255 255 
255 255 255 
255 255 255 
255 255 255 
255 255 255 
255 255 255 
255 255 255 
255 255 255 
255 255 255 
255 255 255 
255 255 255 
255 255 255 
255 255 255 
255 255 255 
255 255 255 
255 255 255 
255 255 255 
255 255 255 
255 255 255 
255 255 255 
255 255 255 
255 255 255 
255 255 255 
255 255 255 
255 255 255 
255 255 255 
255 255 255 
255 255 255 
255 255 255 
255 255 255 
255 255 255 
255 255 255 
255 255 255 
255 255 255 
255 255 255 
255 255 255 
255 255 255 
255 255 255 
255 255 255 
255 255 255 
255 255 255 
255 255 255 
255 255 255 
255 255 255 
255 255 255 
255 255 255 
255 255 255 
255 255 255 
255 255 255 
255 255 255 
255 255 255 
255 255 255 
255 255 255 
255 255 255 
255 255 255 
255 255 255 
255 255 255 
255 255 255 
255 255 255 
255 255 255 
255 255 255 
255 255 255 
255 255 255 
255 255 255 
255 255 255 
255 255 255 
255 255 255 
255 255 255 
255 255 255 
255 255 255 
255 255 255 
255 255 255 
255 255 255 
255 255 255 
255 255 255 
255 255 255 
255 255 255 
255 255 255 
255 255 255 
255 255 255 
255 255 255 
255 255 255 
255 255 255 
255 255 255 
255 255 255 
255 255 255 
255 255 255 
255 255 255 
255 255 255 
255 255 255 
255 255 255 
255 255 255 
255 255 255 
255 255 255 
255 255 255 
255 255 255 
255 255 255 
255 255 255 
255 255 255 
255 255 255 
255 255 255 
255 255 255 
255 255 255 
255 255 255 
200 200 255 
255 200 255 
255 152 245 
207 207 207 
147 58 147 
255 255 255 
255 184 255 
255 243 255 
129 35 112 
255 255 255 
255 242 255 
255 197 255 
255 255 255 
255 192 255 
255 255 255 
255 255 255 
92 92 255 
255 124 229 
255 220 255 
255 160 255 
255 255 255 
191 31 82 
255 120 255 
255 179 255 
255 121 170 
192 152 255 
255 203 255 
255 250 255 
216 164 216 
188 188 255 
252 148 255 
255 255 255 
255 83 189 
255 56 255 
176 176 255 
255 71 255 
217 174 255 
255 255 255 
255 73 120 
255 99 156 
208 112 255 
255 81 255 
255 255 255 
255 255 255 
255 173 255 
191 191 255 
255 142 210 
255 250 255 
224 127 255 
255 255 255 
233 195 255 
255 186 219 
133 83 255 
214 171 255 
255 129 201 
255 157 202 
255 185 246 
156 77 145 
255 139 255 
201 201 255 
255 255 255 
165 157 255 
163 163 255 
141 47 255 
81 58 188 
255 255 255 
255 138 255 
255 131 255 
255 69 153 
255 161 205 
255 176 218 
255 102 145 
255 191 227 
255 83 136 
255 94 200 
255 93 93 
255 206 206 
255 198 255 
255 145 176 
151 141 151 
67 67 153 
255 99 99 
255 131 255 
255 102 226 
254 234 255 
255 255 255 
255 255 255 
255 130 255 
255 147 172 
187 145 145 
255 111 255 
41 41 132 
255 255 255 
255 110 117 
255 100 165 
255 119 255 
255 86 141 
152 56 144 
255 178 230 
255 255 255 
255 170 255 
255 197 235 
255 255 255 
255 164 164 
255 255 255 
255 81 236 
255 255 255 
255 102 145 
131 40 255 
255 211 255 
255 193 232 
180 56 56 
41 41 132 
255 99 255 
0 0 0 
255 255 255 
255 168 190 
246 89 129 
255 252 255 
255 167 255 
255 255 255 
244 197 255 
255 177 189 
132 41 41 
255 237 255 
255 194 194 
255 255 255 
255 255 255 
255 165 255 
255 185 185 
208 80 147 
255 160 217 
255 236 255 
255 207 255 
255 161 161 
255 202 255 
255 226 255 
255 255 255 
255 255 255 
255 255 255 
255 255 255 
255 255 255 
255 255 255 
255 255 255 
255 255 255 
255 255 255 
255 255 255 
255 255 255 
255 255 255 
255 255 255 
255 255 255 
255 255 255 
255 255 255 
255 255 255 
255 255 255 
255 255 255 
255 255 255 
255 255 255 
255 255 255 
255 255 255 
255 255 255 
255 255 255 
255 255 255 
255 255 255 
255 255 255 
255 255 255 
255 255 255 
255 255 255 
255 255 255 
255 255 255 
255 255 255 
255 255 255 
255 255 255 
255 255 255 
255 255 255 
255 255 255 
255 255 255 
255 255 255 
255 255 255 
255 255 255 
255 255 255 
255 255 255 
255 255 255 
255 255 255 
255 255 255 
255 255 255 
255 255 255 
255 255 255 
255 255 255 
255 255 255 
255 255 255 
255 255 255 
255 255 255 
255 255 255 
255 255 255 
255 255 255 
255 255 255 
255 255 255 
255 255 255 
255 255 255 
255 255 255 
255 255 255 
255 255 255 
255 255 255 
255 255 255 
255 255 255 
255 255 255 
255 255 255 
255 255 255 
255 255 255 
255 255 255 
255 255 255 
255 255 255 
255 255 255 
255 255 255 
255 255 255 
255 255 255 
255 255 255 
255 255 255 
255 255 255 
255 255 255 
255 255 255 
255 255 255 
255 255 255 
255 255 255 
255 255 255 
255 255 255 
255 255 255 
255 255 255 
255 255 255 
255 255 255 
255 255 255 
255 255 255 
255 255 255 
255 255 255 
255 255 255 
255 255 255 
255 255 255 
255 255 255 
255 255 255 
255 255 255 
255 255 255 
255 255 255 
255 255 255 
255 255 255 
255 255 255 
255 255 255 
255 255 255 
255 255 255 
255 255 255 
255 255 255 
255 255 255 
255 255 255 
255 255 255 
255 255 255 
255 196 255 
255 121 121 
185 185 255 
255 162 255 
212 177 255 
56 56 180 
197 147 173 
255 240 255 
41 41 132 
210 157 226 
255 205 255 
255 236 255 
246 203 255 
112 104 255 
108 50 255 
255 255 255 
255 165 255 
250 250 255 
167 157 255 
255 68 255 
255 160 255 
255 115 255 
250 92 192 
255 177 255 
255 255 255 
255 155 255 
201 164 164 
255 168 255 
234 120 255 
255 255 255 
140 140 140 
255 157 255 
255 255 255 
56 56 180 
169 161 255 
226 162 246 
41 41 132 
145 145 187 
255 255 255 
153 67 67 
255 255 255 
255 143 255 
255 255 255 
85 85 229 
255 112 255 
255 164 255 
73 32 103 
63 63 255 
109 50 147 
255 253 255 
76 76 246 
213 194 255 
140 67 184 
255 143 169 
73 44 143 
255 255 255 
255 255 255 
207 172 255 
211 147 255 
204 184 255 
147 147 255 
149 149 255 
122 95 255 
255 227 255 
255 255 255 
41 41 132 
255 208 255 
255 255 255 
255 96 255 
153 153 201 
160 51 255 
255 65 255 
255 254 255 
255 100 176 
255 105 255 
132 41 41 
255 164 187 
255 146 255 
255 93 132 
255 255 255 
255 73 73 
255 195 233 
255 158 182 
132 41 41 
152 152 250 
224 153 193 
215 67 67 
255 186 255 
255 205 255 
255 255 255 
255 142 152 
255 175 255 
255 255 255 
255 211 255 
224 75 255 
132 41 41 
255 244 255 
255 255 255 
255 185 255 
255 235 244 
255 83 178 
255 85 85 
255 255 255 
208 64 124 
255 152 246 
255 186 255 
255 19 44 
255 115 255 
0 0 0 
239 156 255 
255 182 255 
226 149 210 
255 255 255 
132 41 41 
0 0 0 
239 141 194 
255 87 176 
196 175 255 
255 91 122 
255 96 255 
255 214 250 
255 133 255 
255 255 255 
203 63 114 
255 255 255 
255 227 255 
255 138 255 
255 255 255 
110 110 250 
255 255 255 
255 220 255 
255 166 255 
204 117 178 
255 255 255 
216 163 216 
255 255 255 
255 255 255 
255 224 255 
179 179 179 
255 255 255 
255 255 255 
255 255 255 
255 255 255 
255 255 255 
255 255 255 
255 255 255 
255 255 255 
255 255 255 
255 255 255 
255 255 255 
255 255 255 
255 255 255 
255 255 255 
255 255 255 
255 255 255 
255 255 255 
255 255 255 
255 255 255 
255 255 255 
255 255 255 
255 255 255 
255 255 255 
255 255 255 
255 255 255 
255 255 255 
255 255 255 
255 255 255 
255 255 255 
255 255 255 
255 255 255 
255 255 255 
255 255 255 
255 255 255 
255 255 255 
255 255 255 
255 255 255 
255 255 255 
255 255 255 
255 255 255 
255 255 255 
255 255 255 
255 255 255 
255 255 255 
255 255 255 
255 255 255 
255 255 255 
255 255 255 
255 255 255 
255 255 255 
255 255 255 
255 255 255 
255 255 255 
255 255 255 
255 255 255 
255 255 255 
255 255 255 
255 255 255 
255 255 255 
255 255 255 
255 255 255 
255 255 255 
255 255 255 
255 255 255 
255 255 255 
255 255 255 
255 255 255 
255 255 255 
255 255 255 
255 255 255 
255 255 255 
255 255 255 
255 255 255 
255 255 255 
255 255 255 
255 255 255 
255 255 255 
255 255 255 
255 255 255 
255 255 255 
255 255 255 
255 255 255 
255 255 255 
255 255 255 
255 255 255 
255 255 255 
255 255 255 
255 255 255 
255 255 255 
255 255 255 
255 255 255 
255 255 255 
255 255 255 
255 255 255 
255 255 255 
255 255 255 
255 255 255 
255 255 255 
255 255 255 
255 255 255 
255 255 255 
255 255 255 
255 255 255 
255 255 255 
255 255 255 
255 255 255 
255 255 255 
255 255 255 
255 255 255 
255 255 255 
255 255 255 
255 255 255 
255 255 255 
255 255 255 
255 255 255 
255 255 255 
240 240 255 
255 255 255 
196 145 196 
255 255 255 
238 231 247 
255 183 216 
255 179 179 
255 190 255 
136 136 255 
255 249 255 
255 235 255 
255 255 255 
255 179 255 
255 230 255 
255 212 255 
149 149 222 
119 115 255 
255 154 198 
255 255 255 
236 171 207 
255 255 255 
200 200 255 
96 96 255 
240 83 252 
147 141 204 
255 255 255 
255 181 255 
255 255 255 
222 85 240 
0 0 0 
172 147 208 
255 28 255 
214 105 198 
126 39 255 
211 151 211 
255 255 255 
63 63 255 
182 82 172 
205 169 255 
196 175 255 
149 149 222 
213 171 255 
216 164 216 
255 178 213 
255 189 255 
196 77 255 
255 222 222 
121 121 255 
255 255 255 
105 33 136 
255 255 255 
136 56 136 
41 41 132 
255 191 255 
255 255 255 
255 103 255 
140 67 184 
255 255 255 
239 239 255 
190 181 255 
255 203 255 
255 141 255 
255 190 255 
238 233 255 
255 135 255 
41 41 132 
201 150 232 
255 255 255 
234 218 255 
255 190 255 
208 64 124 
255 179 246 
255 101 168 
247 77 77 
180 56 56 
255 77 88 
255 255 255 
102 71 194 
255 255 255 
240 151 162 
255 82 159 
255 85 85 
217 67 67 
255 149 255 
238 188 255 
255 117 255 
255 209 255 
255 74 255 
255 212 212 
255 152 255 
255 185 217 
253 78 96 
255 237 255 
255 255 255 
255 223 255 
255 163 179 
195 156 204 
255 225 231 
255 126 255 
255 233 255 
255 255 255 
255 165 255 
192 54 171 
255 77 186 
255 255 255 
255 255 255 
255 243 243 
140 140 140 
255 121 255 
255 255 255 
132 41 41 
255 216 255 
187 145 145 
195 77 77 
255 255 255 
255 247 255 
255 255 255 
229 160 207 
190 149 190 
189 85 220 
187 145 145 
255 125 255 
255 216 233 
255 255 255 
255 139 255 
153 93 93 
223 69 127 
160 160 160 
255 252 255 
255 76 155 
255 55 111 
132 41 41 
255 203 203 
255 63 63 
255 255 255 
255 233 255 
252 193 232 
255 217 255 
255 185 243 
255 251 255 
255 246 246 
255 255 255 
255 255 255 
255 255 255 
255 255 255 
255 255 255 
255 255 255 
255 255 255 
255 255 255 
255 255 255 
255 255 255 
255 255 255 
255 255 255 
255 255 255 
255 255 255 
255 255 255 
255 255 255 
255 255 255 
255 255 255 
255 255 255 
255 255 255 
255 255 255 
255 255 255 
255 255 255 
255 255 255 
255 255 255 
255 255 255 
255 255 255 
255 255 255 
255 255 255 
255 255 255 
255 255 255 
255 255 255 
255 255 255 
255 255 255 
255 255 255 
255 255 255 
255 255 255 
255 255 255 
255 255 255 
255 255 255 
255 255 255 
255 255 255 
255 255 255 
255 255 255 
255 255 255 
255 255 255 
255 255 255 
255 255 255 
255 255 255 
255 255 255 
255 255 255 
255 255 255 
255 255 255 
255 255 255 
255 255 255 
255 255 255 
255 255 255 
255 255 255 
255 255 255 
255 255 255 
255 255 255 
255 255 255 
255 255 255 
255 255 255 
255 255 255 
255 255 255 
255 255 255 
255 255 255 
255 255 255 
255 255 255 
255 255 255 
255 255 255 
255 255 255 
255 255 255 
255 255 255 
255 255 255 
255 255 255 
255 255 255 
255 255 255 
255 255 255 
255 255 255 
255 255 255 
255 255 255 
255 255 255 
255 255 255 
255 255 255 
255 255 255 
255 255 255 
255 255 255 
255 255 255 
255 255 255 
255 255 255 
255 255 255 
255 255 255 
255 255 255 
255 255 255 
255 255 255 
255 255 255 
255 255 255 
255 255 255 
255 255 255 
255 255 255 
255 255 255 
255 255 255 
255 255 255 
255 255 255 
255 255 255 
255 255 255 
255 255 255 
255 255 255 
255 255 255 
255 255 255 
255 255 255 
255 255 255 
255 255 255 
233 233 233 
255 255 255 
255 167 255 
151 142 255 
208 153 162 
255 179 255 
56 56 180 
255 255 255 
209 111 255 
168 154 255 
255 60 187 
239 222 255 
255 187 254 
0 0 0 
204 150 227 
255 255 255 
255 255 255 
255 255 255 
161 133 255 
255 255 255 
176 176 255 
147 58 147 
255 87 203 
50 50 255 
50 50 255 
193 160 255 
255 249 255 
255 145 255 
255 255 255 
255 255 255 
215 67 67 
179 179 255 
162 153 208 
255 138 255 
255 99 255 
255 178 255 
201 186 255 
41 41 132 
255 125 125 
255 84 247 
198 198 255 
62 19 62 
140 140 140 
56 56 180 
41 41 132 
160 85 190 
145 145 187 
255 255 255 
255 255 255 
255 118 210 
204 167 255 
255 143 255 
255 99 99 
255 179 255 
49 15 111 
255 100 164 
255 255 255 
255 181 255 
153 153 252 
232 232 255 
156 156 255 
230 230 230 
222 69 89 
255 217 255 
152 99 255 
198 79 255 
184 97 255 
140 140 140 
239 164 232 
25 25 255 
255 86 255 
255 251 255 
255 255 255 
255 116 116 
243 151 215 
255 101 157 
255 145 171 
255 164 209 
193 153 224 
255 255 255 
255 176 218 
187 145 145 
255 155 179 
255 82 82 
255 164 255 
255 222 255 
255 114 195 
255 255 255 
255 169 214 
140 140 140 
255 241 255 
255 229 255 
255 230 255 
255 154 168 
255 137 166 
255 255 255 
255 149 190 
255 106 226 
255 244 255 
255 255 255 
159 112 255 
255 157 239 
255 255 255 
255 137 255 
255 157 215 
255 245 255 
255 221 255 
255 255 255 
255 217 244 
255 255 255 
255 105 170 
255 189 255 
255 206 255 
255 167 255 
255 255 255 
255 117 255 
255 90 181 
255 255 255 
255 255 255 
255 194 194 
255 82 133 
255 152 255 
255 189 208 
132 41 41 
224 92 223 
160 160 255 
237 237 255 
244 169 255 
255 169 255 
255 143 232 
255 89 235 
255 255 255 
255 234 255 
255 227 255 
255 240 255 
171 123 123 
255 157 157 
248 197 248 
255 201 255 
255 198 255 
255 162 255 
255 255 255 
255 255 255 
255 255 255 
255 255 255 
255 255 255 
255 255 255 
255 255 255 
255 255 255 
255 255 255 
255 255 255 
255 255 255 
255 255 255 
255 255 255 
255 255 255 
255 255 255 
255 255 255 
255 255 255 
255 255 255 
255 255 255 
255 255 255 
255 255 255 
255 255 255 
255 255 255 
255 255 255 
255 255 255 
255 255 255 
255 255 255 
255 255 255 
255 255 255 
255 255 255 
255 255 255 
255 255 255 
255 255 255 
255 255 255 
255 255 255 
255 255 255 
255 255 255 
255 255 255 
255 255 255 
255 255 255 
255 255 255 
255 255 255 
255 255 255 
255 255 255 
255 255 255 
255 255 255 
255 255 255 
255 255 255 
255 255 255 
255 255 255 
255 255 255 
255 255 255 
255 255 255 
255 255 255 
255 255 255 
255 255 255 
255 255 255 
255 255 255 
255 255 255 
255 255 255 
255 255 255 
255 255 255 
255 255 255 
255 255 255 
255 255 255 
255 255 255 
255 255 255 
255 255 255 
255 255 255 
255 255 255 
255 255 255 
255 255 255 
255 255 255 
255 255 255 
255 255 255 
255 255 255 
255 255 255 
255 255 255 
255 255 255 
255 255 255 
255 255 255 
255 255 255 
255 255 255 
255 255 255 
255 255 255 
255 255 255 
255 255 255 
255 255 255 
255 255 255 
255 255 255 
255 255 255 
255 255 255 
255 255 255 
255 255 255 
255 255 255 
255 255 255 
255 255 255 
255 255 255 
255 255 255 
255 255 255 
255 255 255 
255 255 255 
255 255 255 
255 255 255 
255 255 255 
255 255 255 
255 255 255 
255 255 255 
255 255 255 
255 255 255 
255 255 255 
255 255 255 
255 255 255 
255 255 255 
255 255 255 
255 255 255 
255 230 255 
255 255 255 
205 164 255 
255 226 255 
255 255 255 
160 160 160 
254 174 255 
255 142 255 
255 255 255 
143 74 255 
117 117 255 
255 122 255 
162 50 108 
255 109 255 
255 255 255 
230 208 255 
255 255 255 
187 145 145 
255 134 255 
235 164 255 
41 41 132 
255 170 255 
255 255 255 
255 93 255 
73 44 143 
255 255 255 
109 109 255 
67 67 215 
255 213 255 
156 77 145 
85 85 255 
85 85 255 
255 181 255 
124 64 208 
255 255 255 
240 231 255 
255 107 255 
140 140 140 
255 123 255 
255 148 255 
255 100 255 
255 194 255 
255 216 255 
218 76 144 
255 139 255 
255 255 255 
255 203 255 
255 210 255 
255 157 255 
255 255 255 
76 76 246 
255 117 239 
255 255 255 
255 93 255 
133 121 255 
255 120 169 
255 145 255 
255 218 255 
255 101 255 
233 211 255 
255 255 255 
255 255 255 
255 255 255 
241 197 255 
149 65 255 
255 148 219 
249 198 221 
127 86 255 
255 255 255 
255 92 209 
255 190 255 
255 255 255 
255 161 255 
255 84 255 
255 199 199 
255 145 255 
255 209 219 
255 119 249 
255 255 255 
255 107 120 
255 158 158 
222 149 149 
255 63 63 
255 100 114 
255 190 214 
255 255 255 
255 255 255 
255 255 255 
180 56 56 
157 15 49 
255 175 196 
255 255 255 
255 155 179 
255 255 255 
255 213 213 
236 170 255 
255 192 255 
255 204 204 
255 146 198 
227 75 255 
255 189 189 
255 255 255 
255 98 255 
255 177 211 
255 83 255 
255 211 255 
255 201 255 
226 155 255 
255 210 255 
255 93 93 
255 197 197 
255 163 168 
181 67 137 
217 67 67 
0 0 0 
255 161 161 
255 255 255 
255 115 250 
255 198 255 
187 145 145 
255 255 255 
255 96 246 
167 116 252 
255 73 73 
255 239 246 
86 86 86 
180 174 254 
255 57 139 
255 186 226 
255 184 184 
255 255 255 
181 181 255 
255 229 255 
255 234 255 
255 204 255 
255 179 179 
255 198 198 
164 111 255 
255 253 255 
255 232 255 
255 255 255 
255 255 255 
255 255 255 
255 255 255 
255 255 255 
255 255 255 
255 255 255 
255 255 255 
255 255 255 
255 255 255 
255 255 255 
255 255 255 
255 255 255 
255 255 255 
255 255 255 
255 255 255 
255 255 255 
255 255 255 
255 255 255 
255 255 255 
255 255 255 
255 255 255 
255 255 255 
255 255 255 
255 255 255 
255 255 255 
255 255 255 
255 255 255 
255 255 255 
255 255 255 
255 255 255 
255 255 255 
255 255 255 
255 255 255 
255 255 255 
255 255 255 
255 255 255 
255 255 255 
255 255 255 
255 255 255 
255 255 255 
255 255 255 
255 255 255 
255 255 255 
255 255 255 
255 255 255 
255 255 255 
255 255 255 
255 255 255 
255 255 255 
255 255 255 
255 255 255 
255 255 255 
255 255 255 
255 255 255 
255 255 255 
255 255 255 
255 255 255 
255 255 255 
255 255 255 
255 255 255 
255 255 255 
255 255 255 
255 255 255 
255 255 255 
255 255 255 
255 255 255 
255 255 255 
255 255 255 
255 255 255 
255 255 255 
255 255 255 
255 255 255 
255 255 255 
255 255 255 
255 255 255 
255 255 255 
255 255 255 
255 255 255 
255 255 255 
255 255 255 
255 255 255 
255 255 255 
255 255 255 
255 255 255 
255 255 255 
255 255 255 
255 255 255 
255 255 255 
255 255 255 
255 255 255 
255 255 255 
255 255 255 
255 255 255 
255 255 255 
255 255 255 
255 255 255 
255 255 255 
255 255 255 
255 255 255 
255 255 255 
255 255 255 
255 255 255 
255 255 255 
255 255 255 
255 255 255 
255 255 255 
255 255 255 
255 255 255 
255 255 255 
255 255 255 
255 255 255 
255 255 255 
255 255 255 
148 148 255 
233 233 233 
255 144 255 
255 92 255 
255 96 203 
206 180 255 
196 76 255 
160 67 255 
255 255 255 
255 255 255 
255 126 255 
255 255 255 
255 255 255 
255 255 255 
134 134 255 
225 121 255 
231 163 255 
196 71 247 
255 255 255 
255 162 255 
255 255 255 
151 151 255 
230 111 255 
255 197 255 
41 41 132 
56 56 180 
255 183 255 
255 202 255 
255 255 255 
255 153 255 
255 171 255 
255 139 255 
177 152 255 
255 86 96 
255 117 255 
96 73 255 
255 246 255 
255 122 255 
136 56 136 
255 255 255 
229 199 255 
255 255 255 
255 221 255 
255 80 255 
237 200 255 
41 41 132 
178 93 255 
255 146 252 
140 140 140 
161 141 181 
255 255 255 
203 155 255 
152 124 255 
255 242 255 
255 241 255 
200 148 255 
77 77 247 
255 155 255 
171 64 207 
207 160 229 
168 95 255 
85 85 255 
147 147 255 
108 89 255 
73 44 143 
255 163 255 
164 92 224 
255 255 255 
164 92 224 
255 197 255 
255 255 255 
212 147 212 
255 154 255 
241 167 212 
208 64 124 
255 147 147 
255 163 163 
255 160 255 
255 255 255 
255 151 151 
140 140 140 
255 134 255 
252 153 153 
255 133 177 
67 67 215 
255 242 255 
255 142 153 
255 160 160 
255 86 102 
255 98 98 
255 255 255 
140 140 140 
255 184 255 
255 65 255 
255 230 255 
255 94 133 
255 186 211 
255 90 138 
251 78 96 
255 237 255 
255 79 255 
255 185 185 
222 69 89 
227 195 195 
255 203 221 
255 203 255 
255 116 128 
255 164 255 
255 255 255 
187 145 145 
217 67 67 
255 255 255 
255 145 255 
255 154 255 
255 122 222 
255 255 255 
255 120 120 
255 90 138 
255 166 255 
255 156 253 
255 59 87 
255 106 169 
255 255 255 
255 134 255 
255 85 85 
255 255 255 
255 255 255 
255 255 255 
255 176 255 
255 166 255 
224 170 213 
0 0 0 
145 113 255 
255 137 255 
255 157 255 
255 182 255 
246 76 76 
195 116 255 
255 208 255 
255 223 226 
255 165 255 
255 142 167 
255 255 255 
255 255 255 
255 255 255 
255 255 255 
255 255 255 
255 255 255 
255 255 255 
255 255 255 
255 255 255 
255 255 255 
255 255 255 
255 255 255 
255 255 255 
255 255 255 
255 255 255 
255 255 255 
255 255 255 
255 255 255 
255 255 255 
255 255 255 
255 255 255 
255 255 255 
255 255 255 
255 255 255 
255 255 255 
255 255 255 
255 255 255 
255 255 255 
255 255 255 
255 255 255 
255 255 255 
255 255 255 
255 255 255 
255 255 255 
255 255 255 
255 255 255 
255 255 255 
255 255 255 
255 255 255 
255 255 255 
255 255 255 
255 255 255 
255 255 255 
255 255 255 
255 255 255 
255 255 255 
255 255 255 
255 255 255 
255 255 255 
255 255 255 
255 255 255 
255 255 255 
255 255 255 
255 255 255 
255 255 255 
255 255 255 
255 255 255 
255 255 255 
255 255 255 
255 255 255 
255 255 255 
255 255 255 
255 255 255 
255 255 255 
255 255 255 
255 255 255 
255 255 255 
255 255 255 
255 255 255 
255 255 255 
255 255 255 
255 255 255 
255 255 255 
255 255 255 
255 255 255 
255 255 255 
255 255 255 
255 255 255 
255 255 255 
255 255 255 
255 255 255 
255 255 255 
255 255 255 
255 255 255 
255 255 255 
255 255 255 
255 255 255 
255 255 255 
255 255 255 
255 255 255 
255 255 255 
255 255 255 
255 255 255 
255 255 255 
255 255 255 
255 255 255 
255 255 255 
255 255 255 
255 255 255 
255 255 255 
255 255 255 
255 255 255 
255 255 255 
255 255 255 
255 255 255 
255 255 255 
255 255 255 
255 255 255 
255 255 255 
255 255 255 
255 255 255 
255 255 255 
255 255 255 
194 194 194 
255 227 255 
255 255 255 
241 241 241 
255 255 255 
140 140 140 
130 119 130 
255 198 255 
255 155 255 
106 91 255 
255 225 255 
255 77 111 
140 140 140 
255 255 255 
255 255 255 
237 237 255 
167 99 252 
148 85 248 
114 63 203 
255 211 255 
255 255 255 
255 255 255 
255 101 255 
255 156 195 
255 125 255 
153 67 67 
255 255 255 
255 168 255 
255 144 255 
255 255 255 
255 138 242 
255 255 255 
251 191 255 
136 84 255 
255 255 255 
0 0 0 
184 97 255 
255 184 255 
183 152 255 
255 109 109 
255 229 255 
153 146 255 
255 168 255 
156 156 234 
255 255 255 
248 85 148 
255 255 255 
255 66 255 
255 255 255 
218 76 144 
73 32 103 
255 128 227 
255 125 255 
206 157 244 
144 76 255 
255 69 255 
255 190 255 
230 67 185 
255 180 255 
255 255 255 
255 255 255 
233 118 255 
255 255 255 
185 89 211 
255 191 255 
56 56 180 
255 167 255 
255 255 255 
255 255 255 
255 244 255 
255 255 255 
219 130 255 
255 161 207 
255 255 255 
255 90 138 
255 255 255 
255 81 255 
255 106 233 
255 245 255 
255 121 121 
255 255 255 
255 108 185 
255 100 114 
255 136 255 
255 193 232 
255 255 255 
255 229 255 
255 248 251 
255 255 255 
180 56 56 
255 91 163 
255 143 143 
136 56 136 
255 255 255 
255 217 255 
255 218 255 
255 175 255 
169 143 169 
255 211 255 
255 255 255 
255 160 255 
255 150 157 
255 216 219 
255 154 154 
255 128 255 
255 237 255 
255 211 247 
255 255 255 
228 158 255 
255 103 255 
255 255 255 
0 0 0 
255 160 160 
193 193 193 
255 186 255 
255 120 255 
255 255 255 
255 84 148 
255 255 255 
255 255 255 
255 255 255 
255 255 255 
255 240 255 
255 255 255 
255 200 255 
255 105 255 
255 209 245 
255 255 255 
255 122 255 
255 255 255 
255 213 231 
255 255 255 
255 131 255 
255 224 255 
255 152 200 
255 227 227 
255 163 238 
206 102 195 
255 189 255 
160 93 255 
255 255 255 
255 187 227 
255 255 255 
190 146 209 
255 255 255 
255 255 255 
255 255 255 
255 255 255 
255 255 255 
255 255 255 
255 255 255 
255 255 255 
255 255 255 
255 255 255 
255 255 255 
255 255 255 
255 255 255 
255 255 255 
255 255 255 
255 255 255 
255 255 255 
255 255 255 
255 255 255 
255 255 255 
255 255 255 
255 255 255 
255 255 255 
255 255 255 
255 255 255 
255 255 255 
255 255 255 
255 255 255 
255 255 255 
255 255 255 
255 255 255 
255 255 255 
255 255 255 
255 255 255 
255 255 255 
255 255 255 
255 255 255 
255 255 255 
255 255 255 
255 255 255 
255 255 255 
255 255 255 
255 255 255 
255 255 255 
255 255 255 
255 255 255 
255 255 255 
255 255 255 
255 255 255 
255 255 255 
255 255 255 
255 255 255 
255 255 255 
255 255 255 
255 255 255 
255 255 255 
255 255 255 
255 255 255 
255 255 255 
255 255 255 
255 255 255 
255 255 255 
255 255 255 
255 255 255 
255 255 255 
255 255 255 
255 255 255 
255 255 255 
255 255 255 
255 255 255 
255 255 255 
255 255 255 
255 255 255 
255 255 255 
255 255 255 
255 255 255 
255 255 255 
255 255 255 
255 255 255 
255 255 255 
255 255 255 
255 255 255 
255 255 255 
255 255 255 
255 255 255 
255 255 255 
255 255 255 
255 255 255 
255 255 255 
255 255 255 
255 255 255 
255 255 255 
255 255 255 
255 255 255 
255 255 255 
255 255 255 
255 255 255 
255 255 255 
255 255 255 
255 255 255 
255 255 255 
255 255 255 
255 255 255 
255 255 255 
255 255 255 
255 255 255 
255 255 255 
255 255 255 
255 255 255 
255 255 255 
255 255 255 
255 243 255 
214 208 214 
255 230 255 
255 167 255 
153 67 67 
255 255 255 
245 216 255 
149 149 222 
165 54 255 
85 85 255 
255 155 255 
255 177 211 
255 167 255 
255 162 255 
77 77 247 
0 0 0 
217 184 255 
255 143 255 
255 255 255 
250 152 152 
135 135 255 
184 182 255 
255 255 255 
232 232 255 
255 239 255 
255 192 255 
255 142 255 
255 255 255 
255 151 192 
103 87 255 
215 151 243 
255 255 255 
255 255 255 
56 56 180 
255 219 255 
77 77 195 
255 233 255 
255 237 255 
41 41 132 
255 255 255 
255 68 168 
255 136 255 
255 159 255 
255 255 255 
195 153 255 
255 112 255 
255 193 255 
255 196 227 
190 173 255 
149 149 222 
255 255 255 
255 255 255 
204 184 255 
95 60 249 
255 241 255 
255 255 255 
92 82 255 
41 41 132 
255 254 255 
238 97 255 
0 0 0 
231 71 102 
71 22 255 
193 153 224 
174 74 239 
205 199 255 
255 255 255 
41 41 132 
157 128 255 
211 155 179 
143 44 73 
255 255 255 
153 67 67 
255 52 255 
255 255 255 
255 164 209 
255 176 176 
255 121 255 
255 255 255 
255 255 255 
255 205 205 
255 192 255 
253 81 125 
255 204 204 
255 198 255 
255 111 230 
180 56 56 
255 182 223 
255 233 255 
171 53 122 
255 111 161 
255 183 255 
255 255 255 
255 79 197 
132 41 41 
255 139 255 
255 173 255 
255 255 255 
255 104 147 
207 183 255 
226 93 192 
255 255 255 
132 41 41 
255 216 255 
208 147 172 
255 85 155 
255 255 255 
255 255 255 
140 140 140 
255 252 255 
255 96 114 
255 95 255 
255 85 255 
255 99 255 
255 175 175 
255 183 237 
255 255 255 
255 110 186 
255 110 252 
255 255 255 
255 255 255 
222 69 149 
252 156 195 
114 67 216 
132 41 41 
255 200 255 
255 255 255 
255 180 180 
255 255 255 
255 149 242 
255 180 255 
255 186 255 
255 255 255 
255 239 239 
255 185 222 
255 255 255 
255 250 255 
255 255 255 
255 255 255 
240 186 255 
212 121 157 
255 169 255 
255 188 255 
255 109 109 
255 206 255 
255 255 255 
255 255 255 
255 255 255 
255 255 255 
255 255 255 
255 255 255 
255 255 255 
255 255 255 
255 255 255 
255 255 255 
255 255 255 
255 255 255 
255 255 255 
255 255 255 
255 255 255 
255 255 255 
255 255 255 
255 255 255 
255 255 255 
255 255 255 
255 255 255 
255 255 255 
255 255 255 
255 255 255 
255 255 255 
255 255 255 
255 255 255 
255 255 255 
255 255 255 
255 255 255 
255 255 255 
255 255 255 
255 255 255 
255 255 255 
255 255 255 
255 255 255 
255 255 255 
255 255 255 
255 255 255 
255 255 255 
255 255 255 
255 255 255 
255 255 255 
255 255 255 
255 255 255 
255 255 255 
255 255 255 
255 255 255 
255 255 255 
255 255 255 
255 255 255 
255 255 255 
255 255 255 
255 255 255 
255 255 255 
255 255 255 
255 255 255 
255 255 255 
255 255 255 
255 255 255 
255 255 255 
255 255 255 
255 255 255 
255 255 255 
255 255 255 
255 255 255 
255 255 255 
255 255 255 
255 255 255 
255 255 255 
255 255 255 
255 255 255 
255 255 255 
255 255 255 
255 255 255 
255 255 255 
255 255 255 
255 255 255 
255 255 255 
255 255 255 
255 255 255 
255 255 255 
255 255 255 
255 255 255 
255 255 255 
255 255 255 
255 255 255 
255 255 255 
255 255 255 
255 255 255 
255 255 255 
255 255 255 
255 255 255 
255 255 255 
255 255 255 
255 255 255 
255 255 255 
255 255 255 
255 255 255 
255 255 255 
255 255 255 
255 255 255 
255 255 255 
255 255 255 
255 255 255 
255 255 255 
255 255 255 
255 255 255 
255 255 255 
255 255 255 
255 255 255 
255 171 255 
255 255 255 
255 143 211 
232 232 232 
169 143 169 
255 190 255 
255 255 255 
184 141 255 
255 220 255 
140 140 140 
255 192 192 
255 182 255 
255 73 194 
255 255 255 
154 154 255 
110 110 250 
255 255 255 
255 207 255 
255 124 255 
255 241 255 
190 149 190 
255 106 255 
67 67 217 
255 136 249 
255 199 255 
236 50 134 
162 153 255 
255 228 255 
255 187 255 
41 41 132 
159 85 255 
255 200 255 
255 122 236 
255 255 255 
255 255 255 
255 255 255 
160 160 255 
88 77 255 
255 47 255 
255 255 255 
255 246 255 
162 162 255 
225 83 255 
102 81 255 
255 94 255 
255 166 255 
255 192 255 
197 196 255 
255 131 177 
218 76 144 
255 126 255 
255 126 255 
255 237 255 
255 154 253 
234 218 255 
255 249 255 
255 255 255 
255 89 255 
156 93 255 
255 149 255 
159 159 255 
129 117 255 
215 163 255 
255 255 255 
255 255 255 
44 44 255 
222 167 245 
255 200 255 
255 208 255 
236 230 236 
255 84 255 
211 157 203 
106 80 255 
255 92 255 
255 255 255 
255 211 252 
140 140 140 
255 61 125 
255 71 152 
255 255 255 
190 85 160 
255 255 255 
255 170 206 
132 41 41 
255 232 255 
255 154 220 
255 163 163 
255 146 255 
255 170 227 
255 255 255 
255 221 255 
255 170 255 
140 140 140 
255 111 255 
255 255 255 
255 84 255 
255 255 255 
255 147 242 
215 67 67 
222 149 149 
255 86 212 
255 80 177 
255 96 96 
255 125 255 
255 194 226 
255 255 255 
248 197 248 
255 255 255 
255 255 255 
255 80 158 
255 255 255 
255 64 64 
255 89 89 
255 255 255 
255 211 255 
255 250 255 
195 156 204 
136 56 136 
255 255 255 
255 90 255 
255 255 255 
255 201 232 
255 168 205 
255 159 188 
255 255 255 
239 201 201 
255 149 255 
0 0 0 
182 159 242 
255 160 160 
255 196 255 
255 209 253 
165 141 143 
210 74 210 
255 255 255 
187 145 145 
255 255 255 
255 255 255 
255 255 255 
181 99 255 
255 255 255 
255 131 220 
255 142 216 
255 120 255 
255 255 255 
255 255 255 
255 255 255 
255 255 255 
255 255 255 
255 255 255 
255 255 255 
255 255 255 
255 255 255 
255 255 255 
255 255 255 
255 255 255 
255 255 255 
255 255 255 
255 255 255 
255 255 255 
255 255 255 
255 255 255 
255 255 255 
255 255 255 
255 255 255 
255 255 255 
255 255 255 
255 255 255 
255 255 255 
255 255 255 
255 255 255 
255 255 255 
255 255 255 
255 255 255 
255 255 255 
255 255 255 
255 255 255 
255 255 255 
255 255 255 
255 255 255 
255 255 255 
255 255 255 
255 255 255 
255 255 255 
255 255 255 
255 255 255 
255 255 255 
255 255 255 
255 255 255 
255 255 255 
255 255 255 
255 255 255 
255 255 255 
255 255 255 
255 255 255 
255 255 255 
255 255 255 
255 255 255 
255 255 255 
255 255 255 
255 255 255 
255 255 255 
255 255 255 
255 255 255 
255 255 255 
255 255 255 
255 255 255 
255 255 255 
255 255 255 
255 255 255 
255 255 255 
255 255 255 
255 255 255 
255 255 255 
255 255 255 
255 255 255 
255 255 255 
255 255 255 
255 255 255 
255 255 255 
255 255 255 
255 255 255 
255 255 255 
255 255 255 
255 255 255 
255 255 255 
255 255 255 
255 255 255 
255 255 255 
255 255 255 
255 255 255 
255 255 255 
255 255 255 
255 255 255 
255 255 255 
255 255 255 
255 255 255 
255 255 255 
255 255 255 
255 255 255 
255 255 255 
255 255 255 
255 255 255 
255 255 255 
255 255 255 
255 255 255 
255 255 255 
255 255 255 
255 255 255 
255 255 255 
255 255 255 
255 255 255 
255 255 255 
255 255 255 
255 255 255 
255 255 255 
255 220 255 
186 186 255 
255 255 255 
167 167 234 
228 191 255 
236 198 255 
255 212 255 
255 255 255 
100 100 255 
255 216 244 
255 234 255 
255 255 255 
228 96 134 
255 184 255 
255 202 255 
255 247 255 
255 172 255 
255 255 255 
199 43 62 
239 164 232 
121 121 255 
255 146 244 
156 152 255 
85 85 229 
255 188 255 
249 159 255 
255 255 255 
95 60 249 
255 255 255 
255 245 255 
226 148 255 
255 177 255 
255 255 255 
193 193 193 
255 119 191 
212 104 255 
255 197 197 
255 112 125 
244 190 255 
255 73 73 
255 168 254 
175 116 255 
234 171 255 
73 44 143 
255 197 255 
255 145 255 
220 159 255 
255 255 255 
226 143 255 
218 76 144 
255 255 255 
32 32 234 
255 237 255 
255 130 176 
255 120 255 
255 192 255 
255 147 255 
255 255 255 
165 100 255 
255 161 238 
151 89 255 
255 189 255 
255 43 141 
255 255 255 
255 255 255 
255 190 255 
255 255 255 
234 234 255 
255 255 255 
132 42 255 
225 97 255 
255 41 132 
255 255 255 
255 47 68 
255 187 255 
255 255 255 
255 127 225 
255 255 255 
180 56 56 
255 198 255 
255 255 255 
255 95 255 
255 111 255 
255 200 200 
241 151 255 
255 247 255 
255 255 255 
255 255 255 
124 111 255 
255 97 193 
255 230 255 
255 135 189 
255 255 255 
102 32 102 
255 111 174 
255 92 92 
255 67 105 
255 255 255 
255 255 255 
255 230 238 
255 166 176 
255 138 208 
244 91 216 
255 173 173 
223 92 223 
255 116 177 
216 152 216 
255 211 255 
255 255 255 
255 255 255 
255 234 255 
255 183 255 
255 236 255 
255 255 255 
255 98 196 
229 198 229 
255 113 252 
255 186 201 
255 255 255 
255 144 255 
255 255 255 
255 149 189 
255 66 66 
255 206 255 
215 67 67 
255 157 255 
180 56 56 
251 159 169 
255 115 115 
228 149 158 
255 142 201 
255 200 255 
233 44 203 
75 7 53 
243 151 215 
255 255 255 
255 255 255 
255 114 114 
0 0 0 
255 186 226 
255 176 255 
205 73 169 
255 255 255 
202 202 239 
255 204 204 
255 255 255 
255 245 245 
255 255 255 
255 255 255 
255 255 255 
255 255 255 
255 255 255 
255 255 255 
255 255 255 
255 255 255 
255 255 255 
255 255 255 
255 255 255 
255 255 255 
255 255 255 
255 255 255 
255 255 255 
255 255 255 
255 255 255 
255 255 255 
255 255 255 
255 255 255 
255 255 255 
255 255 255 
255 255 255 
255 255 255 
255 255 255 
255 255 255 
255 255 255 
255 255 255 
255 255 255 
255 255 255 
255 255 255 
255 255 255 
255 255 255 
255 255 255 
255 255 255 
255 255 255 
255 255 255 
255 255 255 
255 255 255 
255 255 255 
255 255 255 
255 255 255 
255 255 255 
255 255 255 
255 255 255 
255 255 255 
255 255 255 
255 255 255 
255 255 255 
255 255 255 
255 255 255 
255 255 255 
255 255 255 
255 255 255 
255 255 255 
255 255 255 
255 255 255 
255 255 255 
255 255 255 
255 255 255 
255 255 255 
255 255 255 
255 255 255 
255 255 255 
255 255 255 
255 255 255 
255 255 255 
255 255 255 
255 255 255 
255 255 255 
255 255 255 
255 255 255 
255 255 255 
255 255 255 
255 255 255 
255 255 255 
255 255 255 
255 255 255 
255 255 255 
255 255 255 
255 255 255 
255 255 255 
255 255 255 
255 255 255 
255 255 255 
255 255 255 
255 255 255 
255 255 255 
255 255 255 
255 255 255 
255 255 255 
255 255 255 
255 255 255 
255 255 255 
255 255 255 
255 255 255 
255 255 255 
255 255 255 
255 255 255 
255 255 255 
255 255 255 
255 255 255 
255 255 255 
255 255 255 
255 255 255 
255 255 255 
255 255 255 
255 255 255 
255 255 255 
255 255 255 
255 255 255 
255 137 137 
255 182 255 
250 110 110 
255 255 255 
137 137 222 
178 178 178 
255 174 209 
255 244 255 
153 93 93 
255 231 255 
227 227 255 
255 163 255 
255 187 237 
255 255 255 
169 143 169 
255 168 176 
255 132 255 
173 147 197 
255 144 193 
255 255 255 
255 255 255 
243 190 255 
195 195 255 
255 184 217 
255 164 201 
198 160 255 
255 255 255 
255 148 255 
255 180 255 
255 90 215 
255 221 255 
234 151 255 
170 105 255 
255 97 166 
255 230 255 
195 77 77 
166 166 255 
63 63 255 
145 145 187 
255 255 255 
170 89 255 
115 115 255 
255 255 255 
177 93 255 
89 69 223 
255 174 255 
255 154 255 
255 255 255 
222 90 255 
255 152 255 
255 98 255 
207 158 255 
255 108 255 
214 179 255 
122 60 255 
255 255 255 
252 100 255 
255 200 255 
161 152 255 
122 78 255 
251 147 255 
255 176 255 
255 182 223 
255 255 255 
255 216 255 
179 82 240 
102 32 102 
255 255 255 
132 41 41 
0 0 0 
66 43 148 
255 44 44 
219 55 169 
255 83 129 
255 255 255 
255 165 228 
255 255 255 
255 109 109 
255 92 164 
102 32 102 
255 255 255 
201 201 239 
0 0 0 
255 226 255 
255 255 255 
255 121 255 
247 162 255 
255 197 197 
255 179 221 
255 120 120 
255 196 250 
240 151 176 
255 56 56 
255 185 185 
255 212 255 
255 255 255 
255 197 255 
255 158 255 
241 73 155 
255 246 255 
255 92 92 
255 180 255 
255 50 50 
231 149 156 
255 183 217 
255 255 255 
167 116 252 
193 50 255 
255 186 226 
255 255 255 
255 105 170 
255 190 190 
178 93 255 
255 174 184 
180 56 56 
255 255 255 
255 214 216 
255 95 255 
255 199 207 
255 205 255 
255 176 255 
255 208 238 
239 201 201 
255 143 143 
255 255 255 
195 155 255 
177 131 255 
255 231 255 
255 255 255 
255 233 238 
255 255 255 
255 79 255 
255 120 169 
255 207 255 
245 174 174 
193 193 255 
208 151 238 
255 255 255 
255 185 255 
255 239 255 
255 255 255 
255 255 255 
255 217 255 
255 135 255 
255 255 255 
255 255 255 
255 255 255 
255 255 255 
255 255 255 
255 255 255 
255 255 255 
255 255 255 
255 255 255 
255 255 255 
255 255 255 
255 255 255 
255 255 255 
255 255 255 
255 255 255 
255 255 255 
255 255 255 
255 255 255 
255 255 255 
255 255 255 
255 255 255 
255 255 255 
255 255 255 
255 255 255 
255 255 255 
255 255 255 
255 255 255 
255 255 255 
255 255 255 
255 255 255 
255 255 255 
255 255 255 
255 255 255 
255 255 255 
255 255 255 
255 255 255 
255 255 255 
255 255 255 
255 255 255 
255 255 255 
255 255 255 
255 255 255 
255 255 255 
255 255 255 
255 255 255 
255 255 255 
255 255 255 
255 255 255 
255 255 255 
255 255 255 
255 255 255 
255 255 255 
255 255 255 
255 255 255 
255 255 255 
255 255 255 
255 255 255 
255 255 255 
255 255 255 
255 255 255 
255 255 255 
255 255 255 
255 255 255 
255 255 255 
255 255 255 
255 255 255 
255 255 255 
255 255 255 
255 255 255 
255 255 255 
255 255 255 
255 255 255 
255 255 255 
255 255 255 
255 255 255 
255 255 255 
255 255 255 
255 255 255 
255 255 255 
255 255 255 
255 255 255 
255 255 255 
255 255 255 
255 255 255 
255 255 255 
255 255 255 
255 255 255 
255 255 255 
255 255 255 
255 255 255 
255 255 255 
255 255 255 
255 255 255 
255 255 255 
255 255 255 
255 255 255 
255 255 255 
255 255 255 
255 255 255 
255 255 255 
255 255 255 
255 255 255 
255 255 255 
255 255 255 
255 255 255 
255 255 255 
255 255 255 
255 255 255 
221 221 221 
255 236 255 
255 159 255 
255 255 255 
255 255 255 
111 111 255 
255 201 255 
176 74 210 
255 115 255 
255 255 255 
255 203 255 
198 160 255 
255 255 255 
255 194 255 
178 174 255 
255 151 255 
255 212 255 
180 171 255 
156 98 255 
255 174 255 
255 255 255 
245 209 245 
255 118 255 
202 94 255 
225 98 252 
255 255 255 
255 146 253 
136 56 136 
255 255 255 
255 255 255 
255 203 255 
149 149 222 
133 94 255 
122 53 255 
255 255 255 
255 249 255 
255 155 208 
255 255 255 
255 167 255 
255 193 255 
109 109 255 
215 151 243 
255 255 255 
67 67 217 
255 255 255 
255 142 255 
152 60 193 
255 246 255 
0 0 0 
96 78 203 
237 145 255 
255 255 255 
196 145 255 
255 221 255 
198 160 255 
255 255 255 
255 111 255 
97 97 255 
255 255 255 
255 184 217 
67 67 215 
255 255 255 
253 148 255 
255 255 255 
157 148 255 
223 196 255 
67 67 153 
255 129 255 
96 78 251 
253 226 255 
234 117 255 
0 0 0 
189 53 255 
139 67 255 
255 117 255 
255 65 96 
216 32 47 
255 111 255 
112 31 255 
255 152 154 
255 255 255 
255 202 255 
255 60 138 
255 102 102 
223 205 255 
255 170 255 
227 195 195 
255 191 231 
255 208 244 
255 248 253 
255 198 255 
255 164 164 
255 182 182 
255 252 255 
255 255 255 
255 87 113 
255 120 171 
255 85 85 
255 159 177 
255 198 198 
255 156 156 
250 152 152 
255 255 255 
255 113 132 
222 149 149 
255 255 255 
198 160 255 
187 145 145 
255 161 255 
228 145 241 
255 255 255 
255 255 255 
255 135 255 
208 64 124 
255 160 160 
255 87 244 
255 198 220 
255 255 255 
143 44 73 
201 201 239 
255 255 255 
255 255 255 
255 247 255 
255 156 156 
255 255 255 
255 208 237 
255 158 233 
255 174 255 
255 168 255 
255 255 255 
255 255 255 
255 156 156 
255 180 201 
255 255 255 
255 255 255 
255 231 255 
255 172 220 
136 56 136 
255 213 255 
255 255 255 
255 203 255 
255 255 255 
255 180 255 
255 73 167 
232 232 232 
255 229 255 
255 170 255 
255 255 255 
255 176 212 
255 250 255 
255 255 255 
255 255 255 
255 255 255 
255 255 255 
255 255 255 
255 255 255 
255 255 255 
255 255 255 
255 255 255 
255 255 255 
255 255 255 
255 255 255 
255 255 255 
255 255 255 
255 255 255 
255 255 255 
255 255 255 
255 255 255 
255 255 255 
255 255 255 
255 255 255 
255 255 255 
255 255 255 
255 255 255 
255 255 255 
255 255 255 
255 255 255 
255 255 255 
255 255 255 
255 255 255 
255 255 255 
255 255 255 
255 255 255 
255 255 255 
255 255 255 
255 255 255 
255 255 255 
255 255 255 
255 255 255 
255 255 255 
255 255 255 
255 255 255 
255 255 255 
255 255 255 
255 255 255 
255 255 255 
255 255 255 
255 255 255 
255 255 255 
255 255 255 
255 255 255 
255 255 255 
255 255 255 
255 255 255 
255 255 255 
255 255 255 
255 255 255 
255 255 255 
255 255 255 
255 255 255 
255 255 255 
255 255 255 
255 255 255 
255 255 255 
255 255 255 
255 255 255 
255 255 255 
255 255 255 
255 255 255 
255 255 255 
255 255 255 
255 255 255 
255 255 255 
255 255 255 
255 255 255 
255 255 255 
255 255 255 
255 255 255 
255 255 255 
255 255 255 
255 255 255 
255 255 255 
255 255 255 
255 255 255 
255 255 255 
255 255 255 
255 255 255 
255 255 255 
255 255 255 
255 255 255 
255 255 255 
255 255 255 
255 255 255 
255 255 255 
255 255 255 
255 255 255 
255 255 255 
255 255 255 
255 255 255 
255 255 255 
255 255 255 
255 255 255 
255 255 255 
255 255 255 
255 255 255 
255 255 255 
255 202 255 
237 237 255 
255 209 255 
215 181 181 
149 149 222 
255 148 153 
169 142 255 
255 218 255 
207 92 255 
255 255 255 
166 148 255 
255 190 255 
255 255 255 
255 255 255 
179 179 255 
255 225 255 
0 0 0 
255 159 255 
255 223 255 
255 219 255 
255 99 255 
197 197 255 
190 141 255 
255 255 255 
255 42 252 
227 156 227 
255 197 255 
224 224 255 
115 115 255 
255 254 255 
255 188 255 
0 0 0 
255 255 255 
221 179 255 
255 255 255 
140 140 140 
255 182 255 
255 194 255 
255 197 255 
255 117 255 
181 141 181 
196 165 255 
77 77 247 
255 160 255 
255 214 255 
255 166 255 
230 101 255 
207 185 255 
255 255 255 
255 216 255 
255 177 212 
255 176 211 
255 255 255 
255 255 255 
255 237 255 
255 242 255 
153 67 67 
255 255 255 
145 145 187 
200 162 255 
255 77 255 
239 201 201 
244 164 238 
255 77 216 
255 189 255 
168 52 168 
255 255 255 
225 225 255 
255 255 255 
217 217 255 
217 183 255 
255 71 255 
255 255 255 
255 76 255 
238 69 255 
255 63 63 
255 81 255 
255 48 52 
255 86 221 
255 38 77 
255 191 231 
87 12 123 
255 255 255 
255 255 255 
255 255 255 
187 145 145 
169 143 169 
255 210 210 
255 127 208 
255 147 255 
255 255 255 
0 0 0 
255 248 255 
255 133 255 
255 64 64 
255 255 255 
143 74 255 
255 197 197 
255 137 151 
255 175 210 
255 255 255 
255 213 255 
136 56 136 
255 95 198 
255 255 255 
255 255 255 
255 109 109 
132 41 41 
255 223 240 
255 220 226 
255 230 230 
255 255 255 
255 177 184 
255 91 209 
255 152 255 
255 199 218 
143 44 73 
255 255 255 
255 90 255 
255 168 255 
255 255 255 
255 196 254 
246 117 255 
255 172 255 
239 239 255 
208 147 158 
255 243 255 
255 210 255 
255 90 90 
255 255 255 
255 155 255 
255 221 221 
255 255 255 
255 193 193 
255 187 255 
215 67 67 
255 143 255 
169 52 119 
193 193 193 
255 234 255 
41 41 132 
255 130 186 
255 241 241 
255 190 192 
255 149 255 
255 190 255 
255 182 223 
255 255 255 
255 255 255 
255 181 236 
255 255 255 
255 255 255 
255 255 255 
255 255 255 
255 255 255 
255 255 255 
255 255 255 
255 255 255 
255 255 255 
255 255 255 
255 255 255 
255 255 255 
255 255 255 
255 255 255 
255 255 255 
255 255 255 
255 255 255 
255 255 255 
255 255 255 
255 255 255 
255 255 255 
255 255 255 
255 255 255 
255 255 255 
255 255 255 
255 255 255 
255 255 255 
255 255 255 
255 255 255 
255 255 255 
255 255 255 
255 255 255 
255 255 255 
255 255 255 
255 255 255 
255 255 255 
255 255 255 
255 255 255 
255 255 255 
255 255 255 
255 255 255 
255 255 255 
255 255 255 
255 255 255 
255 255 255 
255 255 255 
255 255 255 
255 255 255 
255 255 255 
255 255 255 
255 255 255 
255 255 255 
255 255 255 
255 255 255 
255 255 255 
255 255 255 
255 255 255 
255 255 255 
255 255 255 
255 255 255 
255 255 255 
255 255 255 
255 255 255 
255 255 255 
255 255 255 
255 255 255 
255 255 255 
255 255 255 
255 255 255 
255 255 255 
255 255 255 
255 255 255 
255 255 255 
255 255 255 
255 255 255 
255 255 255 
255 255 255 
255 255 255 
255 255 255 
255 255 255 
255 255 255 
255 255 255 
255 255 255 
255 255 255 
255 255 255 
255 255 255 
255 255 255 
255 255 255 
255 255 255 
255 255 255 
255 255 255 
255 255 255 
255 255 255 
255 255 255 
255 255 255 
255 255 255 
255 255 255 
255 255 255 
255 255 255 
255 255 255 
255 255 255 
255 255 255 
255 255 255 
255 255 255 
255 255 255 
255 238 255 
255 230 255 
255 255 255 
207 124 255 
255 129 255 
255 255 255 
255 166 255 
163 111 255 
215 146 196 
255 255 255 
255 234 255 
177 82 255 
255 160 255 
255 255 255 
236 236 255 
255 116 255 
255 170 236 
255 160 255 
145 77 220 
230 165 255 
255 116 212 
214 179 255 
255 167 204 
255 162 255 
255 107 255 
255 255 255 
222 109 255 
255 189 248 
255 255 255 
234 234 255 
255 255 255 
153 123 255 
255 243 255 
255 236 255 
255 83 184 
41 41 132 
255 231 255 
255 130 130 
255 211 255 
255 111 207 
236 229 255 
228 98 208 
102 81 255 
255 255 255 
255 255 255 
255 238 255 
245 108 253 
81 50 162 
255 135 255 
255 130 255 
229 108 255 
255 255 255 
222 180 255 
255 184 255 
255 128 255 
255 255 255 
255 177 211 
119 119 255 
255 193 255 
230 230 230 
180 56 56 
238 229 255 
194 86 255 
255 253 255 
151 141 151 
203 196 233 
255 255 255 
255 255 255 
255 255 255 
80 68 255 
220 159 254 
255 186 255 
78 70 255 
255 68 218 
73 44 143 
233 148 255 
255 67 88 
255 79 84 
255 64 91 
0 0 0 
255 70 174 
255 57 181 
255 67 71 
255 225 242 
255 216 216 
255 118 169 
255 116 255 
255 204 255 
255 255 255 
255 227 255 
255 85 169 
227 195 195 
255 83 186 
255 255 255 
255 255 255 
255 255 255 
246 172 255 
255 151 200 
255 255 255 
255 197 255 
255 140 255 
255 234 255 
255 152 200 
255 255 255 
62 19 62 
255 46 255 
255 255 255 
198 77 255 
255 156 165 
246 76 76 
255 253 255 
255 180 255 
255 255 255 
255 240 240 
255 231 255 
255 228 255 
255 255 255 
255 250 255 
255 174 217 
255 255 255 
255 255 255 
165 141 143 
255 158 255 
255 203 203 
255 128 255 
234 88 255 
145 145 187 
255 231 255 
231 94 172 
255 106 203 
255 255 255 
255 143 255 
255 255 255 
255 255 255 
255 121 132 
255 255 255 
255 255 255 
255 103 170 
255 185 255 
255 255 255 
255 226 255 
183 118 255 
255 154 251 
255 242 255 
140 140 140 
255 255 255 
255 217 255 
255 237 255 
255 200 255 
255 159 255 
220 112 179 
255 255 255 
221 221 221 
255 255 255 
255 255 255 
255 255 255 
255 255 255 
255 255 255 
255 255 255 
255 255 255 
255 255 255 
255 255 255 
255 255 255 
255 255 255 
255 255 255 
255 255 255 
255 255 255 
255 255 255 
255 255 255 
255 255 255 
255 255 255 
255 255 255 
255 255 255 
255 255 255 
255 255 255 
255 255 255 
255 255 255 
255 255 255 
255 255 255 
255 255 255 
255 255 255 
255 255 255 
255 255 255 
255 255 255 
255 255 255 
255 255 255 
255 255 255 
255 255 255 
255 255 255 
255 255 255 
255 255 255 
255 255 255 
255 255 255 
255 255 255 
255 255 255 
255 255 255 
255 255 255 
255 255 255 
255 255 255 
255 255 255 
255 255 255 
255 255 255 
255 255 255 
255 255 255 
255 255 255 
255 255 255 
255 255 255 
255 255 255 
255 255 255 
255 255 255 
255 255 255 
255 255 255 
255 255 255 
255 255 255 
255 255 255 
255 255 255 
255 255 255 
255 255 255 
255 255 255 
255 255 255 
255 255 255 
255 255 255 
255 255 255 
255 255 255 
255 255 255 
255 255 255 
255 255 255 
255 255 255 
255 255 255 
255 255 255 
255 255 255 
255 255 255 
255 255 255 
255 255 255 
255 255 255 
255 255 255 
255 255 255 
255 255 255 
255 255 255 
255 255 255 
255 255 255 
255 255 255 
255 255 255 
255 255 255 
255 255 255 
255 255 255 
255 255 255 
255 255 255 
255 255 255 
255 255 255 
255 255 255 
255 255 255 
255 255 255 
255 255 255 
255 255 255 
255 255 255 
255 255 255 
255 193 255 
255 255 255 
255 255 255 
206 170 255 
255 252 255 
255 255 255 
111 111 255 
255 214 255 
67 67 217 
255 218 255 
41 41 132 
241 199 241 
255 243 255 
62 19 62 
224 153 193 
67 67 215 
41 41 132 
255 255 255 
255 154 239 
255 99 255 
251 235 255 
255 255 255 
255 231 255 
255 232 255 
151 141 255 
204 204 255 
255 255 255 
255 255 255 
255 137 255 
153 93 93 
255 123 255 
255 96 155 
255 187 255 
170 105 255 
156 156 234 
255 147 255 
255 180 255 
255 252 255 
138 51 255 
255 211 240 
255 255 255 
255 137 255 
238 130 255 
221 116 255 
126 65 255 
255 255 255 
233 203 255 
253 253 255 
182 182 255 
255 204 255 
255 184 255 
187 182 255 
255 255 255 
84 44 148 
152 152 250 
255 206 255 
191 170 255 
99 99 255 
183 117 255 
41 41 132 
235 196 255 
140 67 184 
214 203 255 
200 100 255 
255 255 255 
221 91 255 
88 47 218 
56 25 255 
140 140 140 
240 98 255 
113 46 255 
216 107 255 
188 188 255 
75 69 255 
80 33 145 
255 69 228 
255 27 27 
110 34 34 
255 145 159 
255 147 149 
255 69 92 
143 44 73 
0 0 0 
158 87 205 
140 140 140 
255 234 234 
255 82 159 
255 255 255 
255 237 252 
103 32 73 
229 160 207 
255 255 255 
255 230 255 
255 166 255 
255 255 255 
255 247 255 
255 255 255 
255 170 214 
204 141 147 
255 111 120 
255 118 223 
255 212 255 
255 134 255 
255 169 255 
132 41 41 
255 222 238 
255 255 255 
255 204 234 
255 42 110 
255 78 255 
243 151 215 
255 255 255 
255 207 229 
255 194 255 
255 66 66 
255 81 133 
255 223 223 
255 218 255 
255 255 255 
255 252 255 
255 255 255 
255 142 255 
255 241 255 
208 64 124 
255 179 179 
255 255 255 
255 115 255 
187 145 145 
255 255 255 
255 255 255 
255 163 164 
255 225 255 
255 255 255 
255 127 184 
235 157 255 
255 79 79 
255 255 255 
255 143 255 
255 167 255 
193 92 201 
255 255 255 
255 125 255 
255 255 255 
255 214 255 
255 255 255 
255 235 235 
224 153 193 
255 255 255 
255 217 255 
255 255 255 
255 217 218 
255 255 255 
164 164 255 
255 255 255 
255 255 255 
255 255 255 
255 255 255 
255 255 255 
255 255 255 
255 255 255 
255 255 255 
255 255 255 
255 255 255 
255 255 255 
255 255 255 
255 255 255 
255 255 255 
255 255 255 
255 255 255 
255 255 255 
255 255 255 
255 255 255 
255 255 255 
255 255 255 
255 255 255 
255 255 255 
255 255 255 
255 255 255 
255 255 255 
255 255 255 
255 255 255 
255 255 255 
255 255 255 
255 255 255 
255 255 255 
255 255 255 
255 255 255 
255 255 255 
255 255 255 
255 255 255 
255 255 255 
255 255 255 
255 255 255 
255 255 255 
255 255 255 
255 255 255 
255 255 255 
255 255 255 
255 255 255 
255 255 255 
255 255 255 
255 255 255 
255 255 255 
255 255 255 
255 255 255 
255 255 255 
255 255 255 
255 255 255 
255 255 255 
255 255 255 
255 255 255 
255 255 255 
255 255 255 
255 255 255 
255 255 255 
255 255 255 
255 255 255 
255 255 255 
255 255 255 
255 255 255 
255 255 255 
255 255 255 
255 255 255 
255 255 255 
255 255 255 
255 255 255 
255 255 255 
255 255 255 
255 255 255 
255 255 255 
255 255 255 
255 255 255 
255 255 255 
255 255 255 
255 255 255 
255 255 255 
255 255 255 
255 255 255 
255 255 255 
255 255 255 
255 255 255 
255 255 255 
255 255 255 
255 255 255 
255 255 255 
255 255 255 
255 255 255 
255 255 255 
255 255 255 
255 255 255 
255 255 255 
255 255 255 
255 255 255 
255 255 255 
255 255 255 
255 94 156 
198 148 255 
255 255 255 
255 235 255 
255 248 255 
70 70 255 
255 255 255 
255 71 210 
255 255 255 
41 41 132 
232 232 232 
243 243 255 
255 134 134 
255 162 255 
255 255 255 
255 165 255 
246 164 255 
164 123 255 
255 255 255 
255 117 255 
193 153 224 
219 84 247 
255 162 255 
255 151 255 
255 111 111 
255 236 255 
255 200 255 
255 255 255 
255 212 255 
172 161 255 
238 235 255 
255 187 255 
92 92 255 
96 78 251 
255 158 255 
196 189 255 
255 126 245 
155 155 255 
255 255 255 
255 183 224 
187 180 255 
255 126 218 
157 70 255 
255 255 255 
41 41 132 
255 211 255 
255 128 157 
140 140 140 
110 110 250 
255 255 255 
255 151 255 
255 218 255 
202 151 255 
255 78 255 
255 255 255 
255 255 255 
255 255 255 
153 136 255 
151 151 255 
255 191 255 
255 234 255 
232 171 255 
255 255 255 
255 60 255 
255 231 255 
153 78 252 
52 43 200 
255 149 164 
54 42 135 
206 46 255 
255 149 255 
85 39 255 
255 126 255 
253 122 255 
70 70 226 
83 41 131 
255 81 124 
255 111 134 
255 82 133 
255 57 124 
255 94 187 
255 71 97 
255 108 128 
86 26 86 
255 35 53 
173 173 255 
255 235 255 
255 147 178 
255 142 158 
190 149 190 
255 255 255 
211 151 200 
255 113 113 
255 227 255 
255 104 246 
216 182 255 
255 255 255 
154 78 224 
255 124 131 
255 255 255 
255 255 255 
255 117 129 
255 71 160 
255 183 255 
255 255 255 
255 255 255 
255 239 255 
255 255 255 
237 145 151 
255 67 105 
255 148 148 
255 160 160 
255 255 255 
255 255 255 
255 153 230 
255 71 193 
255 255 255 
237 99 255 
255 255 255 
255 232 232 
255 220 254 
222 90 215 
222 149 149 
153 153 201 
255 246 255 
255 202 255 
255 255 255 
255 123 255 
255 228 255 
255 255 255 
245 87 174 
255 255 255 
255 161 169 
223 142 158 
255 255 255 
255 255 255 
132 111 255 
255 153 193 
255 255 255 
255 255 255 
255 98 170 
255 156 227 
255 68 178 
255 114 228 
255 253 255 
105 33 255 
255 174 255 
255 185 255 
255 223 230 
255 255 255 
255 111 255 
255 255 255 
255 216 255 
225 123 255 
102 32 102 
255 135 143 
255 193 255 
255 209 209 
239 144 246 
255 190 255 
255 255 255 
255 220 255 
255 255 255 
255 204 255 
255 229 255 
209 209 239 
255 159 254 
255 255 255 
255 255 255 
255 255 255 
255 169 178 
255 255 255 
255 76 151 
255 243 255 
255 158 166 
255 218 255 
255 205 255 
255 255 255 
255 164 213 
169 116 255 
255 175 255 
255 255 255 
237 157 215 
255 255 255 
255 255 255 
255 163 229 
255 146 224 
255 207 255 
255 203 255 
201 194 201 
252 225 252 
255 255 255 
255 232 255 
255 255 255 
255 186 186 
255 167 255 
215 181 181 
206 186 253 
255 202 255 
255 187 187 
255 239 255 
255 255 255 
255 255 255 
238 161 255 
255 167 175 
255 255 255 
247 242 255 
163 163 255 
255 255 255 
234 197 203 
222 218 255 
255 255 255 
255 255 255 
255 100 227 
255 255 255 
255 121 255 
255 255 255 
255 184 255 
255 255 255 
255 255 255 
162 108 255 
173 106 255 
248 149 230 
228 196 196 
255 202 255 
255 255 255 
255 129 218 
184 145 202 
255 255 255 
255 140 183 
255 252 255 
255 172 255 
255 174 255 
255 255 255 
182 182 216 
220 104 187 
175 167 255 
191 110 224 
255 180 255 
255 255 255 
255 255 255 
77 77 195 
255 164 255 
255 254 255 
237 207 255 
255 255 255 
230 190 255 
245 110 201 
255 158 255 
255 242 255 
255 158 255 
255 255 255 
255 255 255 
255 149 167 
255 246 255 
255 255 255 
41 41 132 
255 159 255 
209 166 255 
255 87 235 
255 202 255 
255 170 255 
68 47 255 
255 255 255 
255 221 255 
255 157 208 
255 255 255 
255 255 255 
255 92 92 
255 126 126 
156 156 234 
255 255 255 
234 32 32 
255 135 255 
255 255 255 
255 255 255 
241 117 241 
199 184 255 
255 255 255 
255 255 255 
255 255 255 
255 210 255 
255 146 255 
255 255 255 
255 163 255 
255 232 255 
255 179 255 
255 239 255 
255 255 255 
225 187 255 
255 255 255 
255 84 255 
255 255 255 
152 131 255 
255 162 255 
124 64 208 
255 255 255 
255 255 255 
255 255 255 
255 255 255 
255 255 255 
220 85 189 
255 255 255 
225 207 255 
255 178 255 
255 255 255 
255 255 255 
255 255 255 
255 202 255 
255 255 255 
177 117 247 
203 197 255 
155 96 255 
255 255 255 
255 100 255 
149 149 222 
255 162 255 
189 64 207 
255 216 255 
255 79 161 
179 175 255 
255 207 255 
255 230 255 
21 9 97 
116 112 255 
77 77 247 
139 66 255 
78 78 255 
255 55 255 
60 60 255 
78 53 255 
74 49 213 
255 67 75 
255 255 255 
255 62 94 
255 60 178 
255 61 61 
160 44 79 
255 57 111 
213 30 30 
255 52 52 
255 25 37 
255 255 255 
255 152 153 
255 180 225 
255 255 255 
255 164 201 
255 174 174 
255 143 224 
255 255 255 
255 255 255 
255 76 218 
255 255 255 
255 255 255 
255 255 255 
255 255 255 
229 85 255 
162 50 81 
255 166 188 
255 255 255 
255 122 255 
255 255 255 
255 148 149 
255 186 226 
255 178 255 
255 94 124 
255 255 255 
255 86 184 
255 255 255 
255 141 141 
255 132 178 
0 0 0 
255 236 255 
255 220 255 
255 148 255 
180 56 56 
255 197 255 
132 41 41 
255 255 255 
255 111 230 
255 255 255 
255 241 241 
208 78 159 
255 156 156 
255 226 255 
255 161 167 
255 188 188 
255 235 240 
255 255 255 
255 157 255 
255 202 255 
255 117 242 
176 168 255 
0 0 0 
255 154 255 
255 255 255 
145 145 187 
255 255 255 
208 125 255 
255 47 141 
189 85 220 
152 152 250 
255 213 255 
255 230 255 
255 255 255 
255 255 255 
0 0 0 
255 242 255 
255 234 234 
255 155 255 
255 255 255 
255 255 255 
255 130 255 
255 255 255 
255 240 247 
255 255 255 
255 208 255 
247 242 247 
205 199 255 
255 221 221 
255 104 129 
132 41 41 
255 152 200 
255 182 255 
255 255 255 
255 130 255 
255 255 255 
255 153 193 
255 255 255 
255 183 255 
0 0 0 
255 249 255 
140 140 140 
255 141 255 
255 255 255 
232 232 232 
255 187 255 
132 41 41 
255 135 255 
239 164 232 
255 255 255 
216 131 255 
205 161 255 
255 203 255 
255 202 255 
255 230 255 
215 171 171 
255 255 255 
255 232 233 
255 225 255 
255 135 180 
255 255 255 
255 251 255 
255 188 255 
251 191 255 
255 112 255 
255 179 234 
204 156 195 
255 255 255 
255 255 255 
255 255 255 
255 241 255 
255 129 233 
255 198 255 
184 98 184 
252 252 255 
255 240 255 
255 166 255 
255 175 255 
255 255 255 
183 139 255 
222 222 255 
255 255 255 
132 41 41 
255 236 255 
190 149 190 
255 117 225 
255 191 255 
255 255 255 
255 255 255 
255 157 255 
253 199 255 
193 71 255 
254 254 255 
255 255 255 
90 90 255 
255 67 223 
219 164 255 
255 210 210 
255 255 255 
162 50 81 
255 255 255 
255 228 255 
255 110 123 
140 140 140 
255 198 255 
255 202 255 
255 180 255 
255 105 198 
255 213 255 
255 132 255 
255 185 255 
204 156 195 
255 211 255 
255 101 255 
255 115 255 
255 255 255 
129 89 246 
152 152 250 
204 167 204 
255 255 255 
212 212 255 
255 255 255 
255 255 255 
215 67 67 
255 95 255 
255 242 255 
210 132 255 
255 255 255 
255 153 255 
255 255 255 
255 255 255 
255 152 192 
255 193 193 
167 99 252 
153 67 67 
255 255 255 
255 187 255 
255 255 255 
255 255 255 
255 255 255 
67 9 255 
82 82 255 
255 148 255 
255 145 155 
233 118 255 
255 196 255 
148 85 248 
249 179 255 
255 235 255 
255 255 255 
255 255 255 
145 145 187 
255 89 255 
255 101 255 
255 255 255 
255 214 255 
255 255 255 
145 145 187 
202 95 255 
239 201 201 
255 201 255 
85 85 255 
255 255 255 
255 255 255 
139 103 255 
255 255 255 
184 103 255 
89 69 223 
144 76 218 
255 209 255 
145 145 187 
0 0 0 
222 122 255 
137 126 255 
41 41 132 
255 136 255 
254 239 255 
190 177 255 
242 149 255 
255 216 255 
255 255 255 
255 177 255 
148 85 248 
255 255 255 
141 43 141 
255 255 255 
255 150 238 
109 26 255 
57 46 255 
82 71 255 
70 70 255 
146 56 182 
144 60 255 
212 100 255 
228 93 255 
77 33 137 
121 112 255 
255 57 81 
255 51 102 
255 118 255 
255 49 95 
255 121 235 
255 129 132 
211 48 65 
255 36 40 
71 22 71 
255 52 52 
255 78 80 
255 228 255 
62 19 62 
255 255 255 
255 100 255 
203 157 211 
255 151 196 
255 158 255 
255 122 122 
255 125 125 
255 181 255 
62 19 62 
255 52 255 
103 32 73 
255 255 255 
255 254 255 
255 255 255 
255 255 255 
223 92 163 
255 255 255 
255 114 186 
255 116 123 
255 196 255 
252 153 153 
255 208 237 
255 233 233 
255 208 251 
255 148 148 
255 123 153 
255 206 255 
187 145 145 
255 156 156 
255 237 255 
255 255 255 
255 255 255 
255 255 255 
255 236 255 
255 255 255 
255 255 255 
255 96 255 
255 217 255 
255 75 242 
255 255 255 
255 206 248 
255 255 255 
255 255 255 
255 107 207 
255 201 201 
255 92 255 
255 255 255 
0 0 0 
255 162 162 
255 255 255 
255 255 255 
255 255 255 
255 255 255 
255 255 255 
255 233 255 
255 255 255 
203 131 203 
255 255 255 
255 199 255 
195 77 77 
255 213 255 
255 251 255 
246 162 226 
255 90 255 
255 154 156 
255 184 255 
255 255 255 
199 106 160 
255 223 255 
255 227 227 
255 166 255 
255 255 255 
255 213 242 
246 76 76 
255 92 180 
255 126 255 
241 118 255 
255 240 246 
255 212 255 
255 128 196 
255 255 255 
255 112 255 
255 120 179 
255 235 255 
255 171 171 
255 166 255 
169 143 169 
255 233 233 
255 255 255 
255 208 255 
255 201 255 
255 255 255 
255 198 255 
255 255 255 
255 255 255 
255 120 169 
255 171 171 
255 241 255 
255 170 255 
255 255 255 
255 185 255 
255 159 255 
255 219 255 
255 255 255 
255 219 253 
255 255 255 
255 166 203 
255 255 255 
145 77 156 
255 236 255 
255 213 255 
239 201 201 
244 210 216 
248 179 255 
255 219 255 
255 255 255 
255 255 255 
189 96 176 
255 255 255 
255 207 255 
132 41 41 
255 255 255 
255 255 255 
255 174 255 
151 141 151 
255 194 255 
255 92 199 
255 255 255 
255 203 255 
192 152 255 
135 121 152 
255 241 255 
255 16 165 
255 255 255 
255 249 255 
97 9 154 
230 94 199 
136 56 136 
255 170 255 
255 192 255 
255 255 255 
255 255 255 
255 255 255 
255 255 255 
238 161 255 
255 255 255 
255 194 255 
117 117 255 
255 255 255 
175 87 96 
255 214 214 
255 187 255 
156 77 145 
255 179 255 
229 198 229 
255 122 122 
204 204 255 
0 0 0 
255 255 255 
255 182 255 
255 201 201 
255 255 255 
255 255 255 
255 149 255 
241 147 255 
140 140 140 
255 255 255 
255 216 233 
255 210 255 
255 177 255 
255 149 231 
255 255 255 
255 255 255 
253 203 255 
229 190 255 
203 196 233 
255 141 255 
255 255 255 
191 151 255 
168 52 168 
255 255 255 
255 255 255 
255 255 255 
255 255 255 
255 255 255 
255 150 255 
145 145 187 
255 163 255 
196 189 255 
255 240 255 
255 255 255 
255 255 255 
172 113 255 
255 255 255 
145 77 220 
255 241 255 
223 92 224 
255 89 251 
176 89 255 
255 234 255 
255 255 255 
255 130 255 
255 169 255 
193 193 255 
140 140 140 
0 0 0 
255 230 255 
255 255 255 
255 94 228 
255 227 255 
163 163 255 
255 255 255 
255 240 255 
255 205 255 
155 98 255 
255 255 255 
255 255 255 
244 177 255 
96 78 255 
255 200 255 
255 152 255 
105 105 255 
228 188 255 
255 255 255 
255 112 255 
186 145 255 
255 191 255 
255 255 255 
255 230 255 
255 160 255 
237 128 255 
255 173 255 
165 54 255 
73 44 255 
119 68 255 
255 161 255 
81 81 255 
42 33 255 
110 55 177 
38 12 38 
46 37 255 
128 45 219 
85 68 255 
255 62 78 
243 62 75 
255 49 82 
204 19 60 
255 72 177 
255 85 110 
132 41 41 
255 61 113 
255 255 255 
245 76 121 
132 41 41 
255 83 83 
0 0 0 
255 204 255 
255 143 158 
255 64 64 
255 112 255 
150 47 185 
255 191 195 
255 144 255 
132 41 41 
255 148 157 
255 83 255 
255 255 255 
230 230 230 
255 255 255 
255 255 255 
187 145 255 
255 224 255 
255 195 255 
255 255 255 
255 255 255 
255 63 63 
255 255 255 
255 184 255 
255 198 198 
66 66 255 
255 255 255 
217 67 67 
255 158 158 
255 255 255 
255 255 255 
255 122 122 
255 103 188 
255 255 255 
255 237 255 
255 183 255 
255 169 206 
246 76 76 
255 255 255 
255 229 255 
255 81 102 
255 235 255 
237 237 255 
255 244 255 
255 177 217 
255 239 255 
255 167 167 
205 161 255 
255 152 152 
255 204 208 
255 160 198 
255 189 255 
255 230 255 
255 255 255 
255 255 255 
255 156 156 
255 255 255 
255 245 255 
255 146 255 
255 65 234 
0 0 0 
255 255 255 
255 165 255 
255 255 255 
255 211 212 
255 173 255 
255 255 255 
208 95 255 
255 255 255 
255 248 255 
255 239 242 
255 226 226 
255 171 221 
255 154 255 
255 255 255 
255 159 255 
255 242 255 
255 143 233 
116 116 255 
231 200 255 
255 170 170 
255 255 255 
187 145 145 
255 208 255 
215 165 255 
220 77 145 
255 182 255 
255 211 218 
255 255 255 
255 188 188 
255 224 255 
255 245 255 
255 200 238 
243 151 215 
255 255 255 
255 207 207 
224 73 120 
255 230 255 
190 149 190 
255 148 255 
255 159 255 
255 255 255 
255 212 255 
255 255 255 
151 141 151 
255 255 255 
41 41 132 
255 129 175 
216 174 255 
255 255 255 
255 251 251 
255 171 255 
255 77 220 
204 91 255 
255 179 249 
255 110 163 
255 255 255 
255 255 255 
226 125 255 
255 255 255 
223 92 163 
255 157 196 
255 255 255 
140 140 140 
255 255 255 
255 116 255 
255 255 255 
255 161 217 
255 178 255 
255 255 255 
255 231 255 
255 255 255 
255 198 229 
255 100 202 
255 173 230 
255 154 255 
209 209 239 
255 255 255 
255 255 255 
255 255 255 
255 255 255 
255 255 255 
255 254 255 
255 167 255 
255 100 231 
255 255 255 
255 109 109 
255 116 255 
140 140 140 
255 152 152 
255 250 255 
148 85 248 
117 78 255 
255 255 255 
255 255 255 
255 220 255 
255 255 255 
255 255 255 
246 184 255 
193 193 193 
255 255 255 
255 255 255 
173 173 255 
145 145 187 
216 70 255 
209 111 255 
255 161 255 
255 182 255 
155 143 169 
236 125 255 
76 76 255 
255 255 255 
255 110 255 
255 49 160 
255 120 255 
186 186 255 
213 194 213 
255 255 255 
255 239 255 
156 156 234 
255 255 255 
255 197 255 
255 182 255 
160 160 255 
255 214 255 
255 98 249 
216 216 255 
255 255 255 
240 177 255 
169 143 155 
255 120 255 
171 105 236 
224 169 224 
198 160 255 
255 255 255 
255 255 255 
255 242 255 
255 255 255 
255 255 255 
255 155 255 
255 109 255 
255 255 255 
225 218 255 
255 255 255 
255 199 255 
182 158 255 
255 255 255 
167 99 252 
223 92 223 
255 255 255 
255 97 255 
193 193 193 
155 145 255 
255 125 255 
255 255 255 
119 52 169 
255 173 255 
255 255 255 
255 255 255 
255 177 211 
255 232 255 
255 244 255 
67 67 215 
255 250 255 
149 85 198 
255 160 255 
255 255 255 
255 255 255 
255 195 255 
255 130 255 
132 41 41 
130 80 209 
0 0 0 
227 114 255 
135 127 255 
255 83 255 
255 162 255 
68 63 255 
95 90 255 
142 89 255 
64 46 255 
255 162 255 
50 29 255 
255 102 255 
124 27 143 
248 77 84 
255 91 91 
255 124 255 
255 146 158 
150 46 46 
255 77 77 
80 25 25 
255 93 108 
255 89 108 
255 75 135 
255 55 197 
255 92 177 
207 64 171 
255 25 25 
203 182 255 
255 169 169 
255 107 129 
255 170 255 
255 182 182 
255 171 255 
255 240 255 
255 255 255 
255 255 255 
255 225 225 
255 185 255 
193 193 193 
255 242 255 
255 228 228 
255 132 162 
255 251 255 
255 103 103 
248 85 148 
195 156 204 
255 196 208 
255 85 85 
255 255 255 
255 187 255 
255 255 255 
255 152 152 
255 255 255 
255 237 255 
255 156 180 
255 118 185 
255 255 255 
255 155 255 
255 142 217 
255 153 250 
244 100 255 
255 130 130 
255 101 201 
255 87 255 
255 236 255 
255 204 253 
255 238 255 
255 255 255 
255 255 255 
255 255 255 
255 255 255 
255 255 255 
255 218 255 
255 255 255 
255 244 255 
255 255 255 
255 102 191 
255 54 70 
255 237 242 
255 255 255 
255 255 255 
253 81 125 
92 92 255 
187 145 145 
255 255 255 
240 151 176 
255 255 255 
255 188 255 
255 207 255 
255 198 212 
255 84 84 
206 99 255 
255 255 255 
255 255 255 
255 255 255 
255 198 198 
255 97 255 
255 237 255 
255 255 255 
255 173 255 
255 170 255 
254 156 195 
255 145 155 
255 58 58 
255 122 255 
255 247 255 
255 235 255 
255 205 255 
255 229 255 
191 69 151 
255 246 255 
215 67 67 
224 103 179 
255 156 199 
255 188 255 
255 193 255 
255 255 255 
255 255 255 
41 41 132 
255 127 255 
255 203 255 
255 207 255 
230 230 230 
255 239 239 
255 226 255 
255 150 255 
255 201 255 
255 212 218 
164 112 174 
183 125 255 
255 198 255 
255 255 255 
255 210 255 
255 103 255 
228 92 241 
255 255 255 
106 106 171 
255 255 255 
255 255 255 
255 255 255 
255 255 255 
255 255 255 
255 180 255 
255 202 255 
255 233 255 
255 200 255 
255 89 162 
255 255 255 
255 197 255 
255 255 255 
255 248 248 
239 201 201 
255 255 255 
255 195 255 
151 141 151 
255 255 255 
255 255 255 
255 255 255 
255 153 207 
255 240 255 
0 0 0 
255 169 255 
125 117 255 
249 203 255 
255 255 255 
255 255 255 
238 133 135 
140 140 140 
246 150 255 
255 255 255 
34 15 158 
255 255 255 
255 255 255 
255 255 255 
255 206 255 
255 206 255 
255 255 255 
255 255 255 
255 228 228 
255 255 255 
255 187 255 
255 146 255 
255 65 255 
255 255 255 
255 105 255 
255 125 155 
255 244 255 
255 114 255 
255 255 255 
255 148 255 
173 173 255 
255 124 255 
255 60 113 
145 145 187 
203 103 255 
255 215 255 
255 41 49 
255 211 255 
255 115 166 
136 56 136 
93 93 255 
89 63 203 
255 255 255 
67 67 215 
255 255 255 
255 143 174 
255 255 255 
255 255 255 
255 192 255 
255 245 255 
255 139 255 
255 151 255 
255 163 255 
255 158 255 
255 197 255 
115 115 255 
182 182 255 
255 163 255 
86 86 86 
221 160 255 
255 84 255 
206 59 190 
255 187 255 
227 103 255 
255 191 255 
173 109 255 
221 85 255 
246 76 76 
255 255 255 
255 255 255 
105 105 255 
255 142 255 
255 255 255 
255 255 255 
254 150 255 
0 0 0 
226 143 255 
255 255 255 
145 145 187 
177 117 255 
193 193 193 
185 153 255 
255 255 255 
241 241 255 
255 117 255 
255 193 255 
255 110 123 
211 147 255 
255 194 255 
69 36 255 
255 117 255 
132 41 41 
255 205 255 
165 94 255 
255 255 255 
255 75 255 
61 47 255 
77 65 255 
184 182 255 
255 162 255 
89 48 255 
71 67 255 
137 62 255 
55 55 255 
144 77 255 
193 42 145 
84 77 249 
61 61 255 
87 77 255 
255 105 255 
255 114 117 
255 84 138 
235 44 44 
184 55 130 
255 92 103 
255 51 90 
255 150 150 
255 83 251 
255 69 163 
255 69 86 
255 77 255 
213 30 30 
255 85 161 
255 19 62 
255 176 176 
255 188 255 
255 176 176 
255 255 255 
255 255 255 
255 225 255 
255 255 255 
255 222 255 
255 91 255 
255 102 255 
255 143 143 
255 190 255 
194 145 255 
223 69 89 
255 99 99 
184 67 140 
136 56 136 
255 255 255 
255 121 176 
255 255 255 
255 255 255 
255 255 255 
255 161 184 
255 255 255 
255 169 227 
255 255 255 
255 189 189 
255 176 247 
250 152 152 
255 92 92 
255 255 255 
255 194 194 
255 135 255 
255 155 203 
255 123 123 
255 86 252 
255 255 255 
255 195 255 
255 228 228 
255 254 255 
255 255 255 
255 255 255 
184 67 140 
255 85 85 
255 102 255 
196 166 255 
255 255 255 
255 255 255 
180 56 56 
255 109 255 
255 255 255 
255 255 255 
255 224 255 
255 119 255 
255 255 255 
255 214 255 
255 85 85 
255 163 219 
255 157 255 
255 255 255 
255 255 255 
0 0 0 
255 200 200 
115 115 255 
255 160 255 
41 41 132 
200 41 79 
255 255 255 
255 107 255 
255 255 255 
234 73 96 
255 255 255 
255 255 255 
255 120 255 
255 50 50 
255 255 255 
255 183 228 
255 255 255 
255 255 255 
255 169 255 
255 255 255 
255 255 255 
255 209 255 
255 255 255 
240 96 188 
255 251 255 
255 255 255 
255 255 255 
255 231 255 
255 255 255 
255 177 183 
255 175 218 
255 233 255 
238 238 255 
141 101 245 
255 96 166 
255 191 255 
255 204 204 
255 255 255 
199 146 255 
255 125 255 
99 56 255 
255 226 226 
204 106 255 
132 41 41 
255 109 255 
255 255 255 
255 255 255 
255 248 255 
255 255 255 
255 86 255 
255 220 255 
194 145 155 
255 255 255 
255 255 255 
238 141 238 
255 247 255 
255 252 255 
249 151 255 
255 157 255 
255 155 179 
255 255 255 
255 255 255 
255 177 255 
255 255 255 
234 156 156 
102 32 102 
255 255 255 
215 171 171 
255 115 166 
246 210 255 
255 152 255 
255 217 255 
201 153 153 
145 145 187 
255 154 246 
255 255 255 
62 19 62 
255 255 255 
255 212 255 
255 255 255 
255 255 255 
255 255 255 
255 255 255 
204 167 255 
255 255 255 
255 255 255 
255 221 255 
243 214 255 
255 245 255 
215 67 67 
255 171 255 
255 255 255 
255 232 255 
255 194 255 
255 236 255 
255 255 255 
255 82 177 
255 182 255 
255 223 255 
211 155 179 
198 198 255 
255 148 189 
255 255 255 
145 77 156 
255 255 255 
255 138 255 
255 86 157 
241 204 234 
156 156 255 
255 255 255 
255 197 255 
255 255 255 
255 255 255 
255 174 255 
255 255 255 
233 80 162 
255 146 188 
255 179 242 
0 0 0 
231 114 255 
255 173 255 
255 255 255 
0 0 0 
189 189 255 
255 255 255 
255 192 255 
255 223 255 
255 206 255 
201 201 239 
221 117 255 
255 69 204 
255 59 150 
255 67 152 
255 255 255 
255 55 132 
252 85 163 
255 158 255 
255 198 255 
255 223 255 
156 81 255 
171 91 255 
202 111 255 
201 81 255 
255 229 255 
255 240 255 
255 255 255 
255 162 255 
255 229 255 
255 148 255 
255 255 255 
255 135 255 
255 129 255 
255 140 255 
209 102 255 
225 149 255 
118 70 255 
100 44 142 
192 180 255 
255 165 221 
255 249 255 
255 200 255 
148 145 255 
255 207 255 
255 106 171 
140 140 140 
42 22 146 
0 0 0 
255 91 255 
110 41 255 
93 36 118 
55 41 255 
104 72 255 
171 79 255 
114 76 255 
255 240 255 
197 59 255 
92 33 255 
85 64 255 
177 76 255 
255 117 255 
255 102 137 
255 103 152 
255 138 144 
255 255 255 
202 19 19 
255 58 91 
255 255 255 
255 126 181 
218 67 67 
255 77 85 
255 149 149 
255 84 90 
255 44 44 
255 90 90 
0 0 0 
255 41 93 
255 179 255 
255 255 255 
255 154 255 
255 255 255 
255 252 255 
255 168 255 
255 255 255 
248 127 255 
255 126 255 
255 255 255 
255 217 255 
255 224 255 
255 243 255 
255 89 129 
197 87 169 
255 255 255 
255 145 255 
255 255 255 
255 255 255 
255 234 234 
204 141 147 
255 126 126 
255 255 255 
195 156 252 
255 255 255 
255 255 255 
255 255 255 
255 255 255 
255 174 255 
255 109 255 
145 145 187 
255 255 255 
255 255 255 
255 167 167 
255 195 226 
255 134 255 
255 255 255 
255 255 255 
187 145 145 
255 255 255 
242 179 255 
255 107 255 
255 214 255 
255 170 178 
255 151 151 
255 235 244 
255 255 255 
255 255 255 
230 224 255 
255 226 226 
190 85 160 
255 255 255 
255 177 255 
255 110 190 
255 255 255 
140 140 140 
255 253 255 
255 255 255 
255 139 139 
187 145 145 
255 255 255 
232 57 72 
255 94 94 
255 255 255 
255 255 255 
255 255 255 
255 255 255 
255 197 255 
255 176 255 
255 98 234 
244 197 205 
255 144 255 
255 255 255 
209 127 255 
255 244 255 
255 255 255 
255 235 255 
239 66 180 
149 149 255 
255 164 255 
255 170 170 
255 255 255 
255 179 255 
255 255 255 
255 255 255 
255 180 181 
255 255 255 
255 255 255 
255 255 255 
255 255 255 
255 255 255 
255 255 255 
255 255 255 
255 255 255 
255 255 255 
255 80 161 
255 255 255 
140 140 140 
255 255 255 
255 255 255 
255 255 255 
255 226 255 
255 171 255 
255 173 255 
255 255 255 
255 214 255 
255 247 255 
255 255 255 
197 158 255 
255 177 255 
244 197 216 
234 204 255 
0 0 0 
255 140 255 
255 255 255 
255 162 222 
193 193 193 
255 101 255 
255 255 255 
255 153 255 
255 255 255 
255 197 228 
255 202 255 
255 255 255 
236 206 255 
255 120 255 
255 255 255 
255 255 255 
255 157 255 
255 255 255 
255 255 255 
150 47 185 
255 192 255 
255 150 255 
255 144 255 
255 193 255 
153 67 67 
255 189 255 
255 66 255 
255 110 123 
255 111 255 
255 183 255 
197 149 197 
255 174 255 
239 201 201 
255 255 255 
255 241 255 
250 110 110 
255 255 255 
201 164 255 
255 255 255 
255 255 255 
255 187 255 
41 41 132 
255 79 101 
245 209 245 
255 219 247 
255 255 255 
255 120 206 
255 193 255 
228 91 255 
255 255 255 
255 81 255 
255 255 255 
164 156 255 
255 109 184 
226 226 255 
255 255 255 
255 255 255 
173 173 255 
255 155 251 
255 255 255 
255 255 255 
255 168 255 
255 255 255 
152 152 255 
255 255 255 
255 255 255 
255 255 255 
255 162 255 
255 244 255 
255 238 255 
158 147 208 
245 176 255 
255 195 255 
239 239 255 
255 198 255 
149 149 222 
234 154 255 
255 255 255 
155 70 255 
56 56 180 
255 196 233 
255 255 255 
255 241 255 
239 73 255 
206 78 197 
255 255 255 
255 255 255 
255 157 255 
255 186 186 
255 235 255 
255 255 255 
255 255 255 
255 137 255 
255 255 255 
255 255 255 
118 118 255 
255 234 255 
255 173 240 
255 100 229 
255 74 255 
255 255 255 
255 255 255 
255 180 227 
255 236 255 
167 167 255 
255 255 255 
255 116 255 
41 41 132 
67 67 215 
67 67 153 
255 181 255 
255 255 255 
111 73 255 
255 155 255 
47 36 255 
41 41 132 
179 81 255 
255 66 255 
203 101 255 
226 62 255 
61 61 255 
255 67 255 
182 92 255 
104 83 255 
53 47 152 
224 96 255 
92 42 210 
73 73 237 
255 132 255 
255 109 126 
255 87 87 
255 58 82 
80 25 25 
255 47 133 
255 84 84 
180 56 56 
255 58 144 
255 78 90 
255 92 92 
221 23 50 
255 235 255 
255 83 96 
255 49 88 
255 187 255 
255 198 248 
201 153 153 
255 232 255 
255 204 255 
255 157 162 
255 255 255 
255 50 50 
255 132 178 
255 111 230 
255 228 255 
255 255 255 
255 204 255 
255 146 146 
255 255 255 
255 255 255 
255 139 145 
255 105 170 
255 255 255 
255 214 214 
255 255 255 
255 194 202 
255 228 228 
255 119 255 
246 76 76 
255 91 91 
255 239 255 
132 41 41 
255 255 255 
255 198 198 
255 115 232 
195 156 204 
255 25 25 
255 255 255 
255 188 255 
67 67 153 
255 255 255 
255 255 255 
255 93 187 
173 81 226 
255 255 255 
255 195 255 
255 246 255 
255 242 254 
255 233 255 
255 80 181 
255 255 255 
255 165 225 
255 254 255 
255 197 255 
255 171 255 
255 151 255 
255 182 255 
255 255 255 
255 255 255 
255 136 161 
92 92 255 
255 201 243 
255 255 255 
255 150 255 
255 147 255 
255 255 255 
234 156 156 
255 90 163 
255 125 173 
255 255 255 
255 222 222 
255 151 151 
255 245 245 
255 255 255 
164 92 164 
255 222 255 
255 142 255 
255 255 255 
255 255 255 
228 82 173 
255 172 255 
255 182 207 
255 152 161 
255 56 56 
255 255 255 
255 227 243 
255 176 255 
255 139 255 
255 225 255 
171 143 225 
255 255 255 
255 255 255 
255 255 255 
255 224 224 
255 195 255 
213 194 213 
255 230 255 
255 156 156 
255 156 204 
255 255 255 
255 255 255 
255 161 255 
255 194 194 
255 133 255 
255 214 255 
255 157 200 
255 171 255 
255 189 255 
232 232 255 
255 179 214 
255 144 226 
255 147 255 
201 201 255 
215 210 255 
247 219 255 
255 244 255 
248 181 255 
255 255 255 
255 255 255 
246 76 76 
255 233 255 
255 255 255 
231 96 255 
255 182 255 
255 255 255 
255 255 255 
255 160 255 
255 233 255 
153 153 201 
132 41 41 
255 255 255 
255 92 92 
49 15 157 
255 255 255 
255 255 255 
255 255 255 
223 92 163 
255 153 255 
255 122 170 
195 155 255 
255 255 255 
81 50 162 
255 147 197 
255 255 255 
255 245 255 
145 145 187 
255 180 255 
50 50 255 
255 240 255 
255 171 207 
255 188 233 
255 183 255 
193 193 193 
255 189 255 
255 192 255 
255 198 255 
255 255 255 
195 77 77 
255 255 255 
255 226 255 
255 255 255 
198 159 255 
186 186 255 
255 204 255 
255 157 203 
255 105 255 
255 255 255 
179 97 134 
255 255 255 
255 255 255 
163 92 255 
201 201 255 
255 255 255 
255 255 255 
255 255 255 
255 178 255 
255 160 217 
147 141 204 
255 249 255 
195 156 204 
255 255 255 
255 102 255 
255 255 255 
248 103 255 
255 255 255 
255 211 255 
224 183 255 
98 98 255 
255 171 207 
255 181 255 
255 201 255 
195 195 227 
231 191 255 
255 255 255 
92 92 255 
52 52 255 
255 255 255 
68 68 255 
109 109 255 
255 234 255 
255 200 255 
255 214 214 
255 255 255 
255 255 255 
157 83 255 
255 255 255 
255 182 255 
255 255 255 
255 255 255 
255 255 255 
255 158 255 
201 196 255 
255 255 255 
88 77 255 
255 198 255 
255 45 255 
255 143 255 
255 241 255 
255 255 255 
89 69 222 
247 231 247 
255 255 255 
255 165 255 
180 70 255 
255 255 255 
151 89 255 
255 255 255 
255 237 255 
255 230 255 
115 39 205 
95 72 239 
80 33 255 
93 73 255 
98 69 255 
92 81 255 
124 66 255 
71 45 255 
137 125 255 
255 67 218 
255 121 255 
255 112 255 
179 119 255 
171 109 255 
255 255 255 
228 152 255 
255 36 255 
255 40 40 
255 105 147 
255 98 116 
255 42 80 
255 68 214 
255 81 212 
184 57 66 
255 255 255 
255 70 135 
255 91 115 
0 0 0 
215 67 91 
255 45 185 
255 46 72 
255 56 255 
255 95 117 
255 71 90 
255 66 87 
255 146 255 
255 137 255 
140 140 140 
255 173 173 
0 0 0 
255 92 92 
255 119 255 
120 73 224 
255 96 255 
255 159 220 
255 158 255 
255 255 255 
255 149 180 
255 167 246 
255 239 239 
255 82 82 
255 116 128 
255 249 249 
255 163 163 
255 234 255 
255 188 255 
255 194 194 
255 106 194 
255 255 255 
255 65 65 
255 255 255 
255 162 218 
255 255 255 
255 215 215 
110 110 250 
255 255 255 
255 206 255 
41 41 132 
255 93 108 
255 237 255 
255 234 234 
255 243 243 
255 111 255 
255 160 255 
255 230 230 
255 208 238 
247 77 77 
255 255 255 
255 193 255 
208 147 158 
255 219 255 
255 164 232 
255 214 214 
255 90 255 
255 205 255 
255 255 255 
255 167 255 
255 196 196 
187 145 145 
193 193 193 
255 255 255 
255 164 255 
255 206 243 
255 152 244 
255 156 156 
255 155 255 
255 141 144 
255 173 173 
255 255 255 
255 180 187 
255 236 255 
255 255 255 
255 162 162 
255 201 255 
255 34 45 
144 76 218 
255 255 255 
0 0 0 
255 255 255 
255 215 255 
255 52 52 
255 230 255 
255 255 255 
255 255 255 
255 255 255 
255 255 255 
255 212 212 
187 145 145 
255 239 255 
255 155 184 
208 147 172 
255 40 255 
255 255 255 
255 204 204 
255 255 255 
255 186 255 
255 255 255 
255 255 255 
255 255 255 
255 109 255 
255 255 255 
255 255 255 
255 245 255 
255 200 255 
221 203 255 
255 255 255 
255 160 233 
221 221 255 
255 255 255 
255 200 255 
255 255 255 
255 200 255 
145 145 187 
255 255 255 
255 118 255 
255 159 255 
62 19 62 
255 230 255 
255 100 165 
136 56 255 
255 255 255 
255 214 255 
255 191 255 
230 230 230 
255 193 255 
255 255 255 
255 151 255 
255 255 255 
255 158 255 
255 249 255 
132 41 41 
152 152 250 
255 228 255 
255 164 235 
255 150 191 
255 202 255 
255 255 255 
255 255 255 
0 0 0 
255 95 253 
255 96 188 
255 255 255 
194 193 255 
255 169 255 
255 255 255 
255 126 255 
255 255 255 
215 67 67 
255 240 255 
255 192 255 
255 169 169 
228 197 255 
106 106 228 
255 87 255 
255 198 255 
252 174 255 
231 156 255 
250 152 152 
255 111 255 
255 255 255 
236 236 255 
255 201 232 
255 255 255 
177 75 212 
255 255 255 
255 252 255 
255 228 255 
255 210 255 
255 188 255 
255 229 255 
255 255 255 
255 234 255 
255 117 180 
156 156 255 
255 211 255 
255 255 255 
255 217 217 
255 242 255 
255 173 255 
255 255 255 
255 255 255 
41 41 132 
255 255 255 
255 211 255 
255 255 255 
255 196 215 
255 255 255 
255 138 255 
255 164 255 
255 149 174 
255 132 255 
255 255 255 
145 145 187 
211 157 203 
192 139 255 
255 169 255 
255 120 255 
255 222 255 
255 255 255 
255 67 255 
255 254 255 
237 157 255 
255 255 255 
32 32 255 
255 171 255 
255 138 255 
211 211 255 
255 255 255 
255 55 255 
255 235 255 
56 56 180 
220 195 255 
255 255 255 
255 79 255 
199 140 255 
255 255 255 
255 255 255 
89 69 222 
231 231 255 
255 228 228 
203 156 255 
62 19 62 
140 140 140 
255 78 255 
178 76 255 
73 32 103 
19 19 202 
73 32 103 
79 79 255 
114 68 255 
165 80 255 
82 53 255 
97 79 255 
255 57 255 
60 60 194 
160 80 255 
99 82 255 
90 84 255 
64 59 255 
255 82 255 
255 92 255 
89 81 255 
193 60 107 
255 57 101 
255 66 81 
255 62 76 
255 79 115 
255 103 217 
255 53 159 
255 70 181 
255 62 63 
255 116 123 
255 48 59 
255 246 255 
255 39 57 
255 133 255 
255 252 255 
255 81 136 
255 94 129 
255 109 109 
87 27 44 
255 45 80 
255 235 255 
255 255 255 
255 237 255 
255 181 213 
255 245 255 
132 41 41 
255 109 255 
255 255 255 
255 155 203 
255 205 255 
255 255 255 
255 235 255 
0 0 0 
255 123 241 
255 119 119 
255 255 255 
255 222 255 
255 255 255 
255 158 254 
255 255 255 
255 87 255 
164 92 164 
255 203 235 
255 168 255 
247 193 204 
255 92 92 
255 180 222 
232 111 217 
255 243 255 
255 135 255 
255 241 255 
255 140 255 
255 167 255 
255 126 195 
255 198 204 
255 123 255 
255 50 255 
255 214 255 
132 41 41 
255 255 255 
255 255 255 
255 245 255 
255 172 255 
255 160 165 
255 255 255 
255 205 224 
255 255 255 
255 255 255 
255 171 208 
255 50 81 
255 167 255 
255 200 255 
255 122 255 
255 74 187 
255 255 255 
255 255 255 
209 164 209 
255 255 255 
255 134 208 
255 249 255 
255 208 237 
255 102 138 
136 56 136 
255 99 215 
0 0 0 
255 255 255 
255 188 249 
209 164 209 
255 255 255 
255 255 255 
255 148 255 
255 216 255 
255 176 196 
255 182 255 
255 255 255 
255 109 152 
255 255 255 
255 237 255 
255 255 255 
255 169 255 
176 89 218 
255 159 241 
255 255 255 
255 255 255 
208 147 172 
255 255 255 
255 255 255 
255 240 255 
255 90 163 
255 255 255 
255 255 255 
152 152 250 
255 197 255 
190 118 255 
255 255 255 
255 159 255 
255 255 255 
255 255 255 
255 151 192 
255 196 255 
255 186 255 
255 219 225 
255 57 170 
255 229 255 
255 255 255 
179 179 255 
255 255 255 
255 255 255 
201 201 239 
255 217 245 
255 212 241 
255 146 255 
153 153 255 
255 255 255 
255 240 255 
255 255 255 
255 131 255 
251 98 231 
255 250 255 
255 250 255 
255 255 255 
174 156 255 
255 197 197 
140 140 140 
215 139 255 
255 255 255 
183 125 255 
255 254 255 
255 232 255 
142 44 255 
255 246 255 
255 255 255 
255 255 255 
255 255 255 
255 255 255 
255 255 255 
215 67 67 
145 145 187 
255 255 255 
255 255 255 
255 255 255 
255 250 255 
255 255 255 
165 155 255 
255 212 255 
109 109 255 
162 50 108 
255 255 255 
255 218 255 
255 237 255 
255 228 255 
255 207 255 
223 162 255 
255 201 255 
153 146 255 
255 255 255 
255 255 255 
255 255 255 
255 255 255 
255 126 255 
255 160 255 
140 140 140 
255 144 255 
32 32 255 
255 255 255 
255 43 106 
218 76 255 
255 255 255 
255 255 255 
234 162 255 
255 255 255 
136 56 136 
220 85 189 
255 255 255 
199 192 255 
240 240 255 
255 255 255 
230 126 255 
255 255 255 
255 210 255 
255 146 255 
255 195 255 
255 254 255 
255 255 255 
195 195 227 
255 255 255 
255 136 255 
255 193 255 
190 190 255 
255 255 255 
238 107 255 
255 182 255 
255 194 255 
246 76 76 
240 87 255 
255 255 255 
229 173 255 
255 166 255 
255 178 255 
255 255 255 
255 78 251 
255 201 201 
151 141 151 
162 153 255 
255 229 255 
145 145 187 
255 115 140 
255 234 255 
208 198 255 
208 153 162 
255 175 255 
255 247 255 
255 143 255 
189 131 255 
41 41 132 
248 142 255 
93 57 255 
230 82 255 
146 67 255 
72 67 231 
92 62 255 
92 92 255 
76 76 255 
110 55 177 
149 92 255 
122 48 255 
84 55 177 
255 255 255 
137 100 255 
255 103 255 
153 113 255 
181 98 255 
199 142 255 
255 137 255 
239 40 255 
132 130 255 
255 108 149 
255 63 166 
255 72 72 
255 62 130 
255 55 255 
255 80 255 
255 84 255 
132 41 41 
255 53 171 
255 62 107 
255 79 110 
132 41 255 
248 42 64 
255 129 255 
255 182 206 
255 117 131 
255 64 85 
255 79 97 
255 89 180 
255 93 108 
255 75 112 
67 67 153 
255 229 229 
255 182 182 
195 119 255 
255 236 255 
255 166 166 
255 193 255 
183 126 255 
255 169 255 
255 149 226 
255 200 246 
255 224 240 
255 104 255 
255 138 173 
0 0 0 
246 76 76 
255 182 255 
255 255 255 
252 153 153 
255 255 255 
255 186 255 
255 255 255 
255 232 232 
255 223 255 
255 255 255 
255 166 240 
255 255 255 
255 255 255 
255 170 227 
228 71 191 
255 167 204 
255 147 255 
255 178 178 
255 147 188 
255 174 174 
255 255 255 
255 232 247 
255 255 255 
255 241 241 
255 255 255 
255 255 255 
255 255 255 
255 172 255 
255 255 255 
255 255 255 
255 93 111 
215 67 67 
255 167 255 
255 239 255 
255 255 255 
255 255 255 
255 211 255 
255 83 159 
255 203 255 
255 125 255 
255 255 255 
250 152 152 
218 162 253 
255 155 251 
250 158 255 
255 160 255 
204 204 255 
255 111 240 
132 41 41 
255 255 255 
255 255 255 
255 255 255 
255 249 255 
255 255 255 
255 202 255 
255 187 255 
179 155 255 
255 255 255 
255 217 224 
255 255 255 
255 255 255 
255 255 255 
255 239 255 
255 235 236 
255 255 255 
255 232 255 
255 255 255 
227 195 195 
255 164 255 
255 255 255 
255 167 255 
255 255 255 
255 218 255 
255 255 255 
255 255 255 
255 255 255 
255 255 255 
187 145 145 
255 147 255 
255 105 171 
255 255 255 
255 255 255 
255 126 126 
255 239 255 
255 166 176 
227 203 255 
255 216 216 
255 111 111 
255 161 255 
255 208 255 
255 255 255 
255 255 255 
227 195 195 
255 255 255 
255 217 251 
255 255 255 
255 255 255 
223 92 223 
255 208 255 
140 140 140 
255 207 207 
255 255 255 
255 255 255 
255 255 255 
255 198 255 
255 255 255 
255 160 160 
255 158 255 
255 151 255 
183 125 255 
255 144 153 
255 172 255 
255 255 255 
255 194 255 
255 195 255 
255 255 255 
255 204 255 
130 130 255 
255 167 167 
255 235 242 
187 145 145 
255 255 255 
255 255 255 
255 255 255 
255 255 255 
255 255 255 
255 255 255 
255 236 255 
255 245 255 
255 161 209 
255 147 255 
255 200 255 
255 167 255 
208 147 172 
255 104 255 
0 0 0 
255 255 255 
255 255 255 
255 179 179 
255 224 255 
149 69 255 
255 245 255 
255 97 255 
255 204 255 
255 255 255 
81 50 162 
255 219 252 
255 211 255 
255 255 255 
255 155 255 
255 174 255 
255 203 255 
140 140 140 
255 255 255 
255 255 255 
255 255 255 
255 255 255 
234 204 255 
255 173 173 
255 53 173 
255 132 255 
255 176 255 
255 255 255 
255 164 255 
217 155 255 
187 145 145 
255 171 255 
255 208 255 
218 76 144 
255 130 255 
255 93 255 
255 195 255 
255 255 255 
255 178 255 
195 168 255 
255 255 255 
152 152 255 
255 255 255 
255 154 255 
255 255 255 
255 60 177 
255 214 255 
237 126 255 
255 195 255 
255 255 255 
255 255 255 
255 229 255 
255 255 255 
255 213 255 
255 211 255 
255 233 255 
255 140 255 
255 163 255 
255 142 255 
72 57 207 
110 110 250 
76 76 246 
255 207 255 
134 50 255 
138 69 255 
102 83 255 
75 67 255 
141 69 221 
95 95 255 
255 62 255 
39 39 255 
255 104 255 
161 46 255 
60 60 194 
255 47 255 
115 54 255 
60 54 255 
255 255 255 
128 122 255 
157 77 255 
255 192 255 
199 87 255 
54 54 254 
65 51 255 
103 89 255 
255 43 50 
255 84 84 
255 62 62 
255 56 85 
157 49 90 
255 57 81 
255 47 133 
255 126 255 
255 120 255 
255 255 255 
99 30 66 
255 77 107 
255 47 123 
255 73 82 
255 79 79 
248 77 77 
255 82 82 
255 45 53 
255 64 74 
255 77 99 
255 56 56 
255 98 255 
240 96 188 
255 255 255 
255 255 255 
255 215 215 
255 150 255 
255 62 255 
255 255 255 
255 93 229 
255 255 255 
255 120 255 
255 255 255 
255 76 184 
255 159 255 
255 157 255 
255 120 216 
255 22 42 
255 91 255 
255 84 168 
147 58 147 
255 249 249 
216 82 124 
255 202 242 
255 255 255 
255 255 255 
255 255 255 
134 50 236 
255 161 255 
255 131 255 
255 243 255 
255 79 123 
255 255 255 
255 253 253 
255 243 255 
255 194 255 
255 167 255 
255 159 255 
232 232 232 
255 117 233 
255 198 255 
255 255 255 
246 76 255 
255 123 230 
255 212 255 
254 196 255 
255 197 255 
255 255 255 
0 0 0 
255 122 255 
153 67 67 
255 156 255 
255 255 255 
255 146 255 
255 212 255 
255 193 200 
225 99 204 
255 237 251 
255 255 255 
153 78 201 
255 230 255 
255 157 215 
255 255 255 
255 255 255 
255 255 255 
255 147 188 
255 241 241 
255 167 167 
140 140 140 
255 255 255 
255 255 255 
255 255 255 
0 0 0 
255 113 152 
255 247 255 
255 152 152 
255 240 255 
255 192 255 
255 255 255 
255 163 163 
255 255 255 
182 182 255 
187 145 145 
255 248 255 
255 139 255 
255 223 251 
227 227 255 
255 157 255 
255 145 145 
77 77 195 
255 255 255 
255 210 255 
0 0 0 
255 255 255 
255 255 255 
153 67 67 
255 255 255 
213 202 255 
255 255 255 
255 53 171 
255 255 255 
255 255 255 
255 153 244 
255 106 106 
246 76 76 
255 255 255 
255 255 255 
255 206 255 
255 255 255 
255 255 255 
255 255 255 
255 255 255 
255 192 255 
255 191 255 
255 216 255 
255 255 255 
255 147 255 
255 240 255 
255 193 255 
255 251 255 
255 250 255 
255 224 255 
174 127 255 
255 255 255 
255 255 255 
255 171 255 
255 255 255 
255 255 255 
255 193 255 
255 255 255 
232 232 255 
255 202 255 
255 255 255 
255 255 255 
255 169 255 
255 110 255 
255 255 255 
255 255 255 
206 170 255 
255 192 255 
255 231 255 
255 253 255 
255 210 255 
255 255 255 
200 151 211 
255 255 255 
255 196 255 
255 243 255 
92 92 255 
255 111 255 
140 140 140 
255 255 255 
255 255 255 
255 224 251 
255 255 255 
255 255 255 
255 255 255 
255 255 255 
255 167 255 
255 255 255 
255 212 255 
255 124 255 
255 164 220 
255 255 255 
255 160 198 
255 220 255 
255 255 255 
255 255 255 
216 76 216 
255 255 255 
255 171 255 
67 67 217 
255 255 255 
234 204 255 
255 255 255 
255 255 255 
215 205 255 
255 233 255 
41 41 132 
204 128 255 
255 179 255 
254 239 255 
255 255 255 
255 249 255 
255 232 255 
207 196 255 
255 101 255 
156 77 145 
255 97 246 
255 183 255 
0 0 0 
193 153 224 
255 151 255 
201 94 255 
255 231 255 
255 255 255 
255 231 255 
255 255 255 
156 156 255 
145 145 187 
156 156 255 
207 157 255 
151 141 151 
147 84 255 
102 32 102 
255 164 255 
200 193 200 
255 230 255 
255 176 255 
255 255 255 
204 192 255 
255 255 255 
231 178 255 
255 186 255 
44 27 87 
145 40 255 
255 52 255 
89 53 255 
120 75 255 
72 43 255 
116 71 227 
209 190 255 
255 79 255 
74 26 255 
130 109 255 
94 59 255 
108 51 255 
133 113 255 
108 57 255 
142 63 219 
54 54 254 
218 60 227 
96 85 255 
168 165 255 
64 46 255 
133 121 255 
80 25 25 
150 46 46 
255 96 97 
207 64 189 
232 53 97 
255 73 80 
255 58 73 
255 194 237 
80 25 25 
255 78 78 
238 38 66 
255 56 170 
255 88 124 
190 38 59 
210 28 91 
255 111 243 
255 159 255 
255 57 94 
210 65 243 
182 56 169 
255 66 82 
191 59 88 
255 41 132 
227 71 140 
255 243 255 
255 100 196 
255 180 180 
255 211 255 
255 255 255 
255 255 255 
255 223 223 
255 182 255 
255 155 255 
255 168 181 
255 255 255 
255 255 255 
255 255 255 
230 230 230 
255 225 255 
255 104 112 
255 150 250 
255 255 255 
255 78 255 
188 58 81 
255 221 225 
255 223 255 
255 186 226 
255 233 255 
255 255 255 
255 72 175 
255 209 217 
255 255 255 
255 223 255 
255 190 255 
255 116 116 
255 255 255 
255 138 255 
255 208 255 
255 85 85 
255 154 198 
255 160 255 
255 255 255 
255 255 255 
255 255 255 
247 206 255 
230 230 230 
255 220 255 
255 253 255 
255 255 255 
255 60 95 
255 118 242 
255 253 255 
255 255 255 
255 255 255 
255 125 236 
255 164 255 
255 159 255 
255 209 255 
255 194 255 
255 255 255 
255 255 255 
255 255 255 
193 193 193 
255 236 255 
255 255 255 
255 255 255 
255 251 255 
255 255 255 
255 139 183 
187 155 255 
255 116 128 
255 255 255 
255 255 255 
255 255 255 
166 96 255 
255 255 255 
255 255 255 
218 76 144 
255 232 255 
255 255 255 
255 218 255 
136 56 136 
255 144 255 
255 255 255 
221 221 255 
255 255 255 
255 255 255 
230 153 190 
255 255 255 
89 69 222 
227 221 255 
255 32 32 
255 255 255 
255 255 255 
255 255 255 
255 255 255 
255 255 255 
255 255 255 
221 203 246 
255 255 255 
255 255 255 
147 145 238 
255 120 214 
255 255 255 
229 206 255 
173 173 255 
255 255 255 
221 159 255 
255 147 255 
255 234 255 
255 182 215 
255 90 138 
255 255 255 
255 140 255 
255 140 255 
255 206 255 
255 255 255 
255 251 251 
255 255 255 
255 255 255 
255 255 255 
193 193 193 
255 164 255 
255 251 255 
255 255 255 
255 177 255 
132 75 187 
255 255 255 
254 177 255 
255 167 245 
230 230 230 
255 178 255 
255 139 255 
255 255 255 
255 209 216 
248 197 248 
255 255 255 
255 145 255 
223 92 223 
255 80 255 
255 255 255 
255 194 255 
255 143 143 
240 240 255 
255 195 195 
255 255 255 
255 255 255 
255 255 255 
255 255 255 
255 184 186 
255 255 255 
255 255 255 
255 251 251 
255 255 255 
153 47 255 
255 255 255 
255 255 255 
205 179 255 
255 173 255 
253 226 255 
255 156 198 
255 255 255 
255 196 206 
255 229 255 
255 255 255 
255 181 255 
246 211 255 
164 164 255 
233 96 255 
76 76 246 
255 105 255 
167 167 255 
255 255 255 
255 255 255 
255 222 255 
237 237 255 
255 224 255 
255 255 255 
255 172 255 
255 83 206 
255 255 255 
255 169 255 
158 158 255 
126 126 255 
175 174 255 
255 177 255 
255 255 255 
255 238 255 
255 166 255 
255 53 156 
255 255 255 
255 196 255 
255 182 255 
255 186 255 
255 255 255 
255 173 255 
255 244 255 
255 255 255 
255 255 255 
255 87 201 
255 255 255 
255 94 255 
153 67 67 
247 219 255 
255 147 255 
255 134 255 
125 125 255 
164 144 178 
255 255 255 
255 194 255 
255 182 255 
255 255 255 
255 32 232 
63 38 255 
52 52 255 
25 25 80 
42 33 255 
189 89 255 
73 44 143 
96 59 255 
128 16 93 
167 116 255 
255 73 255 
169 91 255 
93 77 255 
54 42 135 
198 118 255 
169 26 84 
82 67 255 
223 90 255 
90 84 255 
255 101 255 
195 63 202 
109 99 255 
255 255 255 
138 117 255 
223 64 69 
255 53 78 
255 69 255 
255 75 96 
255 100 126 
110 34 34 
255 91 110 
255 95 173 
255 79 102 
255 131 255 
212 48 56 
255 255 255 
255 68 118 
255 119 169 
255 100 130 
255 96 97 
80 25 25 
255 65 255 
255 49 69 
255 52 93 
255 71 71 
232 32 255 
255 68 176 
255 80 80 
38 12 38 
255 201 201 
255 233 248 
255 113 255 
255 255 255 
250 110 110 
255 146 255 
255 255 255 
255 155 252 
255 149 167 
255 255 255 
255 140 255 
255 161 255 
239 68 81 
145 145 187 
255 104 177 
255 255 255 
255 163 163 
255 231 255 
184 67 140 
255 119 119 
255 165 210 
255 209 255 
255 82 255 
255 255 255 
255 116 128 
255 147 147 
255 200 255 
255 206 206 
255 203 240 
202 94 255 
255 224 224 
255 224 255 
255 255 255 
169 143 169 
255 205 255 
255 213 255 
255 149 149 
255 233 255 
255 255 255 
255 255 255 
255 243 255 
161 43 138 
255 185 219 
255 255 255 
255 255 255 
255 255 255 
41 41 132 
255 168 226 
255 193 255 
153 153 201 
255 255 255 
255 240 255 
255 233 255 
230 230 230 
255 255 255 
255 172 255 
255 227 255 
255 198 198 
219 131 255 
255 181 182 
255 255 255 
255 208 237 
255 255 255 
255 255 255 
255 226 255 
255 237 255 
255 255 255 
255 255 255 
155 143 169 
255 142 170 
196 149 227 
252 225 255 
239 201 201 
255 255 255 
140 140 140 
255 221 255 
255 255 255 
255 255 255 
255 238 255 
190 190 255 
240 157 166 
200 193 200 
255 255 255 
255 190 255 
255 255 255 
255 255 255 
252 99 167 
255 255 255 
255 255 255 
255 246 255 
255 255 255 
253 253 255 
102 32 102 
255 255 255 
193 143 167 
195 77 77 
255 255 255 
255 209 255 
255 179 179 
255 150 255 
255 255 255 
255 255 255 
255 255 255 
255 255 255 
229 198 229 
255 156 156 
255 222 255 
255 184 217 
255 255 255 
172 64 172 
255 115 166 
255 255 255 
229 198 229 
238 238 255 
255 255 255 
255 255 255 
255 255 255 
255 255 255 
255 210 255 
255 255 255 
255 217 255 
255 255 255 
255 117 255 
255 255 255 
255 255 255 
255 255 255 
255 255 255 
255 223 255 
255 165 255 
255 226 255 
255 255 255 
255 255 255 
255 255 255 
255 227 255 
255 255 255 
255 255 255 
255 255 255 
255 255 255 
182 152 244 
255 255 255 
255 255 255 
215 67 67 
255 255 255 
152 152 250 
255 255 255 
255 238 255 
255 230 255 
255 243 255 
62 19 62 
72 72 255 
255 255 255 
255 198 208 
255 255 255 
255 162 255 
255 237 237 
255 116 212 
161 43 138 
255 255 255 
201 153 153 
41 41 132 
231 231 255 
255 255 255 
255 255 255 
241 184 255 
255 255 255 
255 255 255 
255 255 255 
255 255 255 
255 140 255 
255 240 255 
255 242 255 
255 102 255 
255 255 255 
255 250 255 
255 242 255 
255 183 255 
255 140 255 
153 120 255 
255 207 255 
255 255 255 
255 255 255 
255 255 255 
255 208 255 
255 255 255 
221 221 255 
255 141 238 
255 255 255 
255 255 255 
255 201 255 
255 148 255 
255 255 255 
255 163 255 
255 145 255 
207 64 171 
255 165 255 
255 84 219 
183 91 255 
255 237 255 
255 255 255 
255 59 255 
255 62 201 
255 195 255 
255 242 255 
255 109 255 
255 145 255 
255 202 255 
255 66 255 
255 50 255 
183 183 255 
255 122 255 
128 58 206 
181 42 255 
77 73 255 
163 104 255 
220 90 255 
106 71 255 
60 60 194 
189 125 255 
255 163 255 
94 71 255 
182 182 255 
47 27 209 
255 94 255 
32 32 234 
89 82 255 
120 53 255 
93 73 255 
130 76 245 
76 74 255 
69 31 134 
255 64 246 
255 75 100 
255 105 130 
255 122 255 
255 92 92 
255 70 101 
255 56 58 
234 58 147 
255 87 112 
255 65 65 
255 223 237 
255 86 99 
213 54 54 
255 58 109 
255 84 166 
255 67 67 
159 41 45 
255 42 229 
255 51 147 
209 26 65 
255 131 162 
208 64 124 
255 69 152 
255 67 152 
255 95 255 
255 58 124 
38 12 38 
255 132 255 
255 255 255 
255 50 134 
255 105 228 
255 196 196 
255 255 255 
255 143 255 
255 255 255 
255 237 255 
222 149 149 
255 255 255 
255 255 255 
255 255 255 
213 127 255 
255 255 255 
140 140 140 
255 255 255 
255 243 255 
255 201 201 
255 218 255 
253 153 212 
255 245 255 
255 230 230 
255 99 156 
255 206 228 
255 255 255 
255 181 255 
255 174 174 
255 255 255 
255 237 237 
255 220 255 
255 194 213 
255 241 255 
255 192 255 
255 238 255 
255 130 130 
255 255 255 
255 177 244 
255 113 113 
255 215 255 
208 147 172 
255 201 201 
255 158 255 
255 183 255 
255 109 236 
255 249 255 
255 255 255 
255 255 255 
255 109 109 
255 179 255 
235 73 119 
140 140 140 
151 141 151 
255 177 190 
255 63 139 
255 255 255 
255 186 213 
255 255 255 
255 255 255 
255 171 255 
255 143 255 
252 156 195 
255 255 255 
255 184 255 
217 67 67 
193 193 193 
255 255 255 
255 255 255 
255 255 255 
255 244 255 
255 245 255 
255 255 255 
109 50 147 
255 255 255 
255 255 255 
255 255 255 
255 255 255 
250 152 152 
255 232 255 
255 201 201 
255 255 255 
255 175 184 
255 170 255 
255 255 255 
41 41 132 
255 255 255 
255 255 255 
255 201 207 
255 112 200 
255 195 255 
255 200 255 
255 255 255 
255 255 255 
255 209 255 
255 205 255 
0 0 0 
156 156 234 
255 224 224 
255 255 255 
255 224 255 
227 195 195 
255 255 255 
255 226 255 
236 160 198 
255 234 255 
255 158 255 
255 69 255 
255 123 200 
255 182 255 
229 198 229 
255 255 255 
255 238 238 
255 255 255 
255 255 255 
255 255 255 
255 180 214 
255 223 255 
255 255 255 
255 255 255 
255 200 200 
255 129 255 
255 255 255 
232 232 255 
255 255 255 
255 147 220 
255 240 240 
153 153 201 
166 157 240 
255 255 255 
255 255 255 
255 255 255 
255 216 255 
255 255 255 
255 255 255 
255 255 255 
251 113 255 
255 255 255 
255 237 255 
255 255 255 
255 255 255 
255 255 255 
255 255 255 
255 232 255 
255 119 255 
195 195 227 
255 183 255 
255 203 255 
255 255 255 
56 56 180 
244 202 255 
255 255 255 
255 117 239 
255 255 255 
255 86 194 
129 74 255 
255 255 255 
255 236 255 
255 255 255 
255 248 255 
255 255 255 
255 113 255 
255 179 255 
255 202 255 
0 0 0 
255 197 255 
255 255 255 
255 255 255 
242 201 248 
132 41 41 
197 170 255 
154 125 255 
255 255 255 
255 164 255 
255 255 255 
255 255 255 
255 180 243 
169 120 255 
255 255 255 
255 255 255 
255 166 255 
255 248 255 
255 255 255 
161 43 138 
144 76 218 
255 255 255 
255 192 255 
255 145 255 
255 255 255 
206 206 255 
220 85 189 
255 119 195 
255 81 255 
248 85 148 
255 255 255 
163 92 223 
255 174 255 
255 212 255 
255 56 255 
255 255 255 
255 149 255 
255 255 255 
109 109 255 
154 142 255 
255 255 255 
96 45 255 
67 32 255 
255 108 255 
255 100 255 
104 81 255 
178 76 255 
255 101 255 
55 37 255 
66 30 99 
255 40 255 
129 90 255 
54 42 135 
255 39 158 
55 55 255 
255 185 255 
82 34 109 
238 87 255 
218 216 255 
54 42 137 
120 66 255 
117 63 255 
228 194 255 
255 98 255 
165 87 255 
124 91 255 
166 106 255 
185 56 70 
255 57 172 
255 86 255 
255 117 170 
255 82 255 
255 155 233 
255 99 141 
255 82 88 
255 77 81 
255 79 165 
255 95 95 
213 30 30 
255 78 97 
235 44 44 
226 70 137 
255 62 90 
255 51 95 
255 48 124 
255 73 89 
255 56 67 
159 30 126 
255 44 93 
229 69 92 
255 38 79 
255 80 255 
158 15 34 
255 86 250 
250 152 152 
255 156 255 
255 255 255 
255 255 255 
255 201 201 
255 255 255 
255 255 255 
255 241 255 
255 255 255 
255 234 234 
255 255 255 
255 192 255 
255 216 255 
255 197 255 
255 179 255 
255 197 255 
255 239 255 
255 255 255 
155 145 194 
0 0 0 
255 236 255 
255 115 115 
255 164 236 
255 255 255 
255 255 255 
255 160 248 
255 147 147 
255 255 255 
255 255 255 
255 164 208 
214 135 255 
255 168 255 
255 191 255 
255 255 255 
255 159 255 
255 255 255 
255 255 255 
255 255 255 
255 211 255 
255 252 255 
255 255 255 
255 133 133 
255 223 234 
193 193 193 
163 50 230 
255 234 234 
255 222 222 
255 255 255 
255 255 255 
255 248 255 
255 160 198 
255 237 237 
255 255 255 
217 67 67 
255 255 255 
255 74 74 
255 160 233 
255 255 255 
255 255 255 
255 158 174 
255 170 206 
255 255 255 
255 118 255 
255 238 255 
255 255 255 
255 255 255 
250 152 152 
255 240 255 
236 170 255 
255 255 255 
145 77 156 
255 255 255 
255 208 208 
252 232 252 
206 194 255 
255 125 255 
255 149 255 
255 255 255 
255 255 255 
255 224 224 
255 255 255 
255 53 206 
255 255 255 
255 255 255 
255 140 255 
205 194 255 
255 255 255 
223 72 255 
255 255 255 
255 255 255 
255 199 255 
236 206 255 
255 99 156 
255 255 255 
0 0 0 
255 245 255 
255 255 255 
174 74 239 
255 198 198 
255 85 255 
255 153 158 
234 156 156 
255 255 255 
255 248 255 
255 50 50 
255 188 255 
255 255 255 
255 136 255 
255 255 255 
255 180 180 
241 134 255 
255 241 255 
255 200 255 
145 145 187 
255 255 255 
195 156 252 
255 255 255 
255 186 255 
255 255 255 
41 41 132 
255 255 255 
255 255 255 
255 255 255 
255 255 255 
143 141 255 
255 209 255 
41 41 132 
255 255 255 
255 255 255 
255 255 255 
255 255 255 
230 230 230 
255 255 255 
255 255 255 
255 205 255 
255 255 255 
255 255 255 
255 255 255 
255 255 255 
176 100 211 
255 163 255 
255 228 255 
255 255 255 
255 255 255 
255 255 255 
202 194 255 
254 246 255 
255 255 255 
255 231 255 
255 255 255 
255 164 192 
255 255 255 
255 255 255 
255 161 255 
255 226 255 
255 255 255 
255 227 255 
217 160 255 
255 255 255 
255 190 255 
232 164 213 
255 255 255 
255 180 180 
255 255 255 
255 154 177 
255 239 255 
255 255 255 
239 174 255 
255 255 255 
255 211 255 
190 109 255 
255 255 255 
255 255 255 
255 113 255 
255 94 255 
161 161 255 
232 202 255 
244 86 196 
255 115 255 
230 230 230 
255 255 255 
255 115 166 
172 147 208 
255 205 255 
151 151 255 
255 255 255 
255 255 255 
108 50 162 
111 111 255 
255 235 255 
129 74 240 
184 97 246 
255 255 255 
255 169 255 
255 141 255 
106 86 255 
255 255 255 
64 64 255 
255 110 255 
192 176 255 
249 231 255 
255 255 255 
128 102 255 
35 12 255 
255 131 255 
73 32 103 
126 89 255 
65 65 255 
41 41 132 
191 63 202 
128 128 255 
134 101 255 
94 40 255 
196 131 255 
116 113 255 
171 93 255 
151 91 255 
86 37 199 
84 57 255 
133 121 255 
255 255 255 
79 54 255 
153 27 215 
79 77 255 
213 100 255 
114 113 255 
241 112 255 
172 65 255 
255 235 255 
255 73 143 
255 85 126 
255 91 255 
255 86 179 
204 63 91 
255 120 253 
255 52 92 
255 101 227 
255 55 103 
255 81 192 
255 118 122 
255 92 131 
255 255 255 
255 71 99 
80 25 25 
255 84 185 
255 57 87 
255 120 255 
255 255 255 
240 69 134 
240 74 81 
255 156 255 
255 136 146 
255 102 225 
255 89 173 
68 21 112 
255 99 199 
132 41 41 
255 255 255 
251 164 172 
255 99 255 
255 255 255 
255 187 255 
255 169 234 
255 221 221 
155 145 194 
255 204 255 
255 231 237 
255 163 201 
255 255 255 
255 225 255 
255 151 191 
255 255 255 
255 160 160 
255 255 255 
255 213 255 
255 156 156 
255 176 255 
255 199 205 
255 243 245 
255 198 255 
255 255 255 
255 147 163 
255 112 172 
255 183 185 
255 255 255 
255 255 255 
255 255 255 
255 255 255 
195 77 77 
255 255 255 
255 189 255 
255 255 255 
255 120 169 
255 255 255 
255 255 255 
255 255 255 
255 255 255 
255 241 255 
255 223 223 
255 194 255 
255 255 255 
224 96 255 
255 255 255 
255 255 255 
255 255 255 
255 147 188 
255 77 77 
255 213 234 
255 255 255 
255 255 255 
255 255 255 
255 255 255 
255 255 255 
255 255 255 
255 255 255 
255 237 255 
255 255 255 
255 170 248 
255 232 232 
255 160 160 
255 255 255 
255 255 255 
255 210 255 
230 153 220 
132 41 41 
255 156 156 
132 41 41 
255 255 255 
208 147 158 
193 193 193 
255 135 255 
248 85 148 
255 239 244 
255 255 255 
145 53 242 
255 255 255 
255 212 255 
248 180 255 
255 255 255 
255 255 255 
255 224 255 
255 167 255 
255 217 255 
255 255 255 
255 255 255 
255 255 255 
255 177 255 
255 255 255 
255 238 238 
255 242 255 
76 76 246 
255 167 255 
255 255 255 
255 162 255 
255 255 255 
255 255 255 
0 0 0 
109 109 255 
255 248 255 
255 255 255 
255 255 255 
152 152 250 
255 255 255 
255 237 237 
255 255 255 
255 255 255 
255 230 255 
255 255 255 
255 226 255 
255 87 223 
140 140 140 
255 255 255 
255 121 255 
255 252 255 
255 255 255 
115 115 255 
255 255 255 
255 156 156 
255 115 115 
255 212 255 
255 255 255 
255 255 255 
255 255 255 
246 200 246 
255 255 255 
255 255 255 
255 255 255 
255 255 255 
255 255 255 
255 169 255 
255 255 255 
255 255 255 
255 164 255 
255 207 214 
255 195 255 
255 255 255 
255 140 255 
255 99 156 
255 255 255 
203 155 255 
255 128 255 
255 166 255 
255 255 255 
255 255 255 
255 255 255 
255 255 255 
255 255 255 
255 205 255 
160 160 255 
151 141 151 
255 255 255 
255 255 255 
255 255 255 
255 255 255 
41 41 132 
255 255 255 
255 177 255 
255 138 255 
217 156 255 
255 106 255 
255 255 255 
255 255 255 
255 255 255 
255 133 255 
255 108 218 
255 221 255 
255 255 255 
255 246 255 
255 255 255 
248 188 255 
255 106 202 
67 67 215 
255 255 255 
255 178 255 
255 209 255 
255 255 255 
255 207 255 
251 114 253 
255 255 255 
84 39 255 
255 221 255 
255 154 255 
255 255 255 
255 148 255 
255 228 255 
255 255 255 
255 255 255 
145 113 255 
255 150 255 
112 59 255 
255 255 255 
255 234 255 
100 84 255 
255 153 255 
192 185 255 
111 74 240 
255 198 255 
255 93 255 
60 18 255 
128 77 255 
88 88 255 
233 92 255 
255 176 255 
255 122 255 
71 49 219 
128 65 255 
71 71 228 
101 73 255 
54 42 255 
88 51 255 
255 111 255 
194 165 255 
103 62 255 
175 79 255 
96 60 212 
255 255 255 
123 75 255 
87 58 255 
255 89 255 
52 52 167 
112 104 255 
70 59 190 
255 143 255 
112 59 191 
92 92 255 
231 42 72 
255 76 216 
155 48 59 
255 113 128 
255 103 103 
255 92 210 
255 153 154 
255 69 117 
255 90 94 
255 163 165 
255 94 186 
200 60 62 
255 66 76 
255 87 255 
255 64 153 
255 128 133 
255 179 179 
255 151 172 
255 59 72 
255 78 84 
255 70 105 
255 44 56 
255 76 250 
255 147 150 
255 56 70 
172 28 91 
173 28 53 
255 152 152 
255 96 134 
255 155 255 
255 255 255 
255 52 255 
255 255 255 
255 218 255 
255 255 255 
255 125 255 
255 255 255 
255 166 191 
255 255 255 
255 125 125 
255 223 255 
255 164 255 
255 255 255 
255 255 255 
255 195 196 
255 255 255 
255 170 255 
255 255 255 
255 255 255 
255 142 174 
255 255 255 
255 57 146 
255 255 255 
255 234 253 
255 227 255 
255 255 255 
255 241 255 
255 234 236 
255 255 255 
155 153 255 
166 115 255 
255 249 255 
255 255 255 
255 155 255 
255 147 147 
255 255 255 
255 255 255 
255 255 255 
255 255 255 
215 67 67 
255 255 255 
255 255 255 
255 255 255 
255 157 190 
255 173 241 
255 92 92 
255 191 255 
255 216 255 
255 237 255 
255 255 255 
255 255 255 
255 204 255 
255 255 255 
255 255 255 
255 255 255 
255 255 255 
255 255 255 
255 255 255 
255 192 197 
255 197 255 
255 99 255 
255 255 255 
255 255 255 
255 255 255 
255 170 203 
255 255 255 
255 255 255 
255 255 255 
255 255 255 
126 126 255 
255 163 163 
255 255 255 
255 255 255 
255 255 255 
255 159 216 
255 255 255 
255 198 255 
255 174 255 
255 105 228 
222 149 149 
255 255 255 
255 255 255 
255 255 255 
255 255 255 
255 177 255 
255 255 255 
187 145 145 
255 255 255 
255 235 244 
255 235 255 
162 153 255 
255 255 255 
222 69 89 
255 255 255 
255 238 255 
167 116 252 
248 219 255 
255 255 255 
255 219 219 
212 147 255 
255 189 255 
176 176 255 
41 41 132 
255 255 255 
255 255 255 
255 192 255 
255 255 255 
255 223 255 
255 255 255 
255 25 56 
173 173 255 
225 202 255 
150 150 255 
255 255 255 
255 255 255 
145 145 187 
255 255 255 
145 77 156 
255 225 255 
255 201 208 
255 255 255 
255 255 255 
250 152 152 
255 255 255 
255 252 255 
213 194 213 
255 255 255 
255 255 255 
249 198 221 
255 130 255 
255 255 255 
255 189 255 
255 176 255 
255 255 255 
255 190 190 
199 199 255 
243 243 255 
180 56 56 
255 207 255 
255 134 255 
255 255 255 
255 255 255 
254 243 255 
255 190 255 
193 193 193 
255 153 255 
255 185 255 
255 255 255 
255 255 255 
255 255 255 
255 255 255 
255 255 255 
213 182 255 
255 255 255 
255 255 255 
255 124 255 
255 255 255 
255 240 255 
255 255 255 
169 120 255 
99 99 255 
252 203 255 
209 84 255 
197 193 217 
255 255 255 
255 191 255 
255 255 255 
255 255 255 
255 255 255 
243 214 255 
216 148 234 
255 255 255 
255 255 255 
41 41 132 
76 76 246 
255 107 255 
193 193 193 
255 255 255 
255 255 255 
255 186 255 
255 255 255 
255 255 255 
255 255 255 
128 128 255 
155 145 194 
201 201 255 
32 32 255 
176 96 241 
238 176 255 
255 255 255 
255 226 255 
0 0 0 
190 190 255 
155 73 255 
149 143 255 
255 83 255 
119 112 255 
118 34 255 
119 52 169 
169 74 255 
52 24 255 
255 255 255 
191 26 85 
214 135 255 
78 53 255 
38 38 224 
255 196 255 
86 41 255 
255 72 255 
148 107 255 
71 71 255 
120 43 147 
154 78 255 
255 255 255 
255 102 255 
110 48 211 
79 45 147 
84 64 255 
105 91 255 
66 57 185 
84 84 255 
88 51 218 
97 55 255 
84 66 228 
96 96 255 
227 117 255 
255 41 120 
255 60 83 
255 92 101 
255 108 120 
219 21 34 
255 96 102 
255 66 66 
255 108 185 
201 60 62 
255 156 255 
255 164 180 
255 63 136 
255 85 115 
255 53 166 
255 23 50 
255 88 108 
251 78 96 
255 69 117 
255 127 203 
255 79 79 
226 70 94 
255 255 255 
255 63 114 
255 98 104 
255 82 88 
255 172 255 
255 148 150 
255 86 255 
255 109 109 
71 22 71 
143 44 73 
255 255 255 
255 163 238 
255 250 255 
255 213 255 
0 0 0 
255 255 255 
0 0 0 
255 111 164 
195 195 227 
255 228 228 
255 195 195 
255 193 255 
255 209 209 
255 255 255 
255 237 255 
255 255 255 
140 140 140 
255 255 255 
255 255 255 
255 223 223 
0 0 0 
255 255 255 
255 147 188 
255 187 255 
255 255 255 
255 255 255 
255 130 130 
255 255 255 
255 243 255 
255 246 255 
255 255 255 
255 255 255 
0 0 0 
255 204 255 
255 255 255 
255 180 180 
255 211 240 
255 195 242 
183 183 255 
255 236 255 
255 255 255 
255 186 255 
255 159 255 
255 255 255 
255 255 255 
255 255 255 
255 255 255 
255 255 255 
198 85 149 
255 203 203 
255 255 255 
255 159 220 
255 255 255 
255 255 255 
255 255 255 
255 255 255 
255 255 255 
255 241 255 
255 66 214 
255 255 255 
41 41 132 
194 86 255 
255 206 255 
255 185 185 
255 255 255 
255 174 255 
255 255 255 
255 43 255 
255 239 255 
255 255 255 
255 183 255 
255 255 255 
255 194 255 
255 255 255 
255 177 255 
255 144 255 
255 255 255 
255 255 255 
255 255 255 
255 255 255 
255 245 255 
255 255 255 
255 255 255 
255 195 226 
255 255 255 
255 241 255 
255 255 255 
236 159 255 
200 89 238 
255 186 255 
255 163 255 
255 255 255 
252 98 225 
255 255 255 
175 167 255 
255 200 255 
255 255 255 
255 255 255 
236 206 255 
255 237 255 
255 165 255 
255 227 255 
255 80 80 
215 67 67 
255 255 255 
255 255 255 
255 255 255 
255 224 255 
255 255 255 
255 193 255 
255 255 255 
255 255 255 
255 255 255 
205 160 255 
255 255 255 
255 255 255 
255 164 255 
255 255 255 
255 63 204 
255 53 255 
255 109 109 
255 255 255 
255 255 255 
255 255 255 
255 146 153 
208 64 124 
224 149 255 
255 209 255 
41 41 132 
255 255 255 
250 152 152 
255 103 255 
227 195 195 
255 208 255 
255 184 241 
255 175 255 
255 229 229 
255 255 255 
255 255 255 
255 244 255 
255 118 255 
255 255 255 
255 255 255 
255 255 255 
255 253 255 
255 255 255 
166 78 155 
140 140 140 
255 255 255 
98 98 255 
255 255 255 
255 255 255 
255 255 255 
255 255 255 
255 235 255 
255 209 255 
255 255 255 
255 101 255 
255 219 255 
193 85 255 
239 161 255 
195 195 227 
255 235 255 
232 122 255 
255 165 255 
255 175 255 
255 168 255 
255 255 255 
255 255 255 
255 255 255 
255 119 255 
255 255 255 
255 255 255 
182 63 255 
255 255 255 
251 200 255 
246 208 255 
190 149 190 
255 255 255 
92 92 255 
255 255 255 
255 178 255 
163 163 255 
255 178 255 
164 143 255 
255 255 255 
252 156 195 
255 229 255 
156 156 255 
41 41 132 
255 255 255 
185 177 255 
255 185 255 
255 176 255 
255 75 255 
87 69 255 
148 57 255 
203 45 255 
34 21 219 
156 89 255 
125 23 255 
75 7 75 
217 135 255 
104 28 211 
62 19 62 
255 101 255 
103 73 255 
255 104 255 
255 115 255 
109 66 255 
121 121 255 
176 72 231 
90 84 255 
136 100 255 
128 65 211 
89 81 255 
170 89 255 
74 66 255 
255 172 255 
99 88 255 
131 76 255 
87 59 192 
126 79 255 
108 60 194 
86 78 252 
170 53 63 
255 59 75 
255 146 170 
240 74 175 
255 99 100 
255 91 91 
255 83 141 
255 99 127 
255 106 205 
255 74 81 
255 73 92 
255 73 92 
255 44 93 
255 71 95 
255 103 225 
255 78 110 
255 92 255 
255 138 255 
194 60 60 
255 119 255 
174 42 127 
255 47 47 
154 48 58 
255 56 138 
255 35 247 
255 187 243 
255 88 99 
255 74 74 
255 36 255 
255 59 87 
132 41 41 
255 205 206 
255 243 255 
255 232 255 
255 204 204 
255 176 176 
255 163 163 
193 193 193 
255 229 229 
255 132 255 
255 255 255 
255 255 255 
255 255 255 
255 242 255 
132 41 41 
255 226 255 
255 255 255 
255 255 255 
255 126 126 
255 153 207 
255 86 86 
255 255 255 
255 184 184 
255 255 255 
255 255 255 
255 138 223 
255 241 255 
255 229 255 
255 216 255 
255 197 255 
255 197 255 
255 179 255 
180 175 255 
255 129 129 
255 248 255 
255 97 97 
255 255 255 
239 239 255 
255 213 255 
255 251 251 
228 210 255 
255 240 255 
255 255 255 
255 255 255 
255 157 201 
255 255 255 
255 255 255 
255 255 255 
255 255 255 
255 155 248 
255 255 255 
255 83 240 
255 212 212 
255 255 255 
232 232 232 
255 255 255 
255 203 255 
255 209 255 
207 64 171 
255 222 255 
255 246 255 
255 255 255 
255 255 255 
255 255 255 
255 255 255 
255 115 115 
255 212 255 
255 191 255 
255 176 176 
255 188 255 
255 255 255 
255 200 200 
255 180 255 
225 98 252 
255 201 201 
255 184 255 
255 255 255 
255 99 250 
255 253 255 
255 255 255 
201 153 153 
213 147 255 
255 255 255 
255 217 255 
255 255 255 
215 67 67 
255 255 255 
255 255 255 
255 201 255 
255 255 255 
255 255 255 
211 176 255 
255 255 255 
255 255 255 
255 240 240 
255 200 255 
255 215 255 
255 92 92 
255 255 255 
255 255 255 
255 255 255 
255 255 255 
255 115 115 
195 77 77 
133 83 221 
196 193 209 
234 204 255 
255 201 201 
255 255 255 
255 255 255 
255 163 235 
255 255 255 
234 72 119 
85 85 255 
255 173 255 
255 141 255 
255 255 255 
255 154 255 
255 185 255 
255 188 255 
255 232 255 
208 173 255 
255 255 255 
248 149 168 
255 255 255 
255 115 166 
255 255 255 
255 255 255 
255 83 159 
255 255 255 
152 152 250 
255 255 255 
255 255 255 
255 255 255 
255 195 226 
255 204 255 
255 255 255 
255 255 255 
255 255 255 
255 255 255 
255 147 188 
255 175 244 
255 146 255 
255 203 255 
208 208 255 
155 155 255 
255 255 255 
255 194 255 
255 255 255 
255 255 255 
255 255 255 
255 185 255 
255 224 255 
255 128 255 
255 41 173 
255 255 255 
129 89 246 
219 68 168 
204 57 183 
255 207 255 
255 255 255 
255 255 255 
255 255 255 
171 64 207 
147 113 255 
255 255 255 
140 140 140 
255 210 255 
250 152 152 
255 136 255 
255 190 255 
255 255 255 
255 255 255 
255 255 255 
255 255 255 
255 255 255 
187 156 227 
255 255 255 
255 197 255 
255 255 255 
255 255 255 
255 255 255 
168 52 168 
255 167 255 
223 223 255 
255 64 255 
255 102 255 
255 150 255 
255 119 255 
179 73 119 
160 144 255 
255 126 255 
255 255 255 
157 119 255 
158 78 255 
255 111 255 
19 19 202 
60 60 194 
113 54 255 
73 42 151 
255 85 255 
187 92 255 
116 49 255 
255 68 236 
58 50 255 
249 154 255 
103 93 255 
210 76 255 
120 78 255 
96 91 255 
146 86 255 
119 101 255 
87 43 255 
255 238 255 
118 86 255 
103 103 255 
255 123 255 
80 64 255 
88 82 255 
112 92 255 
132 120 255 
208 160 255 
100 91 255 
73 73 255 
241 188 255 
73 65 208 
255 118 118 
255 125 129 
255 55 57 
245 46 91 
255 98 112 
255 255 255 
255 94 226 
255 106 219 
212 61 66 
255 90 96 
255 106 233 
255 81 81 
175 30 64 
255 154 166 
255 158 255 
245 50 50 
255 137 255 
255 139 255 
235 44 44 
255 63 73 
157 47 69 
255 225 244 
255 96 106 
255 49 150 
255 211 219 
255 89 100 
255 50 53 
255 191 236 
255 86 106 
208 64 124 
252 27 160 
255 67 152 
255 32 255 
255 255 255 
255 113 209 
255 152 216 
255 255 255 
255 255 255 
255 255 255 
255 218 255 
255 158 255 
255 255 255 
255 207 255 
255 255 255 
255 231 255 
255 146 175 
255 253 255 
255 255 255 
255 255 255 
251 154 255 
255 255 255 
255 255 255 
255 255 255 
255 255 255 
255 182 255 
255 240 255 
255 255 255 
255 204 255 
255 159 219 
140 140 140 
255 255 255 
255 255 255 
255 156 156 
255 147 147 
255 255 255 
213 194 213 
255 255 255 
255 255 255 
255 105 105 
255 250 255 
255 255 255 
255 255 255 
255 255 255 
255 238 255 
255 143 255 
255 222 238 
255 160 255 
255 235 255 
255 255 255 
255 255 255 
255 68 220 
255 179 234 
255 255 255 
208 201 255 
255 198 255 
255 255 255 
255 255 255 
255 159 229 
255 234 234 
239 199 255 
255 255 255 
255 255 255 
255 255 255 
255 255 255 
255 223 255 
255 161 255 
255 255 255 
253 186 255 
255 207 255 
255 239 239 
255 255 255 
255 255 255 
255 160 160 
255 255 255 
255 179 179 
255 173 173 
221 221 255 
145 145 187 
255 255 255 
255 255 255 
255 255 255 
255 255 255 
223 92 163 
255 199 255 
216 216 255 
255 255 255 
255 169 191 
255 160 198 
255 255 255 
221 221 255 
255 222 222 
255 199 255 
255 186 219 
255 222 255 
255 203 203 
255 255 255 
255 255 255 
255 255 255 
255 255 255 
255 202 255 
255 255 255 
67 67 153 
255 146 188 
255 255 255 
193 193 193 
255 207 255 
255 115 115 
209 209 255 
255 255 255 
255 224 255 
152 152 250 
255 183 183 
255 255 255 
227 195 195 
255 255 255 
255 240 255 
255 210 255 
255 255 255 
255 203 255 
255 159 220 
255 255 255 
255 248 255 
255 255 255 
255 130 255 
255 239 239 
201 201 255 
221 135 255 
255 214 255 
255 255 255 
255 242 255 
255 162 255 
255 163 255 
255 255 255 
255 255 255 
156 77 145 
255 255 255 
255 158 255 
255 236 255 
201 201 239 
255 255 255 
140 140 140 
255 255 255 
145 145 187 
255 255 255 
0 0 0 
255 255 255 
204 204 255 
255 255 255 
255 156 255 
237 237 255 
255 255 255 
255 58 255 
145 145 187 
255 210 255 
0 0 0 
255 255 255 
41 5 134 
255 255 255 
255 175 255 
255 224 255 
255 122 255 
255 255 255 
196 127 255 
255 255 255 
193 193 193 
255 255 255 
194 194 255 
255 255 255 
155 145 194 
255 255 255 
255 255 255 
226 102 255 
179 87 255 
255 255 255 
255 255 255 
255 201 255 
255 181 255 
255 255 255 
255 218 255 
240 82 179 
255 219 255 
140 140 140 
255 255 255 
255 255 255 
255 179 255 
255 184 255 
187 145 145 
255 191 255 
86 58 255 
255 241 255 
255 255 255 
201 153 153 
181 98 255 
255 73 255 
150 69 255 
255 191 255 
100 94 255 
89 29 255 
62 19 62 
200 76 255 
59 48 255 
79 24 79 
140 79 255 
128 87 255 
93 74 255 
128 44 255 
81 81 255 
34 34 110 
232 144 255 
140 134 255 
129 48 255 
237 99 255 
127 58 255 
255 206 255 
255 102 255 
115 96 255 
255 150 255 
255 120 255 
88 77 255 
56 56 181 
77 77 255 
149 67 255 
91 91 255 
139 86 255 
129 117 255 
173 71 230 
255 75 89 
255 97 123 
255 192 201 
246 71 134 
255 79 113 
226 70 70 
255 72 79 
255 49 163 
255 54 255 
255 70 70 
200 25 62 
255 67 181 
255 136 136 
255 61 69 
255 153 189 
255 110 255 
227 59 255 
255 65 73 
155 48 59 
255 92 92 
255 108 208 
255 132 143 
126 39 105 
255 119 119 
135 42 54 
72 22 57 
255 64 65 
255 255 255 
255 91 91 
255 74 120 
255 44 44 
248 74 222 
255 255 255 
255 91 217 
255 111 111 
255 255 255 
255 164 255 
255 255 255 
255 255 255 
255 255 255 
255 150 150 
255 155 255 
255 178 178 
255 135 143 
255 189 255 
255 128 237 
255 255 255 
255 235 235 
255 243 255 
255 255 255 
255 159 255 
255 110 230 
255 226 255 
255 149 217 
255 255 255 
255 156 156 
255 144 144 
255 82 82 
255 181 255 
173 147 197 
255 207 210 
132 41 41 
255 220 255 
255 198 198 
203 196 255 
255 150 175 
255 255 255 
0 0 0 
132 41 41 
255 206 236 
255 255 255 
255 255 255 
255 232 255 
255 255 255 
255 255 255 
255 243 255 
255 183 183 
255 121 255 
255 128 252 
255 255 255 
255 159 188 
255 255 255 
255 255 255 
255 120 123 
255 255 255 
255 255 255 
255 255 255 
255 255 255 
255 145 145 
255 111 255 
255 255 255 
227 195 195 
255 238 255 
255 198 255 
255 255 255 
255 255 255 
250 222 255 
255 203 255 
255 173 173 
255 255 255 
255 197 197 
255 206 255 
255 210 255 
255 255 255 
255 255 255 
255 255 255 
255 255 255 
255 237 255 
255 255 255 
255 255 255 
255 255 255 
255 255 255 
255 255 255 
255 255 255 
255 255 255 
255 175 255 
255 255 255 
255 182 255 
255 255 255 
255 255 255 
153 153 201 
255 130 255 
255 255 255 
255 185 255 
255 255 255 
255 255 255 
248 212 255 
255 254 255 
255 255 255 
255 224 224 
255 255 255 
255 255 255 
255 255 255 
255 255 255 
255 255 255 
180 156 255 
255 255 255 
255 255 255 
153 153 201 
255 241 255 
218 76 144 
255 255 255 
201 201 239 
255 255 255 
255 255 255 
255 189 255 
255 255 255 
255 255 255 
255 255 255 
255 198 255 
255 255 255 
255 255 255 
238 233 255 
255 255 255 
250 99 255 
255 255 255 
255 255 255 
255 255 255 
255 121 255 
255 255 255 
237 201 255 
255 255 255 
218 76 144 
255 163 255 
255 113 247 
255 255 255 
255 235 255 
255 144 255 
255 255 255 
255 202 208 
236 230 236 
255 255 255 
255 255 255 
255 168 255 
156 156 255 
255 255 255 
255 255 255 
41 41 132 
255 255 255 
255 236 255 
133 50 255 
167 99 252 
255 82 177 
0 0 0 
255 242 255 
255 255 255 
169 143 169 
255 255 255 
255 255 255 
255 245 255 
255 255 255 
230 212 255 
255 255 255 
255 244 255 
255 132 255 
255 163 255 
255 255 255 
255 255 255 
255 255 255 
255 255 255 
0 0 0 
255 109 238 
255 255 255 
217 111 230 
255 255 255 
255 247 255 
255 187 255 
235 229 255 
255 128 255 
204 204 255 
255 237 255 
255 228 255 
0 0 0 
255 255 255 
255 186 255 
255 255 255 
255 144 168 
67 67 215 
255 189 255 
241 241 255 
100 44 142 
255 225 255 
179 57 255 
165 33 255 
50 37 255 
90 90 255 
170 91 255 
136 81 255 
255 152 255 
204 85 255 
157 81 255 
216 102 255 
255 251 255 
219 196 255 
82 50 255 
255 238 255 
255 157 255 
251 240 255 
255 60 255 
128 128 255 
255 188 255 
123 49 255 
255 201 255 
76 68 220 
94 88 255 
104 99 255 
255 94 255 
138 60 221 
25 25 80 
82 59 189 
255 115 255 
133 57 201 
255 97 255 
48 48 255 
169 135 255 
88 86 255 
255 71 76 
255 42 72 
255 87 136 
255 61 202 
255 50 171 
255 85 102 
255 66 119 
255 54 125 
255 107 255 
255 98 184 
255 93 127 
255 117 117 
255 73 143 
255 206 206 
255 119 150 
255 218 255 
255 105 128 
255 100 126 
213 66 87 
255 71 102 
187 37 58 
255 101 101 
194 60 60 
255 100 144 
255 70 148 
255 37 255 
255 255 255 
255 149 175 
202 19 19 
255 28 52 
255 25 81 
255 63 255 
255 101 255 
255 60 77 
232 59 92 
255 60 65 
255 212 255 
255 255 255 
255 41 41 
255 255 255 
255 255 255 
255 92 92 
255 255 255 
255 255 255 
255 255 255 
255 113 145 
255 208 255 
255 255 255 
255 159 189 
255 255 255 
255 255 255 
0 0 0 
180 56 56 
131 40 255 
255 242 255 
255 255 255 
255 161 161 
255 255 255 
255 255 255 
255 92 249 
255 255 255 
140 140 140 
255 255 255 
255 255 255 
250 152 152 
242 242 255 
255 253 255 
255 255 255 
255 228 255 
255 250 255 
227 195 195 
255 255 255 
255 255 255 
255 212 233 
255 159 159 
255 255 255 
255 255 255 
255 255 255 
255 255 255 
255 255 255 
200 200 255 
255 255 255 
255 255 255 
255 255 255 
255 255 255 
255 120 255 
255 255 255 
255 154 255 
255 148 173 
215 67 67 
255 255 255 
255 173 173 
255 246 255 
246 76 76 
255 255 255 
255 243 243 
255 238 255 
237 138 255 
255 255 255 
255 196 255 
255 255 255 
255 255 255 
255 182 255 
254 156 255 
255 255 255 
255 112 210 
255 127 141 
255 255 255 
255 220 255 
255 255 255 
226 143 255 
255 255 255 
255 101 255 
255 255 255 
0 0 0 
255 246 255 
0 0 0 
255 255 255 
255 225 252 
255 98 166 
255 182 255 
255 255 255 
255 255 255 
255 255 255 
255 194 255 
255 255 255 
255 255 255 
255 234 234 
255 255 255 
244 142 255 
255 194 255 
255 255 255 
255 135 255 
157 141 255 
188 188 255 
255 255 255 
255 255 255 
255 255 255 
32 32 234 
255 253 255 
255 255 255 
255 101 199 
255 119 255 
255 184 255 
255 244 255 
255 255 255 
255 255 255 
247 219 255 
255 255 255 
255 160 255 
185 185 255 
187 145 145 
255 138 255 
230 183 255 
255 255 255 
255 185 219 
255 251 255 
255 255 255 
255 255 255 
255 255 255 
255 255 255 
132 41 41 
255 255 255 
255 255 255 
255 216 255 
255 255 255 
255 225 255 
217 217 255 
255 255 255 
255 255 255 
255 170 255 
195 156 204 
255 255 255 
245 245 255 
255 216 255 
255 172 255 
255 204 255 
255 218 255 
255 103 248 
255 115 115 
255 255 255 
255 255 255 
255 183 255 
255 255 255 
255 154 255 
125 76 245 
154 72 255 
255 139 243 
201 153 153 
255 210 255 
193 193 193 
255 255 255 
140 140 140 
41 41 132 
233 166 255 
195 195 227 
255 255 255 
255 255 255 
144 134 255 
255 255 255 
166 157 255 
255 255 255 
255 95 255 
255 255 255 
204 156 195 
116 116 255 
255 207 255 
255 255 255 
255 191 255 
255 255 255 
255 181 233 
210 128 255 
0 0 0 
237 151 237 
255 255 255 
255 255 255 
255 219 255 
207 203 255 
153 44 255 
255 169 255 
43 43 255 
189 143 255 
182 182 255 
46 41 209 
170 30 244 
179 87 255 
255 64 255 
49 15 111 
77 24 166 
196 124 255 
125 46 255 
46 46 150 
255 73 255 
164 137 255 
147 87 255 
193 54 224 
78 25 106 
216 208 255 
255 255 255 
132 58 255 
87 87 255 
255 168 255 
110 105 255 
121 112 255 
255 84 255 
129 81 255 
167 59 189 
255 198 255 
183 75 255 
255 255 255 
113 74 255 
122 70 255 
74 74 255 
255 99 255 
131 47 164 
73 49 255 
255 71 76 
255 98 122 
255 191 196 
255 91 91 
255 88 88 
255 86 255 
255 88 255 
225 59 59 
255 90 145 
255 73 255 
255 87 173 
255 47 86 
254 54 54 
255 60 68 
255 96 96 
255 50 50 
255 120 131 
255 147 242 
222 69 78 
206 64 64 
255 183 187 
255 95 141 
255 53 99 
198 61 124 
255 118 244 
217 67 75 
255 68 107 
255 51 111 
255 55 86 
255 73 255 
38 12 38 
255 51 95 
255 53 65 
255 255 255 
255 79 79 
255 122 207 
255 207 208 
255 51 139 
255 241 255 
255 216 243 
255 207 255 
255 255 255 
255 255 255 
255 255 255 
255 120 255 
255 161 208 
255 244 252 
255 193 255 
255 250 250 
255 255 255 
255 255 255 
255 111 111 
255 255 255 
255 113 145 
255 163 255 
153 67 67 
255 235 243 
255 255 255 
255 155 251 
255 140 255 
255 226 226 
215 67 67 
132 41 41 
255 196 255 
255 255 255 
255 255 255 
255 224 251 
255 255 255 
255 164 255 
255 237 255 
255 70 85 
255 182 255 
255 255 255 
255 153 201 
255 255 255 
255 255 255 
255 255 255 
255 255 255 
255 154 184 
255 255 255 
255 255 255 
0 0 0 
255 77 80 
255 67 67 
225 225 255 
255 255 255 
255 255 255 
255 255 255 
255 255 255 
255 253 255 
255 255 255 
151 151 255 
255 155 161 
255 186 255 
255 255 255 
255 255 255 
255 179 255 
255 206 255 
255 130 238 
255 255 255 
255 155 233 
255 255 255 
255 255 255 
255 179 255 
255 255 255 
255 174 217 
255 216 255 
255 255 255 
255 212 255 
255 255 255 
255 255 255 
255 215 255 
255 255 255 
255 255 255 
255 152 200 
255 171 255 
207 207 207 
255 255 255 
41 41 132 
255 255 255 
255 223 255 
255 193 255 
255 255 255 
255 255 255 
169 169 255 
169 143 155 
255 153 255 
255 201 255 
255 52 52 
140 140 140 
255 255 255 
255 158 182 
255 178 255 
255 255 255 
252 156 195 
255 255 255 
244 202 208 
255 255 255 
140 140 140 
255 255 255 
255 234 255 
255 191 255 
255 237 255 
175 74 211 
255 228 255 
255 255 255 
255 255 255 
255 143 143 
240 234 255 
232 232 232 
255 255 255 
255 205 255 
147 147 255 
255 127 255 
255 255 255 
255 255 255 
255 255 255 
232 232 255 
255 255 255 
255 185 255 
250 110 110 
255 130 255 
232 232 232 
255 203 255 
255 255 255 
255 255 255 
255 234 234 
125 125 255 
255 222 255 
255 243 255 
255 255 255 
255 255 255 
255 255 255 
255 181 255 
255 255 255 
195 195 227 
255 255 255 
255 195 255 
255 190 255 
156 156 255 
255 105 255 
255 255 255 
255 255 255 
248 197 255 
255 217 217 
255 255 255 
255 148 255 
255 255 255 
255 152 255 
255 255 255 
255 255 255 
255 203 221 
255 255 255 
255 255 255 
88 67 243 
255 214 255 
223 221 255 
110 20 255 
143 143 255 
255 218 255 
255 255 255 
255 78 155 
255 255 255 
255 255 255 
255 184 255 
147 58 255 
255 76 218 
164 164 255 
255 185 255 
255 202 255 
255 228 255 
169 143 169 
198 127 255 
152 152 250 
255 255 255 
255 179 255 
238 87 200 
158 49 255 
175 66 254 
177 95 255 
255 255 255 
193 61 255 
255 255 255 
186 180 255 
112 110 255 
60 41 228 
113 28 92 
255 60 193 
95 69 224 
121 48 255 
236 86 255 
255 93 255 
64 64 206 
173 42 255 
255 175 255 
96 67 255 
235 110 255 
165 49 255 
255 85 255 
169 169 255 
80 79 255 
81 46 255 
255 156 255 
50 36 115 
80 65 255 
60 60 195 
122 69 255 
66 57 185 
144 75 255 
86 86 255 
171 78 252 
208 183 255 
93 93 255 
80 80 255 
69 61 255 
194 192 255 
225 70 89 
255 123 124 
255 70 99 
255 67 116 
255 100 255 
255 123 255 
255 103 210 
255 250 255 
255 79 95 
240 69 109 
255 70 99 
255 53 237 
255 184 255 
255 124 136 
255 71 177 
255 71 116 
255 55 88 
255 245 253 
255 67 255 
255 249 255 
255 97 131 
255 83 113 
255 80 100 
255 73 96 
255 85 85 
254 51 122 
255 65 255 
255 72 255 
255 57 61 
255 25 119 
255 67 135 
255 199 212 
183 57 66 
255 66 255 
255 53 144 
255 227 229 
221 69 171 
59 5 18 
255 196 227 
237 126 255 
255 236 255 
237 237 255 
0 0 0 
255 218 255 
255 121 255 
255 172 255 
255 255 255 
255 15 78 
255 255 255 
255 177 184 
255 183 183 
255 255 255 
255 255 255 
169 68 217 
255 255 255 
255 193 193 
255 109 109 
255 87 150 
250 152 152 
119 72 255 
255 255 255 
162 69 89 
184 67 140 
255 255 255 
255 82 82 
255 255 255 
255 255 255 
162 50 81 
255 255 255 
255 96 255 
255 255 255 
255 255 255 
255 209 255 
0 0 0 
179 148 213 
255 157 181 
255 255 255 
255 255 255 
255 173 173 
255 244 255 
255 139 255 
255 193 255 
255 255 255 
255 255 255 
255 255 255 
255 255 255 
255 255 255 
255 238 255 
255 188 255 
255 255 255 
255 137 255 
190 147 255 
255 255 255 
247 187 255 
255 255 255 
255 93 93 
255 141 144 
255 255 255 
255 154 194 
255 99 156 
255 255 255 
255 125 236 
255 255 255 
216 82 124 
118 105 255 
215 67 67 
255 255 255 
0 0 0 
255 148 255 
255 201 255 
255 255 255 
255 255 255 
255 255 255 
255 255 255 
232 76 219 
255 252 255 
255 255 255 
232 232 255 
171 64 255 
255 255 255 
193 153 224 
255 237 237 
255 248 255 
255 255 255 
179 87 255 
255 255 255 
255 179 255 
255 198 231 
255 255 255 
255 111 230 
255 52 52 
255 216 255 
119 119 255 
255 255 255 
255 92 255 
255 255 255 
255 255 255 
255 255 255 
255 255 255 
255 63 255 
255 255 255 
255 255 255 
255 199 255 
255 255 255 
255 119 195 
255 255 255 
255 255 255 
162 69 89 
255 255 255 
76 76 255 
255 228 255 
255 255 255 
255 245 255 
255 255 255 
255 255 255 
255 255 255 
52 52 255 
145 145 187 
255 180 255 
140 140 140 
255 77 145 
255 255 255 
255 144 255 
255 255 255 
255 161 255 
219 159 255 
255 215 255 
255 255 255 
255 190 255 
255 166 255 
235 111 255 
255 255 255 
255 255 255 
255 255 255 
255 154 255 
193 193 193 
255 255 255 
255 255 255 
255 169 255 
146 136 255 
255 255 255 
255 255 255 
255 255 255 
0 0 0 
255 255 255 
255 164 255 
255 255 255 
255 255 255 
255 255 255 
255 108 255 
255 255 255 
221 221 255 
110 110 255 
89 69 223 
145 113 255 
255 255 255 
255 173 173 
255 196 255 
255 255 255 
255 239 255 
255 189 255 
255 255 255 
169 120 255 
238 238 255 
96 78 251 
93 41 255 
255 143 255 
255 255 255 
184 161 255 
201 164 255 
166 115 255 
217 73 241 
255 174 181 
255 234 255 
255 192 255 
255 255 255 
62 19 62 
241 99 99 
223 69 255 
19 19 202 
231 230 255 
165 28 255 
255 67 255 
183 34 111 
216 88 255 
255 242 255 
234 92 255 
158 141 255 
90 63 255 
166 101 255 
113 56 255 
110 91 255 
255 255 255 
136 76 255 
61 61 255 
185 185 255 
159 153 255 
97 63 255 
142 116 255 
131 128 255 
138 104 255 
255 105 255 
255 255 255 
97 60 196 
98 64 255 
56 33 255 
97 61 255 
126 35 160 
63 58 255 
82 82 255 
255 151 255 
47 47 151 
58 48 255 
252 147 255 
65 43 140 
83 83 255 
216 67 92 
255 92 92 
255 72 98 
255 255 255 
255 81 81 
255 135 135 
226 70 94 
255 67 255 
255 71 106 
255 79 100 
255 105 143 
167 52 52 
255 243 255 
255 62 71 
255 133 154 
99 31 50 
255 255 255 
224 38 38 
255 56 73 
110 34 34 
255 115 255 
255 153 162 
255 47 88 
255 21 112 
255 59 165 
255 92 127 
255 100 118 
154 48 58 
255 80 211 
204 22 42 
255 100 255 
255 56 56 
255 125 255 
255 244 255 
255 78 108 
255 93 99 
199 43 62 
255 184 255 
93 29 57 
255 96 133 
255 182 255 
255 85 85 
255 160 160 
255 173 255 
255 140 255 
255 224 230 
255 255 255 
255 167 241 
255 203 255 
255 87 103 
255 115 255 
255 255 255 
255 206 206 
255 255 255 
218 76 144 
62 19 62 
255 255 255 
255 255 255 
255 64 64 
255 255 255 
255 255 255 
255 102 182 
255 255 255 
255 63 139 
255 70 155 
255 255 255 
255 255 255 
41 41 132 
132 41 41 
255 143 233 
255 77 147 
255 255 255 
255 248 255 
255 255 255 
255 139 255 
255 255 255 
255 255 255 
255 255 255 
255 111 164 
214 148 203 
255 77 196 
255 255 255 
255 255 255 
255 255 255 
255 255 255 
255 255 255 
255 205 239 
255 255 255 
255 255 255 
255 81 255 
255 255 255 
255 255 255 
0 0 0 
255 255 255 
255 255 255 
255 255 255 
255 48 98 
255 255 255 
255 108 214 
255 255 255 
255 255 255 
236 192 255 
0 0 0 
255 111 174 
255 255 255 
223 92 223 
255 255 255 
255 115 115 
255 64 104 
255 255 255 
208 64 124 
255 255 255 
255 255 255 
62 19 62 
255 134 134 
255 234 234 
255 50 255 
255 159 198 
255 255 255 
119 72 234 
255 86 195 
255 255 255 
230 230 230 
255 182 255 
110 110 250 
255 255 255 
170 35 112 
255 255 255 
144 76 218 
255 255 255 
255 255 255 
255 255 255 
249 199 255 
255 197 255 
255 255 255 
182 182 255 
125 125 255 
41 41 132 
255 255 255 
255 109 109 
76 76 246 
255 90 255 
117 43 138 
255 237 243 
255 72 215 
204 167 204 
255 255 255 
215 67 67 
255 255 255 
240 126 255 
255 255 255 
210 107 255 
255 255 255 
255 248 255 
255 200 255 
255 234 255 
255 204 255 
255 255 255 
255 255 255 
144 76 218 
255 137 255 
255 255 255 
255 199 255 
172 141 255 
168 52 168 
255 202 255 
144 76 218 
255 121 255 
41 41 132 
255 255 255 
255 179 179 
158 129 255 
182 182 255 
255 222 255 
255 255 255 
76 76 246 
215 67 67 
255 255 255 
0 0 0 
255 255 255 
154 69 246 
255 169 227 
133 46 255 
255 255 255 
255 255 255 
255 255 255 
255 222 255 
255 255 255 
255 255 255 
255 255 255 
109 109 255 
255 221 255 
255 193 255 
255 125 183 
231 231 255 
255 255 255 
132 41 255 
255 213 255 
255 255 255 
235 235 255 
62 19 62 
165 115 255 
102 32 102 
228 188 255 
255 245 255 
255 178 255 
255 255 255 
255 241 255 
255 239 255 
255 253 255 
196 150 255 
255 112 255 
255 255 255 
255 118 255 
73 32 103 
255 255 255 
255 255 255 
114 81 255 
89 76 255 
255 80 255 
113 111 255 
120 111 255 
41 41 255 
140 73 255 
255 27 115 
255 96 255 
90 87 255 
209 52 255 
255 120 255 
255 67 247 
99 82 255 
166 61 198 
198 187 255 
255 36 255 
255 137 255 
164 96 255 
255 120 255 
78 66 255 
74 46 255 
58 48 154 
255 94 255 
255 93 255 
92 73 255 
255 112 255 
255 120 255 
255 255 255 
151 80 255 
128 75 240 
106 96 255 
255 156 255 
255 242 255 
179 86 255 
255 255 255 
107 45 146 
127 82 255 
102 74 255 
255 186 255 
255 63 116 
161 50 63 
255 121 125 
241 48 95 
255 99 100 
255 73 255 
255 64 169 
255 63 85 
255 110 255 
255 136 136 
255 63 255 
255 255 255 
255 162 245 
255 127 255 
255 79 79 
255 86 168 
255 95 95 
255 100 164 
255 70 88 
255 86 106 
251 78 96 
251 44 106 
255 95 128 
255 86 97 
255 70 96 
255 118 122 
255 84 197 
160 31 31 
255 53 255 
255 66 142 
255 120 120 
255 74 111 
38 12 38 
255 136 146 
255 116 130 
254 28 39 
255 179 179 
255 32 47 
207 145 191 
249 249 255 
255 255 255 
255 182 216 
255 62 255 
230 230 230 
255 255 255 
179 179 255 
255 255 255 
132 41 41 
255 255 255 
255 255 255 
255 255 255 
255 165 173 
255 255 255 
145 60 255 
255 115 255 
255 255 255 
0 0 0 
255 152 255 
255 19 63 
255 255 255 
132 41 41 
255 210 255 
255 244 255 
218 47 88 
255 132 255 
255 205 253 
255 124 255 
255 33 125 
255 82 239 
223 92 223 
255 255 255 
255 251 255 
255 180 180 
255 133 255 
0 0 0 
255 69 202 
255 255 255 
215 67 67 
250 110 110 
110 110 250 
255 192 255 
255 255 255 
255 255 255 
255 254 255 
0 0 0 
255 25 25 
93 93 153 
255 141 255 
255 162 255 
255 81 81 
255 255 255 
62 19 62 
255 255 255 
250 92 192 
255 144 255 
255 139 255 
0 0 0 
187 145 145 
255 255 255 
255 255 255 
255 106 148 
255 128 255 
255 255 255 
93 93 255 
255 99 255 
255 255 255 
255 19 255 
255 100 255 
119 72 234 
255 255 255 
255 255 255 
255 149 228 
132 41 41 
255 255 255 
255 255 255 
255 255 255 
76 76 246 
0 0 0 
231 129 255 
255 255 255 
228 93 255 
255 135 255 
255 238 255 
255 156 255 
255 255 255 
0 0 0 
255 236 255 
255 255 255 
255 255 255 
255 255 255 
255 177 211 
255 255 255 
0 0 0 
255 173 255 
255 193 206 
255 82 82 
255 255 255 
143 44 73 
115 115 255 
255 155 255 
255 255 255 
0 0 0 
255 255 255 
225 97 255 
255 255 255 
255 255 255 
255 255 255 
186 106 255 
255 184 255 
250 250 255 
255 88 255 
255 151 255 
255 129 232 
255 255 255 
255 158 158 
255 255 255 
255 255 255 
255 255 255 
175 175 255 
255 212 255 
255 116 167 
255 255 255 
255 255 255 
102 32 102 
255 255 255 
255 134 255 
255 113 252 
240 70 156 
255 255 255 
136 56 136 
255 255 255 
255 255 255 
255 145 255 
255 255 255 
255 255 255 
255 64 255 
255 255 255 
255 56 99 
255 142 255 
255 210 255 
156 77 145 
221 146 255 
255 124 255 
255 182 255 
230 230 255 
255 255 255 
255 255 255 
255 255 255 
0 0 0 
255 120 216 
255 97 255 
169 120 255 
255 255 255 
0 0 0 
255 189 255 
255 255 255 
255 255 255 
255 50 255 
255 255 255 
255 255 255 
255 255 255 
255 173 255 
255 255 255 
147 50 255 
255 255 255 
255 152 157 
255 255 255 
255 113 255 
0 0 0 
62 19 62 
255 192 255 
255 255 255 
250 110 110 
255 255 255 
230 230 230 
255 116 255 
255 113 255 
59 18 107 
158 152 255 
85 62 255 
203 92 255 
102 32 102 
149 82 255 
113 51 255 
255 238 255 
0 0 0 
135 22 104 
255 47 255 
79 79 255 
104 32 194 
255 173 255 
255 255 255 
120 104 255 
62 52 170 
255 143 255 
130 114 255 
255 46 255 
104 54 193 
255 255 255 
171 102 255 
68 64 255 
161 43 139 
140 131 255 
88 88 255 
121 65 231 
133 133 255 
255 99 255 
255 106 255 
115 64 255 
43 34 255 
66 61 212 
50 50 255 
255 154 255 
97 88 255 
166 62 199 
255 80 106 
255 75 78 
255 54 75 
229 71 71 
255 92 146 
255 76 130 
133 41 41 
80 25 25 
255 128 135 
255 89 255 
255 111 255 
218 67 67 
255 52 84 
255 62 166 
255 95 141 
255 67 142 
255 51 126 
244 62 82 
255 92 151 
237 45 193 
237 73 73 
255 120 135 
115 36 50 
255 69 255 
255 86 88 
255 93 145 
255 86 163 
255 119 120 
255 70 122 
255 92 184 
255 181 199 
255 255 255 
255 94 119 
255 55 55 
255 155 255 
255 146 173 
255 68 80 
255 25 25 
255 154 156 
255 175 175 
0 0 0 
255 197 255 
255 255 255 
215 67 67 
255 255 255 
255 203 255 
255 59 59 
255 255 255 
255 255 255 
255 228 255 
169 143 169 
255 92 111 
255 144 255 
195 156 204 
255 166 166 
255 166 255 
255 255 255 
255 173 255 
255 99 156 
255 248 255 
0 0 0 
255 255 255 
255 255 255 
255 255 255 
255 182 255 
223 92 223 
187 111 253 
255 255 255 
255 255 255 
0 0 0 
255 210 231 
255 157 255 
255 255 255 
255 255 255 
255 255 255 
255 255 255 
0 0 0 
255 56 99 
255 255 255 
255 151 231 
103 32 73 
255 255 255 
255 173 189 
255 242 242 
255 100 255 
132 41 41 
255 255 255 
255 255 255 
255 144 255 
255 236 255 
143 44 73 
255 255 255 
255 182 182 
255 255 255 
255 255 255 
255 255 255 
255 240 255 
255 255 255 
255 141 255 
180 56 56 
255 234 234 
0 0 0 
160 160 160 
229 85 85 
255 255 255 
255 255 255 
255 255 255 
255 255 255 
255 255 255 
255 203 203 
255 70 94 
0 0 0 
255 254 255 
255 255 255 
255 255 255 
86 86 86 
224 153 193 
255 255 255 
255 116 155 
255 230 230 
157 100 157 
255 255 255 
114 39 255 
255 255 255 
255 255 255 
255 255 255 
255 116 116 
198 184 255 
230 230 230 
255 255 255 
252 156 195 
255 255 255 
255 255 255 
255 255 255 
125 125 255 
255 255 255 
255 255 255 
255 255 255 
255 168 255 
255 255 255 
255 127 247 
255 240 255 
255 255 255 
255 240 255 
255 255 255 
255 143 255 
173 173 255 
255 233 255 
242 174 255 
255 255 255 
255 255 255 
255 200 255 
255 197 255 
255 255 255 
255 255 255 
255 255 255 
41 41 132 
255 255 255 
255 255 255 
255 255 255 
140 140 140 
255 255 255 
0 0 0 
109 109 255 
255 255 255 
255 142 255 
255 255 255 
86 86 86 
166 166 255 
255 67 216 
255 255 255 
255 74 255 
255 86 86 
255 163 255 
255 159 255 
154 154 255 
255 207 255 
255 255 255 
255 255 255 
232 232 255 
255 255 255 
255 255 255 
255 244 255 
255 239 255 
247 231 238 
255 214 255 
255 255 255 
255 238 255 
233 233 255 
149 149 222 
255 232 232 
255 191 255 
255 172 255 
76 76 246 
255 255 255 
255 255 255 
255 254 254 
255 255 255 
255 135 135 
255 211 255 
230 230 230 
255 255 255 
208 147 172 
64 64 255 
255 86 202 
255 76 230 
255 243 255 
255 255 255 
255 135 255 
255 126 255 
255 255 255 
255 255 255 
114 68 154 
255 255 255 
75 7 75 
135 135 255 
190 143 166 
41 41 132 
48 19 91 
255 51 227 
159 59 218 
143 57 255 
121 67 255 
80 58 209 
110 53 251 
45 28 255 
255 49 160 
203 105 255 
138 96 255 
146 57 255 
83 54 255 
102 75 255 
137 36 255 
93 63 239 
255 255 255 
58 52 188 
44 27 87 
133 47 255 
100 61 255 
255 154 255 
210 94 255 
161 88 255 
255 115 255 
82 82 255 
105 101 255 
255 76 255 
255 94 255 
76 74 244 
83 49 255 
180 65 255 
99 69 255 
255 77 248 
85 85 255 
255 88 255 
255 182 255 
59 59 224 
255 118 121 
255 104 125 
255 80 180 
255 93 255 
255 96 96 
151 47 47 
240 31 50 
255 127 127 
255 147 201 
255 101 122 
255 150 184 
255 151 163 
255 111 111 
245 50 50 
255 59 59 
255 81 167 
255 123 127 
124 38 70 
167 52 52 
255 36 36 
255 109 109 
255 64 94 
255 139 155 
255 46 112 
255 108 116 
255 65 142 
233 26 33 
255 93 93 
255 60 140 
255 106 106 
255 240 255 
255 252 255 
255 76 123 
0 0 0 
255 55 131 
255 101 101 
255 74 74 
255 92 255 
102 32 102 
255 64 114 
250 152 152 
255 145 255 
153 93 93 
232 32 255 
144 76 218 
255 136 223 
255 255 255 
255 217 217 
255 232 232 
147 137 255 
255 114 114 
255 171 171 
255 111 255 
255 255 255 
255 255 255 
153 67 67 
255 255 255 
255 123 255 
255 95 206 
255 159 255 
255 204 255 
255 255 255 
255 119 255 
255 205 255 
255 183 187 
255 255 255 
255 171 171 
255 255 255 
255 149 255 
255 193 255 
255 255 255 
255 255 255 
0 0 0 
255 239 255 
255 135 255 
246 76 76 
255 255 255 
215 67 67 
255 53 255 
255 255 255 
255 237 255 
255 255 255 
255 255 255 
255 255 255 
255 224 251 
255 255 255 
166 115 255 
255 255 255 
255 255 255 
255 255 255 
255 255 255 
255 255 255 
255 255 255 
255 255 255 
255 198 232 
255 255 255 
255 255 255 
255 255 255 
240 82 179 
255 139 172 
255 233 255 
255 198 255 
255 245 255 
255 255 255 
136 68 190 
164 164 201 
184 98 184 
255 255 255 
255 255 255 
187 145 145 
255 255 255 
255 255 255 
232 32 255 
255 255 255 
255 239 255 
255 255 255 
255 255 255 
255 255 255 
255 255 255 
118 118 118 
255 255 255 
255 255 255 
255 255 255 
255 255 255 
179 97 134 
255 160 160 
0 0 0 
255 255 255 
153 93 93 
255 255 255 
255 242 255 
255 217 255 
255 255 255 
248 85 148 
195 119 255 
255 255 255 
255 255 255 
76 76 246 
144 76 218 
93 41 255 
255 255 255 
255 41 93 
255 252 255 
255 255 255 
255 255 255 
255 255 255 
77 77 195 
255 83 159 
230 230 230 
255 255 255 
255 255 255 
255 236 255 
255 112 255 
255 255 255 
255 248 255 
255 244 255 
255 255 255 
255 255 255 
255 226 255 
255 255 255 
255 255 255 
130 130 255 
255 240 255 
255 255 255 
255 255 255 
254 254 255 
255 205 205 
255 100 255 
255 255 255 
255 183 255 
255 255 255 
151 110 224 
255 255 255 
244 244 255 
255 234 255 
255 255 255 
255 255 255 
255 255 255 
255 255 255 
255 255 255 
255 231 255 
255 255 255 
255 255 255 
67 67 215 
255 122 234 
255 255 255 
255 255 255 
230 230 230 
255 191 255 
255 238 255 
255 255 255 
215 67 67 
255 255 255 
109 109 255 
255 255 255 
255 255 255 
255 255 255 
82 82 255 
255 255 255 
173 173 255 
255 215 255 
255 255 255 
255 238 255 
255 141 255 
255 240 255 
255 255 255 
255 167 255 
255 147 249 
255 32 32 
167 167 255 
255 234 255 
230 230 230 
255 255 255 
255 163 163 
255 255 255 
86 86 86 
255 153 255 
88 49 255 
178 68 255 
255 182 255 
119 64 205 
91 46 255 
77 59 255 
115 37 118 
167 62 255 
122 38 122 
104 36 221 
119 96 255 
163 97 255 
169 116 255 
88 67 255 
255 44 255 
183 34 110 
255 104 255 
176 142 255 
99 99 255 
170 61 195 
171 105 255 
192 108 255 
157 71 255 
255 92 255 
98 85 255 
152 115 255 
126 84 255 
169 40 255 
91 72 255 
158 61 255 
113 85 255 
139 86 255 
99 60 255 
72 64 255 
62 45 217 
255 255 255 
255 155 255 
129 93 255 
112 112 255 
255 81 96 
255 86 93 
242 69 110 
255 83 89 
255 154 251 
255 81 87 
255 95 139 
229 49 62 
255 116 255 
255 146 151 
255 100 110 
255 133 135 
255 98 116 
255 76 195 
255 79 105 
255 83 201 
255 112 255 
255 93 93 
255 113 255 
255 62 62 
137 41 59 
254 66 127 
255 81 155 
255 62 89 
255 113 121 
255 74 98 
255 88 96 
206 64 64 
255 58 94 
255 189 202 
255 122 216 
255 43 161 
185 57 172 
255 48 120 
255 90 109 
255 79 197 
255 56 106 
226 70 70 
255 140 147 
255 97 184 
255 130 238 
255 152 250 
255 203 221 
255 66 66 
255 184 255 
255 255 255 
255 255 255 
255 255 255 
255 200 255 
200 200 255 
255 156 255 
255 255 255 
255 150 255 
255 255 255 
255 250 250 
149 85 198 
255 120 255 
255 185 185 
255 245 255 
217 67 67 
255 87 208 
255 255 255 
215 67 67 
255 255 255 
255 255 255 
184 127 255 
62 19 62 
255 255 255 
255 243 255 
255 98 170 
255 160 255 
255 224 255 
255 81 124 
255 255 255 
212 57 132 
255 255 255 
255 255 255 
255 255 255 
255 109 109 
255 201 255 
255 255 255 
86 86 86 
255 247 255 
255 255 255 
223 92 223 
255 255 255 
255 255 255 
255 255 255 
255 222 255 
255 226 255 
255 255 255 
255 255 255 
255 255 255 
255 69 177 
255 255 255 
215 67 67 
255 105 105 
255 255 255 
255 223 255 
255 255 255 
255 255 255 
255 255 255 
255 255 255 
255 255 255 
177 144 177 
255 255 255 
255 255 255 
255 255 255 
255 255 255 
255 255 255 
193 193 193 
255 255 255 
135 135 255 
217 119 255 
255 201 255 
255 255 255 
255 212 255 
255 255 255 
171 106 106 
255 151 255 
255 255 255 
255 255 255 
255 255 255 
255 255 255 
255 255 255 
255 255 255 
255 255 255 
255 189 255 
255 255 255 
255 204 241 
255 255 255 
209 112 112 
255 255 255 
255 255 255 
255 255 255 
255 255 255 
255 216 255 
142 142 142 
255 255 255 
255 216 255 
255 164 255 
255 255 255 
255 119 255 
255 255 255 
255 255 255 
212 177 255 
255 202 255 
255 176 197 
255 255 255 
255 255 255 
255 154 255 
255 255 255 
255 255 255 
255 255 255 
255 255 255 
255 255 255 
252 116 167 
255 182 217 
255 122 122 
255 255 255 
204 39 127 
255 255 255 
255 255 255 
255 255 255 
215 181 181 
255 255 255 
255 255 255 
255 161 190 
255 191 255 
255 255 255 
255 184 255 
91 86 255 
255 255 255 
255 255 255 
255 255 255 
255 255 255 
255 245 255 
255 163 185 
255 255 255 
255 255 255 
255 255 255 
255 255 255 
255 124 198 
255 153 255 
255 198 255 
255 243 255 
255 214 255 
236 125 255 
255 255 255 
157 142 157 
255 255 255 
255 148 255 
230 111 255 
255 255 255 
255 255 255 
237 127 255 
145 145 187 
255 194 255 
255 255 255 
255 235 255 
160 160 160 
255 117 141 
255 255 255 
255 255 255 
145 145 187 
255 255 255 
255 221 255 
255 255 255 
142 142 142 
240 132 132 
67 67 215 
0 0 0 
255 255 255 
255 255 255 
255 255 255 
255 240 255 
255 85 255 
255 52 255 
52 52 255 
244 163 255 
255 255 255 
131 66 255 
91 88 255 
196 127 255 
205 135 255 
149 93 255 
153 121 255 
70 28 176 
214 195 255 
133 114 255 
255 245 255 
123 63 255 
195 186 255 
79 54 175 
255 136 255 
106 74 255 
138 89 255 
199 74 255 
145 85 255 
80 66 255 
102 85 255 
255 255 255 
161 74 238 
218 141 255 
116 89 255 
169 87 255 
90 50 255 
196 136 255 
87 59 191 
82 59 190 
218 155 255 
139 102 255 
100 71 229 
99 93 255 
166 137 255 
56 56 181 
255 59 112 
255 125 125 
197 61 70 
255 255 255 
255 109 255 
255 99 250 
255 255 255 
255 61 61 
255 130 215 
255 89 103 
255 90 90 
255 56 93 
255 82 103 
255 121 146 
255 201 255 
255 90 106 
255 82 82 
255 124 139 
255 45 73 
249 72 196 
255 148 148 
255 119 138 
255 255 255 
255 154 255 
255 80 80 
255 58 198 
255 113 255 
143 19 19 
255 51 93 
255 79 79 
255 177 255 
255 122 255 
181 56 56 
255 96 96 
255 50 50 
255 255 255 
255 50 50 
255 46 64 
255 65 84 
205 145 206 
220 220 220 
255 255 255 
255 143 143 
255 150 150 
255 84 148 
255 142 142 
255 255 255 
171 71 106 
171 171 255 
255 237 240 
255 189 189 
255 204 255 
255 202 255 
237 126 255 
255 249 255 
255 158 182 
255 248 255 
255 25 80 
255 255 255 
255 230 255 
255 105 255 
255 77 77 
187 187 227 
116 116 255 
255 255 255 
255 167 255 
255 255 255 
220 77 145 
255 255 255 
255 152 255 
255 135 135 
255 218 218 
255 255 255 
255 147 197 
255 218 255 
255 105 160 
255 255 255 
255 183 203 
255 255 255 
255 255 255 
255 255 255 
255 255 255 
255 255 255 
92 92 255 
255 246 255 
255 255 255 
255 255 255 
255 208 255 
132 41 41 
169 120 255 
255 255 255 
223 92 163 
255 145 255 
255 229 241 
180 56 56 
255 255 255 
56 25 255 
255 255 255 
153 153 251 
255 141 255 
255 255 255 
255 189 242 
255 50 50 
255 196 196 
255 194 213 
255 255 255 
255 255 255 
255 255 255 
125 113 255 
255 255 255 
255 252 255 
255 179 255 
255 255 255 
255 178 255 
255 255 255 
255 255 255 
255 126 126 
255 248 255 
255 255 255 
255 255 255 
255 229 255 
255 252 255 
255 255 255 
255 255 255 
255 255 255 
255 255 255 
255 255 255 
255 255 255 
166 115 255 
255 77 111 
255 234 255 
255 255 255 
255 127 255 
140 140 140 
255 255 255 
106 106 171 
136 56 136 
173 173 255 
251 69 210 
255 255 255 
152 152 250 
223 191 255 
255 255 255 
255 219 255 
255 255 255 
255 255 255 
165 101 255 
255 255 255 
255 226 255 
86 86 86 
255 255 255 
255 255 255 
255 184 255 
255 255 255 
255 255 255 
255 255 255 
255 172 255 
231 71 102 
255 255 255 
255 255 255 
255 176 255 
215 151 243 
255 248 255 
255 179 255 
255 239 255 
245 241 250 
212 117 167 
255 100 252 
255 255 255 
255 255 255 
251 115 255 
255 255 255 
255 255 255 
255 255 255 
255 255 255 
255 161 178 
222 140 255 
255 65 125 
255 203 255 
255 151 255 
255 255 255 
186 130 255 
255 217 255 
195 156 255 
93 93 153 
255 229 255 
0 0 0 
244 238 255 
156 47 240 
93 93 153 
136 136 255 
255 222 255 
255 255 255 
0 0 0 
255 141 255 
173 27 143 
255 255 255 
0 0 0 
255 255 255 
96 73 234 
215 67 67 
255 255 255 
220 177 255 
255 255 255 
131 40 255 
255 113 146 
255 255 255 
209 174 255 
184 161 255 
255 255 255 
255 255 255 
255 255 255 
176 162 235 
67 67 215 
255 221 255 
250 250 255 
208 197 255 
221 46 255 
38 26 121 
255 62 244 
255 50 255 
255 96 255 
114 83 255 
255 185 255 
255 59 255 
76 72 255 
207 101 255 
102 99 255 
125 68 255 
255 91 255 
255 212 255 
93 67 215 
255 185 255 
153 60 255 
105 90 255 
59 26 255 
84 50 255 
70 61 197 
124 56 255 
255 68 255 
255 69 255 
255 76 255 
77 77 255 
255 131 255 
175 96 255 
123 88 255 
255 166 255 
146 92 255 
63 53 170 
99 70 255 
59 48 155 
67 67 255 
95 70 234 
255 255 255 
130 71 255 
123 70 255 
255 78 94 
255 76 100 
155 48 59 
255 85 91 
255 71 78 
255 72 106 
255 79 83 
194 60 60 
255 124 124 
255 108 119 
255 133 255 
255 94 112 
255 116 207 
231 42 57 
255 94 134 
255 80 80 
255 255 255 
255 255 255 
255 89 129 
178 55 86 
255 255 255 
255 122 126 
255 150 167 
255 64 67 
255 91 92 
255 173 173 
255 80 147 
255 80 93 
255 43 198 
255 93 104 
255 60 137 
255 121 255 
59 5 18 
255 106 255 
255 86 95 
255 72 154 
255 50 133 
246 76 76 
255 52 188 
255 160 182 
160 160 160 
255 77 83 
255 255 255 
255 93 93 
0 0 0 
255 255 255 
255 83 159 
255 255 255 
255 90 255 
255 66 255 
255 254 254 
132 41 41 
255 255 255 
140 46 255 
255 255 255 
255 141 255 
255 255 255 
255 255 255 
255 255 255 
0 0 0 
255 255 255 
255 237 237 
171 123 123 
255 255 255 
255 255 255 
255 128 187 
255 255 255 
255 255 255 
255 172 172 
255 255 255 
247 231 247 
255 169 255 
255 255 255 
255 124 124 
255 93 255 
255 140 255 
153 93 93 
255 183 255 
255 205 205 
255 128 175 
255 133 188 
255 181 188 
255 231 255 
255 142 209 
255 255 255 
255 255 255 
255 86 86 
247 242 247 
255 255 255 
255 255 255 
255 255 255 
255 193 193 
255 99 156 
255 255 255 
255 77 244 
255 32 32 
255 140 183 
255 168 243 
255 188 240 
255 255 255 
255 111 230 
255 255 255 
255 255 255 
255 238 255 
255 255 255 
255 97 134 
255 231 255 
255 133 223 
255 255 255 
255 255 255 
255 255 255 
255 255 255 
255 220 255 
160 160 160 
255 178 255 
255 183 255 
255 173 173 
255 255 255 
255 178 255 
255 255 255 
186 98 143 
255 255 255 
255 255 255 
255 146 146 
174 174 255 
255 255 255 
255 255 255 
255 223 223 
255 255 255 
255 255 255 
255 158 216 
149 149 222 
255 255 255 
255 255 255 
255 255 255 
255 235 255 
255 255 255 
255 177 255 
255 126 214 
255 255 255 
255 255 255 
255 255 255 
255 93 255 
201 164 164 
213 160 255 
255 179 242 
248 248 255 
255 255 255 
255 255 255 
255 173 255 
255 254 255 
255 25 80 
255 161 161 
255 255 255 
255 211 255 
171 123 123 
255 110 136 
255 136 255 
255 255 255 
255 255 255 
255 209 255 
255 242 255 
255 118 249 
255 255 255 
255 255 255 
255 224 255 
255 200 255 
255 151 255 
255 255 255 
164 164 201 
255 255 255 
62 19 62 
255 255 255 
255 255 255 
188 115 247 
255 255 255 
255 255 255 
255 242 255 
255 255 255 
255 202 255 
86 86 86 
255 97 255 
255 255 255 
93 93 153 
255 205 255 
92 47 234 
255 111 115 
255 255 255 
255 255 255 
160 49 255 
255 211 255 
255 122 255 
243 139 255 
255 119 255 
255 115 255 
255 153 255 
255 98 255 
209 118 255 
212 133 255 
185 98 255 
255 255 255 
162 53 255 
255 255 255 
255 255 255 
255 255 255 
255 255 255 
255 255 255 
255 242 255 
255 208 255 
0 0 0 
255 255 255 
93 83 255 
255 255 255 
237 237 255 
255 193 255 
215 67 67 
255 255 255 
30 9 96 
255 255 255 
136 83 255 
116 110 255 
75 47 240 
230 73 255 
84 78 255 
109 109 255 
112 69 223 
156 156 255 
178 94 255 
255 110 255 
231 109 255 
54 42 135 
119 119 255 
101 59 255 
141 77 255 
255 54 255 
255 255 255 
255 78 252 
255 49 255 
117 99 255 
143 107 255 
255 54 255 
84 62 255 
88 68 255 
66 57 255 
84 78 255 
255 101 255 
255 255 255 
54 54 254 
177 78 255 
130 70 255 
104 97 255 
107 59 201 
83 83 255 
112 64 207 
47 47 151 
219 79 255 
255 81 101 
255 82 194 
255 55 65 
255 167 178 
255 73 83 
255 75 122 
255 64 121 
255 103 255 
255 187 194 
255 77 178 
255 163 255 
255 105 105 
255 146 151 
255 42 42 
255 58 58 
251 56 255 
255 72 97 
163 50 109 
255 74 219 
255 255 255 
255 79 154 
255 255 255 
255 66 93 
255 86 86 
255 193 193 
255 90 138 
255 69 69 
255 48 48 
151 47 47 
255 136 136 
255 255 255 
255 139 139 
237 73 73 
255 43 255 
255 48 64 
255 255 255 
255 36 255 
255 152 255 
255 49 76 
255 255 255 
255 255 255 
255 255 255 
255 255 255 
255 255 255 
255 160 255 
255 255 255 
0 0 0 
255 184 252 
255 255 255 
255 255 255 
255 255 255 
255 191 255 
255 252 255 
255 116 116 
255 48 182 
187 145 145 
255 255 255 
255 240 255 
255 255 255 
255 242 242 
142 142 142 
255 255 255 
255 255 255 
255 197 197 
0 0 0 
255 255 255 
255 53 255 
255 255 255 
255 255 255 
255 204 204 
255 255 255 
255 255 255 
255 255 255 
255 220 226 
255 78 78 
255 255 255 
255 179 255 
255 193 225 
255 255 255 
255 170 255 
215 67 67 
255 204 255 
255 255 255 
255 127 127 
255 195 255 
255 255 255 
255 255 255 
255 190 255 
255 242 255 
255 255 255 
255 255 255 
255 255 255 
255 180 255 
255 207 237 
255 212 241 
255 255 255 
255 126 255 
255 246 255 
255 255 255 
255 255 255 
255 255 255 
220 89 220 
160 160 160 
170 95 170 
255 255 255 
255 255 255 
255 244 255 
255 255 255 
153 67 67 
255 255 255 
194 173 233 
255 241 255 
255 255 255 
255 255 255 
184 184 255 
255 241 255 
255 234 255 
255 255 255 
255 255 255 
255 188 255 
255 183 255 
255 244 255 
251 85 153 
164 136 255 
255 126 255 
255 254 255 
255 177 244 
255 255 255 
255 255 255 
255 255 255 
255 255 255 
255 222 255 
241 241 241 
255 255 255 
255 181 255 
255 241 255 
255 255 255 
255 255 255 
190 153 255 
161 161 255 
255 255 255 
111 86 98 
255 99 228 
255 255 255 
255 255 255 
255 255 255 
190 149 190 
204 168 255 
171 106 106 
255 200 200 
255 255 255 
212 147 226 
255 255 255 
255 152 255 
255 255 255 
255 255 255 
0 0 0 
255 255 255 
255 255 255 
255 152 152 
255 135 136 
255 121 255 
255 237 255 
255 255 255 
255 177 255 
255 255 255 
255 177 255 
255 204 255 
255 255 255 
255 255 255 
255 255 255 
255 255 255 
255 126 255 
255 198 255 
255 255 255 
255 255 255 
255 231 255 
255 182 255 
255 255 255 
255 255 255 
204 203 255 
255 255 255 
255 255 255 
255 204 255 
245 198 255 
210 163 255 
230 230 230 
255 255 255 
56 56 180 
255 255 255 
216 143 255 
255 255 255 
255 251 255 
176 114 255 
255 194 255 
52 52 255 
255 255 255 
236 230 236 
255 163 255 
187 145 145 
255 209 255 
255 255 255 
255 252 255 
130 119 130 
217 174 255 
255 185 255 
255 255 255 
255 229 255 
86 86 86 
255 207 255 
255 207 255 
46 4 46 
82 31 255 
255 77 255 
255 226 255 
255 255 255 
255 255 255 
65 55 255 
38 26 121 
91 28 255 
133 96 255 
44 44 234 
255 210 255 
121 112 255 
85 54 255 
255 161 255 
154 121 255 
168 60 255 
135 98 255 
111 36 250 
255 141 255 
255 255 255 
100 97 255 
245 124 255 
157 123 255 
163 135 255 
109 50 163 
155 145 255 
84 74 255 
134 54 249 
255 95 255 
124 65 209 
89 83 255 
94 84 255 
83 82 255 
75 65 255 
48 48 255 
195 195 255 
142 87 255 
83 79 255 
255 85 255 
94 94 255 
255 149 255 
131 130 255 
149 77 250 
255 99 255 
255 67 97 
255 106 255 
255 97 255 
255 59 59 
255 98 98 
255 64 66 
253 65 71 
255 90 183 
255 82 114 
255 91 132 
255 90 222 
255 69 69 
255 69 110 
255 88 93 
255 107 142 
255 125 125 
255 193 255 
255 129 147 
255 140 140 
255 150 150 
255 98 153 
255 73 73 
80 25 25 
255 162 162 
255 128 214 
213 54 54 
80 25 25 
255 148 173 
255 73 73 
255 113 255 
255 165 255 
255 85 105 
255 122 255 
206 64 64 
62 19 62 
255 255 255 
172 53 123 
255 255 255 
255 71 125 
255 171 178 
255 113 113 
255 203 203 
255 255 255 
255 122 122 
255 121 255 
255 119 119 
255 255 255 
255 249 249 
255 255 255 
255 255 255 
255 255 255 
255 255 255 
83 83 255 
255 203 255 
255 231 255 
255 255 255 
255 147 147 
255 255 255 
255 208 255 
86 86 86 
204 168 255 
255 156 156 
255 184 236 
255 255 255 
255 182 223 
255 183 255 
255 132 255 
255 210 255 
255 255 255 
255 221 255 
255 255 255 
255 119 227 
255 142 142 
255 253 255 
255 255 255 
255 131 131 
255 238 255 
255 255 255 
255 217 255 
255 90 181 
135 121 152 
255 255 255 
255 208 255 
183 183 255 
255 255 255 
255 255 255 
255 255 255 
255 255 255 
255 219 255 
255 122 122 
255 154 154 
255 255 255 
86 86 86 
255 255 255 
255 123 171 
255 255 255 
255 214 255 
255 255 255 
118 118 118 
255 255 255 
255 255 255 
255 255 255 
251 153 153 
255 255 255 
255 255 255 
255 255 255 
255 224 255 
255 244 255 
255 255 255 
255 135 135 
255 255 255 
255 255 255 
255 238 238 
255 255 255 
56 56 180 
255 255 255 
255 217 217 
255 189 254 
255 255 255 
255 249 255 
255 242 255 
255 148 196 
255 255 255 
86 86 86 
255 255 255 
255 255 255 
255 218 255 
255 217 255 
255 234 255 
255 193 255 
255 193 225 
86 86 86 
255 167 167 
255 255 255 
255 255 255 
255 190 255 
241 241 241 
118 118 118 
255 224 255 
255 153 251 
189 127 255 
140 140 140 
255 246 255 
195 109 255 
228 103 255 
255 255 255 
255 85 255 
255 255 255 
230 230 230 
209 112 112 
255 255 255 
255 255 255 
255 255 255 
255 99 255 
255 255 255 
255 195 195 
255 255 255 
255 255 255 
255 255 255 
255 255 255 
255 189 255 
180 180 255 
119 89 255 
255 255 255 
149 149 255 
255 255 255 
255 255 255 
255 255 255 
255 105 105 
255 87 103 
255 255 255 
255 248 248 
255 255 255 
255 142 255 
76 76 246 
255 156 255 
255 255 255 
255 255 255 
250 131 255 
67 67 153 
215 67 67 
255 140 255 
232 131 202 
255 255 255 
255 255 255 
255 157 255 
255 255 255 
255 255 255 
255 255 255 
255 255 255 
255 136 255 
255 255 255 
67 67 153 
255 255 255 
255 178 255 
132 94 255 
204 197 255 
255 108 175 
255 78 122 
0 0 0 
154 154 255 
255 255 255 
106 106 171 
215 67 67 
255 249 255 
255 255 255 
255 255 255 
153 67 67 
255 135 255 
255 64 255 
248 147 255 
255 250 255 
255 184 255 
106 106 228 
196 119 255 
255 255 255 
255 255 255 
77 24 166 
48 33 236 
180 49 173 
76 50 160 
132 66 255 
99 99 255 
135 115 255 
81 74 255 
118 70 225 
40 18 255 
114 86 255 
196 115 255 
46 46 150 
181 85 255 
83 83 255 
76 49 255 
167 46 255 
255 98 255 
209 199 255 
98 93 255 
130 130 255 
122 68 255 
92 73 235 
101 90 255 
232 110 255 
74 66 255 
82 49 243 
205 81 255 
214 124 255 
175 74 240 
111 100 255 
184 75 255 
91 90 255 
179 87 255 
120 120 255 
146 86 255 
52 52 167 
128 86 255 
82 82 255 
255 239 239 
195 60 60 
255 112 152 
255 132 255 
255 74 144 
255 110 255 
255 59 201 
255 95 192 
255 87 87 
168 52 83 
221 57 255 
255 71 82 
255 64 126 
255 150 255 
197 48 75 
255 119 255 
156 48 110 
225 70 109 
218 67 67 
255 60 81 
255 61 84 
255 161 255 
233 68 72 
253 50 70 
255 52 160 
255 35 255 
255 100 100 
255 120 128 
255 255 255 
255 59 74 
132 12 41 
255 50 50 
255 112 126 
255 141 200 
255 82 111 
255 41 80 
255 85 89 
132 41 41 
80 25 25 
255 154 230 
255 208 255 
255 246 255 
255 175 255 
215 67 67 
255 210 216 
255 44 147 
255 91 114 
215 67 67 
255 130 255 
255 255 255 
255 156 165 
255 255 255 
87 12 123 
255 243 255 
255 197 197 
255 66 66 
255 255 255 
136 56 136 
255 255 255 
222 190 255 
255 231 255 
255 249 255 
255 197 255 
255 220 254 
244 100 255 
255 158 255 
255 228 255 
255 156 158 
255 255 255 
255 85 109 
255 156 255 
255 255 255 
255 255 255 
255 255 255 
255 255 255 
255 255 255 
255 255 255 
255 255 255 
255 168 255 
255 255 255 
255 255 255 
255 255 255 
255 255 255 
255 255 255 
255 254 255 
153 93 93 
255 255 255 
255 138 138 
255 255 255 
255 98 98 
255 255 255 
255 120 159 
255 209 209 
255 125 255 
255 251 255 
255 187 187 
255 235 255 
255 255 255 
255 164 210 
255 255 255 
255 220 220 
181 181 215 
255 255 255 
255 227 255 
255 126 126 
255 255 255 
255 255 255 
255 187 255 
255 255 255 
255 202 202 
255 255 255 
255 244 244 
255 232 255 
255 255 255 
255 255 255 
255 255 255 
255 255 255 
255 255 255 
206 121 254 
142 142 142 
255 230 230 
255 255 255 
132 41 41 
255 255 255 
255 255 255 
255 255 255 
255 255 255 
255 255 255 
255 255 255 
255 255 255 
255 255 255 
255 105 226 
255 255 255 
152 142 152 
255 162 162 
179 179 179 
255 255 255 
255 255 255 
255 252 255 
186 178 186 
255 255 255 
255 255 255 
255 255 255 
255 184 255 
241 241 241 
166 78 155 
245 174 174 
255 255 255 
255 143 255 
0 0 0 
145 113 255 
156 156 255 
255 249 249 
171 64 207 
215 151 243 
255 255 255 
255 255 255 
255 255 255 
255 255 255 
255 138 165 
255 193 255 
255 255 255 
255 255 255 
255 255 255 
210 175 255 
255 209 255 
255 255 255 
174 127 255 
255 255 255 
0 0 0 
255 255 255 
255 135 255 
255 255 255 
255 255 255 
255 209 250 
246 174 255 
232 232 255 
255 111 159 
255 255 255 
255 255 255 
255 255 255 
181 175 255 
255 164 255 
255 222 255 
255 255 255 
255 255 255 
255 147 255 
255 194 194 
255 235 255 
255 255 255 
255 255 255 
255 255 255 
255 255 255 
244 244 255 
255 161 161 
128 116 255 
243 139 255 
255 223 255 
255 164 255 
255 85 255 
255 245 245 
52 52 255 
225 152 255 
110 110 250 
145 145 255 
160 85 190 
208 112 255 
230 112 255 
255 183 242 
109 109 255 
255 255 255 
140 140 140 
155 143 169 
255 255 255 
255 227 255 
194 99 255 
67 67 215 
209 86 255 
255 68 255 
120 74 255 
148 131 255 
133 63 255 
136 58 255 
255 255 255 
255 85 255 
81 58 188 
230 96 255 
255 98 255 
255 145 255 
61 61 255 
95 95 255 
93 66 255 
84 61 255 
255 255 255 
148 57 201 
255 130 255 
85 51 229 
120 103 255 
123 72 255 
111 96 255 
255 99 255 
68 68 255 
153 85 255 
76 76 255 
76 76 246 
118 98 255 
255 97 255 
255 63 255 
196 80 255 
208 81 255 
200 57 255 
67 66 255 
83 61 255 
76 68 220 
182 45 255 
122 122 255 
255 123 170 
255 59 64 
255 94 204 
255 99 107 
255 94 94 
167 52 52 
255 85 105 
255 75 105 
203 50 154 
183 57 255 
255 120 255 
255 97 144 
255 82 181 
255 187 189 
222 63 76 
255 80 86 
255 73 103 
255 103 138 
255 88 255 
255 106 112 
255 84 159 
255 90 109 
255 209 255 
255 158 255 
255 120 255 
255 141 141 
255 112 255 
184 57 66 
255 73 255 
255 187 255 
255 63 146 
255 57 217 
255 107 107 
255 255 255 
255 103 139 
255 85 255 
255 93 226 
255 68 120 
255 60 69 
255 195 195 
255 95 169 
255 255 255 
255 162 162 
255 137 219 
255 255 255 
255 222 247 
255 175 255 
255 192 192 
255 255 255 
255 112 177 
255 255 255 
255 255 255 
255 255 255 
255 255 255 
255 255 255 
255 160 160 
255 98 98 
245 90 90 
255 237 237 
255 255 255 
255 243 255 
67 67 153 
255 255 255 
255 255 255 
255 207 255 
255 255 255 
255 255 255 
255 255 255 
255 255 255 
215 181 181 
255 177 255 
255 255 255 
255 156 161 
255 90 90 
255 205 255 
255 255 255 
255 255 255 
255 255 255 
252 242 252 
255 255 255 
160 160 160 
255 231 231 
255 196 255 
255 255 255 
255 255 255 
255 255 255 
255 255 255 
255 248 255 
255 255 255 
255 109 109 
255 255 255 
255 237 255 
255 129 255 
255 255 255 
255 255 255 
255 255 255 
255 255 255 
255 239 255 
255 255 255 
255 255 255 
255 216 251 
255 255 255 
255 222 255 
153 93 93 
255 190 222 
255 195 255 
255 255 255 
255 255 255 
255 255 255 
255 255 255 
255 255 255 
255 255 255 
255 255 255 
255 255 255 
255 232 232 
255 206 206 
255 129 205 
255 255 255 
255 255 255 
255 184 255 
255 255 255 
255 184 255 
255 255 255 
255 255 255 
230 230 230 
255 170 214 
255 255 255 
255 255 255 
255 255 255 
255 164 204 
255 255 255 
255 246 255 
255 255 255 
255 231 255 
255 190 255 
255 255 255 
255 255 255 
199 184 255 
164 149 255 
245 245 255 
255 255 255 
255 210 255 
255 255 255 
255 255 255 
255 197 228 
109 109 255 
255 255 255 
255 255 255 
255 255 255 
255 251 255 
255 255 255 
255 218 225 
255 229 255 
255 255 255 
255 97 255 
255 255 255 
255 233 255 
189 189 255 
212 204 255 
255 255 255 
162 162 255 
255 184 255 
157 157 255 
255 150 222 
255 255 255 
169 143 169 
255 255 255 
255 164 164 
255 187 255 
255 149 158 
255 126 173 
250 110 110 
255 255 255 
226 190 255 
255 255 255 
255 255 255 
98 98 255 
255 255 255 
255 218 255 
255 255 255 
255 255 255 
255 255 255 
255 255 255 
255 255 255 
67 67 215 
224 143 159 
255 255 255 
255 245 255 
255 162 255 
204 171 255 
255 255 255 
255 250 255 
255 255 255 
255 235 255 
100 100 196 
255 255 255 
179 107 120 
119 72 234 
250 250 255 
122 122 255 
255 255 255 
255 255 255 
255 255 255 
86 86 86 
255 86 86 
167 152 255 
255 241 255 
255 193 255 
255 255 255 
255 168 255 
197 88 114 
156 156 255 
255 207 255 
255 255 255 
255 255 255 
255 255 255 
255 98 184 
34 34 255 
255 115 255 
49 15 157 
75 75 255 
59 59 255 
142 72 255 
255 154 255 
61 48 255 
136 50 255 
255 31 255 
255 255 255 
126 41 152 
78 78 255 
255 255 255 
113 93 255 
170 105 255 
123 64 255 
134 134 255 
255 192 255 
255 66 255 
86 79 255 
203 107 255 
255 145 255 
72 54 173 
255 108 255 
52 52 167 
255 74 255 
255 75 255 
100 95 255 
255 227 255 
76 63 214 
223 83 255 
255 80 255 
117 50 246 
73 73 255 
126 114 255 
255 85 255 
255 75 255 
111 72 233 
255 101 129 
255 55 87 
255 74 81 
255 83 178 
255 82 239 
255 64 77 
255 120 255 
255 113 149 
219 68 172 
255 101 117 
255 128 255 
255 95 255 
255 90 106 
255 84 84 
158 45 101 
175 54 79 
255 75 255 
255 122 202 
255 84 255 
184 57 66 
255 93 219 
255 64 255 
255 54 124 
110 34 34 
255 64 142 
255 150 159 
255 83 110 
254 79 255 
255 74 255 
150 46 46 
255 58 173 
167 52 52 
167 52 52 
255 80 161 
115 36 50 
183 57 66 
255 67 179 
255 52 125 
255 55 55 
167 116 252 
255 193 255 
255 93 232 
255 179 179 
255 56 181 
255 40 40 
255 191 191 
255 232 232 
255 255 255 
255 94 255 
255 255 255 
255 150 255 
255 118 125 
255 146 146 
255 154 160 
255 110 228 
255 255 255 
255 255 255 
255 255 255 
255 115 255 
255 209 215 
255 195 255 
255 99 255 
255 156 156 
255 255 255 
255 52 52 
255 255 255 
255 189 255 
255 255 255 
255 255 255 
255 255 255 
118 118 118 
255 255 255 
117 43 138 
255 160 255 
255 255 255 
255 255 255 
171 123 123 
255 255 255 
255 255 255 
234 167 167 
255 255 255 
234 112 220 
255 169 255 
255 255 255 
251 153 153 
255 255 255 
255 177 255 
0 0 0 
211 143 255 
142 131 255 
255 255 255 
255 255 255 
255 229 255 
255 224 255 
255 182 236 
255 255 255 
255 255 255 
255 255 255 
255 255 255 
255 255 255 
255 125 255 
255 255 255 
255 255 255 
255 255 255 
170 144 170 
255 255 255 
255 255 255 
255 214 255 
255 144 186 
255 166 255 
255 255 255 
255 133 245 
255 193 193 
255 221 255 
255 255 255 
219 219 255 
255 180 243 
255 255 255 
255 255 255 
255 255 255 
169 120 255 
255 234 255 
255 234 255 
179 73 96 
255 255 255 
255 183 255 
253 99 255 
255 130 239 
255 255 255 
255 255 255 
192 118 121 
255 255 255 
255 255 255 
255 200 255 
255 255 255 
255 255 255 
255 255 255 
255 135 241 
255 255 255 
255 255 255 
255 255 255 
255 255 255 
255 255 255 
160 160 160 
255 255 255 
255 255 255 
225 166 225 
255 255 255 
255 162 162 
86 86 86 
255 178 186 
255 255 255 
255 255 255 
255 255 255 
255 219 255 
118 118 118 
255 255 255 
67 67 153 
165 94 246 
255 248 255 
200 90 255 
255 255 255 
255 252 255 
183 140 255 
196 196 255 
255 255 255 
255 172 180 
255 156 156 
255 237 255 
255 198 255 
255 255 255 
220 174 255 
255 161 255 
132 41 41 
255 255 255 
228 106 106 
255 255 255 
255 232 255 
255 188 255 
215 181 181 
236 191 255 
255 255 255 
255 193 255 
255 120 255 
255 191 255 
255 255 255 
228 228 255 
255 255 255 
255 171 255 
255 190 190 
255 150 255 
255 148 189 
162 94 109 
255 255 255 
255 143 255 
111 111 255 
147 147 255 
67 67 215 
255 255 255 
201 164 255 
255 184 255 
255 255 255 
255 233 255 
255 255 255 
255 255 255 
255 103 255 
255 248 255 
118 69 255 
255 139 255 
255 255 255 
255 255 255 
255 87 255 
255 102 255 
194 194 255 
255 255 255 
178 173 255 
40 40 255 
250 195 255 
83 71 247 
131 114 255 
219 75 255 
255 113 255 
57 42 146 
255 118 255 
127 64 255 
52 40 178 
54 38 124 
70 48 237 
131 115 255 
255 140 255 
164 105 255 
55 43 255 
116 84 255 
255 185 255 
111 87 255 
255 105 255 
153 78 252 
90 90 255 
227 63 214 
89 75 255 
116 88 255 
174 166 255 
43 41 192 
87 47 151 
74 74 239 
224 79 255 
175 64 212 
255 90 255 
74 68 238 
247 190 255 
255 102 255 
255 159 255 
98 60 255 
151 77 255 
83 83 255 
148 127 255 
255 132 147 
255 81 92 
255 87 87 
255 75 121 
255 85 111 
242 75 143 
255 96 145 
255 197 255 
255 176 244 
202 50 50 
216 67 116 
255 85 255 
255 71 126 
255 82 238 
255 132 205 
255 64 90 
255 108 199 
255 100 209 
255 106 141 
255 62 255 
239 74 78 
255 94 126 
210 65 174 
255 72 136 
255 57 122 
255 87 91 
180 56 56 
255 50 243 
255 135 174 
255 47 47 
255 59 81 
255 234 255 
154 48 58 
255 68 68 
255 88 88 
255 76 110 
255 57 57 
255 135 135 
255 111 255 
255 142 213 
255 249 249 
255 193 193 
0 0 0 
255 140 140 
255 255 255 
255 163 163 
86 86 86 
255 159 254 
255 173 216 
255 174 174 
255 155 194 
255 255 255 
255 241 255 
255 137 255 
255 255 255 
255 255 255 
255 211 255 
255 255 255 
255 255 255 
255 255 255 
255 145 145 
164 111 230 
255 255 255 
202 94 218 
250 152 152 
255 230 255 
255 255 255 
255 167 167 
255 255 255 
215 67 67 
255 109 213 
255 255 255 
255 117 167 
132 41 41 
255 168 255 
255 126 126 
255 144 186 
255 197 197 
255 204 204 
255 255 255 
255 255 255 
255 255 255 
255 255 255 
255 171 176 
255 255 255 
255 255 255 
255 214 255 
255 192 245 
255 204 255 
255 245 255 
255 137 137 
0 0 0 
255 186 255 
255 255 255 
231 95 119 
255 255 255 
178 178 178 
255 255 255 
255 147 255 
255 255 255 
255 255 255 
255 220 255 
255 174 174 
255 255 255 
255 153 177 
237 237 255 
153 93 93 
255 255 255 
255 146 158 
255 255 255 
255 255 255 
255 255 255 
255 174 210 
255 226 255 
255 255 255 
255 255 255 
255 255 255 
255 115 115 
255 255 255 
255 255 255 
160 160 160 
255 255 255 
255 255 255 
255 255 255 
118 118 118 
255 255 255 
255 187 187 
198 198 255 
255 186 255 
255 208 255 
255 215 255 
255 210 255 
255 255 255 
215 67 67 
191 106 255 
255 255 255 
255 255 255 
255 255 255 
255 232 232 
255 255 255 
255 250 255 
255 255 255 
255 172 172 
255 136 255 
255 255 255 
251 224 255 
255 189 255 
255 149 255 
255 218 255 
153 153 251 
255 240 255 
156 94 179 
255 176 255 
255 255 255 
255 255 255 
255 253 255 
162 161 182 
255 160 160 
255 226 255 
255 255 255 
255 222 255 
146 146 187 
255 128 210 
171 146 255 
255 255 255 
251 113 255 
239 186 255 
227 187 187 
255 255 255 
255 255 255 
255 255 255 
255 239 255 
255 255 255 
255 170 255 
255 243 255 
0 0 0 
140 140 140 
255 255 255 
181 181 255 
255 255 255 
255 88 255 
255 246 255 
255 255 255 
255 226 255 
206 206 255 
236 162 255 
225 184 255 
166 155 221 
255 139 237 
246 145 246 
216 174 255 
238 233 255 
255 255 255 
97 97 255 
255 255 255 
250 151 255 
206 131 255 
47 47 255 
255 188 255 
255 255 255 
255 31 102 
234 183 255 
204 157 255 
255 67 218 
230 230 230 
253 117 208 
255 158 216 
255 254 255 
255 177 255 
154 95 255 
200 52 255 
119 72 234 
230 230 230 
255 255 255 
52 52 255 
56 56 180 
255 255 255 
73 37 255 
155 130 255 
120 102 255 
255 206 255 
58 42 255 
255 34 255 
79 54 175 
154 94 255 
255 55 255 
255 96 255 
255 184 255 
117 105 255 
79 54 175 
255 128 255 
118 47 189 
138 97 255 
105 94 255 
114 90 255 
129 54 255 
52 52 167 
255 149 255 
64 64 207 
83 61 255 
119 76 255 
112 68 255 
74 61 255 
186 90 255 
241 78 255 
88 88 255 
134 86 255 
89 83 255 
141 85 255 
255 64 255 
86 86 255 
108 53 177 
255 125 255 
50 50 245 
72 72 255 
111 59 255 
255 157 180 
255 93 153 
255 74 80 
255 89 180 
255 160 255 
255 185 195 
255 79 178 
255 87 87 
219 63 77 
255 81 91 
196 61 122 
255 69 133 
255 82 125 
248 77 255 
255 63 73 
255 50 144 
255 77 77 
255 46 80 
255 114 146 
226 70 70 
255 90 255 
255 55 181 
255 83 125 
255 93 152 
255 71 78 
255 56 65 
255 84 87 
255 42 139 
255 82 230 
255 103 163 
255 69 70 
255 64 77 
255 95 152 
255 74 210 
255 98 197 
54 16 114 
255 97 107 
255 63 138 
255 93 118 
180 180 255 
255 117 255 
255 255 255 
255 255 255 
255 255 255 
255 148 157 
255 126 255 
255 66 66 
255 255 255 
255 171 255 
255 251 251 
255 164 255 
255 109 255 
255 113 255 
255 166 255 
255 244 255 
255 255 255 
255 255 255 
255 255 255 
255 144 210 
255 255 255 
255 255 255 
255 115 115 
255 222 242 
255 255 255 
255 138 138 
255 255 255 
215 181 181 
255 255 255 
255 211 255 
255 255 255 
215 128 181 
255 255 255 
255 135 135 
255 147 255 
255 220 220 
255 234 235 
241 194 255 
41 41 132 
255 191 191 
255 198 255 
255 198 198 
255 149 255 
255 157 231 
255 154 255 
216 175 255 
255 255 255 
255 255 255 
255 255 255 
255 255 255 
255 255 255 
255 147 248 
220 220 220 
255 171 180 
255 198 255 
255 253 255 
255 255 255 
255 255 255 
255 255 255 
255 168 255 
255 255 255 
255 255 255 
255 255 255 
255 193 212 
255 255 255 
252 252 252 
255 255 255 
255 177 255 
255 118 158 
255 237 252 
255 187 255 
171 106 106 
255 206 255 
255 255 255 
255 255 255 
255 255 255 
255 223 249 
255 218 255 
255 255 255 
153 93 93 
255 255 255 
255 177 212 
255 255 255 
255 199 255 
255 255 255 
255 172 248 
171 123 123 
255 229 231 
255 255 255 
255 255 255 
132 132 187 
255 255 255 
255 225 255 
255 253 255 
255 255 255 
178 178 178 
255 255 255 
255 236 255 
255 255 255 
255 255 255 
255 255 255 
199 133 243 
196 196 228 
255 175 191 
106 106 228 
255 255 255 
255 255 255 
255 249 255 
255 255 255 
255 255 255 
255 255 255 
255 255 255 
129 108 255 
255 255 255 
255 202 255 
255 255 255 
255 255 255 
86 86 86 
255 255 255 
175 175 255 
180 180 255 
255 255 255 
255 255 255 
255 255 255 
152 152 250 
147 147 255 
255 255 255 
255 255 255 
255 255 255 
255 255 255 
255 255 255 
255 166 255 
255 168 255 
199 161 255 
255 255 255 
156 156 255 
255 129 215 
255 255 255 
255 255 255 
240 132 132 
255 255 255 
255 255 255 
145 145 255 
174 74 239 
255 255 255 
241 241 241 
255 186 255 
225 127 255 
178 178 178 
252 223 255 
92 92 255 
255 255 255 
255 115 115 
230 230 230 
245 198 216 
122 79 255 
255 152 255 
255 255 255 
255 255 255 
255 255 255 
255 255 255 
255 255 255 
255 193 255 
255 255 255 
169 97 255 
255 242 255 
243 129 255 
141 141 255 
255 148 198 
159 130 255 
152 152 250 
128 116 255 
255 252 255 
255 255 255 
255 124 255 
255 255 255 
246 161 255 
255 255 255 
70 70 255 
145 51 255 
32 32 255 
82 82 255 
114 58 255 
255 69 255 
65 60 255 
145 119 255 
25 25 80 
255 98 255 
255 51 255 
187 61 225 
176 71 255 
202 19 142 
186 77 255 
255 154 255 
129 68 255 
97 91 255 
236 86 255 
71 71 228 
230 153 255 
62 48 255 
77 77 248 
230 164 255 
90 49 255 
92 92 255 
255 122 255 
191 96 255 
65 44 255 
105 94 255 
88 52 251 
193 156 255 
79 79 255 
103 67 255 
131 63 255 
145 58 255 
190 94 255 
75 75 255 
234 120 255 
255 100 156 
255 87 87 
255 96 112 
243 62 68 
255 63 63 
211 53 83 
255 87 107 
255 111 255 
255 108 108 
248 77 84 
255 57 57 
255 158 255 
255 71 78 
199 62 126 
218 68 68 
175 54 66 
255 68 76 
255 139 139 
243 62 75 
255 121 152 
249 64 122 
255 64 91 
235 44 44 
255 61 88 
255 101 111 
255 97 255 
255 133 255 
255 82 82 
255 63 112 
255 81 123 
255 87 144 
255 120 120 
255 101 143 
255 56 56 
255 255 255 
255 50 230 
255 255 255 
255 105 106 
237 73 73 
255 97 255 
255 246 246 
255 255 255 
169 52 119 
255 255 255 
255 255 255 
255 194 226 
255 217 217 
255 115 115 
255 163 201 
255 233 255 
255 177 255 
255 155 217 
255 175 243 
255 112 119 
205 143 255 
255 133 240 
255 255 255 
255 180 180 
255 196 255 
255 255 255 
255 251 255 
228 106 106 
197 176 255 
255 115 115 
255 225 225 
255 162 255 
255 169 255 
255 136 136 
255 255 255 
255 177 255 
255 255 255 
255 99 99 
255 255 255 
255 123 171 
255 255 255 
142 142 142 
255 255 255 
255 122 225 
200 180 200 
241 241 241 
255 255 255 
255 255 255 
255 255 255 
255 255 255 
255 226 255 
255 255 255 
174 174 255 
255 255 255 
255 255 255 
255 177 219 
255 199 255 
255 255 255 
255 255 255 
255 137 255 
255 255 255 
255 225 255 
255 184 255 
187 145 145 
255 255 255 
255 186 240 
255 255 255 
255 140 217 
255 255 255 
255 198 255 
164 164 201 
255 255 255 
255 234 255 
224 221 255 
223 223 251 
255 255 255 
255 255 255 
255 157 157 
255 255 255 
255 132 132 
255 206 219 
255 161 199 
255 255 255 
118 118 118 
255 255 255 
255 255 255 
255 217 234 
86 86 86 
255 223 255 
255 255 255 
204 131 255 
255 253 255 
143 44 73 
169 95 200 
255 255 255 
255 255 255 
255 149 255 
255 255 255 
252 252 255 
255 255 255 
255 159 255 
255 255 255 
255 255 255 
225 164 169 
177 167 222 
255 255 255 
255 255 255 
255 255 255 
255 255 255 
255 255 255 
255 126 126 
255 254 255 
255 255 255 
255 255 255 
255 255 255 
255 255 255 
216 129 139 
184 58 255 
124 124 255 
255 255 255 
255 255 255 
255 255 255 
86 86 86 
255 255 255 
255 255 255 
255 129 255 
255 233 255 
255 148 223 
255 255 255 
255 255 255 
255 255 255 
255 255 255 
255 255 255 
255 133 143 
208 172 255 
255 255 255 
255 222 255 
255 244 255 
86 86 86 
255 140 255 
255 125 255 
255 255 255 
255 138 166 
255 255 255 
255 255 255 
255 174 255 
255 142 158 
255 255 255 
211 123 255 
255 255 255 
255 255 255 
255 198 255 
255 255 255 
255 255 255 
255 255 255 
255 140 255 
67 67 215 
118 118 118 
255 255 255 
255 255 255 
152 142 152 
255 255 255 
123 123 171 
255 255 255 
176 176 255 
255 255 255 
255 250 255 
255 255 255 
119 95 255 
255 82 255 
254 170 227 
86 86 86 
255 161 255 
255 216 255 
255 255 255 
255 255 255 
237 151 237 
62 19 62 
255 137 255 
67 67 215 
76 76 246 
255 234 255 
218 76 255 
126 118 255 
255 255 255 
142 97 255 
181 61 255 
255 111 255 
52 52 167 
235 84 255 
103 63 255 
82 34 109 
190 158 255 
255 81 255 
133 69 255 
72 52 179 
108 85 255 
255 92 255 
255 41 163 
121 75 255 
76 39 255 
133 75 242 
107 40 228 
66 66 255 
68 68 255 
73 73 255 
255 229 255 
162 30 255 
98 87 255 
109 94 255 
86 65 255 
144 79 255 
147 81 255 
205 75 255 
83 75 255 
64 45 168 
102 69 253 
98 72 255 
177 69 240 
255 135 255 
123 83 255 
135 127 255 
255 83 84 
255 86 92 
255 84 101 
244 76 94 
241 75 107 
255 97 152 
255 92 106 
255 56 65 
255 255 255 
255 106 255 
255 90 90 
234 53 66 
255 78 130 
255 46 65 
255 71 71 
255 255 255 
255 48 255 
179 52 88 
255 84 84 
147 45 79 
255 154 154 
255 70 89 
255 153 255 
255 56 56 
255 85 146 
255 32 105 
255 76 88 
167 52 52 
255 34 52 
255 255 255 
255 127 255 
255 87 90 
255 53 85 
255 56 174 
222 58 87 
255 110 110 
255 58 92 
255 120 229 
255 112 151 
255 255 255 
255 110 110 
255 163 168 
94 57 255 
255 255 255 
255 100 123 
255 215 231 
41 41 132 
255 255 255 
255 131 255 
255 140 255 
255 237 245 
255 154 186 
255 255 255 
255 255 255 
200 180 200 
255 173 255 
255 234 255 
206 102 195 
118 118 118 
255 233 255 
255 255 255 
255 111 255 
255 253 255 
255 137 137 
255 108 189 
255 188 255 
255 122 172 
255 255 255 
255 146 155 
255 175 255 
255 255 255 
255 156 156 
255 177 255 
255 168 255 
255 119 157 
255 255 255 
255 255 255 
255 153 248 
255 158 255 
255 255 255 
255 189 194 
255 222 255 
255 255 255 
255 255 255 
255 125 226 
241 241 241 
255 115 115 
255 255 255 
237 237 255 
153 93 93 
255 207 207 
255 255 255 
255 255 255 
255 137 143 
255 255 255 
255 253 255 
255 255 255 
255 137 144 
255 164 230 
255 155 255 
255 255 255 
255 255 255 
255 255 255 
255 255 255 
255 255 255 
174 142 255 
255 238 255 
178 178 178 
195 147 156 
255 173 217 
255 148 209 
255 255 255 
255 213 255 
255 255 255 
255 255 255 
227 222 255 
255 230 255 
255 239 255 
255 255 255 
255 241 255 
193 193 193 
255 255 255 
239 165 255 
255 111 111 
255 255 255 
255 173 255 
255 184 255 
101 86 154 
255 222 255 
255 255 255 
255 255 255 
255 255 255 
255 255 255 
255 255 255 
255 255 255 
232 131 202 
255 189 247 
255 255 255 
255 255 255 
255 154 255 
255 183 255 
255 255 255 
255 255 255 
255 255 255 
135 124 180 
255 255 255 
67 67 215 
255 255 255 
255 255 255 
255 255 255 
255 209 255 
155 93 130 
255 163 255 
255 255 255 
255 255 255 
255 212 255 
178 178 178 
226 220 226 
255 156 156 
243 153 243 
255 212 255 
125 109 255 
255 255 255 
255 255 255 
255 255 255 
255 63 255 
255 227 254 
255 173 255 
255 255 255 
255 255 255 
255 255 255 
255 147 255 
255 255 255 
255 255 255 
118 118 118 
255 255 255 
255 221 255 
255 255 255 
255 180 255 
255 255 255 
255 255 255 
255 143 255 
255 255 255 
115 101 203 
52 52 255 
196 196 228 
255 255 255 
255 188 255 
144 76 218 
160 160 160 
255 229 255 
255 255 255 
255 201 250 
255 255 255 
240 240 255 
255 86 255 
255 87 255 
211 146 255 
86 86 86 
100 88 255 
255 255 255 
178 94 158 
118 118 255 
237 237 255 
255 255 255 
255 255 255 
255 255 255 
255 255 255 
255 255 255 
255 148 255 
255 192 255 
255 228 255 
255 196 255 
255 184 255 
153 110 251 
255 255 255 
181 181 215 
61 61 255 
36 36 255 
255 87 255 
44 27 87 
94 78 255 
255 98 255 
148 127 255 
255 146 255 
255 77 255 
75 7 53 
44 27 87 
181 85 255 
133 92 255 
220 156 255 
68 59 255 
255 231 255 
255 90 255 
255 113 255 
137 59 255 
60 60 194 
126 82 255 
60 60 194 
182 75 255 
255 125 255 
166 64 255 
255 109 255 
255 255 255 
255 255 255 
255 81 255 
100 63 255 
167 111 255 
195 61 255 
255 102 255 
114 57 231 
116 66 255 
81 74 255 
255 98 255 
166 111 255 
255 139 255 
255 157 157 
255 255 255 
255 70 147 
255 102 143 
255 124 202 
255 108 108 
255 59 85 
255 108 118 
255 98 255 
255 113 113 
255 78 124 
255 80 80 
255 73 73 
255 59 59 
255 71 94 
255 77 255 
230 71 71 
255 55 255 
164 51 71 
255 87 115 
255 115 255 
178 55 84 
255 154 175 
255 202 213 
255 82 255 
255 133 133 
255 55 55 
255 41 61 
255 133 255 
255 73 98 
255 84 188 
255 255 255 
255 82 95 
255 64 90 
255 58 89 
87 27 44 
255 74 103 
255 184 204 
255 255 255 
255 222 222 
243 97 255 
255 220 220 
255 244 255 
255 241 255 
255 223 255 
255 147 147 
255 255 255 
255 139 220 
132 41 41 
255 183 203 
255 233 255 
153 153 251 
255 174 174 
255 112 255 
255 161 255 
255 255 255 
255 250 250 
255 255 255 
194 194 255 
255 255 255 
255 174 174 
230 193 255 
255 255 255 
255 255 255 
241 241 241 
255 137 144 
255 222 235 
255 255 255 
255 173 255 
196 196 255 
255 186 255 
118 118 118 
255 255 255 
255 255 255 
255 252 255 
154 154 202 
255 175 228 
255 219 255 
255 255 255 
255 123 240 
255 176 255 
255 255 255 
255 255 255 
255 255 255 
184 94 103 
255 255 255 
255 255 255 
237 145 255 
255 255 255 
255 228 255 
255 255 255 
255 255 255 
255 255 255 
228 197 255 
255 255 255 
255 125 125 
255 255 255 
255 234 255 
255 255 255 
255 255 255 
255 255 255 
255 255 255 
255 253 255 
255 170 255 
201 164 164 
255 212 212 
255 186 244 
255 255 255 
255 255 255 
255 114 114 
255 210 210 
255 255 255 
215 72 255 
255 228 255 
196 128 255 
228 196 196 
255 139 183 
255 255 255 
255 255 255 
194 194 194 
142 142 142 
255 255 255 
255 237 237 
189 84 255 
255 255 255 
255 255 255 
255 255 255 
255 255 255 
255 255 255 
255 228 255 
255 255 255 
255 255 255 
255 171 171 
255 186 255 
255 211 255 
118 118 118 
255 147 248 
255 211 228 
255 188 252 
255 255 255 
255 255 255 
235 205 255 
255 204 215 
255 255 255 
255 255 255 
255 255 255 
255 187 187 
174 174 255 
251 153 153 
255 255 255 
255 165 255 
255 195 195 
255 255 255 
255 255 255 
201 181 201 
255 193 232 
255 255 255 
255 255 255 
142 142 142 
93 93 153 
255 245 255 
255 219 255 
255 239 239 
255 255 255 
255 233 255 
255 191 255 
255 141 255 
255 255 255 
255 184 255 
255 255 255 
202 165 165 
255 161 207 
255 255 255 
152 142 152 
255 255 255 
255 173 255 
255 255 255 
255 255 255 
119 102 255 
255 234 234 
255 255 255 
255 255 255 
255 255 255 
255 203 255 
106 106 228 
218 184 255 
225 186 225 
255 255 255 
255 203 255 
255 165 181 
150 60 210 
255 127 255 
255 255 255 
255 255 255 
255 255 255 
145 145 187 
255 223 255 
255 255 255 
255 255 255 
174 174 255 
255 255 255 
0 0 0 
255 255 255 
255 166 255 
255 255 255 
146 136 255 
106 106 228 
255 255 255 
131 131 255 
255 255 255 
254 143 255 
255 255 255 
255 41 132 
209 184 255 
86 86 86 
255 255 255 
96 87 137 
125 48 255 
109 75 255 
130 110 255 
60 43 255 
110 65 210 
198 182 255 
255 76 255 
57 46 192 
104 47 152 
41 41 133 
221 86 255 
94 76 255 
131 61 199 
206 185 255 
63 51 252 
96 51 255 
52 52 167 
192 52 246 
97 80 255 
168 80 255 
93 91 255 
255 122 255 
248 196 255 
109 85 255 
104 104 255 
83 73 255 
66 57 185 
202 102 255 
159 48 197 
106 101 255 
105 101 255 
255 255 255 
60 60 194 
97 91 255 
116 75 255 
111 97 255 
86 85 255 
123 70 224 
255 244 255 
250 78 93 
255 97 157 
255 93 145 
255 175 255 
255 103 214 
255 100 176 
255 75 255 
255 90 90 
255 82 169 
255 70 90 
255 99 237 
255 89 204 
255 98 255 
255 89 234 
255 63 110 
255 159 255 
255 111 237 
255 118 149 
223 65 69 
255 65 122 
255 71 242 
255 74 169 
255 119 255 
255 74 255 
251 46 63 
255 66 87 
255 45 45 
255 235 235 
200 43 62 
184 57 66 
255 188 255 
212 61 140 
255 47 51 
255 45 52 
255 71 71 
255 57 61 
255 114 139 
255 80 133 
255 255 255 
255 255 255 
255 159 188 
255 153 153 
255 145 145 
255 255 255 
136 56 136 
255 55 110 
255 248 255 
235 122 181 
255 255 255 
255 248 248 
225 154 193 
255 255 255 
255 255 255 
255 255 255 
255 171 192 
255 186 255 
255 118 118 
255 174 255 
215 165 181 
255 255 255 
255 123 134 
118 118 118 
255 255 255 
255 255 255 
255 157 231 
255 129 218 
214 207 214 
255 255 255 
210 128 128 
160 160 160 
178 178 178 
255 224 224 
255 176 185 
255 201 255 
255 255 255 
255 208 214 
255 123 171 
255 164 255 
255 205 223 
201 189 255 
123 123 171 
255 244 255 
255 255 255 
171 53 100 
255 255 255 
252 252 252 
255 255 255 
255 255 255 
255 255 255 
255 194 255 
175 128 175 
255 160 169 
255 128 255 
255 181 225 
177 177 255 
255 193 252 
255 255 255 
255 255 255 
255 255 255 
255 120 120 
255 170 255 
234 178 255 
255 255 255 
255 255 255 
255 255 255 
255 255 255 
255 220 220 
255 255 255 
255 234 255 
255 229 255 
255 205 235 
255 255 255 
255 255 255 
255 225 255 
255 255 255 
210 175 218 
255 255 255 
255 203 210 
255 255 255 
255 255 255 
255 255 255 
255 255 255 
255 255 255 
202 202 239 
255 255 255 
255 244 255 
213 149 255 
153 93 93 
161 161 161 
255 255 255 
255 226 255 
255 255 255 
255 255 255 
150 150 223 
255 113 113 
255 255 255 
255 255 255 
255 255 255 
255 190 190 
123 123 171 
255 255 255 
255 223 223 
255 194 255 
255 255 255 
255 203 255 
224 192 255 
255 255 255 
190 128 255 
255 255 255 
255 255 255 
86 86 86 
255 177 255 
255 179 231 
125 118 191 
117 108 255 
255 250 255 
181 181 215 
255 255 255 
255 218 255 
255 238 255 
255 255 255 
174 174 255 
255 255 255 
255 255 255 
255 255 255 
146 146 187 
255 205 255 
86 86 86 
255 160 255 
255 255 255 
255 255 255 
255 187 187 
255 255 255 
190 149 190 
255 223 255 
255 176 255 
255 136 136 
152 146 237 
255 149 190 
255 240 255 
255 255 255 
255 255 255 
180 124 135 
123 123 171 
209 190 255 
255 135 135 
103 87 103 
211 139 203 
156 156 255 
255 255 255 
255 155 255 
235 107 255 
255 255 255 
255 156 255 
205 198 255 
255 255 255 
255 255 255 
49 41 255 
255 250 255 
112 85 255 
255 71 85 
175 171 255 
199 176 255 
255 183 255 
190 110 250 
241 241 241 
118 118 118 
255 255 255 
118 118 118 
255 215 255 
255 251 255 
255 255 255 
158 81 255 
249 249 255 
255 255 255 
255 197 255 
255 181 255 
143 59 255 
230 109 255 
193 164 255 
172 66 255 
217 122 255 
159 72 255 
255 86 255 
236 233 255 
73 65 255 
88 39 255 
136 102 255 
81 51 163 
255 130 255 
255 80 255 
193 34 112 
255 211 255 
190 64 255 
86 86 255 
255 83 255 
255 139 255 
73 73 237 
120 82 255 
245 81 255 
255 75 255 
193 126 255 
86 57 183 
189 60 201 
119 64 206 
68 68 255 
157 43 246 
232 79 255 
89 89 255 
92 57 187 
161 152 255 
63 63 255 
126 83 255 
191 113 255 
255 128 255 
91 73 255 
241 71 175 
255 96 134 
255 135 255 
255 87 87 
255 129 133 
255 102 142 
255 54 255 
255 74 93 
255 80 113 
255 119 178 
255 189 191 
255 90 168 
255 110 130 
247 77 255 
255 95 114 
255 85 115 
255 178 255 
184 53 255 
255 138 138 
255 81 255 
255 52 110 
255 56 94 
255 88 237 
255 81 98 
255 87 180 
255 96 101 
255 61 103 
255 187 194 
255 48 108 
255 140 144 
255 84 84 
255 71 156 
255 64 64 
255 56 255 
255 110 130 
255 81 164 
255 130 132 
255 98 106 
255 138 255 
255 255 255 
155 126 255 
232 197 232 
255 84 255 
255 148 148 
146 136 255 
255 181 255 
255 135 220 
255 162 162 
255 153 255 
255 212 255 
255 255 255 
255 255 255 
255 179 255 
255 255 255 
255 141 141 
255 255 255 
255 255 255 
255 79 255 
255 189 255 
255 137 137 
255 255 255 
255 255 255 
255 255 255 
255 111 111 
255 223 255 
235 157 157 
255 255 255 
255 203 203 
166 73 120 
118 118 118 
255 146 255 
255 225 225 
255 255 255 
255 255 255 
255 189 189 
209 148 159 
209 148 173 
255 161 255 
255 255 255 
161 161 255 
255 242 255 
255 255 255 
255 255 255 
255 156 156 
255 164 209 
255 253 255 
255 255 255 
222 190 255 
255 255 255 
255 204 255 
255 255 255 
255 250 250 
255 255 255 
255 255 255 
255 255 255 
255 255 255 
255 255 255 
255 255 255 
255 255 255 
255 255 255 
255 255 255 
255 212 255 
255 144 219 
215 172 172 
255 255 255 
201 152 212 
255 255 255 
175 128 175 
255 255 255 
255 180 255 
255 195 255 
255 255 255 
255 255 255 
151 151 255 
255 255 255 
255 255 255 
255 255 255 
255 227 255 
136 136 255 
255 255 255 
255 182 255 
157 157 235 
255 255 255 
255 255 255 
255 255 255 
255 255 255 
255 255 255 
177 177 255 
86 86 86 
255 255 255 
255 235 255 
255 153 153 
255 255 255 
255 255 255 
255 255 255 
165 165 202 
255 255 255 
255 255 255 
255 255 255 
255 255 255 
255 245 255 
179 165 255 
255 255 255 
255 255 255 
255 255 255 
255 251 255 
255 255 255 
255 253 255 
255 229 255 
255 255 255 
255 244 255 
157 100 157 
255 255 255 
255 255 255 
255 255 255 
255 255 255 
221 160 255 
255 255 255 
255 255 255 
161 161 161 
166 101 166 
255 255 255 
255 229 255 
255 126 225 
241 241 241 
255 255 255 
228 196 196 
251 251 255 
126 126 255 
255 178 245 
255 255 255 
161 161 161 
252 252 252 
255 132 216 
142 142 142 
200 189 255 
255 255 255 
255 255 255 
255 255 255 
255 217 255 
255 255 255 
255 255 255 
255 126 255 
255 255 255 
171 171 255 
255 225 255 
255 255 255 
255 255 255 
255 182 255 
123 123 171 
255 182 255 
255 179 255 
255 198 255 
255 255 255 
218 167 255 
255 223 255 
255 136 255 
255 161 255 
112 110 255 
255 203 255 
255 161 255 
0 0 0 
255 254 255 
255 139 255 
52 52 255 
67 67 215 
255 140 255 
255 124 255 
255 202 255 
255 255 255 
255 255 255 
255 134 151 
255 255 255 
125 125 255 
255 255 255 
255 255 255 
255 59 113 
74 74 255 
120 116 255 
255 93 255 
106 48 255 
148 115 255 
107 92 255 
99 68 255 
205 158 255 
123 110 255 
116 87 255 
73 73 255 
255 168 255 
175 68 255 
140 49 159 
255 157 255 
52 52 167 
107 87 255 
88 67 255 
101 91 255 
255 98 255 
255 255 255 
50 50 202 
255 255 255 
255 124 255 
113 87 255 
117 72 255 
255 98 255 
141 131 255 
255 118 255 
81 55 238 
168 67 255 
134 80 255 
95 57 255 
34 34 110 
181 91 255 
93 93 255 
255 79 255 
255 77 255 
144 132 255 
255 97 255 
255 77 255 
255 99 117 
255 80 108 
255 118 118 
255 147 230 
255 126 132 
255 72 211 
255 85 110 
255 130 208 
255 65 65 
255 98 172 
255 81 85 
255 89 113 
255 154 255 
255 92 97 
255 198 231 
255 105 125 
255 97 97 
255 65 178 
255 108 108 
255 79 79 
255 68 255 
255 148 196 
255 61 255 
255 71 71 
255 84 255 
255 123 137 
255 105 105 
255 134 140 
255 61 74 
255 108 234 
255 255 255 
255 131 148 
255 67 76 
255 50 109 
255 79 100 
255 82 84 
255 33 93 
255 244 255 
255 255 255 
154 124 255 
255 172 255 
255 255 255 
93 93 153 
142 89 165 
255 255 255 
255 222 255 
255 232 232 
255 217 255 
255 255 255 
255 107 175 
186 163 173 
255 199 199 
255 255 255 
205 86 89 
255 135 160 
255 164 226 
86 86 86 
255 255 255 
255 157 157 
246 145 246 
255 255 255 
229 106 255 
255 241 241 
255 255 255 
255 255 255 
192 118 121 
219 52 117 
132 41 41 
248 248 255 
217 183 255 
255 210 254 
255 255 255 
255 255 255 
255 255 255 
255 191 255 
255 178 191 
255 255 255 
248 153 248 
251 78 96 
255 136 136 
255 255 255 
187 146 146 
255 255 255 
255 144 255 
255 255 255 
255 255 255 
255 255 255 
255 233 233 
160 160 160 
255 221 255 
106 106 228 
255 255 255 
255 235 239 
255 255 255 
162 126 200 
255 255 255 
255 236 255 
171 171 215 
255 255 255 
255 255 255 
255 255 255 
255 255 255 
189 148 255 
255 255 255 
106 106 171 
255 167 255 
255 141 141 
255 239 255 
220 82 255 
202 154 154 
255 255 255 
255 255 255 
255 214 214 
255 255 255 
255 255 255 
255 255 255 
255 255 255 
255 255 255 
255 255 255 
255 255 255 
198 138 189 
145 145 187 
255 255 255 
170 144 170 
255 178 255 
255 255 255 
255 255 255 
255 205 235 
255 78 255 
255 225 253 
179 179 179 
255 255 255 
255 255 255 
255 255 255 
255 255 255 
255 255 255 
255 255 255 
255 189 251 
255 255 255 
255 183 255 
255 130 255 
255 255 255 
255 255 255 
255 255 255 
197 197 255 
255 255 255 
255 239 255 
255 255 255 
228 197 255 
170 162 170 
255 255 255 
255 255 255 
157 100 157 
255 255 255 
240 191 255 
255 255 255 
255 255 255 
255 160 160 
255 196 196 
255 214 255 
255 204 204 
255 255 255 
255 172 194 
255 255 255 
255 189 255 
185 47 150 
220 220 220 
255 174 255 
255 182 255 
255 255 255 
255 174 174 
115 101 203 
181 152 255 
255 255 255 
255 254 255 
255 255 255 
32 32 234 
255 161 255 
244 192 255 
255 176 255 
255 155 255 
255 255 255 
255 255 255 
255 195 226 
255 255 255 
255 179 255 
255 255 255 
255 255 255 
255 255 255 
255 255 255 
215 215 255 
255 236 255 
156 156 255 
255 225 255 
255 255 255 
244 156 255 
157 100 157 
255 255 255 
171 136 255 
255 168 228 
255 156 255 
255 148 255 
255 136 255 
255 255 255 
142 142 142 
93 93 153 
164 111 230 
255 216 255 
186 186 255 
255 250 255 
204 141 255 
231 181 255 
151 90 255 
180 180 255 
103 87 103 
255 118 255 
255 86 255 
255 99 255 
41 41 255 
138 127 255 
82 57 255 
128 61 255 
217 193 255 
142 68 255 
68 68 255 
172 68 218 
187 80 255 
161 113 255 
186 119 255 
69 58 255 
255 171 255 
76 69 255 
255 149 255 
109 68 255 
51 49 255 
68 68 218 
147 106 255 
130 93 255 
90 70 225 
81 79 255 
111 79 254 
118 47 255 
135 92 255 
91 79 255 
225 103 255 
151 106 255 
70 70 255 
254 102 255 
219 195 255 
77 77 248 
104 99 255 
163 91 255 
203 82 255 
97 86 255 
255 185 192 
255 80 142 
255 75 255 
255 82 86 
255 166 255 
255 78 181 
255 102 116 
241 75 82 
255 85 85 
255 109 113 
255 90 110 
255 88 88 
254 79 96 
255 63 158 
255 96 163 
255 90 106 
255 71 255 
255 82 82 
255 65 86 
219 68 114 
255 97 97 
194 60 60 
221 65 155 
255 255 255 
255 85 142 
255 81 173 
255 42 57 
255 57 255 
196 61 69 
255 68 254 
255 101 108 
255 73 129 
255 79 79 
244 50 50 
255 46 255 
204 20 255 
255 52 58 
255 50 50 
234 32 32 
86 86 86 
255 136 178 
255 255 255 
255 174 174 
255 255 255 
255 127 138 
255 182 255 
255 255 255 
255 145 145 
255 255 255 
255 239 239 
255 255 255 
215 67 67 
255 255 255 
255 109 143 
255 255 255 
76 76 246 
255 198 248 
255 151 151 
255 255 255 
86 86 86 
246 127 255 
255 164 165 
255 178 255 
247 178 255 
255 251 255 
255 255 255 
255 255 255 
255 139 237 
255 255 255 
255 255 255 
250 110 190 
255 255 255 
255 227 227 
132 41 41 
255 243 255 
255 214 249 
255 255 255 
142 142 142 
255 255 255 
255 167 190 
255 255 255 
241 241 241 
255 255 255 
255 255 255 
255 255 255 
255 255 255 
255 153 255 
241 132 132 
255 237 237 
255 255 255 
255 221 249 
255 202 239 
255 255 255 
255 209 209 
255 255 255 
255 255 255 
255 255 255 
255 255 255 
255 155 203 
255 255 255 
255 171 207 
255 255 255 
255 255 255 
255 255 255 
255 144 255 
255 255 255 
255 255 255 
255 255 255 
255 124 255 
255 252 252 
217 141 244 
146 146 187 
255 184 253 
255 255 255 
255 255 255 
255 255 255 
255 255 255 
255 255 255 
255 255 255 
255 174 221 
255 173 255 
255 245 255 
255 235 240 
153 93 93 
255 146 190 
255 183 214 
255 238 255 
255 255 255 
255 233 255 
195 147 156 
255 255 255 
229 212 255 
255 179 255 
255 192 255 
255 255 255 
255 194 218 
255 255 255 
255 255 255 
255 255 255 
255 197 241 
255 255 255 
255 157 175 
255 255 255 
103 87 103 
255 255 255 
255 255 255 
182 182 216 
255 255 255 
255 238 255 
215 215 255 
255 255 255 
86 86 86 
255 255 255 
255 255 255 
194 194 255 
255 161 255 
255 189 255 
255 111 255 
171 123 123 
117 117 255 
255 193 255 
255 122 255 
255 163 255 
255 255 255 
255 235 255 
145 145 255 
188 188 255 
255 185 218 
198 198 255 
255 255 255 
255 255 255 
255 220 255 
249 180 255 
255 255 255 
230 111 164 
109 109 255 
255 255 255 
255 255 255 
255 219 255 
218 178 255 
255 255 255 
255 255 255 
255 255 255 
118 118 118 
239 239 255 
123 123 171 
233 233 255 
255 255 255 
255 255 255 
255 174 174 
255 255 255 
255 159 255 
255 232 255 
186 163 255 
255 255 255 
152 152 250 
255 255 255 
122 122 255 
112 112 255 
211 155 255 
255 90 175 
255 255 255 
255 171 255 
190 149 190 
255 255 255 
255 255 255 
255 193 255 
255 176 255 
243 141 255 
255 255 255 
153 67 67 
255 230 255 
255 101 255 
255 255 255 
255 255 255 
161 161 161 
118 118 118 
179 63 255 
225 61 255 
222 94 255 
144 96 255 
84 84 255 
113 67 255 
91 61 197 
112 80 255 
144 35 255 
255 143 255 
128 103 255 
140 105 255 
147 80 255 
71 53 172 
71 51 255 
54 42 137 
160 97 255 
255 97 255 
255 82 255 
177 82 255 
255 204 255 
255 70 255 
255 76 255 
255 235 255 
69 69 255 
75 68 255 
115 92 255 
255 189 255 
90 90 255 
115 63 255 
137 89 255 
105 88 255 
234 62 219 
141 65 255 
158 118 255 
88 65 220 
103 64 255 
77 77 249 
255 255 255 
202 63 84 
255 87 136 
231 72 98 
255 114 131 
255 106 108 
255 82 160 
255 255 255 
255 123 123 
229 71 71 
255 94 152 
254 70 70 
255 91 99 
255 64 97 
255 62 94 
255 82 198 
255 78 255 
255 98 142 
255 133 213 
255 65 168 
255 124 135 
255 79 131 
255 110 145 
255 77 83 
192 59 78 
228 71 71 
255 27 44 
255 79 79 
255 182 182 
255 119 150 
255 94 102 
255 230 255 
255 77 77 
255 118 141 
255 163 223 
255 79 97 
255 162 162 
204 47 48 
255 31 37 
255 47 47 
255 41 93 
255 215 255 
255 91 221 
160 160 255 
0 0 0 
255 188 255 
255 255 255 
255 248 248 
255 255 255 
255 255 255 
255 155 253 
255 122 182 
255 93 122 
255 255 255 
255 121 255 
252 184 225 
255 255 255 
255 32 32 
255 255 255 
250 90 255 
255 255 255 
201 181 201 
255 156 180 
255 52 52 
255 255 255 
255 175 255 
255 154 255 
255 255 255 
255 132 178 
255 255 255 
255 255 255 
255 189 255 
126 106 237 
255 216 255 
255 255 255 
239 202 202 
255 153 178 
255 146 255 
255 255 255 
255 172 255 
255 255 255 
255 251 251 
255 255 255 
255 255 255 
255 255 255 
151 121 151 
196 100 100 
255 117 117 
255 255 255 
255 246 255 
187 146 146 
255 255 255 
255 255 255 
255 255 255 
255 255 255 
255 255 255 
255 255 255 
255 255 255 
255 255 255 
255 255 255 
255 170 230 
255 255 255 
255 255 255 
255 255 255 
255 255 255 
255 126 126 
255 217 255 
193 193 193 
255 181 181 
255 255 255 
255 197 255 
255 255 255 
239 239 255 
255 255 255 
255 255 255 
255 247 255 
208 146 192 
255 233 255 
255 255 255 
255 255 255 
183 126 156 
255 255 255 
255 255 255 
255 182 255 
255 229 255 
255 157 214 
255 255 255 
235 107 120 
255 255 255 
236 206 255 
151 141 151 
255 242 255 
255 255 255 
255 255 255 
255 255 255 
255 248 255 
255 255 255 
255 239 255 
193 153 255 
255 255 255 
255 255 255 
255 173 208 
255 255 255 
255 255 255 
255 255 255 
255 255 255 
255 255 255 
255 255 255 
223 150 150 
255 255 255 
255 255 255 
255 255 255 
255 255 255 
255 163 255 
255 163 231 
255 255 255 
255 255 255 
255 255 255 
255 225 255 
182 182 216 
255 160 194 
255 255 255 
255 153 153 
255 229 255 
195 155 255 
255 255 255 
255 255 255 
255 255 255 
255 194 255 
199 199 255 
255 255 255 
247 213 255 
255 255 255 
255 242 255 
255 216 255 
255 255 255 
255 222 255 
255 222 255 
207 140 255 
255 232 255 
160 160 160 
255 119 255 
255 255 255 
125 109 245 
248 149 255 
255 216 255 
164 164 201 
255 255 255 
246 175 175 
255 255 255 
255 255 255 
102 32 102 
255 255 255 
255 255 255 
255 247 255 
255 255 255 
147 147 255 
255 255 255 
255 255 255 
255 255 255 
255 255 255 
255 168 191 
204 167 204 
255 140 255 
213 207 255 
237 237 255 
255 255 255 
255 255 255 
104 89 255 
118 118 118 
255 173 255 
44 44 255 
255 145 255 
139 126 255 
255 255 255 
255 179 255 
255 202 255 
255 248 255 
105 62 255 
95 52 255 
255 130 255 
255 70 255 
183 72 255 
255 185 255 
74 74 255 
60 40 255 
106 94 255 
123 60 255 
94 94 255 
142 113 255 
101 101 255 
103 65 255 
255 134 255 
121 58 255 
211 91 255 
255 103 255 
175 88 255 
255 255 255 
138 41 142 
114 72 255 
66 57 185 
54 52 175 
89 69 255 
131 131 255 
104 82 255 
151 88 255 
186 131 255 
218 116 255 
255 48 155 
92 71 229 
92 73 235 
70 61 197 
95 95 255 
255 111 255 
84 78 255 
200 96 255 
151 63 220 
151 47 47 
255 80 113 
255 84 84 
255 58 86 
255 255 255 
255 168 196 
255 61 114 
255 72 121 
255 62 84 
255 104 255 
255 148 255 
247 62 231 
197 61 70 
221 69 129 
255 82 110 
255 80 239 
255 34 68 
255 120 255 
255 70 193 
255 87 87 
255 97 101 
255 172 255 
255 141 255 
255 92 100 
255 238 255 
235 73 81 
255 62 111 
255 119 125 
255 40 40 
255 43 66 
255 83 83 
255 36 74 
255 255 255 
255 112 112 
158 49 68 
255 78 89 
255 64 77 
255 119 187 
255 128 255 
255 255 255 
255 143 194 
67 67 153 
255 255 255 
255 162 222 
255 147 255 
255 255 255 
255 114 216 
160 160 160 
255 113 115 
255 255 255 
255 135 135 
255 255 255 
255 255 255 
255 90 222 
255 255 255 
255 192 244 
255 255 255 
153 93 93 
251 235 255 
255 90 255 
207 64 171 
255 255 255 
255 255 255 
255 177 254 
255 255 255 
255 183 255 
255 104 190 
255 255 255 
234 167 167 
193 193 193 
255 255 255 
255 106 228 
255 255 255 
145 77 156 
255 156 255 
255 233 233 
255 185 255 
255 255 255 
255 255 255 
255 205 255 
255 255 255 
123 123 171 
255 140 255 
255 222 238 
255 255 255 
255 245 255 
255 255 255 
241 241 241 
255 255 255 
255 144 255 
255 255 255 
255 255 255 
184 184 246 
255 255 255 
255 255 255 
255 123 255 
255 255 255 
255 255 255 
255 255 255 
255 255 255 
255 220 252 
255 255 255 
255 255 255 
255 122 255 
255 255 255 
156 149 255 
255 255 255 
255 255 255 
255 249 255 
255 255 255 
255 164 255 
255 255 255 
255 255 255 
255 255 255 
255 255 255 
255 197 255 
195 77 77 
255 240 255 
255 207 237 
255 142 169 
255 255 255 
255 255 255 
255 230 255 
255 255 255 
255 255 255 
255 255 255 
255 122 235 
255 255 255 
255 255 255 
255 255 255 
255 255 255 
242 189 255 
156 156 255 
255 255 255 
177 152 231 
255 174 255 
255 206 251 
255 255 255 
255 255 255 
255 255 255 
255 190 255 
255 255 255 
183 174 255 
252 252 252 
255 247 255 
255 199 199 
255 237 255 
255 244 244 
255 255 255 
255 155 255 
223 201 255 
255 255 255 
255 240 255 
255 152 255 
255 255 255 
252 252 252 
255 215 215 
255 255 255 
255 255 255 
255 248 255 
255 255 255 
255 255 255 
247 200 255 
255 255 255 
255 255 255 
255 255 255 
255 255 255 
255 255 255 
255 255 255 
255 255 255 
255 255 255 
255 255 255 
255 255 255 
255 255 255 
255 255 255 
255 255 255 
255 255 255 
240 132 132 
255 255 255 
196 196 228 
255 255 255 
255 255 255 
255 255 255 
255 255 255 
255 255 255 
217 217 255 
255 158 255 
255 255 255 
255 255 255 
255 207 255 
255 255 255 
255 255 255 
122 122 255 
252 252 252 
253 134 255 
255 255 255 
255 239 255 
184 155 255 
255 255 255 
185 116 255 
255 135 250 
245 242 255 
255 251 255 
234 174 255 
183 129 255 
255 255 255 
255 255 255 
72 72 255 
255 139 255 
255 255 255 
255 108 221 
255 255 255 
254 254 255 
255 154 255 
166 129 255 
0 0 0 
152 55 255 
174 64 255 
135 61 255 
124 70 255 
255 185 255 
73 73 237 
94 75 242 
86 80 255 
105 65 255 
135 108 255 
162 39 255 
87 51 185 
255 71 255 
82 70 255 
93 88 255 
199 126 255 
255 126 255 
47 45 196 
162 77 255 
92 92 255 
239 232 255 
220 104 255 
144 122 255 
204 106 255 
103 99 255 
132 94 255 
218 124 255 
142 82 255 
176 74 255 
255 108 255 
210 95 255 
98 70 228 
204 99 255 
195 71 255 
255 78 255 
159 105 255 
126 86 255 
255 63 204 
255 181 255 
255 255 255 
185 57 66 
255 80 180 
255 159 159 
255 82 156 
255 126 220 
255 85 255 
255 61 139 
255 106 255 
255 78 150 
255 255 255 
255 95 100 
255 89 255 
255 69 69 
189 59 69 
255 77 77 
167 52 52 
255 86 86 
235 63 63 
255 112 112 
255 58 67 
255 104 118 
255 62 83 
255 255 255 
255 74 126 
255 255 255 
255 107 135 
255 75 100 
255 54 102 
255 88 92 
255 56 167 
255 77 141 
255 122 122 
255 77 255 
255 91 117 
255 84 95 
255 112 116 
255 152 240 
189 59 82 
240 56 117 
255 181 196 
255 255 255 
255 235 255 
132 41 41 
255 238 255 
255 255 255 
255 255 255 
255 220 230 
255 180 187 
255 138 182 
255 182 207 
255 255 255 
255 145 145 
210 210 255 
157 116 225 
255 244 247 
255 166 166 
254 254 255 
255 147 169 
255 111 111 
255 242 247 
255 226 226 
255 255 255 
255 255 255 
255 255 255 
255 253 255 
255 255 255 
255 255 255 
255 112 136 
255 158 255 
255 255 255 
255 230 255 
255 190 192 
255 174 255 
255 255 255 
255 171 175 
246 146 239 
245 198 206 
255 255 255 
161 161 161 
255 166 166 
255 196 203 
255 255 255 
255 255 255 
255 199 199 
255 255 255 
255 184 255 
255 136 136 
161 161 161 
255 245 255 
230 124 255 
255 213 255 
255 255 255 
86 86 86 
255 255 255 
255 209 255 
255 255 255 
255 255 255 
214 171 255 
255 255 255 
255 255 255 
255 154 205 
255 239 239 
255 244 255 
255 255 255 
255 202 255 
255 255 255 
255 255 255 
255 148 198 
255 236 236 
255 255 255 
255 255 255 
255 255 255 
255 255 255 
255 255 255 
255 255 255 
165 165 255 
187 146 146 
245 166 255 
255 255 255 
255 255 255 
255 255 255 
255 255 255 
255 165 202 
255 194 255 
255 255 255 
239 202 202 
255 246 246 
255 255 255 
255 184 255 
255 255 255 
255 204 255 
255 255 255 
255 237 237 
255 252 255 
255 182 255 
226 186 236 
255 161 199 
255 255 255 
255 255 255 
255 255 255 
255 255 255 
255 255 255 
142 142 142 
130 90 130 
255 255 255 
255 191 255 
255 255 255 
208 113 208 
255 255 255 
255 255 255 
255 255 255 
255 199 207 
190 150 190 
255 255 255 
255 248 255 
255 255 255 
255 243 255 
152 142 152 
199 162 255 
255 255 255 
255 186 255 
255 173 255 
244 244 255 
121 121 255 
255 255 255 
255 167 253 
161 161 161 
255 255 255 
255 239 255 
118 118 255 
255 255 255 
149 148 255 
255 255 255 
160 106 255 
255 255 255 
255 255 255 
255 255 255 
255 228 255 
156 156 255 
251 223 223 
255 173 255 
255 167 255 
230 201 255 
235 181 255 
109 100 244 
255 255 255 
255 255 255 
255 255 255 
200 134 255 
255 255 255 
255 196 255 
255 255 255 
255 217 255 
255 253 255 
167 121 255 
255 247 255 
177 177 255 
222 173 180 
255 185 255 
255 158 255 
251 250 255 
255 255 255 
255 235 255 
255 255 255 
255 237 255 
110 110 250 
119 72 234 
255 255 255 
130 119 130 
241 241 241 
255 255 255 
255 255 255 
255 255 255 
255 255 255 
255 255 255 
92 92 255 
175 162 255 
103 88 255 
255 75 255 
58 48 154 
127 65 255 
90 53 171 
82 61 255 
255 255 255 
126 109 255 
207 52 168 
114 84 255 
110 54 255 
83 54 255 
255 102 255 
44 44 235 
255 186 255 
255 80 255 
255 94 255 
87 67 255 
110 106 255 
221 104 255 
71 31 117 
144 138 255 
127 65 211 
63 63 255 
91 69 255 
56 56 181 
255 164 255 
137 129 255 
58 52 188 
216 74 255 
255 67 255 
153 140 255 
255 141 255 
86 86 255 
255 94 255 
68 68 218 
152 77 248 
255 255 255 
73 71 244 
223 69 83 
255 87 117 
255 73 103 
255 96 115 
255 103 139 
255 255 255 
255 111 135 
255 75 94 
240 56 93 
255 85 101 
255 68 166 
255 88 97 
255 172 195 
255 96 173 
255 207 214 
192 59 88 
255 99 99 
255 116 124 
255 124 163 
255 255 255 
245 50 50 
255 88 122 
255 105 121 
255 63 63 
255 77 90 
255 68 76 
235 58 255 
255 61 61 
255 110 116 
255 81 98 
255 156 176 
255 47 88 
255 66 103 
255 60 76 
255 145 173 
255 82 94 
255 69 117 
255 55 96 
255 151 255 
255 164 164 
255 111 255 
255 203 211 
255 255 255 
255 255 255 
255 255 255 
255 165 255 
255 109 255 
255 255 255 
255 255 255 
255 245 255 
255 255 255 
255 253 255 
255 170 255 
255 209 209 
255 255 255 
235 168 168 
255 203 255 
180 56 56 
178 178 178 
255 104 255 
255 132 255 
255 220 247 
255 255 255 
255 247 252 
255 245 255 
255 148 214 
255 255 255 
255 255 255 
255 201 247 
255 255 255 
255 210 247 
255 181 255 
112 112 209 
255 255 255 
255 255 255 
142 142 142 
255 255 255 
255 198 255 
255 255 255 
255 182 255 
255 244 244 
255 217 255 
255 121 128 
255 255 255 
209 148 173 
255 255 255 
255 255 255 
255 156 186 
255 255 255 
255 225 230 
255 255 255 
255 243 255 
255 255 255 
255 255 255 
255 255 255 
86 86 86 
255 206 252 
255 228 228 
255 255 255 
255 255 255 
193 193 193 
208 208 208 
255 255 255 
255 215 215 
255 255 255 
255 156 222 
255 255 255 
142 142 142 
255 255 255 
214 208 255 
255 255 255 
172 172 255 
255 255 255 
255 255 255 
255 255 255 
253 209 212 
255 255 255 
248 198 248 
255 255 255 
255 196 255 
255 255 255 
255 206 255 
255 205 255 
255 255 255 
194 194 194 
255 136 255 
255 255 255 
255 255 255 
187 149 220 
255 169 255 
255 255 255 
179 179 179 
255 185 247 
255 255 255 
255 255 255 
255 194 255 
255 255 255 
255 192 192 
255 255 255 
255 248 255 
255 189 255 
255 255 255 
255 158 165 
244 202 255 
255 255 255 
255 121 121 
146 146 187 
255 255 255 
255 255 255 
255 156 156 
255 248 255 
255 255 255 
255 255 255 
255 167 255 
255 255 255 
255 255 255 
255 191 255 
255 225 255 
255 255 255 
255 171 255 
255 255 255 
255 255 255 
181 181 255 
255 213 251 
225 193 255 
209 177 255 
255 255 255 
255 255 255 
255 167 167 
255 255 255 
255 255 255 
252 252 252 
255 255 255 
255 255 255 
255 221 255 
255 255 255 
160 160 160 
142 142 142 
255 255 255 
255 255 255 
255 255 255 
144 76 218 
67 67 215 
153 153 251 
255 177 255 
255 144 144 
255 152 255 
255 137 255 
255 255 255 
255 248 255 
255 177 255 
255 248 255 
182 182 216 
172 172 255 
232 176 255 
223 182 255 
255 160 255 
255 157 255 
193 126 209 
255 255 255 
163 122 183 
255 255 255 
239 222 255 
255 148 255 
209 209 239 
255 255 255 
255 255 255 
255 255 255 
127 127 255 
255 228 255 
255 255 255 
173 162 255 
255 174 255 
241 241 241 
255 207 255 
255 255 255 
255 104 159 
255 189 255 
64 59 239 
67 67 215 
115 92 255 
219 109 255 
255 117 255 
255 90 255 
79 54 176 
255 167 255 
46 46 150 
70 68 255 
137 92 255 
179 66 214 
45 45 255 
62 45 236 
92 86 255 
255 85 255 
240 104 255 
255 86 255 
82 71 255 
255 99 255 
59 45 144 
255 255 255 
120 81 255 
86 75 255 
255 150 255 
124 95 255 
94 94 255 
136 107 255 
255 115 255 
176 59 255 
85 51 255 
69 69 255 
92 90 255 
171 97 255 
88 60 192 
197 93 255 
71 70 255 
82 72 253 
218 68 68 
255 107 115 
255 47 58 
249 77 77 
255 80 80 
255 234 241 
255 97 97 
255 117 194 
255 90 115 
234 57 76 
255 75 255 
255 94 184 
255 89 255 
255 197 255 
255 68 68 
255 65 135 
0 0 0 
255 124 255 
255 69 84 
255 95 96 
255 89 255 
255 67 81 
87 27 44 
104 32 75 
255 255 255 
255 81 88 
195 60 60 
255 78 197 
248 51 70 
255 189 196 
255 55 55 
255 108 142 
255 49 110 
255 80 253 
255 89 146 
255 53 96 
255 255 255 
255 58 74 
255 107 184 
255 224 224 
255 106 255 
255 148 248 
255 128 153 
255 211 211 
255 164 172 
255 196 255 
255 104 209 
255 174 174 
255 208 236 
255 250 255 
171 123 123 
255 146 211 
255 237 237 
255 255 255 
255 106 108 
255 255 255 
255 254 255 
255 158 158 
255 136 136 
236 50 134 
255 117 220 
255 251 255 
255 166 166 
255 255 255 
255 255 255 
255 255 255 
255 105 171 
255 191 224 
255 176 183 
255 255 255 
255 255 255 
255 255 255 
255 255 255 
202 165 165 
255 255 255 
255 255 255 
255 255 255 
255 182 255 
255 133 180 
255 152 255 
255 252 255 
255 120 227 
228 106 106 
153 153 251 
255 255 255 
255 234 238 
255 161 161 
255 255 255 
246 218 252 
255 255 255 
194 124 255 
255 239 255 
255 255 255 
255 255 255 
255 253 255 
255 222 255 
255 255 255 
255 255 255 
255 235 255 
255 220 248 
226 167 255 
255 255 255 
255 255 255 
255 203 255 
255 255 255 
255 255 255 
255 167 212 
255 255 255 
255 255 255 
255 255 255 
255 255 255 
255 187 255 
153 93 93 
255 255 255 
241 168 213 
255 149 158 
255 178 219 
255 255 255 
255 255 255 
255 255 255 
255 255 255 
255 253 253 
255 197 255 
255 255 255 
217 182 255 
123 123 171 
255 255 255 
255 255 255 
209 209 255 
225 193 255 
255 255 255 
255 244 255 
255 255 255 
182 182 216 
150 150 223 
252 252 255 
255 255 255 
216 173 255 
255 239 255 
255 255 255 
255 126 126 
255 255 255 
255 255 255 
255 255 255 
255 255 255 
255 255 255 
150 150 223 
255 255 255 
255 249 255 
255 255 255 
255 255 255 
255 186 255 
255 245 255 
255 255 255 
229 229 255 
255 255 255 
255 255 255 
255 207 255 
251 251 255 
255 255 255 
209 184 239 
255 255 255 
255 182 255 
255 225 255 
255 255 255 
255 197 255 
255 137 137 
235 185 255 
255 179 223 
255 153 241 
255 129 158 
255 255 255 
150 150 223 
255 255 255 
193 193 193 
182 103 182 
255 255 255 
255 255 255 
255 229 239 
190 150 190 
255 255 255 
246 133 168 
181 181 215 
255 255 255 
245 209 255 
255 158 204 
196 196 228 
255 255 255 
255 180 255 
255 149 255 
255 255 255 
255 153 193 
0 0 0 
255 255 255 
137 137 255 
255 255 255 
255 197 255 
255 255 255 
255 183 255 
255 255 255 
171 163 255 
231 166 255 
255 255 255 
255 193 255 
255 255 255 
185 137 255 
145 94 161 
255 255 255 
255 255 255 
255 255 255 
135 135 255 
255 255 255 
232 153 255 
112 98 255 
255 255 255 
255 148 202 
255 216 255 
111 111 255 
62 52 170 
83 76 255 
106 79 255 
255 81 255 
39 39 255 
82 82 255 
73 73 237 
197 84 255 
255 135 255 
255 255 255 
87 47 158 
226 99 255 
220 35 255 
129 91 255 
134 61 196 
76 76 246 
124 124 255 
255 122 255 
91 89 255 
111 106 255 
117 91 255 
94 70 244 
73 68 234 
255 78 255 
255 95 255 
88 88 255 
114 95 255 
137 131 255 
101 68 255 
47 47 151 
255 186 255 
80 80 255 
255 148 255 
169 135 255 
89 61 255 
210 75 255 
255 255 255 
92 57 187 
255 117 187 
219 68 68 
216 64 128 
255 114 193 
255 83 147 
255 66 85 
255 83 110 
255 93 255 
255 143 156 
255 82 135 
255 112 114 
255 89 183 
208 64 140 
255 89 101 
255 47 255 
255 188 255 
255 79 129 
255 206 255 
255 121 132 
255 74 102 
255 109 213 
255 61 212 
255 137 255 
255 65 247 
255 62 62 
239 74 74 
255 248 255 
255 188 195 
255 82 127 
255 86 106 
255 88 88 
255 102 213 
255 92 92 
255 139 255 
255 82 117 
87 27 44 
255 85 91 
246 76 105 
255 73 73 
255 159 182 
255 168 255 
255 177 255 
255 255 255 
255 207 219 
255 255 255 
255 255 255 
255 255 255 
255 255 255 
255 255 255 
108 50 162 
217 67 67 
255 145 145 
255 254 255 
255 217 223 
255 104 159 
255 255 255 
255 164 255 
193 154 225 
255 255 255 
255 179 255 
255 198 255 
255 255 255 
255 223 223 
255 154 224 
255 159 255 
255 202 202 
255 255 255 
255 138 255 
255 255 255 
255 245 255 
228 196 196 
255 255 255 
255 163 186 
255 155 155 
86 86 86 
255 255 255 
255 255 255 
255 255 255 
255 255 255 
255 255 255 
255 255 255 
161 161 161 
250 162 250 
123 123 171 
208 109 255 
255 255 255 
255 184 255 
251 223 223 
255 255 255 
255 176 255 
255 255 255 
255 255 255 
255 185 255 
255 255 255 
255 255 255 
255 255 255 
255 207 255 
255 255 255 
255 255 255 
255 167 254 
255 255 255 
255 255 255 
255 224 251 
255 255 255 
255 194 199 
255 255 255 
211 152 211 
255 255 255 
255 248 255 
255 255 255 
255 255 255 
213 154 255 
255 138 255 
255 255 255 
255 119 128 
255 255 255 
255 255 255 
255 255 255 
255 255 255 
255 176 188 
255 255 255 
255 255 255 
255 183 255 
255 236 255 
255 255 255 
255 255 255 
255 154 255 
203 203 255 
255 255 255 
255 255 255 
255 243 243 
255 255 255 
255 189 253 
255 225 255 
255 210 255 
255 193 252 
255 255 255 
255 178 255 
255 255 255 
255 230 230 
255 178 178 
255 255 255 
255 255 255 
201 201 255 
230 172 241 
255 201 255 
255 175 218 
255 157 166 
255 166 166 
255 235 255 
255 255 255 
255 173 255 
255 255 255 
244 244 244 
255 116 255 
255 253 255 
255 244 244 
255 255 255 
255 255 255 
255 255 255 
255 255 255 
255 255 255 
255 227 255 
198 160 255 
166 166 255 
196 196 255 
255 255 255 
255 190 255 
255 255 255 
169 155 255 
255 255 255 
255 158 255 
255 198 255 
255 255 255 
255 255 255 
255 255 255 
255 255 255 
255 255 255 
137 137 255 
157 157 235 
255 255 255 
196 196 228 
255 255 255 
255 255 255 
255 255 255 
86 86 86 
255 255 255 
255 181 255 
255 255 255 
255 255 255 
255 160 255 
90 90 245 
241 204 255 
255 119 138 
255 142 255 
255 255 255 
128 128 255 
255 206 206 
183 159 255 
249 249 255 
140 140 255 
253 106 231 
255 255 255 
255 255 255 
255 255 255 
255 255 255 
255 193 255 
255 248 255 
255 255 255 
243 243 255 
255 255 255 
189 166 255 
241 116 255 
100 100 255 
162 160 252 
231 214 255 
255 255 255 
111 89 255 
255 152 255 
255 52 255 
83 76 255 
66 66 255 
84 55 177 
151 83 255 
213 59 255 
76 39 255 
83 77 255 
109 50 163 
117 40 230 
255 88 255 
121 62 255 
252 80 255 
255 154 255 
255 57 184 
127 97 255 
241 232 255 
121 76 255 
85 53 252 
136 99 255 
140 98 255 
195 135 255 
105 69 255 
125 91 255 
94 94 255 
105 76 255 
75 67 255 
85 51 172 
103 74 239 
197 194 255 
82 36 118 
255 92 255 
96 58 255 
126 109 255 
84 71 239 
122 106 255 
87 58 255 
255 83 154 
255 91 94 
255 79 79 
249 77 81 
255 104 255 
224 67 95 
207 64 64 
255 114 255 
255 90 95 
255 94 132 
255 90 90 
211 56 118 
255 102 255 
255 104 121 
255 73 90 
255 79 86 
255 132 167 
133 41 41 
255 109 133 
255 82 115 
255 79 255 
99 31 50 
255 67 74 
255 77 220 
255 55 67 
255 164 166 
255 90 206 
255 103 138 
255 61 108 
255 141 255 
255 204 212 
255 82 90 
255 149 155 
251 61 67 
255 255 255 
255 59 96 
255 60 86 
255 48 104 
255 131 147 
255 245 245 
255 159 243 
255 67 136 
255 255 255 
0 0 0 
255 154 255 
230 230 230 
0 0 0 
255 171 171 
255 127 217 
255 179 255 
255 255 255 
255 255 255 
255 212 255 
255 218 246 
255 154 167 
255 255 255 
255 74 74 
255 98 98 
255 255 255 
255 190 190 
255 255 255 
255 255 255 
171 106 106 
255 100 127 
255 255 255 
255 226 255 
255 255 255 
255 166 166 
255 188 255 
255 108 255 
255 255 255 
255 255 255 
255 255 255 
255 255 255 
255 255 255 
255 135 162 
255 122 122 
255 255 255 
255 255 255 
255 255 255 
252 252 252 
255 207 237 
255 115 115 
198 159 255 
255 255 255 
255 162 172 
255 255 255 
255 150 205 
255 147 147 
255 235 255 
255 117 167 
255 191 255 
255 163 176 
255 255 255 
255 255 255 
255 255 255 
255 255 255 
255 255 255 
255 253 255 
255 255 255 
255 255 255 
255 216 244 
255 116 116 
222 181 255 
255 255 255 
255 168 255 
123 123 171 
255 255 255 
255 203 255 
255 255 255 
255 208 255 
255 255 255 
255 236 236 
137 137 255 
222 182 190 
230 173 255 
255 235 235 
255 205 205 
255 250 255 
255 255 255 
255 215 255 
255 243 255 
255 255 255 
255 255 255 
194 194 255 
198 177 255 
193 193 193 
255 183 255 
255 255 255 
255 168 255 
208 208 208 
255 255 255 
146 146 187 
255 255 255 
255 255 255 
255 255 255 
255 214 255 
230 230 255 
255 255 255 
255 255 255 
255 255 255 
255 255 255 
255 151 255 
255 255 255 
255 255 255 
194 194 194 
146 146 187 
255 255 255 
255 223 223 
255 255 255 
204 184 224 
236 192 229 
255 255 255 
255 255 255 
255 255 255 
255 176 255 
255 255 255 
159 148 209 
226 204 255 
118 118 118 
255 250 255 
255 255 255 
255 143 185 
255 207 255 
255 255 255 
255 255 255 
241 241 241 
255 255 255 
255 255 255 
255 220 255 
255 187 230 
233 233 233 
255 229 255 
255 255 255 
255 207 255 
255 255 255 
255 253 255 
229 229 255 
198 171 255 
255 201 255 
255 255 255 
255 125 255 
255 255 255 
255 255 255 
255 255 255 
222 189 255 
255 255 255 
183 183 255 
179 149 255 
255 255 255 
255 255 255 
255 255 255 
161 161 161 
255 255 255 
250 190 255 
255 161 255 
255 255 255 
255 151 255 
255 255 255 
255 184 255 
255 255 255 
161 134 255 
233 160 255 
255 255 255 
255 255 255 
192 192 255 
246 246 255 
255 255 255 
255 178 255 
160 160 160 
255 237 255 
216 167 255 
255 220 255 
255 85 255 
255 255 255 
0 0 0 
255 189 255 
47 47 255 
160 68 220 
44 38 255 
255 158 255 
186 71 255 
71 71 255 
107 92 255 
132 87 255 
128 124 255 
109 57 231 
157 144 255 
239 163 255 
255 237 255 
255 77 255 
179 111 255 
104 70 255 
84 74 255 
255 70 255 
181 73 255 
100 78 255 
129 72 255 
68 68 218 
95 57 202 
63 53 170 
100 69 222 
173 82 255 
255 198 255 
170 66 214 
255 98 255 
67 67 218 
174 72 255 
255 67 215 
129 113 255 
84 80 255 
247 57 185 
64 53 177 
92 72 255 
113 108 255 
59 57 201 
255 94 255 
255 103 173 
255 113 113 
255 67 101 
215 67 107 
255 71 100 
255 81 105 
255 74 88 
255 95 255 
255 72 118 
255 57 81 
245 76 94 
255 97 98 
255 79 89 
255 74 75 
255 120 160 
255 79 186 
255 87 255 
255 126 255 
255 69 83 
178 40 52 
255 60 70 
255 114 207 
255 53 62 
255 80 80 
131 40 88 
255 56 102 
255 60 88 
255 97 125 
255 88 98 
255 84 84 
255 130 146 
176 51 118 
0 0 0 
255 129 159 
255 194 197 
255 59 131 
255 255 255 
233 43 79 
255 84 185 
255 255 255 
255 198 255 
176 68 72 
255 242 255 
255 121 152 
255 240 240 
255 255 255 
255 226 242 
255 156 195 
255 255 255 
255 185 185 
255 217 255 
187 146 146 
86 86 86 
255 146 146 
255 255 255 
255 255 255 
255 160 255 
255 151 255 
255 197 255 
255 255 255 
255 255 255 
255 150 255 
255 243 243 
152 142 152 
255 181 255 
255 121 255 
255 247 255 
255 255 255 
255 177 255 
255 213 223 
255 255 255 
222 190 230 
255 207 244 
212 212 255 
255 196 255 
255 230 255 
176 55 176 
255 212 229 
255 255 255 
255 173 208 
255 255 255 
255 156 255 
255 251 255 
255 159 170 
255 255 255 
144 144 255 
235 235 255 
187 146 146 
211 177 255 
255 232 255 
255 252 255 
255 255 255 
255 173 186 
255 243 255 
118 118 118 
255 255 255 
255 195 218 
255 255 255 
251 216 216 
255 255 255 
194 194 194 
255 255 255 
255 255 255 
255 255 255 
255 174 174 
255 226 255 
255 255 255 
255 255 255 
255 218 246 
255 180 255 
255 255 255 
163 154 209 
243 214 255 
255 255 255 
255 255 255 
255 255 255 
255 237 255 
255 255 255 
255 157 250 
219 219 255 
249 216 255 
255 230 255 
255 255 255 
255 255 255 
255 189 222 
255 255 255 
255 255 255 
255 248 255 
255 145 246 
194 194 194 
255 255 255 
255 164 255 
255 255 255 
255 255 255 
255 180 185 
255 255 255 
235 168 168 
255 255 255 
255 255 255 
255 255 255 
228 196 196 
171 148 255 
255 255 255 
255 255 255 
255 255 255 
255 255 255 
255 141 255 
255 255 255 
255 255 255 
255 186 186 
255 255 255 
255 193 245 
255 255 255 
255 255 255 
255 255 255 
255 255 255 
248 248 255 
255 206 210 
175 175 255 
255 192 255 
255 255 255 
255 255 255 
227 197 255 
255 255 255 
255 220 255 
255 184 255 
255 255 255 
232 201 255 
255 255 255 
255 255 255 
255 230 255 
255 255 255 
255 255 255 
255 223 255 
255 255 255 
171 106 106 
255 255 255 
255 193 255 
255 201 255 
255 163 255 
242 136 255 
173 167 255 
255 255 255 
255 215 244 
255 255 255 
255 160 198 
144 144 255 
171 123 123 
255 255 255 
255 163 255 
243 195 255 
255 213 255 
255 255 255 
255 205 255 
119 73 235 
255 231 247 
181 181 255 
255 190 255 
226 145 255 
255 245 255 
255 234 255 
255 147 255 
255 180 255 
255 216 255 
255 255 255 
252 252 252 
255 255 255 
255 247 255 
255 149 255 
247 231 247 
255 255 255 
255 255 255 
171 171 255 
124 124 255 
255 182 198 
242 237 255 
146 143 255 
255 255 255 
255 137 255 
66 30 255 
172 61 255 
72 42 183 
59 48 155 
99 77 255 
154 151 255 
128 120 255 
54 54 213 
91 71 255 
119 73 236 
86 58 255 
255 111 255 
128 119 255 
255 74 255 
128 62 201 
255 255 255 
101 69 222 
255 193 255 
104 92 255 
255 126 255 
255 231 255 
130 70 255 
255 167 255 
255 191 255 
255 64 238 
129 117 255 
95 82 255 
150 83 255 
148 134 255 
85 76 255 
183 140 255 
129 117 255 
117 63 204 
144 79 255 
71 65 253 
180 89 255 
255 94 99 
255 93 253 
255 70 102 
231 72 79 
255 86 215 
224 68 70 
255 76 76 
255 99 121 
255 128 255 
181 56 116 
255 119 119 
255 87 103 
255 93 141 
255 80 134 
255 88 92 
255 140 182 
255 116 131 
255 90 96 
255 80 97 
255 93 182 
255 140 143 
207 64 64 
255 151 159 
255 68 91 
255 75 84 
227 50 79 
255 72 73 
255 82 85 
203 63 114 
255 84 104 
181 56 56 
255 96 96 
255 63 63 
255 106 132 
255 78 100 
255 117 255 
255 76 255 
255 95 135 
209 65 124 
161 161 161 
255 255 255 
255 175 255 
255 230 255 
255 255 255 
255 135 135 
255 200 255 
255 255 255 
255 171 207 
255 255 255 
255 173 208 
255 255 255 
102 32 102 
255 127 172 
255 255 255 
255 135 135 
255 219 255 
255 255 255 
255 255 255 
255 169 255 
255 255 255 
255 219 255 
255 115 233 
255 227 227 
255 208 255 
255 255 255 
255 255 255 
255 255 255 
255 103 103 
255 248 248 
255 159 255 
255 194 201 
255 255 255 
255 255 255 
255 52 201 
255 217 255 
255 180 249 
255 255 255 
255 255 255 
255 152 152 
255 255 255 
255 254 255 
255 224 231 
255 208 255 
255 110 163 
239 200 255 
255 255 255 
153 110 251 
255 202 202 
255 255 255 
255 255 255 
255 247 255 
255 255 255 
255 154 255 
255 163 255 
255 255 255 
255 204 204 
255 255 255 
255 255 255 
255 255 255 
255 255 255 
255 255 255 
255 255 255 
255 255 255 
193 193 193 
255 255 255 
255 184 255 
255 255 255 
255 255 255 
255 255 255 
255 255 255 
255 255 255 
255 233 233 
211 211 240 
255 247 255 
255 255 255 
255 255 255 
255 230 255 
255 255 255 
255 255 255 
255 143 159 
235 230 255 
255 194 226 
255 255 255 
255 255 255 
255 255 255 
255 191 191 
255 255 255 
255 183 255 
255 255 255 
255 255 255 
255 255 255 
255 206 255 
255 255 255 
255 255 255 
187 132 132 
255 255 255 
255 255 255 
255 255 255 
255 143 255 
255 255 255 
255 128 175 
255 255 255 
255 206 241 
255 208 255 
255 255 255 
255 146 187 
255 255 255 
255 255 255 
255 255 255 
255 255 255 
255 255 255 
255 255 255 
228 106 106 
255 255 255 
255 194 255 
161 161 161 
161 161 161 
251 179 255 
255 255 255 
255 246 255 
208 208 208 
172 172 215 
161 161 161 
255 255 255 
255 141 246 
255 255 255 
255 236 255 
255 234 255 
255 255 255 
255 233 242 
255 255 255 
255 255 255 
255 203 255 
255 255 255 
255 255 255 
255 255 255 
255 236 255 
255 255 255 
230 218 255 
255 255 255 
255 255 255 
255 255 255 
255 177 255 
255 203 255 
255 207 207 
255 243 255 
255 255 255 
255 174 255 
153 153 255 
137 137 222 
255 194 255 
255 244 255 
255 255 255 
255 255 255 
215 181 181 
159 143 224 
170 106 255 
161 161 161 
255 255 255 
255 253 255 
255 197 255 
76 76 246 
214 181 255 
255 136 247 
255 192 255 
255 187 255 
182 182 255 
119 112 255 
229 206 255 
255 255 255 
255 255 255 
255 121 183 
146 146 187 
255 186 255 
255 255 255 
255 206 255 
255 255 255 
255 131 255 
168 105 255 
75 48 255 
162 65 255 
131 59 236 
141 44 150 
142 78 255 
85 85 255 
110 61 255 
255 93 255 
147 83 255 
255 255 255 
246 117 255 
255 147 255 
105 71 255 
145 98 255 
187 78 255 
79 79 255 
255 63 255 
119 86 255 
129 64 206 
137 77 249 
207 81 255 
139 71 228 
205 136 255 
25 25 80 
95 77 255 
93 68 220 
99 88 255 
149 110 255 
233 86 255 
38 38 224 
151 89 255 
90 70 255 
118 75 255 
109 75 255 
176 77 255 
101 92 255 
123 67 219 
255 83 87 
255 59 59 
255 83 93 
255 90 90 
255 71 162 
255 106 106 
255 162 255 
255 87 97 
255 169 255 
255 87 107 
255 64 227 
255 83 83 
255 101 226 
255 93 255 
255 81 112 
255 50 50 
249 77 77 
255 84 128 
255 73 87 
255 70 199 
255 105 146 
255 133 255 
255 55 55 
255 92 255 
255 54 255 
255 41 78 
255 88 127 
255 86 98 
255 99 255 
206 64 64 
255 64 255 
255 96 131 
255 89 255 
255 65 94 
255 62 62 
255 119 199 
255 83 146 
255 141 151 
221 68 129 
255 255 255 
0 0 0 
255 228 255 
255 234 234 
255 162 191 
240 132 132 
255 168 191 
255 255 255 
255 212 255 
255 157 207 
255 255 255 
255 255 255 
255 225 255 
255 213 255 
255 255 255 
255 110 166 
255 171 171 
181 56 126 
255 186 255 
255 255 255 
255 227 255 
255 255 255 
255 255 255 
194 194 194 
255 190 209 
255 255 255 
255 149 231 
255 221 254 
255 255 255 
255 255 255 
231 200 255 
255 187 255 
255 238 255 
255 255 255 
255 247 255 
255 143 255 
255 255 255 
160 160 160 
255 177 186 
255 138 153 
255 212 255 
178 178 178 
255 255 255 
255 255 255 
252 154 154 
255 214 255 
255 255 255 
255 210 255 
255 250 255 
150 143 255 
255 255 255 
255 255 255 
255 245 255 
255 255 255 
255 223 255 
255 255 255 
245 198 216 
255 255 255 
194 194 255 
255 255 255 
249 211 255 
239 210 210 
255 255 255 
255 255 255 
255 212 255 
228 197 197 
255 218 255 
255 149 149 
255 237 237 
255 218 218 
255 190 243 
255 255 255 
255 255 255 
255 250 255 
255 255 255 
255 255 255 
255 255 255 
146 146 187 
255 221 222 
255 255 255 
255 255 255 
255 197 216 
255 255 255 
255 255 255 
255 255 255 
255 255 255 
255 220 255 
255 156 156 
255 233 255 
255 199 255 
255 255 255 
255 207 255 
255 255 255 
255 255 255 
255 255 255 
255 255 255 
255 206 255 
255 244 255 
255 172 185 
255 255 255 
255 179 186 
255 128 210 
255 176 176 
255 255 255 
255 255 255 
255 220 255 
255 119 138 
255 252 255 
255 152 234 
212 177 255 
255 105 105 
255 255 255 
255 255 255 
255 255 255 
255 255 255 
255 255 255 
242 137 181 
255 214 214 
255 255 255 
118 118 118 
211 204 255 
197 194 255 
255 255 255 
255 255 255 
255 255 255 
174 146 187 
255 255 255 
255 210 255 
255 255 255 
255 253 255 
255 212 255 
255 255 255 
255 255 255 
255 207 255 
149 149 255 
235 235 255 
255 128 182 
255 196 255 
140 67 184 
255 255 255 
255 255 255 
255 255 255 
255 187 255 
221 221 221 
186 186 255 
255 255 255 
255 193 255 
255 176 255 
255 190 190 
255 255 255 
255 182 255 
255 255 255 
255 255 255 
255 255 255 
255 192 255 
255 156 246 
255 141 255 
255 174 255 
255 255 255 
149 142 255 
255 244 255 
234 161 255 
214 88 255 
255 255 255 
196 157 253 
255 255 255 
118 118 118 
255 183 255 
255 161 255 
186 133 219 
187 187 255 
255 105 255 
203 183 255 
197 191 255 
255 138 255 
167 127 255 
157 120 255 
252 200 255 
120 113 255 
111 87 255 
190 61 255 
143 67 255 
255 236 255 
76 72 255 
128 56 255 
255 58 188 
45 45 255 
132 66 255 
207 65 255 
255 136 255 
255 98 255 
191 54 174 
123 59 251 
94 56 200 
207 104 255 
135 93 255 
132 128 255 
162 114 255 
84 76 244 
249 135 255 
255 79 255 
62 57 201 
255 123 255 
100 77 247 
200 160 255 
148 101 255 
132 99 255 
138 59 197 
113 92 255 
148 102 255 
128 65 255 
217 89 255 
161 119 255 
130 88 255 
130 130 255 
255 172 255 
76 72 255 
255 69 117 
235 63 63 
255 56 93 
255 76 111 
255 137 164 
255 75 94 
255 97 102 
255 86 118 
255 98 135 
255 79 153 
255 79 79 
255 99 164 
255 59 61 
255 79 81 
255 116 130 
255 82 110 
255 78 99 
255 75 83 
255 80 80 
255 128 149 
255 102 129 
255 101 118 
255 86 86 
255 65 65 
255 107 107 
255 76 107 
255 155 155 
255 104 113 
157 48 72 
255 75 255 
255 69 72 
197 52 61 
255 89 90 
236 73 98 
255 21 37 
255 164 255 
255 102 157 
255 61 133 
255 88 88 
178 178 178 
102 32 102 
255 149 255 
187 146 146 
255 255 255 
255 106 232 
255 188 188 
255 200 200 
255 255 255 
255 183 245 
255 255 255 
255 215 255 
254 160 255 
218 185 255 
255 196 255 
255 182 255 
255 209 255 
255 164 186 
255 137 143 
255 163 223 
255 132 255 
255 167 255 
255 255 255 
255 145 149 
178 178 178 
255 255 255 
255 255 255 
255 163 166 
255 206 206 
255 253 255 
255 255 255 
235 168 168 
255 157 255 
255 254 255 
255 255 255 
205 160 255 
241 117 117 
255 255 255 
255 157 193 
255 159 159 
255 255 255 
255 255 255 
255 250 255 
255 255 255 
255 244 244 
246 76 76 
255 255 255 
255 255 255 
255 255 255 
221 221 221 
228 106 106 
255 177 234 
255 178 255 
255 255 255 
255 178 212 
255 255 255 
255 255 255 
255 187 255 
255 244 255 
237 126 255 
255 174 174 
255 211 255 
255 225 255 
255 250 255 
213 178 248 
202 165 165 
236 236 255 
255 255 255 
255 255 255 
255 237 255 
255 255 255 
255 246 247 
255 173 178 
255 207 207 
255 195 255 
255 202 202 
255 216 253 
255 255 255 
255 255 255 
255 203 255 
255 255 255 
251 224 224 
255 162 237 
183 125 255 
233 216 255 
255 253 255 
255 247 255 
255 255 255 
255 168 255 
238 208 255 
161 161 161 
255 255 255 
255 255 255 
255 255 255 
255 255 255 
245 245 255 
255 255 255 
255 255 255 
255 153 255 
255 242 255 
255 255 255 
255 234 255 
255 170 255 
255 255 255 
255 188 190 
255 255 255 
255 180 255 
255 255 255 
255 187 187 
255 255 255 
255 242 246 
255 255 255 
255 255 255 
255 255 255 
255 152 255 
255 240 255 
161 161 161 
255 168 168 
230 230 255 
255 209 255 
255 255 255 
255 255 255 
255 255 255 
181 137 242 
255 185 255 
255 232 255 
255 255 255 
255 187 255 
255 255 255 
146 146 187 
255 255 255 
255 234 240 
255 255 255 
230 190 255 
255 255 255 
255 224 255 
255 255 255 
216 216 255 
255 182 226 
217 174 255 
235 168 168 
123 123 171 
255 122 207 
218 218 255 
255 255 255 
219 161 236 
255 255 255 
255 255 255 
255 243 255 
255 255 255 
255 255 255 
255 197 255 
255 255 255 
255 182 182 
255 255 255 
255 255 255 
255 255 255 
255 255 255 
170 162 255 
161 102 255 
172 172 255 
255 255 255 
255 255 255 
184 163 255 
255 255 255 
250 135 255 
195 119 255 
255 255 255 
218 68 255 
130 40 130 
196 189 255 
235 168 255 
255 167 255 
255 255 255 
255 181 222 
255 151 255 
147 147 255 
255 244 255 
255 134 255 
34 34 110 
88 51 255 
61 61 255 
84 49 255 
236 166 255 
111 47 255 
78 41 255 
104 77 248 
144 92 255 
255 118 255 
255 197 255 
108 93 255 
255 85 255 
170 72 255 
137 88 255 
139 66 255 
68 31 255 
185 51 248 
255 95 255 
106 78 255 
115 74 255 
103 98 255 
106 71 230 
78 47 255 
81 78 255 
217 97 255 
255 85 255 
255 80 255 
72 62 255 
63 61 213 
76 64 255 
146 111 255 
244 120 255 
104 103 255 
194 102 255 
86 80 255 
106 76 255 
109 100 255 
255 255 255 
255 75 98 
255 106 188 
255 78 111 
255 75 193 
255 79 255 
255 83 83 
255 52 91 
255 63 71 
255 88 253 
255 70 89 
255 89 140 
230 71 71 
228 71 71 
255 47 89 
255 255 255 
161 50 63 
255 95 95 
255 90 129 
255 49 76 
255 105 156 
254 79 191 
255 95 104 
255 77 255 
255 48 196 
255 117 118 
255 145 187 
181 56 56 
255 109 255 
255 66 66 
255 86 158 
255 95 110 
255 113 255 
255 93 93 
255 94 219 
255 61 83 
255 118 217 
223 64 69 
255 238 255 
255 198 234 
255 178 255 
255 255 255 
255 204 255 
255 255 255 
255 255 255 
187 164 174 
255 255 255 
132 41 41 
255 149 255 
255 255 255 
255 167 167 
255 144 255 
255 255 255 
255 255 255 
255 125 255 
255 142 142 
255 191 255 
187 98 145 
255 181 196 
255 255 255 
255 161 161 
255 255 255 
255 255 255 
255 255 255 
255 255 255 
255 255 255 
255 255 255 
255 163 230 
255 255 255 
255 190 190 
241 169 177 
255 231 255 
255 171 171 
193 153 255 
171 123 123 
255 255 255 
255 255 255 
255 249 255 
255 99 167 
255 255 255 
255 181 188 
255 173 226 
255 255 255 
123 123 171 
255 116 176 
255 210 255 
255 255 255 
255 255 255 
255 229 229 
255 222 255 
255 228 249 
255 158 160 
255 134 201 
255 255 255 
255 255 255 
255 195 227 
255 255 255 
255 231 231 
255 255 255 
255 187 255 
255 244 255 
255 214 255 
255 255 255 
255 255 255 
252 252 252 
255 255 255 
255 241 241 
255 255 255 
239 210 210 
255 255 255 
255 255 255 
255 255 255 
255 199 255 
255 255 255 
255 215 255 
255 255 255 
255 255 255 
123 123 171 
255 205 255 
255 255 255 
255 205 205 
255 246 246 
255 255 255 
255 255 255 
255 245 255 
255 255 255 
255 255 255 
193 193 193 
255 131 177 
255 255 255 
177 177 255 
255 255 255 
255 202 250 
255 216 255 
255 255 255 
255 199 199 
255 198 255 
255 240 255 
255 255 255 
255 203 255 
255 229 255 
255 255 255 
255 255 255 
255 255 255 
255 255 255 
93 93 153 
255 255 255 
255 255 255 
229 229 255 
181 181 215 
212 212 255 
255 255 255 
255 255 255 
255 255 255 
255 141 255 
255 241 255 
255 255 255 
172 172 215 
255 138 255 
255 255 255 
255 255 255 
255 255 255 
255 255 255 
255 190 255 
255 176 195 
255 223 255 
255 214 255 
255 216 255 
255 255 255 
142 142 142 
255 120 255 
255 255 255 
255 255 255 
194 194 194 
255 182 255 
106 106 228 
255 153 255 
255 94 223 
242 242 255 
255 176 255 
255 225 255 
255 255 255 
255 211 255 
255 255 255 
251 251 255 
255 121 170 
202 202 255 
123 123 171 
202 165 165 
174 174 255 
132 41 41 
255 208 255 
255 255 255 
255 210 255 
167 117 255 
255 224 255 
255 255 255 
240 175 255 
147 114 255 
255 161 255 
255 207 207 
255 255 255 
255 255 255 
255 183 255 
85 85 255 
255 255 255 
179 179 179 
229 198 255 
255 255 255 
255 255 255 
255 255 255 
155 145 194 
255 255 255 
255 210 255 
255 255 255 
224 183 255 
255 255 255 
194 78 255 
255 94 255 
255 142 255 
100 74 255 
102 49 173 
255 22 72 
41 41 132 
94 84 255 
116 48 158 
255 70 255 
136 125 255 
239 196 255 
109 103 255 
187 186 255 
109 73 235 
163 130 255 
86 31 133 
121 121 255 
142 73 255 
138 115 255 
82 72 255 
133 57 255 
255 114 255 
70 58 255 
103 59 191 
52 52 255 
97 97 255 
104 72 255 
255 87 255 
126 89 255 
53 53 255 
70 53 255 
255 255 255 
107 75 255 
171 109 255 
255 243 255 
126 79 255 
100 91 255 
255 86 255 
255 62 104 
255 76 255 
255 84 105 
255 82 82 
255 77 131 
255 104 104 
255 88 115 
255 90 188 
255 88 92 
255 98 103 
255 74 129 
255 81 103 
255 95 133 
255 65 175 
255 71 177 
255 63 63 
255 197 255 
255 91 91 
252 69 85 
255 106 203 
255 147 185 
255 96 255 
255 69 94 
255 185 255 
255 33 58 
255 84 255 
255 74 89 
128 40 78 
255 103 182 
254 53 105 
200 57 62 
255 92 164 
255 78 255 
249 77 130 
255 75 127 
255 61 71 
255 64 145 
255 95 135 
255 71 89 
215 67 67 
159 94 141 
255 172 206 
255 160 200 
255 255 255 
255 149 255 
255 255 255 
180 56 56 
255 255 255 
255 187 255 
255 143 143 
255 242 255 
248 145 246 
215 166 255 
255 174 174 
255 244 255 
255 244 255 
255 180 204 
255 195 255 
171 123 123 
255 255 255 
255 160 255 
255 255 255 
255 212 255 
255 251 255 
255 255 255 
255 255 255 
255 146 157 
255 255 255 
247 242 247 
255 139 139 
255 255 255 
255 171 215 
255 156 156 
146 146 187 
255 255 255 
255 113 255 
255 255 255 
240 132 132 
255 255 255 
255 255 255 
255 182 255 
255 255 255 
255 255 255 
255 146 182 
255 255 255 
255 255 255 
255 246 246 
255 158 158 
255 255 255 
255 255 255 
255 250 255 
255 255 255 
255 255 255 
255 133 255 
255 187 187 
255 255 255 
255 187 255 
255 255 255 
255 215 255 
255 254 255 
255 255 255 
255 255 255 
255 255 255 
255 234 255 
255 255 255 
255 235 255 
255 141 255 
255 209 255 
255 182 189 
216 182 182 
255 255 255 
255 202 224 
255 255 255 
255 255 255 
255 255 255 
255 255 255 
172 172 255 
255 255 255 
255 255 255 
179 179 179 
255 255 255 
255 204 255 
211 211 240 
251 224 255 
255 255 255 
255 217 217 
255 255 255 
255 156 252 
255 255 255 
255 183 255 
255 255 255 
255 255 255 
255 248 255 
255 232 232 
255 205 205 
213 211 255 
255 255 255 
171 123 123 
255 255 255 
255 255 255 
218 218 255 
255 255 255 
255 255 255 
255 255 255 
255 255 255 
216 202 251 
208 208 255 
255 238 249 
255 168 211 
255 255 255 
255 255 255 
255 234 255 
255 237 242 
255 214 255 
255 252 255 
255 255 255 
196 196 228 
255 166 255 
255 231 255 
142 142 142 
255 255 255 
255 229 255 
224 190 255 
255 255 255 
255 145 255 
233 212 255 
255 255 255 
255 206 255 
224 224 255 
130 119 130 
255 255 255 
255 255 255 
255 255 255 
255 250 255 
255 255 255 
255 159 255 
255 204 255 
255 189 255 
255 255 255 
255 255 255 
255 255 255 
255 255 255 
255 187 255 
184 184 246 
255 255 255 
255 255 255 
255 255 255 
228 176 255 
182 169 255 
255 252 255 
255 247 255 
255 255 255 
255 255 255 
255 217 255 
255 255 255 
255 255 255 
255 195 255 
209 164 255 
255 254 255 
228 190 255 
142 142 142 
93 93 153 
255 255 255 
255 255 255 
255 207 255 
67 67 215 
66 66 255 
193 153 224 
255 193 255 
150 150 255 
255 129 255 
255 177 255 
255 135 255 
255 255 255 
166 166 255 
255 179 255 
247 155 255 
184 74 255 
54 42 135 
92 92 255 
49 41 158 
99 59 255 
64 54 255 
255 90 255 
194 190 255 
255 255 255 
255 53 255 
255 71 255 
255 237 255 
167 123 255 
72 72 255 
118 74 255 
117 69 255 
255 58 255 
210 78 253 
107 52 169 
255 45 255 
230 90 255 
113 68 255 
88 61 255 
108 75 241 
53 53 255 
143 65 251 
255 86 255 
166 65 255 
255 195 255 
135 73 255 
228 138 255 
132 81 255 
162 80 255 
255 95 255 
220 118 255 
255 134 255 
255 105 255 
96 89 255 
112 97 255 
255 78 106 
167 52 52 
255 134 138 
246 76 91 
255 52 64 
255 62 84 
255 81 99 
255 94 161 
255 78 168 
255 88 133 
191 59 112 
255 69 255 
246 74 127 
255 124 135 
255 75 83 
222 69 109 
255 70 102 
255 129 164 
255 72 130 
255 75 84 
255 105 235 
233 72 86 
255 81 81 
255 119 169 
255 144 255 
255 87 107 
255 171 225 
255 82 99 
255 79 79 
255 110 197 
255 93 108 
255 60 151 
244 75 255 
255 83 98 
255 190 255 
155 40 255 
255 149 158 
255 87 90 
255 68 120 
255 255 255 
255 165 255 
255 255 255 
255 204 234 
255 158 182 
255 60 255 
255 255 255 
255 255 255 
255 255 255 
255 255 255 
255 156 197 
255 113 125 
255 195 255 
255 103 255 
161 161 161 
255 184 185 
255 255 255 
255 135 135 
255 119 138 
255 255 255 
255 56 122 
255 255 255 
255 180 255 
255 252 255 
255 255 255 
255 216 255 
255 166 255 
255 255 255 
255 255 255 
255 178 255 
255 255 255 
255 255 255 
255 255 255 
255 255 255 
255 168 168 
255 183 255 
255 217 217 
255 190 190 
255 178 255 
255 203 203 
255 255 255 
255 223 224 
255 172 199 
255 255 255 
255 255 255 
255 255 255 
255 215 255 
255 190 255 
255 252 255 
255 255 255 
255 188 188 
255 255 255 
255 137 216 
255 255 255 
255 200 248 
255 255 255 
255 207 255 
118 118 118 
255 255 255 
255 244 244 
196 196 228 
230 199 255 
255 193 193 
255 239 255 
255 104 187 
255 199 199 
255 255 255 
255 183 204 
255 178 185 
255 172 208 
255 255 255 
255 255 255 
255 255 255 
255 255 255 
255 181 255 
255 255 255 
255 255 255 
255 255 255 
255 168 204 
199 161 255 
230 161 207 
255 255 255 
255 255 255 
255 255 255 
255 190 255 
255 196 235 
178 178 178 
255 255 255 
255 255 255 
255 255 255 
255 168 176 
255 255 255 
255 255 255 
255 255 255 
142 142 142 
255 255 255 
255 255 255 
255 140 198 
255 255 255 
255 255 255 
255 231 255 
255 188 188 
182 182 216 
255 255 255 
255 255 255 
255 255 255 
255 200 255 
255 245 255 
255 231 255 
202 165 165 
146 146 187 
255 224 255 
255 229 255 
255 255 255 
255 255 255 
255 255 255 
255 255 255 
255 255 255 
255 198 255 
161 161 161 
255 76 145 
255 255 255 
255 255 255 
255 255 255 
232 232 255 
255 255 255 
255 225 255 
239 183 210 
227 181 255 
255 255 255 
255 221 222 
255 202 232 
255 247 255 
255 255 255 
255 255 255 
255 255 255 
255 255 255 
255 205 255 
255 241 255 
255 223 255 
255 242 255 
255 255 255 
255 255 255 
255 237 255 
255 255 255 
255 139 139 
204 204 255 
255 255 255 
255 161 199 
165 165 202 
255 255 255 
255 204 255 
255 255 255 
234 234 255 
192 139 255 
255 173 255 
255 203 203 
178 178 178 
255 255 255 
255 255 255 
117 117 255 
255 255 255 
228 145 255 
255 190 255 
118 101 255 
160 160 160 
255 200 255 
255 124 255 
255 255 255 
255 175 255 
255 212 255 
255 255 255 
237 207 255 
255 243 255 
255 245 255 
245 133 143 
255 149 255 
56 56 180 
102 14 47 
52 28 255 
133 91 255 
138 127 255 
95 64 224 
113 84 255 
79 45 147 
255 115 255 
255 99 255 
187 113 255 
255 60 255 
179 77 255 
128 120 255 
185 103 255 
134 78 255 
168 68 255 
66 57 184 
82 34 141 
255 128 255 
76 76 255 
91 63 204 
255 137 255 
255 106 255 
255 115 255 
111 111 255 
230 230 255 
255 126 255 
255 255 255 
84 78 255 
255 255 255 
73 65 210 
116 87 255 
79 70 225 
175 57 213 
90 64 250 
86 63 208 
112 88 255 
74 74 239 
252 66 214 
255 84 92 
255 160 255 
255 79 81 
255 84 255 
255 84 202 
255 76 95 
255 201 207 
255 70 70 
255 114 228 
255 92 97 
218 67 67 
255 84 152 
255 89 93 
255 79 79 
255 131 255 
255 134 147 
255 136 146 
255 126 147 
255 59 99 
255 59 59 
255 113 120 
255 110 141 
255 74 143 
255 90 98 
167 52 52 
255 89 129 
255 67 93 
255 69 89 
223 53 60 
255 70 101 
255 79 219 
255 52 91 
240 63 195 
255 152 255 
255 108 255 
135 42 54 
255 87 146 
255 198 209 
255 59 86 
255 104 104 
255 255 255 
255 218 255 
255 189 255 
255 191 255 
255 189 245 
255 255 255 
255 255 255 
173 113 255 
255 246 246 
255 243 255 
255 255 255 
255 220 255 
230 100 113 
255 255 255 
255 177 255 
255 198 249 
255 105 255 
255 255 255 
255 179 255 
255 110 110 
255 182 194 
255 255 255 
255 172 172 
255 254 254 
255 255 255 
255 144 144 
255 181 181 
255 193 255 
153 93 93 
255 130 130 
255 255 255 
255 185 255 
255 215 215 
246 185 185 
255 178 220 
255 255 255 
255 208 255 
201 181 201 
255 255 255 
255 255 255 
255 255 255 
255 173 253 
255 208 208 
255 255 255 
255 199 255 
255 255 255 
255 195 195 
255 229 243 
255 155 255 
255 255 255 
255 255 255 
255 249 249 
255 205 255 
255 172 227 
255 248 248 
255 128 149 
255 213 219 
255 255 255 
255 180 255 
255 255 255 
255 255 255 
255 165 255 
255 255 255 
255 255 255 
255 255 255 
255 255 255 
255 218 255 
255 255 255 
255 165 255 
255 191 255 
255 220 255 
255 213 255 
204 204 255 
255 255 255 
255 255 255 
255 255 255 
255 255 255 
255 255 255 
255 248 248 
251 216 216 
255 255 255 
255 255 255 
255 180 255 
255 255 255 
221 188 248 
255 188 228 
255 255 255 
255 255 255 
255 255 255 
255 255 255 
255 248 255 
207 171 236 
255 255 255 
255 200 255 
255 255 255 
255 178 255 
153 153 251 
161 161 161 
255 239 255 
255 255 255 
255 188 188 
216 182 182 
255 255 255 
255 255 255 
255 255 255 
255 175 210 
211 191 255 
255 255 255 
255 255 255 
255 255 255 
255 255 255 
255 255 255 
251 216 255 
255 255 255 
255 255 255 
255 113 255 
255 255 255 
162 142 255 
235 235 255 
255 249 255 
255 255 255 
255 153 247 
255 234 255 
177 177 255 
255 200 255 
255 255 255 
161 161 161 
255 246 255 
255 255 255 
255 255 255 
255 255 255 
255 156 156 
255 149 255 
255 255 255 
255 255 255 
255 204 255 
183 179 231 
255 233 255 
255 210 255 
255 190 209 
255 212 255 
255 255 255 
255 255 255 
248 242 255 
255 255 255 
255 255 255 
173 173 255 
255 223 250 
255 250 255 
252 243 255 
255 233 255 
255 183 255 
255 255 255 
255 255 255 
198 171 255 
223 223 251 
255 194 255 
255 225 255 
255 255 255 
255 255 255 
255 176 255 
255 169 255 
255 148 255 
255 255 255 
255 212 255 
205 194 255 
138 128 255 
255 255 255 
255 139 255 
255 255 255 
255 183 255 
255 170 255 
140 140 140 
255 202 255 
255 255 255 
217 179 255 
255 190 255 
211 196 255 
255 65 216 
255 97 255 
255 71 255 
83 82 255 
57 42 231 
119 90 255 
110 110 255 
100 84 255 
242 136 255 
114 96 255 
195 192 255 
196 109 255 
92 92 255 
227 132 255 
255 255 255 
122 85 255 
255 101 255 
255 115 255 
139 89 255 
113 89 255 
229 76 255 
102 80 255 
255 109 255 
199 92 255 
135 59 255 
224 99 255 
255 65 231 
113 104 255 
143 143 255 
93 87 255 
144 85 255 
115 84 255 
167 167 255 
74 54 238 
153 79 253 
170 117 255 
56 56 182 
90 85 255 
246 62 96 
255 85 198 
255 61 77 
194 60 60 
255 83 146 
255 100 109 
255 85 101 
255 71 117 
255 71 78 
255 81 117 
184 49 66 
255 94 121 
255 195 199 
255 77 83 
239 74 74 
255 83 97 
255 70 255 
255 101 111 
255 90 105 
157 49 119 
255 129 129 
255 255 255 
110 34 34 
151 47 47 
255 42 73 
255 78 78 
255 53 158 
255 53 53 
255 63 143 
255 56 80 
255 121 185 
205 64 174 
255 215 255 
255 110 229 
255 81 144 
255 93 146 
255 50 69 
255 53 103 
197 61 70 
255 255 255 
255 127 211 
255 255 255 
164 111 230 
255 135 135 
255 204 210 
255 180 255 
255 214 255 
255 170 255 
255 255 255 
255 134 255 
255 115 115 
255 255 255 
255 201 255 
255 246 255 
255 255 255 
255 226 255 
255 255 255 
255 207 255 
255 140 183 
255 239 255 
255 184 189 
255 255 255 
255 255 255 
255 218 255 
255 185 255 
255 247 255 
255 117 117 
255 255 255 
255 255 255 
255 180 255 
255 160 255 
255 255 255 
255 215 215 
255 223 223 
255 255 255 
255 186 255 
255 199 255 
255 255 255 
255 255 255 
255 229 255 
255 255 255 
251 205 255 
255 127 255 
255 255 255 
255 226 226 
255 164 255 
255 234 255 
255 224 255 
255 244 244 
255 252 252 
223 190 255 
255 255 255 
255 246 246 
255 226 255 
187 146 146 
191 132 138 
255 217 255 
142 142 142 
234 179 255 
240 132 132 
255 255 255 
255 224 224 
255 252 255 
191 191 255 
255 204 255 
255 230 230 
255 255 255 
255 188 255 
255 255 255 
255 255 255 
255 186 255 
255 255 255 
255 255 255 
255 255 255 
149 149 255 
255 255 255 
255 255 255 
255 246 251 
255 255 255 
255 255 255 
255 255 255 
255 249 255 
255 151 191 
255 255 255 
255 250 255 
255 255 255 
255 145 145 
255 250 255 
255 177 255 
255 255 255 
255 255 255 
255 255 255 
255 190 229 
255 255 255 
255 202 255 
255 187 220 
255 255 255 
255 204 223 
255 255 255 
255 255 255 
233 233 233 
255 255 255 
227 210 227 
255 255 255 
255 218 255 
255 255 255 
255 255 255 
255 255 255 
255 255 255 
255 140 255 
231 228 255 
255 255 255 
255 255 255 
236 236 255 
255 255 255 
228 197 197 
255 175 210 
255 255 255 
222 167 189 
255 224 229 
255 237 255 
255 237 255 
255 211 239 
255 255 255 
214 195 214 
255 255 255 
255 255 255 
231 200 231 
137 137 255 
255 255 255 
255 255 255 
216 176 242 
255 255 255 
237 179 255 
255 179 255 
255 237 255 
216 216 255 
254 227 255 
227 221 227 
212 184 255 
255 255 255 
255 157 255 
255 111 163 
255 204 204 
255 255 255 
255 149 255 
255 255 255 
255 181 255 
191 191 255 
227 195 255 
255 255 255 
255 225 255 
212 177 255 
151 142 255 
255 178 255 
255 116 155 
255 255 255 
255 255 255 
255 110 163 
255 161 230 
188 188 255 
255 181 255 
255 255 255 
255 255 255 
174 174 255 
255 255 255 
194 194 255 
255 255 255 
174 174 255 
132 132 240 
255 255 255 
123 123 171 
139 139 255 
255 147 255 
255 255 255 
255 255 255 
255 197 255 
102 75 255 
51 16 255 
132 68 255 
255 90 255 
255 170 255 
255 39 232 
84 76 255 
220 99 255 
59 48 155 
77 70 255 
74 66 255 
147 70 225 
108 94 255 
180 81 255 
216 108 255 
169 120 255 
255 196 255 
139 54 255 
78 78 255 
170 69 229 
255 90 255 
235 105 255 
98 53 255 
199 191 255 
175 69 221 
71 71 230 
255 62 255 
255 84 255 
80 72 255 
219 108 255 
255 84 255 
188 76 255 
99 81 255 
52 52 167 
255 59 255 
89 83 255 
158 121 255 
96 88 255 
157 120 255 
255 65 75 
225 70 89 
255 124 129 
255 101 135 
255 117 255 
255 87 106 
255 60 105 
255 82 110 
255 106 225 
255 99 255 
250 78 84 
194 60 60 
255 89 108 
255 85 91 
255 62 229 
255 138 141 
255 78 96 
255 127 135 
255 71 78 
255 101 106 
167 52 52 
255 67 97 
255 77 79 
255 82 255 
198 54 77 
255 76 227 
196 61 110 
194 60 60 
255 96 96 
255 87 255 
255 116 255 
255 83 89 
255 134 138 
255 123 181 
167 52 52 
164 51 125 
217 67 255 
255 53 83 
255 92 255 
255 140 172 
255 255 255 
255 121 210 
255 186 255 
255 255 255 
255 103 235 
255 194 255 
255 194 194 
255 255 255 
255 222 255 
255 153 250 
255 150 255 
255 179 255 
180 56 56 
255 255 255 
255 208 255 
255 127 137 
255 209 231 
255 255 255 
255 255 255 
255 107 120 
255 164 164 
255 132 177 
255 102 118 
255 255 255 
255 255 255 
255 190 190 
255 255 255 
232 202 255 
255 180 255 
255 177 211 
255 255 255 
255 187 255 
255 255 255 
255 255 255 
255 255 255 
255 196 255 
245 139 255 
255 218 224 
255 255 255 
255 104 104 
255 135 189 
255 196 233 
255 255 255 
255 223 255 
255 230 255 
171 171 215 
255 223 223 
255 92 241 
255 255 255 
186 89 255 
255 255 255 
255 208 255 
255 179 179 
255 255 255 
255 185 255 
255 197 255 
206 184 240 
255 240 255 
255 255 255 
255 181 255 
255 228 255 
233 233 233 
255 242 255 
255 255 255 
255 160 207 
255 228 228 
255 255 255 
246 184 184 
255 205 255 
255 255 255 
255 255 255 
179 179 179 
255 255 255 
255 255 255 
255 255 255 
255 228 228 
255 216 255 
255 196 227 
255 255 255 
255 255 255 
255 255 255 
255 255 255 
255 255 255 
255 255 255 
255 255 255 
255 255 255 
255 202 255 
177 177 255 
190 150 190 
193 152 255 
181 181 215 
156 156 255 
255 255 255 
255 255 255 
255 255 255 
255 211 255 
224 165 171 
255 255 255 
190 150 190 
255 255 255 
255 216 244 
255 255 255 
255 236 255 
255 198 217 
255 255 255 
255 255 255 
255 164 255 
255 163 243 
255 93 122 
255 255 255 
220 178 255 
255 195 255 
255 255 255 
255 227 255 
255 255 255 
255 255 255 
238 169 223 
255 187 252 
255 212 255 
255 255 255 
255 228 255 
163 163 255 
255 255 255 
255 255 255 
255 255 255 
255 255 255 
255 255 255 
255 255 255 
179 179 179 
255 255 255 
255 255 255 
255 255 255 
160 160 160 
255 255 255 
255 255 255 
255 109 255 
255 192 255 
255 111 209 
176 166 255 
123 123 171 
157 157 235 
255 152 255 
255 255 255 
255 255 255 
255 255 255 
255 234 255 
255 255 255 
146 146 187 
255 255 255 
255 251 255 
255 255 255 
255 151 177 
255 157 255 
150 150 223 
255 189 255 
255 163 255 
255 255 255 
196 175 255 
255 211 255 
255 180 255 
255 156 156 
255 189 255 
182 180 255 
180 136 255 
255 180 255 
255 247 255 
255 198 198 
252 191 255 
255 125 255 
255 167 255 
255 200 255 
224 206 255 
247 192 255 
255 122 255 
255 108 255 
255 169 255 
255 255 255 
118 95 255 
255 164 255 
255 121 255 
88 74 255 
131 130 255 
82 82 255 
255 151 255 
72 59 255 
189 119 255 
117 89 255 
75 48 190 
170 130 255 
255 193 255 
75 67 255 
255 57 255 
72 54 173 
255 133 255 
109 61 255 
255 255 255 
193 105 255 
220 119 255 
97 96 255 
71 61 203 
111 74 255 
110 40 131 
92 58 255 
255 75 255 
163 72 255 
163 126 255 
66 55 176 
151 104 255 
159 61 255 
255 82 255 
140 75 255 
106 79 255 
102 67 255 
198 107 255 
96 91 255 
148 97 255 
255 107 107 
255 78 88 
255 75 100 
255 58 67 
255 84 102 
255 89 106 
255 66 138 
210 60 115 
255 116 116 
255 86 255 
255 185 255 
255 98 139 
225 70 105 
255 55 65 
255 159 255 
255 99 240 
255 85 85 
255 61 255 
255 143 255 
255 95 255 
255 89 183 
255 68 89 
255 94 132 
255 74 138 
194 60 60 
255 62 93 
255 80 143 
255 60 78 
255 106 221 
255 75 97 
142 41 44 
255 74 89 
255 122 152 
255 79 157 
255 74 74 
255 172 231 
255 86 222 
160 50 76 
255 77 123 
255 97 207 
255 157 179 
255 136 255 
255 255 255 
255 125 154 
255 255 255 
255 176 255 
255 156 249 
230 230 230 
255 63 165 
255 255 255 
255 247 255 
255 139 183 
255 255 255 
255 255 255 
212 176 255 
173 160 173 
255 255 255 
255 150 155 
255 255 255 
225 123 130 
194 194 255 
255 255 255 
215 181 181 
255 254 255 
255 185 245 
255 120 151 
255 255 255 
255 255 255 
255 253 255 
255 255 255 
255 255 255 
255 126 199 
255 255 255 
255 201 255 
255 245 255 
255 184 255 
255 172 236 
255 197 255 
255 162 219 
255 255 255 
255 201 201 
255 237 255 
193 193 193 
255 255 255 
255 242 249 
255 214 231 
255 207 237 
255 255 255 
255 255 255 
221 221 221 
255 255 255 
255 237 255 
228 228 255 
255 190 190 
255 255 255 
255 187 202 
255 255 255 
255 255 255 
255 197 228 
255 158 163 
255 190 190 
255 246 255 
198 176 253 
142 142 142 
255 255 255 
239 209 209 
255 255 255 
255 255 255 
255 255 255 
255 255 255 
255 255 255 
255 208 246 
255 255 255 
255 121 255 
255 255 255 
255 255 255 
255 255 255 
255 255 255 
255 212 255 
255 255 255 
255 255 255 
255 255 255 
255 211 255 
255 200 255 
255 255 255 
255 238 255 
255 255 255 
255 255 255 
255 255 255 
255 255 255 
255 171 228 
255 142 143 
255 255 255 
255 204 204 
255 255 255 
255 255 255 
236 125 255 
255 244 255 
255 236 255 
255 255 255 
226 197 255 
255 213 255 
255 255 255 
255 255 255 
255 178 212 
255 255 255 
251 216 255 
255 234 243 
255 255 255 
255 255 255 
255 215 252 
255 227 255 
255 198 255 
255 255 255 
224 181 255 
255 255 255 
41 41 132 
255 233 255 
255 255 255 
234 196 255 
255 255 255 
204 198 234 
255 246 255 
255 255 255 
255 255 255 
255 205 255 
255 255 255 
255 223 255 
212 212 255 
179 179 179 
255 189 208 
255 255 255 
255 168 168 
255 245 255 
255 223 255 
255 255 255 
255 191 205 
190 182 222 
255 243 255 
255 162 255 
255 255 255 
255 255 255 
240 240 255 
255 203 255 
255 169 255 
255 255 255 
255 149 255 
255 255 255 
255 91 122 
255 161 199 
255 255 255 
144 76 218 
255 255 255 
146 146 187 
161 161 161 
255 255 255 
255 203 255 
108 50 162 
255 210 255 
255 255 255 
218 76 144 
152 152 255 
255 219 255 
255 255 255 
255 174 255 
255 255 255 
255 236 255 
255 170 255 
170 170 255 
181 122 235 
175 170 255 
255 255 255 
207 201 255 
255 255 255 
255 170 255 
255 229 255 
229 229 255 
172 25 83 
255 152 255 
54 42 137 
102 73 255 
195 74 255 
85 63 202 
202 64 255 
121 64 223 
98 81 255 
77 77 248 
255 142 255 
157 53 251 
221 64 255 
134 123 255 
255 255 255 
255 170 255 
61 48 178 
255 64 255 
144 77 255 
255 90 255 
104 75 255 
150 80 255 
121 65 211 
152 116 255 
57 46 255 
73 65 210 
134 81 255 
86 84 255 
255 101 255 
107 92 255 
201 87 255 
105 80 255 
216 200 255 
78 62 255 
160 157 255 
255 80 255 
255 82 255 
68 68 219 
165 86 255 
255 130 220 
255 101 109 
255 77 255 
255 76 97 
255 84 172 
239 74 124 
255 78 78 
252 69 117 
255 55 255 
255 74 134 
255 71 78 
255 92 148 
255 116 116 
255 102 102 
255 70 255 
255 71 112 
255 61 70 
255 123 139 
255 82 88 
255 90 113 
244 76 94 
255 82 99 
255 199 255 
255 91 101 
197 61 70 
255 76 176 
255 135 139 
255 109 110 
255 68 123 
203 63 91 
191 56 57 
255 136 137 
255 103 107 
255 76 255 
255 114 146 
255 89 99 
255 115 255 
255 174 188 
255 255 255 
255 132 200 
255 99 158 
255 187 255 
201 181 201 
255 255 255 
255 154 251 
255 208 255 
255 145 150 
255 155 172 
255 115 115 
255 142 154 
255 199 229 
255 255 255 
255 144 239 
171 123 123 
255 105 254 
255 230 230 
255 173 255 
156 144 170 
255 226 255 
255 213 255 
255 200 255 
255 255 255 
255 210 210 
255 255 255 
225 220 255 
255 255 255 
251 153 153 
255 241 255 
255 255 255 
255 255 255 
255 120 220 
255 216 216 
255 255 255 
255 207 248 
255 255 255 
255 197 216 
255 255 255 
255 255 255 
255 255 255 
161 94 145 
90 90 255 
255 241 241 
255 255 255 
251 223 223 
255 255 255 
255 211 213 
255 137 224 
255 255 255 
255 222 255 
93 93 153 
255 255 255 
186 182 255 
239 210 255 
255 222 224 
0 0 0 
228 106 106 
255 255 255 
255 255 255 
255 225 252 
255 199 199 
255 143 159 
255 223 223 
203 203 240 
255 255 255 
255 255 255 
255 207 243 
255 255 255 
230 199 230 
254 254 254 
255 255 255 
255 188 255 
255 255 255 
255 255 255 
255 255 255 
255 255 255 
255 255 255 
255 255 255 
255 255 255 
255 255 255 
255 255 255 
255 255 255 
255 253 255 
255 255 255 
255 255 255 
255 255 255 
255 251 251 
255 255 255 
255 255 255 
255 255 255 
178 178 178 
255 252 255 
189 105 255 
255 255 255 
255 255 255 
255 255 255 
255 255 255 
255 255 255 
255 255 255 
255 230 255 
255 255 255 
255 255 255 
255 187 255 
255 255 255 
255 210 255 
255 185 185 
255 255 255 
255 255 255 
255 197 255 
255 255 255 
255 255 255 
255 189 192 
255 235 255 
168 162 255 
255 232 255 
255 252 255 
255 255 255 
255 234 255 
255 255 255 
179 179 179 
215 172 172 
220 145 227 
255 221 255 
255 226 255 
255 242 255 
234 212 255 
255 255 255 
255 255 255 
255 255 255 
123 123 171 
255 255 255 
255 206 255 
148 148 255 
255 236 255 
255 255 255 
255 255 255 
205 168 205 
255 255 255 
178 132 212 
195 119 255 
86 86 86 
255 255 255 
237 207 255 
255 255 255 
255 218 255 
255 255 255 
255 255 255 
255 222 255 
255 212 255 
255 255 255 
255 181 255 
255 228 255 
255 209 233 
118 118 118 
255 193 252 
255 164 255 
238 194 255 
255 255 255 
165 165 202 
255 229 255 
255 255 255 
255 255 255 
186 163 186 
255 221 255 
93 56 249 
255 205 255 
255 255 255 
41 41 132 
222 167 255 
255 255 255 
255 243 255 
255 255 255 
255 255 255 
214 149 179 
255 129 255 
255 255 255 
255 255 255 
255 255 255 
73 71 255 
112 91 255 
126 69 255 
83 76 255 
77 60 255 
255 83 255 
217 192 255 
128 82 255 
230 111 255 
85 64 225 
255 115 255 
255 106 255 
148 88 255 
255 183 255 
167 87 255 
78 65 252 
119 73 255 
255 255 255 
57 46 237 
118 100 255 
255 129 255 
190 92 255 
255 68 221 
179 86 255 
85 85 255 
79 76 255 
115 70 255 
217 143 255 
255 94 255 
171 71 255 
117 94 255 
255 206 255 
109 100 255 
119 67 219 
118 95 255 
255 70 228 
255 102 255 
88 68 255 
163 163 255 
255 76 76 
218 67 67 
249 77 77 
255 238 239 
255 87 108 
255 63 85 
249 77 77 
254 75 76 
255 136 156 
255 157 182 
255 102 145 
255 113 215 
255 90 190 
255 93 124 
249 77 77 
255 63 63 
255 78 135 
255 90 93 
255 99 104 
255 168 201 
255 113 255 
255 70 175 
255 196 205 
255 131 233 
167 52 52 
255 65 73 
228 71 71 
255 80 109 
255 98 185 
255 84 164 
255 255 255 
255 147 173 
255 167 224 
255 91 155 
255 55 209 
255 64 64 
200 60 62 
150 46 46 
255 68 158 
255 178 255 
255 208 255 
255 204 255 
255 121 121 
153 93 93 
255 189 255 
255 203 240 
188 154 242 
255 154 234 
153 93 93 
255 198 255 
255 180 255 
190 150 255 
222 137 137 
255 206 255 
255 96 227 
255 255 255 
255 165 241 
255 186 186 
255 199 255 
255 225 255 
255 138 173 
255 255 255 
86 86 86 
255 133 255 
255 255 255 
255 160 254 
255 175 211 
255 255 255 
255 223 255 
255 169 255 
255 255 255 
255 250 255 
255 255 255 
255 255 255 
255 255 255 
255 255 255 
161 161 161 
255 183 255 
221 221 221 
255 212 212 
255 255 255 
196 189 234 
255 255 255 
255 195 214 
255 255 255 
252 252 252 
255 191 191 
255 199 199 
255 216 216 
255 255 255 
255 255 255 
255 255 255 
255 204 255 
255 255 255 
255 228 228 
254 254 254 
255 211 223 
255 247 255 
255 255 255 
255 255 255 
255 255 255 
182 182 216 
240 211 255 
255 255 255 
255 240 240 
226 167 226 
255 185 255 
255 255 255 
187 132 132 
193 193 193 
255 255 255 
255 255 255 
255 169 255 
255 255 255 
255 203 255 
255 255 255 
255 255 255 
255 255 255 
255 255 255 
255 255 255 
255 255 255 
255 212 241 
255 222 255 
255 255 255 
255 255 255 
255 175 175 
255 255 255 
255 244 255 
255 201 255 
255 225 241 
255 255 255 
255 255 255 
255 255 255 
255 255 255 
255 211 211 
255 222 228 
203 197 234 
202 202 255 
255 255 255 
255 255 255 
255 255 255 
255 255 255 
255 255 255 
255 255 255 
255 253 255 
255 239 255 
255 255 255 
255 248 255 
255 225 255 
161 161 161 
160 160 160 
255 185 255 
255 255 255 
255 220 255 
255 255 255 
187 145 145 
255 121 255 
255 146 255 
255 255 255 
255 255 255 
255 255 255 
255 255 255 
255 204 255 
160 106 255 
255 255 255 
218 185 218 
242 242 255 
255 237 255 
252 202 252 
255 157 255 
255 255 255 
216 152 244 
255 255 255 
255 255 255 
255 255 255 
255 255 255 
255 255 255 
255 185 255 
255 255 255 
255 126 255 
137 112 255 
255 224 255 
255 255 255 
255 255 255 
255 255 255 
255 255 255 
147 137 255 
179 179 179 
255 193 255 
255 255 255 
255 255 255 
255 216 255 
255 234 255 
255 223 255 
180 173 255 
255 255 255 
255 188 255 
0 0 0 
185 137 255 
255 255 255 
255 100 187 
255 255 255 
255 226 255 
177 132 255 
255 149 255 
255 93 229 
218 215 255 
170 170 255 
140 140 140 
255 255 255 
194 123 176 
255 213 255 
255 237 255 
135 135 255 
255 173 255 
212 166 255 
255 176 255 
58 48 154 
117 110 255 
69 53 195 
107 47 255 
96 46 255 
15 15 255 
149 118 255 
202 97 255 
200 58 255 
146 109 255 
192 89 255 
101 101 255 
69 59 189 
68 60 227 
41 41 133 
132 132 255 
136 67 231 
255 83 255 
255 149 255 
255 121 255 
255 114 255 
151 111 255 
255 135 255 
169 72 255 
102 95 255 
130 75 255 
93 80 255 
255 191 255 
93 73 240 
64 64 207 
59 48 155 
78 70 255 
107 68 255 
255 255 255 
76 50 161 
73 73 255 
126 89 255 
255 104 255 
114 85 255 
255 100 108 
255 74 255 
242 40 59 
255 145 215 
255 123 131 
239 74 74 
255 146 175 
255 141 208 
249 77 77 
255 96 150 
255 102 138 
255 110 163 
175 54 66 
255 96 134 
255 76 102 
216 58 136 
255 58 81 
255 137 137 
255 70 255 
255 81 101 
255 94 151 
255 75 80 
255 130 207 
255 65 125 
255 114 114 
255 68 88 
255 72 72 
255 56 65 
255 81 89 
207 64 64 
255 48 59 
255 157 255 
255 53 100 
132 41 41 
255 255 255 
255 70 100 
255 255 255 
255 114 150 
255 181 255 
255 255 255 
255 255 255 
255 163 184 
255 255 255 
255 150 161 
255 167 212 
187 146 146 
255 255 255 
255 96 133 
243 181 250 
255 255 255 
255 192 255 
191 179 247 
255 111 255 
255 193 255 
41 41 132 
255 255 255 
255 220 255 
255 200 215 
255 209 255 
252 218 255 
255 255 255 
255 255 255 
255 179 255 
255 180 180 
255 152 192 
255 255 255 
255 165 255 
255 255 255 
255 156 156 
255 195 195 
255 199 255 
255 168 255 
255 235 235 
255 129 255 
255 255 255 
255 198 255 
255 255 255 
255 198 255 
255 153 255 
255 245 255 
171 123 255 
255 255 255 
255 255 255 
255 237 255 
255 186 255 
255 255 255 
255 212 247 
255 199 255 
209 166 174 
255 255 255 
255 255 255 
253 253 255 
255 255 255 
255 255 255 
255 255 255 
255 255 255 
187 146 146 
255 176 255 
255 255 255 
255 255 255 
255 255 255 
255 225 255 
255 195 246 
142 142 142 
255 207 255 
255 255 255 
255 227 255 
255 255 255 
255 255 255 
255 206 255 
255 255 255 
255 198 255 
255 255 255 
255 255 255 
255 169 255 
255 255 255 
243 227 255 
255 216 222 
255 254 255 
255 255 255 
255 238 255 
255 136 255 
255 255 255 
221 221 255 
255 148 255 
255 255 255 
182 182 216 
255 215 255 
255 173 255 
255 177 255 
255 255 255 
255 222 255 
255 254 255 
255 255 255 
255 200 255 
255 210 239 
255 255 255 
255 255 255 
255 248 255 
255 255 255 
255 255 255 
255 202 255 
255 255 255 
231 200 231 
255 255 255 
255 255 255 
255 255 255 
255 255 255 
255 196 255 
142 142 142 
198 198 255 
255 255 255 
255 255 255 
217 211 245 
255 198 255 
218 190 255 
255 255 255 
255 207 255 
120 93 255 
255 255 255 
255 225 255 
255 165 255 
255 164 255 
255 213 255 
255 255 255 
203 197 255 
255 182 255 
193 193 193 
255 232 255 
231 107 255 
180 180 255 
255 255 255 
255 255 255 
255 218 255 
255 108 238 
229 224 255 
255 255 255 
255 255 255 
255 255 255 
255 196 255 
255 154 252 
178 132 212 
255 255 255 
201 164 164 
90 90 245 
255 255 255 
180 180 255 
255 255 255 
255 154 255 
169 120 255 
255 161 255 
232 232 232 
86 86 86 
255 255 255 
255 226 255 
171 106 106 
220 154 230 
255 180 255 
143 74 255 
173 148 209 
255 202 255 
255 255 255 
222 163 255 
195 110 255 
255 177 255 
255 173 255 
255 133 255 
215 181 255 
255 255 255 
230 139 255 
255 255 255 
255 255 255 
255 255 255 
255 255 255 
255 255 255 
255 161 255 
255 255 255 
115 111 255 
76 50 160 
76 58 255 
96 65 255 
92 67 255 
19 19 202 
120 62 204 
106 36 118 
255 123 255 
76 72 255 
255 118 255 
146 104 255 
94 84 255 
137 135 255 
93 92 255 
250 201 255 
104 104 255 
86 74 255 
179 75 255 
115 98 255 
50 50 245 
177 67 255 
198 167 255 
190 68 218 
255 63 205 
131 72 255 
106 106 255 
132 121 255 
255 76 255 
67 67 255 
151 76 255 
103 93 255 
147 100 255 
56 56 181 
79 79 255 
255 74 255 
255 75 255 
122 105 255 
87 74 255 
255 90 90 
151 47 47 
255 93 94 
207 64 64 
255 66 78 
255 104 107 
170 53 63 
255 83 255 
255 102 135 
255 92 92 
255 63 106 
255 79 86 
255 80 177 
255 93 108 
255 103 118 
255 80 157 
255 59 90 
255 81 86 
255 73 80 
255 102 102 
255 65 73 
244 62 163 
255 101 118 
218 68 68 
255 162 255 
254 54 54 
255 106 255 
255 79 79 
255 71 105 
180 56 56 
255 255 255 
255 56 136 
255 222 255 
254 54 54 
255 78 133 
255 71 202 
255 148 228 
255 255 255 
255 57 82 
255 184 255 
255 255 255 
255 255 255 
255 255 255 
255 255 255 
255 255 255 
255 238 238 
225 150 255 
255 255 255 
255 174 251 
255 255 255 
255 237 255 
255 224 255 
255 255 255 
255 255 255 
255 53 255 
255 232 255 
190 181 201 
251 153 255 
255 255 255 
125 86 89 
255 215 255 
255 177 189 
255 255 255 
255 255 255 
255 243 255 
255 255 255 
255 218 218 
255 255 255 
161 161 161 
255 158 158 
255 166 166 
255 253 255 
255 200 207 
255 161 255 
255 255 255 
255 244 255 
255 255 255 
255 255 255 
255 194 255 
255 255 255 
255 221 255 
255 99 169 
255 255 255 
255 255 255 
252 162 185 
250 152 152 
255 221 255 
255 209 225 
218 218 255 
255 194 201 
255 221 221 
255 245 255 
255 255 255 
255 172 255 
255 255 255 
255 217 255 
255 240 255 
255 191 191 
255 197 240 
255 255 255 
255 255 255 
255 255 255 
255 253 255 
255 255 255 
255 255 255 
218 218 255 
194 194 255 
255 252 255 
255 234 255 
255 255 255 
255 207 249 
255 201 255 
179 179 179 
255 255 255 
255 253 255 
255 235 255 
255 255 255 
255 255 255 
255 255 255 
101 86 202 
255 255 255 
255 255 255 
215 181 255 
255 178 255 
255 195 195 
255 207 237 
255 255 255 
255 214 243 
255 222 255 
255 255 255 
255 255 255 
255 255 255 
255 255 255 
255 242 255 
255 255 255 
255 255 255 
183 153 255 
255 185 218 
255 255 255 
255 254 255 
255 255 255 
255 255 255 
221 221 221 
255 255 255 
255 255 255 
255 255 255 
219 213 255 
242 205 235 
112 112 209 
240 132 132 
255 226 255 
255 255 255 
232 193 255 
255 255 255 
255 255 255 
255 203 255 
255 224 233 
255 199 255 
255 255 255 
180 178 231 
255 255 255 
255 216 255 
244 152 216 
255 255 255 
255 194 255 
255 255 255 
255 250 255 
255 174 255 
218 185 218 
255 255 255 
245 199 217 
255 255 255 
255 255 255 
255 222 255 
255 132 255 
255 226 226 
241 205 235 
170 165 249 
255 255 255 
255 218 255 
255 255 255 
187 146 146 
255 255 255 
255 206 255 
255 255 255 
215 209 215 
255 161 255 
255 255 255 
255 255 255 
195 195 227 
248 198 248 
255 255 255 
86 86 86 
178 178 178 
130 115 255 
255 204 255 
250 196 255 
255 229 255 
196 189 255 
172 172 255 
253 208 255 
234 195 255 
233 117 204 
255 255 255 
255 255 255 
255 255 255 
178 178 178 
255 228 255 
227 167 255 
186 145 255 
161 156 255 
155 140 255 
255 166 255 
149 149 255 
255 89 255 
215 181 255 
255 247 255 
251 77 255 
196 87 255 
128 50 162 
162 48 206 
255 117 255 
255 118 255 
99 58 255 
233 175 255 
66 54 175 
108 48 255 
255 104 255 
117 117 255 
189 189 255 
172 75 255 
131 131 255 
93 69 255 
53 52 255 
255 83 255 
137 99 255 
142 76 247 
221 84 255 
255 54 255 
44 27 87 
255 70 227 
77 64 255 
255 118 255 
90 90 255 
85 54 180 
148 148 255 
121 65 255 
76 66 214 
121 98 255 
56 56 182 
98 75 241 
255 82 255 
255 173 255 
255 196 255 
99 66 212 
255 66 213 
255 90 90 
255 87 180 
255 76 177 
255 63 69 
255 87 128 
255 81 202 
245 50 50 
255 63 63 
255 74 87 
255 84 131 
255 100 185 
255 92 92 
255 81 168 
255 147 255 
255 106 122 
255 132 160 
255 113 196 
255 73 73 
255 64 177 
255 113 116 
202 53 78 
252 65 71 
171 49 98 
255 73 93 
255 87 119 
243 64 96 
255 187 192 
255 81 174 
255 78 214 
255 67 89 
255 67 104 
255 79 95 
255 107 148 
255 82 246 
255 108 208 
235 36 73 
255 40 193 
255 126 195 
255 37 37 
255 50 146 
255 98 112 
255 174 255 
255 126 126 
255 255 255 
255 198 204 
255 239 255 
255 170 255 
255 200 234 
255 255 255 
255 255 255 
255 160 189 
255 255 255 
255 211 240 
218 47 88 
175 42 94 
255 156 156 
255 221 249 
255 243 255 
255 155 255 
255 53 90 
255 164 255 
255 255 255 
255 255 255 
255 198 198 
196 157 205 
255 255 255 
255 255 255 
255 255 255 
255 255 255 
255 169 255 
255 255 255 
255 255 255 
255 255 255 
255 255 255 
255 198 217 
255 255 255 
255 255 255 
255 245 255 
255 187 255 
202 202 255 
255 195 255 
255 236 255 
255 175 175 
255 255 255 
255 255 255 
182 165 255 
255 201 250 
251 170 192 
255 183 255 
255 220 255 
255 128 207 
255 247 255 
255 255 255 
255 255 255 
255 255 255 
255 255 255 
255 219 255 
255 255 255 
255 214 222 
255 197 228 
255 255 255 
255 204 255 
255 255 255 
255 200 234 
255 182 255 
255 255 255 
255 219 255 
255 255 255 
255 255 255 
255 205 255 
222 137 137 
255 214 251 
250 199 222 
255 202 255 
255 231 255 
255 255 255 
255 255 255 
255 212 241 
255 255 255 
255 255 255 
255 194 255 
255 145 255 
255 255 255 
197 197 255 
255 255 255 
255 255 255 
255 255 255 
255 255 255 
255 247 255 
255 208 255 
255 234 255 
255 247 247 
255 255 255 
255 228 255 
255 179 255 
255 242 255 
255 255 255 
255 202 202 
255 255 255 
255 255 255 
123 123 171 
255 255 255 
255 253 255 
243 195 196 
209 190 255 
255 255 255 
255 255 255 
255 161 190 
255 255 255 
255 255 255 
255 206 255 
216 212 255 
255 218 255 
255 255 255 
255 255 255 
255 187 255 
255 255 255 
255 228 255 
255 250 255 
255 255 255 
255 231 255 
235 235 255 
255 233 255 
255 255 255 
87 66 255 
255 255 255 
255 188 255 
255 255 255 
255 255 255 
255 255 255 
255 255 255 
255 206 255 
255 255 255 
255 229 255 
217 184 217 
255 204 204 
255 216 255 
255 252 255 
190 190 255 
255 255 255 
191 175 255 
255 192 255 
255 209 255 
255 168 227 
220 220 220 
245 245 255 
255 255 255 
255 225 255 
213 213 255 
255 245 255 
255 145 255 
255 255 255 
198 198 255 
213 213 255 
255 250 255 
212 177 255 
181 181 215 
255 255 255 
255 228 255 
193 193 193 
255 129 202 
255 155 253 
240 196 255 
255 255 255 
255 255 255 
247 201 255 
255 162 193 
255 208 255 
255 139 255 
181 137 242 
255 237 255 
255 159 255 
255 143 255 
146 146 187 
190 139 255 
255 255 255 
217 141 244 
94 42 176 
46 30 255 
178 83 255 
91 51 255 
177 82 255 
121 75 255 
31 31 160 
255 64 236 
226 101 255 
93 68 255 
150 87 255 
255 85 255 
173 77 248 
80 80 255 
185 127 255 
99 70 255 
99 82 255 
89 70 225 
86 58 255 
80 67 255 
255 235 255 
255 153 255 
255 166 255 
135 124 255 
150 68 255 
255 76 245 
119 94 255 
199 86 255 
66 57 185 
224 123 255 
101 84 255 
182 135 255 
56 41 225 
147 119 255 
98 74 237 
79 72 231 
255 90 255 
93 67 216 
119 71 230 
223 69 83 
255 82 134 
255 101 101 
255 72 124 
239 74 74 
243 74 103 
255 58 89 
255 58 159 
255 150 255 
245 72 109 
255 123 255 
196 55 94 
255 94 94 
255 138 140 
255 90 90 
255 63 144 
255 80 255 
255 109 203 
163 51 81 
255 92 96 
255 135 185 
255 73 124 
175 47 54 
255 90 100 
255 121 239 
255 46 63 
255 75 252 
255 97 142 
255 61 88 
207 64 64 
255 101 255 
255 188 220 
255 106 143 
255 38 58 
255 69 122 
255 87 87 
255 116 241 
191 53 68 
255 97 162 
145 142 255 
255 143 169 
255 255 255 
255 122 255 
210 128 128 
255 174 174 
255 183 183 
255 228 255 
118 118 118 
255 255 255 
255 165 241 
255 155 155 
255 163 255 
255 239 239 
255 195 255 
181 137 190 
255 240 255 
255 255 255 
255 188 255 
255 200 255 
255 136 136 
255 219 219 
255 228 228 
255 178 230 
255 255 255 
255 255 255 
255 255 255 
255 153 255 
255 198 198 
255 198 255 
255 255 255 
255 228 228 
206 146 148 
255 163 163 
216 182 182 
255 171 171 
255 255 255 
255 206 232 
184 98 184 
255 210 255 
255 255 255 
255 229 255 
255 139 192 
255 255 255 
255 255 255 
255 255 255 
255 255 255 
255 255 255 
228 197 197 
255 255 255 
255 255 255 
255 255 255 
255 221 255 
255 255 255 
235 168 168 
255 251 255 
255 177 255 
167 167 255 
226 173 255 
156 144 170 
255 191 200 
255 236 236 
255 255 255 
255 255 255 
255 255 255 
162 126 200 
255 255 255 
248 201 248 
241 235 255 
255 255 255 
197 197 228 
255 255 255 
155 138 255 
236 109 143 
255 136 206 
255 199 255 
255 255 255 
255 255 255 
255 255 255 
255 255 255 
255 255 255 
255 255 255 
255 199 255 
255 210 255 
255 255 255 
255 204 253 
255 255 255 
172 172 255 
255 255 255 
255 193 255 
208 208 208 
255 255 255 
255 255 255 
199 199 255 
255 245 255 
255 209 255 
255 255 255 
255 255 255 
163 147 253 
255 255 255 
255 223 255 
255 221 248 
255 255 255 
255 255 255 
255 255 255 
255 197 255 
255 191 191 
255 135 228 
255 250 255 
255 255 255 
255 255 255 
177 131 255 
255 203 255 
255 255 255 
255 240 255 
255 199 199 
255 255 255 
255 255 255 
255 234 255 
255 255 255 
255 255 255 
174 70 255 
202 165 165 
255 255 255 
255 240 255 
255 255 255 
255 197 228 
255 255 255 
106 106 228 
255 255 255 
210 175 255 
255 203 255 
255 226 226 
172 172 215 
255 255 255 
228 175 255 
179 179 179 
194 194 255 
255 178 212 
255 255 255 
255 255 255 
255 255 255 
238 183 255 
255 204 255 
255 255 255 
255 255 255 
255 188 255 
255 210 255 
255 163 255 
255 248 255 
222 199 255 
255 255 255 
255 255 255 
193 193 255 
255 251 255 
255 135 135 
255 182 255 
255 186 211 
138 119 255 
204 202 255 
255 255 255 
224 146 255 
255 255 255 
255 255 255 
211 203 255 
234 183 255 
255 255 255 
255 187 255 
255 255 255 
255 255 255 
255 255 255 
255 216 255 
137 123 255 
172 172 255 
135 127 255 
207 161 230 
255 255 255 
202 202 255 
68 47 255 
136 60 255 
68 57 255 
131 66 212 
134 106 255 
103 65 255 
124 89 255 
137 55 179 
106 90 255 
129 87 255 
76 76 255 
191 111 255 
255 97 255 
191 78 255 
155 116 255 
128 124 255 
255 83 255 
83 61 255 
239 143 255 
129 62 255 
255 255 255 
147 84 255 
196 102 255 
239 68 255 
255 98 255 
90 90 255 
255 255 255 
44 35 142 
69 60 255 
169 125 255 
183 51 255 
255 104 255 
92 82 255 
183 95 255 
96 96 255 
59 48 155 
255 193 255 
133 75 255 
211 96 255 
255 86 92 
255 60 93 
255 125 166 
255 88 255 
241 75 82 
255 240 248 
255 68 90 
255 83 202 
243 62 75 
255 63 169 
255 104 183 
255 118 157 
255 64 72 
255 79 109 
252 53 85 
255 100 110 
255 114 255 
255 167 255 
255 77 77 
209 53 78 
255 97 99 
255 157 197 
255 57 74 
255 71 71 
255 101 104 
255 136 255 
255 249 255 
255 52 147 
255 120 128 
255 111 158 
255 39 39 
255 86 255 
255 64 106 
255 59 59 
255 44 92 
255 255 255 
133 41 41 
255 90 90 
255 81 164 
255 255 255 
255 144 144 
255 255 255 
255 229 229 
255 111 255 
255 218 255 
246 185 185 
255 255 255 
255 209 255 
228 197 197 
255 156 158 
255 233 236 
255 231 255 
255 255 255 
165 118 255 
255 146 255 
255 121 197 
255 204 255 
166 139 255 
255 176 255 
233 157 255 
255 142 192 
255 255 255 
255 255 255 
255 167 225 
255 187 230 
255 212 241 
255 255 255 
255 182 255 
255 104 166 
255 200 200 
255 246 246 
255 255 255 
255 152 152 
255 255 255 
255 187 240 
255 255 255 
255 255 255 
255 136 136 
255 255 255 
255 255 255 
255 255 255 
216 197 255 
255 255 255 
255 255 255 
255 255 255 
255 188 188 
255 231 255 
255 196 255 
215 172 172 
86 86 86 
255 255 255 
255 176 255 
255 255 255 
255 218 255 
255 255 255 
188 188 228 
255 201 255 
255 255 255 
202 165 165 
255 220 255 
255 187 187 
252 157 255 
255 255 255 
255 244 244 
255 202 255 
255 255 255 
255 210 255 
255 191 223 
245 197 230 
255 255 255 
132 132 187 
255 209 255 
255 146 146 
255 255 255 
255 255 255 
255 255 255 
255 255 255 
255 255 255 
255 254 255 
255 200 255 
221 221 221 
255 255 255 
255 255 255 
255 214 214 
255 255 255 
255 255 255 
255 201 255 
255 222 255 
202 134 154 
255 232 255 
255 194 224 
255 255 255 
255 255 255 
255 209 255 
255 255 255 
217 185 255 
255 143 143 
255 222 255 
149 149 255 
255 186 255 
255 216 216 
255 213 255 
255 255 255 
255 255 255 
255 255 255 
236 236 255 
255 255 255 
255 255 255 
255 224 255 
255 215 255 
255 251 255 
255 251 255 
255 255 255 
255 223 224 
255 243 255 
255 255 255 
255 228 255 
255 193 255 
255 208 255 
255 255 255 
255 173 255 
255 230 255 
181 181 255 
255 255 255 
225 225 255 
255 255 255 
255 255 255 
198 175 255 
255 218 218 
255 255 255 
255 255 255 
155 126 195 
194 167 226 
190 190 255 
216 182 182 
255 255 255 
255 255 255 
167 116 252 
255 255 255 
255 243 255 
255 255 255 
255 213 255 
255 205 255 
255 185 255 
255 237 255 
255 255 255 
255 203 255 
255 176 255 
255 255 255 
255 255 255 
156 156 255 
173 97 255 
255 176 255 
255 211 255 
255 252 255 
174 166 209 
56 56 180 
255 117 117 
255 255 255 
178 146 192 
255 255 255 
192 185 251 
228 166 255 
255 249 255 
238 188 255 
211 211 255 
255 163 255 
255 223 255 
56 56 180 
168 134 255 
241 162 255 
255 136 255 
174 174 255 
255 255 255 
183 161 255 
144 144 255 
60 60 255 
57 46 255 
161 158 255 
75 58 255 
205 155 255 
156 122 255 
181 90 255 
255 41 252 
106 48 161 
126 62 255 
110 59 255 
253 247 255 
86 39 255 
129 61 255 
109 64 255 
78 62 199 
96 84 255 
47 47 151 
224 161 255 
128 74 255 
59 34 166 
217 69 255 
123 68 255 
218 122 255 
199 91 255 
216 81 255 
117 109 255 
86 51 255 
134 61 196 
255 255 255 
136 99 255 
100 100 255 
255 91 255 
41 41 132 
255 95 255 
148 96 255 
54 54 254 
133 85 255 
83 73 241 
97 94 255 
255 130 134 
255 103 255 
255 92 93 
255 70 255 
255 90 222 
255 129 137 
229 64 125 
255 64 102 
240 74 74 
255 51 51 
255 152 194 
255 135 197 
239 74 74 
255 104 255 
151 47 47 
255 105 255 
255 70 104 
160 50 76 
255 85 90 
170 52 62 
255 63 255 
215 67 136 
255 80 85 
255 64 64 
218 68 172 
255 85 108 
250 77 185 
205 47 48 
255 100 255 
255 73 80 
255 69 115 
255 89 158 
255 150 210 
255 101 118 
255 166 227 
255 118 211 
255 64 64 
114 15 50 
255 125 145 
255 146 146 
142 142 142 
255 139 182 
255 243 255 
207 64 171 
255 190 255 
255 167 255 
255 255 255 
255 186 255 
255 255 255 
255 148 148 
234 197 203 
255 165 255 
255 255 255 
255 184 184 
255 255 255 
255 255 255 
179 179 179 
255 210 255 
255 183 255 
255 255 255 
255 249 254 
255 255 255 
255 191 243 
228 106 106 
255 231 241 
164 93 255 
255 175 210 
255 255 255 
255 214 255 
255 255 255 
179 179 179 
255 255 255 
255 158 254 
255 216 244 
255 255 255 
255 180 255 
255 237 255 
255 205 205 
255 255 255 
255 255 255 
255 180 180 
255 255 255 
255 172 233 
222 137 137 
255 255 255 
202 165 165 
255 172 176 
255 255 255 
255 255 255 
255 122 171 
255 203 255 
255 166 180 
255 255 255 
255 255 255 
255 208 255 
240 211 211 
255 255 255 
255 255 255 
239 201 201 
255 162 255 
255 255 255 
255 247 255 
255 255 255 
204 167 255 
255 255 255 
255 255 255 
255 236 255 
255 204 204 
255 255 255 
255 206 236 
255 255 255 
255 255 255 
255 255 255 
255 255 255 
255 255 255 
255 255 255 
251 223 223 
255 255 255 
255 255 255 
210 210 239 
255 255 255 
255 255 255 
255 255 255 
255 255 255 
255 198 255 
255 255 255 
255 255 255 
255 218 218 
255 242 255 
255 172 255 
223 150 150 
255 209 233 
255 255 255 
255 255 255 
255 255 255 
255 225 255 
255 255 255 
255 184 255 
255 214 255 
255 173 255 
255 200 255 
255 197 204 
255 255 255 
255 255 255 
255 137 137 
255 248 255 
255 255 255 
255 255 255 
255 243 255 
255 234 255 
213 161 255 
255 255 255 
161 161 161 
255 255 255 
255 185 220 
255 255 255 
255 255 255 
228 164 189 
255 183 183 
224 185 255 
255 254 255 
255 220 255 
196 196 228 
255 227 255 
255 255 255 
255 197 255 
255 255 255 
255 255 255 
255 255 255 
255 255 255 
255 159 255 
255 249 255 
236 187 236 
195 156 255 
255 255 255 
255 226 255 
255 225 255 
255 255 255 
255 217 255 
255 255 255 
255 230 255 
223 223 255 
255 255 255 
248 188 221 
255 210 255 
172 146 255 
255 219 255 
255 233 255 
255 163 255 
255 255 255 
153 125 255 
255 151 255 
240 203 203 
255 255 255 
146 146 187 
255 193 255 
225 169 255 
171 171 255 
255 172 255 
255 246 255 
255 255 255 
255 186 255 
146 146 187 
156 156 255 
255 104 255 
123 123 171 
255 207 255 
255 255 255 
255 255 255 
255 183 255 
254 211 255 
146 136 255 
217 141 244 
143 133 245 
255 255 255 
219 137 255 
196 184 255 
255 55 255 
50 50 255 
86 80 255 
120 78 255 
150 117 255 
255 124 255 
255 130 255 
134 84 255 
196 80 255 
96 91 255 
150 126 255 
106 77 255 
83 77 255 
64 59 255 
255 76 255 
63 50 161 
81 81 255 
63 53 170 
147 88 255 
97 78 255 
255 61 255 
99 99 255 
137 81 255 
148 84 255 
108 86 255 
104 71 255 
87 62 200 
161 85 255 
138 84 255 
89 83 255 
183 82 255 
205 200 255 
125 125 255 
80 72 236 
255 74 255 
94 91 255 
65 65 255 
90 51 205 
94 94 255 
255 98 109 
255 71 72 
255 75 82 
255 98 205 
255 82 181 
255 99 255 
255 87 107 
255 82 89 
255 90 255 
255 238 238 
255 104 104 
255 75 75 
255 100 100 
255 71 83 
255 85 90 
255 85 91 
255 84 139 
255 124 255 
255 73 221 
222 53 69 
255 121 125 
229 71 71 
255 89 149 
255 65 82 
255 63 150 
255 88 116 
250 78 84 
255 57 71 
255 59 255 
255 61 124 
253 60 96 
255 87 231 
255 105 108 
255 82 112 
255 95 255 
255 65 125 
255 93 255 
255 54 99 
255 127 255 
255 199 205 
171 123 123 
255 149 248 
255 176 183 
255 229 255 
255 207 255 
255 255 255 
216 182 182 
142 142 142 
255 213 255 
255 172 255 
255 255 255 
255 191 218 
255 255 255 
255 255 255 
255 255 255 
255 216 233 
255 246 246 
255 189 255 
255 255 255 
255 255 255 
255 255 255 
255 162 183 
255 201 201 
255 247 255 
255 227 231 
255 138 255 
255 141 255 
255 255 255 
255 141 184 
142 142 142 
255 208 255 
255 204 234 
255 255 255 
255 255 255 
255 255 255 
255 255 255 
255 255 255 
196 157 253 
255 207 255 
255 255 255 
255 255 255 
255 255 255 
255 255 255 
255 184 217 
255 177 255 
255 255 255 
255 220 255 
255 215 255 
255 145 187 
255 255 255 
255 255 255 
255 188 255 
255 255 255 
255 234 249 
210 175 255 
255 202 224 
255 211 255 
255 241 241 
255 255 255 
255 255 255 
255 251 255 
255 255 255 
255 255 255 
255 215 255 
205 157 196 
255 173 209 
255 255 255 
255 230 255 
255 236 236 
255 255 255 
255 255 255 
255 255 255 
255 217 255 
226 128 130 
255 255 255 
255 255 255 
255 194 255 
255 238 238 
255 255 255 
255 255 255 
255 255 255 
255 255 255 
118 118 118 
255 208 255 
255 255 255 
255 255 255 
255 141 184 
255 255 255 
216 183 255 
255 164 187 
255 255 255 
255 255 255 
255 199 255 
247 232 255 
255 232 255 
255 255 255 
255 233 255 
255 255 255 
255 255 255 
255 197 255 
222 176 255 
255 204 255 
255 255 255 
255 176 255 
255 231 255 
210 164 255 
255 255 255 
255 172 172 
255 241 255 
255 187 255 
255 255 255 
255 255 255 
255 215 255 
245 190 209 
255 254 255 
255 255 255 
255 213 255 
255 253 255 
255 255 255 
196 182 255 
255 255 255 
255 255 255 
255 236 255 
255 255 255 
255 170 193 
255 217 255 
215 181 181 
255 255 255 
255 255 255 
255 255 255 
255 255 255 
255 255 255 
255 211 255 
255 255 255 
255 198 255 
255 255 255 
255 194 255 
255 255 255 
202 202 255 
255 195 255 
154 154 252 
255 224 255 
255 255 255 
255 190 255 
255 232 255 
255 221 255 
253 219 255 
192 170 251 
255 221 255 
255 169 255 
255 242 255 
182 182 216 
248 149 255 
255 138 187 
255 201 255 
255 171 255 
252 207 255 
255 255 255 
130 119 130 
255 255 255 
238 202 255 
255 255 255 
195 126 155 
255 255 255 
148 148 255 
255 161 255 
255 220 255 
202 174 255 
255 88 255 
255 255 255 
255 178 255 
230 207 255 
255 255 255 
255 255 255 
115 101 203 
255 226 255 
218 95 255 
212 103 255 
81 64 255 
143 128 255 
140 75 255 
57 46 237 
198 96 255 
255 99 255 
152 51 174 
255 118 255 
127 106 255 
69 69 253 
108 94 255 
255 147 255 
255 103 255 
182 135 255 
255 90 255 
255 93 255 
255 85 255 
255 156 255 
103 42 135 
86 86 255 
43 43 255 
144 69 255 
134 80 255 
80 55 255 
255 74 255 
255 109 255 
134 129 255 
255 244 255 
255 193 255 
89 64 255 
184 73 255 
255 130 255 
167 134 255 
255 99 255 
81 65 255 
93 76 255 
96 85 255 
104 102 255 
255 76 94 
226 70 118 
225 70 89 
255 64 72 
255 133 255 
255 127 135 
255 91 111 
255 70 109 
255 86 92 
255 102 204 
255 127 245 
247 77 100 
255 80 146 
255 85 126 
172 52 60 
255 94 218 
255 72 92 
255 67 109 
255 189 189 
255 75 75 
255 238 243 
255 130 201 
255 154 255 
255 164 177 
255 60 71 
133 41 41 
255 126 158 
255 117 137 
255 61 255 
255 71 140 
255 101 149 
255 118 118 
255 100 108 
255 82 111 
255 64 86 
255 61 61 
255 93 182 
202 53 99 
255 71 219 
255 255 255 
255 170 250 
230 230 230 
161 161 161 
255 148 189 
255 240 255 
255 255 255 
255 171 171 
255 147 173 
255 115 127 
179 179 179 
255 237 255 
255 154 201 
255 255 255 
255 205 255 
255 153 255 
255 210 227 
255 255 255 
255 161 161 
255 255 255 
240 211 211 
255 83 155 
153 93 93 
255 197 208 
255 174 255 
255 255 255 
201 164 164 
255 255 255 
255 255 255 
255 253 255 
255 186 209 
255 255 255 
255 255 255 
255 255 255 
255 255 255 
255 172 255 
255 255 255 
255 255 255 
255 255 255 
255 202 220 
255 194 194 
216 182 182 
255 160 255 
238 150 255 
231 163 255 
255 180 201 
255 243 255 
221 221 221 
255 242 255 
255 255 255 
255 255 255 
255 255 255 
202 199 255 
255 255 255 
255 186 252 
255 176 255 
255 255 255 
255 255 255 
198 195 242 
255 209 209 
255 255 255 
255 255 255 
255 255 255 
255 255 255 
255 255 255 
255 255 255 
255 176 223 
255 207 255 
255 255 255 
233 233 233 
255 201 255 
255 255 255 
255 181 181 
255 255 255 
255 233 255 
255 214 249 
255 255 255 
255 243 255 
255 255 255 
255 255 255 
255 255 255 
255 255 255 
255 255 255 
255 255 255 
255 255 255 
255 255 255 
241 241 255 
255 255 255 
255 255 255 
255 255 255 
255 255 255 
255 255 255 
255 255 255 
207 207 255 
255 228 228 
255 255 255 
255 255 255 
255 255 255 
255 218 253 
255 146 255 
242 190 216 
255 255 255 
255 255 255 
255 255 255 
255 251 255 
255 255 255 
221 221 221 
255 190 250 
255 255 255 
151 121 151 
255 233 255 
254 196 255 
255 205 205 
255 219 247 
161 161 161 
255 255 255 
255 255 255 
224 224 251 
255 255 255 
255 255 255 
161 161 161 
255 175 210 
255 255 255 
255 255 255 
165 165 202 
221 221 221 
255 245 255 
255 249 255 
250 246 255 
255 254 255 
255 255 255 
218 218 255 
255 243 255 
255 255 255 
255 255 255 
255 184 255 
255 214 255 
255 207 255 
255 185 255 
171 86 253 
255 127 176 
255 255 255 
255 158 255 
248 213 255 
163 143 255 
230 144 255 
255 209 255 
255 255 255 
255 184 255 
255 255 255 
255 255 255 
255 255 255 
225 205 255 
213 153 255 
183 145 221 
255 182 224 
205 136 255 
255 255 255 
255 255 255 
255 255 255 
227 219 255 
204 198 255 
255 237 237 
255 255 255 
255 255 255 
190 190 255 
210 164 255 
255 237 255 
255 176 255 
235 205 255 
255 255 255 
123 123 171 
255 255 255 
255 255 255 
255 168 255 
255 191 255 
255 255 255 
127 86 255 
64 59 255 
123 92 255 
106 71 255 
150 83 255 
47 47 151 
114 111 255 
114 111 255 
201 78 255 
179 74 255 
255 90 255 
79 24 79 
79 36 255 
255 255 255 
128 128 255 
255 59 255 
122 59 255 
105 57 255 
137 72 255 
92 92 255 
132 100 255 
113 66 255 
116 113 255 
144 126 255 
84 84 255 
76 50 161 
196 92 255 
208 94 255 
88 63 255 
255 97 255 
137 72 255 
132 71 255 
67 67 218 
255 85 255 
52 52 167 
255 64 221 
56 56 181 
107 102 255 
92 57 255 
109 74 241 
255 65 74 
255 59 118 
255 112 255 
255 107 112 
255 109 139 
255 78 78 
239 74 74 
255 81 88 
195 60 60 
255 69 107 
255 74 74 
255 63 81 
255 81 94 
255 118 255 
255 105 121 
167 52 52 
255 128 128 
255 105 105 
244 76 84 
255 115 115 
255 68 68 
170 53 63 
233 72 86 
203 60 99 
255 80 125 
255 95 240 
255 59 255 
255 37 47 
255 95 103 
203 63 114 
255 59 59 
255 80 80 
255 78 157 
219 47 88 
255 135 163 
110 34 34 
191 59 112 
255 131 134 
255 83 83 
255 148 255 
255 198 206 
255 255 255 
255 116 157 
255 52 52 
255 255 255 
255 149 255 
255 192 199 
255 145 255 
255 174 174 
255 186 206 
255 172 172 
255 178 213 
255 220 254 
255 77 255 
255 202 202 
255 255 255 
255 255 255 
193 193 193 
255 171 255 
255 253 255 
255 255 255 
255 132 218 
255 255 255 
255 255 255 
255 255 255 
255 178 213 
255 255 255 
255 167 167 
255 185 227 
255 255 255 
255 255 255 
255 190 255 
255 201 255 
255 206 241 
255 156 156 
255 174 200 
255 212 255 
255 255 255 
255 255 255 
255 237 255 
201 195 201 
255 255 255 
228 197 197 
255 255 255 
255 186 255 
255 255 255 
255 235 255 
255 177 221 
255 255 255 
194 194 194 
255 255 255 
255 241 255 
255 214 255 
255 188 255 
255 255 255 
255 255 255 
255 255 255 
255 255 255 
255 213 213 
255 209 255 
255 188 195 
255 205 205 
194 194 194 
255 255 255 
255 255 255 
255 211 255 
255 255 255 
255 225 255 
255 147 255 
255 233 255 
171 123 123 
255 218 248 
255 253 255 
255 255 255 
255 255 255 
255 255 255 
255 255 255 
255 255 255 
255 255 255 
255 255 255 
250 187 255 
255 255 255 
255 255 255 
255 255 255 
255 255 255 
255 255 255 
255 208 255 
255 236 255 
255 255 255 
255 255 255 
255 255 255 
255 255 255 
255 229 255 
222 137 137 
255 176 255 
255 255 255 
255 255 255 
255 121 206 
255 255 255 
255 221 255 
255 255 255 
255 192 231 
255 255 255 
255 255 255 
255 255 255 
255 221 255 
223 222 255 
157 112 255 
231 222 255 
255 255 255 
194 194 194 
255 255 255 
255 230 255 
255 209 255 
255 219 255 
255 255 255 
255 255 255 
248 242 255 
255 255 255 
255 225 255 
255 141 255 
241 241 241 
220 145 255 
224 206 255 
172 172 255 
255 255 255 
255 255 255 
255 255 255 
255 255 255 
179 179 179 
255 214 255 
204 184 224 
167 167 255 
184 184 255 
255 252 255 
165 165 202 
255 255 255 
255 255 255 
255 255 255 
255 153 255 
255 149 255 
255 255 255 
255 255 255 
255 255 255 
255 255 255 
255 217 255 
255 255 255 
255 255 255 
255 194 255 
255 255 255 
255 255 255 
255 195 255 
180 119 255 
255 173 231 
171 140 255 
255 255 255 
255 206 255 
255 255 255 
115 97 180 
178 178 178 
255 179 255 
255 123 255 
255 158 255 
158 156 255 
255 231 255 
255 192 255 
174 174 255 
238 163 255 
215 72 255 
255 255 255 
255 245 255 
255 173 255 
255 168 255 
255 255 255 
198 160 255 
134 97 179 
177 173 255 
151 63 204 
255 71 255 
255 242 255 
181 82 255 
255 255 255 
87 87 255 
115 67 225 
147 104 255 
62 62 255 
90 56 255 
89 63 204 
152 108 255 
39 39 244 
255 255 255 
79 71 231 
116 83 255 
140 72 255 
222 95 255 
193 64 255 
84 84 255 
255 71 255 
255 117 255 
255 255 255 
92 87 255 
95 88 255 
95 74 239 
99 76 255 
94 74 255 
255 118 255 
255 119 255 
101 94 255 
255 61 196 
159 98 255 
223 144 255 
255 54 180 
121 76 255 
129 117 255 
76 69 221 
101 93 255 
255 163 255 
255 98 118 
255 113 142 
255 67 67 
255 95 100 
255 136 207 
207 64 64 
255 66 115 
255 187 193 
255 63 135 
255 156 161 
255 82 82 
255 87 105 
255 89 121 
255 173 255 
231 66 94 
255 104 114 
255 219 255 
255 110 140 
255 64 156 
255 90 106 
255 238 255 
255 88 178 
255 72 134 
255 255 255 
192 39 76 
255 80 255 
255 57 102 
255 76 76 
255 129 143 
255 142 171 
255 111 157 
255 71 141 
254 54 54 
241 60 116 
255 101 160 
255 100 255 
255 76 255 
255 160 163 
255 117 207 
255 255 255 
251 153 153 
255 126 126 
255 255 255 
255 242 255 
255 112 162 
255 255 255 
255 168 204 
255 255 255 
255 255 255 
255 255 255 
255 255 255 
255 204 204 
255 148 201 
255 253 255 
251 153 153 
255 237 255 
255 152 255 
255 167 172 
255 163 180 
255 173 238 
255 191 255 
255 123 130 
255 255 255 
255 204 255 
255 206 255 
174 174 255 
255 186 255 
255 255 255 
255 255 255 
255 144 144 
196 157 205 
255 123 255 
255 184 184 
255 196 227 
255 255 255 
238 146 149 
255 219 255 
255 255 255 
255 160 206 
221 221 221 
198 160 255 
255 255 255 
255 244 249 
253 194 255 
228 197 255 
255 255 255 
255 199 199 
255 255 255 
234 167 167 
231 209 255 
255 255 255 
255 255 255 
250 223 255 
255 156 255 
255 197 255 
255 255 255 
255 162 163 
255 255 255 
255 255 255 
156 124 254 
255 164 211 
255 255 255 
255 252 255 
255 210 255 
161 161 161 
255 255 255 
255 255 255 
221 221 255 
255 255 255 
255 207 237 
255 255 255 
255 205 255 
255 255 255 
255 255 255 
255 170 255 
255 255 255 
255 255 255 
226 226 255 
255 255 255 
255 242 255 
228 119 179 
255 255 255 
255 246 255 
255 255 255 
255 238 238 
255 245 255 
255 242 255 
255 177 177 
255 188 188 
255 255 255 
216 216 255 
255 255 255 
255 238 255 
255 255 255 
255 255 255 
255 243 255 
255 225 252 
255 255 255 
255 255 255 
255 193 245 
255 230 230 
208 208 208 
255 255 255 
156 154 255 
255 255 255 
255 255 255 
228 224 255 
255 243 255 
255 183 183 
255 255 255 
255 255 255 
255 197 255 
255 255 255 
255 255 255 
255 115 203 
255 255 255 
194 193 255 
255 255 255 
255 195 255 
255 255 255 
255 180 255 
194 188 255 
214 208 214 
210 210 255 
255 199 255 
255 245 255 
86 26 86 
255 215 255 
179 179 179 
255 250 255 
240 223 255 
255 196 255 
164 157 255 
200 157 255 
255 251 255 
223 191 255 
201 151 255 
255 255 255 
255 255 255 
255 255 255 
255 255 255 
255 155 255 
255 199 255 
255 255 255 
255 255 255 
255 122 255 
215 172 255 
235 211 255 
255 255 255 
156 147 195 
255 211 255 
255 255 255 
255 255 255 
255 185 255 
118 118 118 
158 149 255 
255 206 255 
255 167 204 
190 137 181 
255 165 255 
254 210 255 
182 182 216 
176 176 255 
234 151 255 
255 242 255 
255 255 255 
179 179 179 
255 253 255 
150 150 223 
227 215 255 
208 197 255 
255 136 255 
105 67 255 
255 189 238 
235 157 255 
255 132 240 
67 62 255 
184 184 255 
126 84 255 
255 165 255 
115 69 255 
183 61 250 
144 91 255 
69 69 255 
72 61 231 
255 77 255 
255 198 255 
56 56 255 
61 61 255 
125 61 242 
255 83 255 
255 255 255 
255 88 255 
155 120 255 
255 61 255 
255 160 255 
78 78 255 
255 102 255 
200 100 255 
195 167 255 
101 79 255 
255 140 255 
88 57 184 
70 61 197 
255 101 255 
87 87 255 
76 50 161 
130 106 255 
91 61 255 
79 46 207 
104 104 255 
115 51 255 
255 122 255 
255 68 255 
255 255 255 
244 66 66 
255 122 253 
255 81 81 
255 74 94 
202 63 73 
255 67 255 
255 236 255 
255 255 255 
235 73 92 
255 87 255 
255 105 160 
255 193 219 
255 74 170 
251 78 84 
255 189 255 
255 83 100 
255 97 102 
191 53 65 
255 177 233 
255 85 108 
255 109 206 
255 89 181 
255 52 255 
255 157 157 
255 89 111 
255 98 113 
255 232 232 
255 82 91 
255 118 120 
255 67 98 
255 58 255 
215 61 73 
255 52 115 
255 72 108 
255 72 72 
255 73 142 
255 89 148 
255 76 76 
255 42 134 
255 172 255 
255 255 255 
255 128 128 
255 230 232 
161 161 161 
255 187 187 
239 202 202 
255 214 255 
255 157 157 
255 255 255 
255 138 255 
255 255 255 
255 255 255 
255 190 190 
255 186 255 
255 195 209 
255 255 255 
255 236 236 
255 246 246 
255 248 253 
255 197 219 
255 255 255 
255 255 255 
255 255 255 
255 193 193 
255 192 211 
255 202 255 
255 255 255 
171 106 106 
255 159 183 
255 240 240 
255 177 177 
255 245 255 
255 196 255 
255 221 237 
255 90 90 
255 223 223 
255 255 255 
235 168 168 
255 217 234 
255 255 255 
255 172 172 
255 255 255 
235 205 255 
255 255 255 
255 255 255 
251 44 106 
208 208 208 
255 255 255 
255 255 255 
255 185 255 
215 188 255 
255 125 200 
255 180 255 
255 201 255 
255 191 223 
187 146 146 
255 255 255 
255 172 255 
255 189 255 
228 197 197 
255 255 255 
255 255 255 
255 255 255 
255 255 255 
255 179 255 
255 255 255 
255 255 255 
255 255 255 
255 207 255 
255 206 214 
240 211 255 
246 185 185 
239 233 239 
255 252 255 
255 255 255 
255 255 255 
255 255 255 
210 210 239 
255 255 255 
255 212 255 
255 215 215 
255 255 255 
255 255 255 
255 255 255 
182 182 216 
255 255 255 
194 194 194 
227 196 255 
255 255 255 
255 255 255 
255 220 255 
255 199 255 
255 255 255 
255 255 255 
255 211 240 
193 193 193 
255 239 255 
175 175 255 
255 251 255 
255 255 255 
255 255 255 
198 91 136 
255 255 255 
255 208 255 
255 255 255 
255 255 255 
255 255 255 
255 255 255 
255 255 255 
255 207 243 
255 154 243 
255 255 255 
255 255 255 
168 168 235 
255 230 255 
255 187 255 
255 255 255 
255 255 255 
255 178 255 
179 179 179 
255 255 255 
255 198 255 
255 255 255 
255 252 255 
255 244 255 
255 125 255 
255 180 215 
235 198 255 
255 224 255 
255 255 255 
255 255 255 
186 178 186 
255 255 255 
198 198 255 
255 255 255 
252 185 255 
255 239 255 
255 224 255 
169 163 255 
238 232 255 
255 222 255 
255 255 255 
255 176 255 
255 255 255 
255 255 255 
255 255 255 
249 249 255 
255 157 255 
255 180 255 
255 150 255 
202 165 255 
255 255 255 
255 250 255 
255 235 255 
255 215 244 
177 131 255 
255 255 255 
255 255 255 
255 255 255 
202 196 255 
255 255 255 
255 174 255 
118 118 118 
210 175 255 
255 247 255 
222 222 255 
255 255 255 
255 255 255 
246 144 255 
190 150 190 
255 242 255 
187 132 132 
210 210 255 
255 255 255 
148 85 248 
235 122 235 
111 111 255 
232 80 255 
255 103 255 
60 60 194 
68 49 157 
140 85 255 
220 36 220 
255 106 255 
77 70 255 
255 41 255 
229 111 255 
112 65 255 
63 36 216 
255 199 255 
191 106 255 
197 76 255 
52 52 167 
255 97 255 
86 71 255 
59 48 155 
255 53 177 
140 52 255 
159 119 255 
255 114 255 
67 67 218 
113 88 255 
114 75 255 
180 98 255 
255 138 255 
68 68 219 
97 97 255 
255 99 255 
70 41 182 
127 77 255 
104 75 242 
110 96 255 
111 91 255 
87 58 255 
79 79 255 
255 128 255 
209 47 82 
255 55 209 
218 68 68 
255 151 255 
255 72 102 
255 74 74 
255 110 129 
255 86 241 
255 84 126 
255 113 255 
229 65 71 
255 81 203 
170 53 63 
255 83 255 
255 142 211 
255 110 175 
255 80 107 
255 104 255 
255 95 255 
255 73 80 
255 84 101 
255 109 255 
255 87 255 
255 104 137 
255 73 117 
255 107 112 
255 94 255 
191 59 112 
255 82 125 
255 58 97 
255 113 113 
202 63 84 
255 59 146 
255 69 95 
255 66 250 
255 70 97 
255 129 255 
255 88 99 
255 78 85 
255 156 195 
255 191 198 
255 234 255 
255 207 255 
255 158 182 
255 135 135 
255 187 187 
255 180 243 
255 150 222 
255 171 171 
255 180 180 
255 224 255 
255 238 255 
255 255 255 
255 217 217 
240 132 132 
255 133 255 
255 218 255 
255 135 188 
250 78 190 
255 143 255 
255 168 204 
255 200 200 
255 255 255 
210 210 255 
255 217 223 
255 156 215 
255 185 255 
255 209 255 
255 186 186 
255 255 255 
255 255 255 
255 141 184 
255 255 255 
255 255 255 
255 252 255 
255 120 255 
255 182 182 
255 194 226 
255 255 255 
255 215 249 
219 165 167 
255 154 163 
255 255 255 
255 202 232 
255 226 232 
255 255 255 
255 255 255 
255 255 255 
255 208 255 
255 221 255 
255 255 255 
251 216 216 
255 255 255 
255 226 255 
255 255 255 
255 166 226 
196 157 205 
255 255 255 
211 211 240 
255 255 255 
244 187 255 
210 128 128 
255 160 255 
230 154 255 
208 166 208 
255 255 255 
255 226 253 
255 238 255 
255 220 255 
255 234 234 
255 255 255 
118 118 118 
255 255 255 
255 255 255 
255 137 137 
255 255 255 
255 255 255 
234 161 255 
180 56 56 
255 255 255 
255 255 255 
255 208 208 
255 178 236 
255 225 255 
255 227 255 
255 255 255 
255 255 255 
255 255 255 
255 255 255 
196 196 228 
255 255 255 
255 207 255 
255 255 255 
255 255 255 
255 208 255 
255 255 255 
255 255 255 
255 255 255 
235 200 252 
255 202 202 
240 240 255 
255 145 255 
255 251 255 
255 236 236 
255 255 255 
255 255 255 
255 185 255 
171 123 255 
255 237 255 
255 247 255 
255 171 255 
255 255 255 
243 207 255 
171 123 123 
255 255 255 
255 255 255 
235 235 255 
255 242 255 
255 199 255 
255 255 255 
226 226 255 
216 119 255 
210 210 255 
255 233 255 
255 255 255 
255 144 144 
251 251 255 
255 255 255 
255 184 255 
255 186 255 
255 255 255 
255 198 255 
255 196 255 
255 255 255 
181 137 242 
218 218 255 
255 238 255 
96 73 179 
212 212 255 
216 152 244 
255 255 255 
255 233 255 
184 184 246 
142 142 142 
255 255 255 
255 211 255 
137 137 222 
255 255 255 
255 255 255 
255 255 255 
255 255 255 
212 131 255 
191 182 255 
255 233 255 
200 194 255 
255 250 255 
255 255 255 
255 249 255 
255 203 255 
255 245 255 
255 216 255 
255 216 255 
255 255 255 
255 110 255 
235 172 235 
255 85 197 
255 215 255 
255 218 255 
255 255 255 
245 197 255 
140 124 255 
231 192 255 
255 99 255 
252 146 253 
168 160 255 
255 97 196 
255 186 255 
52 52 167 
98 26 255 
161 68 255 
172 68 255 
139 77 255 
255 46 255 
255 106 255 
52 52 167 
104 69 255 
74 55 178 
142 79 255 
90 90 255 
255 255 255 
89 69 224 
222 43 189 
189 145 255 
69 69 253 
107 92 255 
120 73 236 
52 52 167 
107 97 255 
255 75 251 
255 242 255 
152 90 255 
227 115 255 
85 70 255 
255 125 255 
255 107 255 
207 111 255 
255 92 255 
80 80 255 
54 38 124 
255 79 255 
193 77 255 
255 102 255 
85 73 255 
122 102 255 
255 158 255 
82 73 235 
255 127 169 
255 63 87 
255 82 140 
255 255 255 
255 89 90 
255 79 107 
255 78 255 
255 72 128 
255 109 109 
255 78 131 
255 117 122 
255 69 69 
255 102 115 
255 68 97 
255 108 144 
255 71 223 
255 108 205 
255 95 255 
255 126 130 
255 90 200 
255 92 92 
255 140 144 
255 103 103 
183 57 121 
255 92 137 
255 79 123 
255 58 87 
255 92 255 
255 92 255 
255 94 132 
255 92 139 
255 82 95 
216 52 113 
255 73 73 
255 159 224 
255 96 237 
255 60 60 
80 25 25 
255 118 213 
255 183 255 
255 113 255 
255 244 255 
255 222 255 
255 208 215 
171 96 123 
255 213 247 
255 163 163 
255 255 255 
222 167 189 
255 50 50 
255 126 126 
255 255 255 
255 255 255 
255 255 255 
251 153 153 
255 255 255 
255 137 143 
212 212 255 
216 182 182 
255 140 255 
255 198 198 
255 255 255 
255 255 255 
255 190 190 
255 255 255 
255 255 255 
255 220 255 
255 145 165 
255 205 205 
255 213 255 
255 187 207 
255 255 255 
255 244 255 
255 255 255 
255 255 255 
255 227 254 
255 157 255 
142 142 142 
255 208 255 
255 213 255 
255 255 255 
172 172 215 
255 255 255 
255 230 255 
255 194 255 
255 255 255 
255 181 181 
255 191 191 
234 196 234 
255 255 255 
255 213 234 
255 255 255 
255 172 255 
255 138 150 
255 155 255 
255 190 223 
255 255 255 
255 255 255 
255 255 255 
255 255 255 
255 255 255 
255 193 225 
255 205 255 
255 202 255 
255 178 255 
255 255 255 
255 255 255 
255 246 246 
255 190 190 
255 226 226 
255 237 255 
255 255 255 
255 194 255 
255 204 222 
255 255 255 
255 241 255 
255 255 255 
227 199 255 
255 230 230 
255 255 255 
255 255 255 
255 153 187 
255 255 255 
255 172 255 
255 219 219 
255 255 255 
255 255 255 
255 195 255 
255 255 255 
255 255 255 
255 255 255 
255 149 255 
255 255 255 
255 255 255 
255 255 255 
184 141 225 
255 255 255 
255 191 255 
255 255 255 
255 255 255 
255 255 255 
255 255 255 
243 227 255 
255 255 255 
255 236 255 
255 199 216 
255 255 255 
255 253 255 
246 246 255 
255 255 255 
221 202 255 
179 179 179 
255 139 139 
255 214 255 
255 196 255 
255 222 255 
255 166 255 
245 230 255 
255 255 255 
255 255 255 
255 181 255 
255 185 255 
255 255 255 
255 255 255 
255 175 255 
255 173 255 
255 255 255 
212 167 255 
255 255 255 
156 156 255 
255 255 255 
190 136 255 
255 255 255 
159 150 255 
255 255 255 
255 102 208 
209 202 255 
255 163 255 
255 255 255 
221 221 221 
255 255 255 
255 255 255 
255 255 255 
255 255 255 
255 255 255 
234 196 255 
237 207 255 
255 165 165 
198 158 255 
255 252 255 
255 208 255 
174 166 209 
255 255 255 
255 248 255 
227 119 227 
255 255 255 
255 255 255 
255 255 255 
181 181 255 
255 238 255 
255 233 255 
141 141 255 
255 177 193 
148 148 255 
255 255 255 
197 170 255 
255 255 255 
252 182 255 
165 165 202 
211 184 253 
86 86 255 
255 167 190 
255 255 255 
255 232 255 
255 255 255 
255 255 255 
153 121 175 
159 99 255 
153 123 255 
122 59 202 
99 93 255 
79 71 230 
140 70 227 
105 57 255 
90 81 255 
67 67 217 
255 221 255 
162 121 255 
58 58 255 
255 58 186 
164 121 255 
98 83 255 
255 199 255 
91 78 255 
95 72 255 
109 57 255 
89 78 255 
149 67 255 
105 76 255 
159 141 255 
125 125 255 
237 120 255 
126 79 255 
255 107 255 
255 98 255 
147 82 255 
255 119 255 
158 158 255 
67 61 255 
240 86 255 
85 73 255 
250 72 255 
255 102 255 
140 88 255 
193 104 255 
115 62 199 
255 71 78 
255 76 93 
255 74 128 
255 125 125 
255 90 199 
255 83 137 
255 105 113 
255 124 159 
255 70 112 
161 50 63 
255 72 91 
255 90 113 
255 108 112 
255 91 218 
255 103 130 
255 81 86 
255 80 87 
255 86 107 
255 100 255 
255 108 205 
255 76 213 
255 89 89 
255 86 168 
231 72 98 
202 19 19 
255 82 135 
255 111 173 
255 97 111 
255 98 127 
255 56 136 
255 61 68 
174 54 105 
255 63 63 
255 109 115 
255 56 111 
255 89 127 
255 210 210 
255 228 237 
255 102 125 
93 93 153 
255 164 237 
255 196 255 
255 229 229 
255 255 255 
255 74 143 
255 207 213 
136 56 255 
255 255 255 
255 163 255 
255 213 241 
255 197 255 
255 215 215 
255 255 255 
216 160 224 
255 255 255 
255 255 255 
255 194 231 
187 146 146 
255 255 255 
255 175 210 
152 142 152 
255 122 122 
255 242 255 
255 181 255 
255 251 255 
255 139 139 
255 181 250 
255 126 126 
255 170 184 
255 207 255 
255 213 213 
255 166 255 
255 104 104 
255 230 230 
255 201 255 
255 97 97 
255 255 255 
227 170 254 
179 179 179 
255 255 255 
118 118 118 
255 171 220 
161 161 161 
255 255 255 
255 165 255 
255 255 255 
255 255 255 
255 223 255 
255 255 255 
255 255 255 
255 255 255 
255 255 255 
255 192 192 
255 255 255 
255 255 255 
255 140 192 
255 255 255 
255 229 255 
255 255 255 
255 255 255 
255 255 255 
249 203 255 
255 226 226 
205 152 255 
255 222 255 
255 255 255 
255 255 255 
217 184 255 
255 176 255 
255 255 255 
230 230 255 
255 160 206 
255 240 240 
255 255 255 
255 255 255 
255 255 255 
255 225 255 
255 255 255 
255 255 255 
255 255 255 
255 228 255 
255 255 255 
255 255 255 
255 236 255 
255 232 255 
189 135 255 
255 255 255 
172 93 229 
255 249 255 
255 255 255 
255 255 255 
255 255 255 
250 250 255 
255 226 255 
255 255 255 
255 255 255 
252 219 255 
255 255 255 
255 251 255 
255 202 202 
255 255 255 
174 169 255 
255 210 255 
216 182 182 
255 255 255 
255 255 255 
255 255 255 
255 255 255 
146 146 187 
141 141 252 
255 255 255 
249 132 255 
214 195 214 
255 191 223 
255 255 255 
255 255 255 
255 255 255 
150 150 223 
255 211 255 
255 226 246 
255 199 255 
255 255 255 
255 234 255 
255 255 255 
255 182 255 
255 255 255 
255 80 146 
255 255 255 
255 255 255 
255 255 255 
252 111 240 
244 141 255 
255 212 250 
232 193 255 
255 255 255 
255 135 135 
144 125 255 
255 255 255 
255 189 255 
255 209 255 
255 203 255 
255 255 255 
193 193 193 
220 220 255 
255 255 255 
255 204 255 
255 247 255 
255 255 255 
212 171 255 
255 255 255 
227 165 255 
255 246 255 
255 166 255 
169 103 183 
228 228 255 
255 195 255 
255 222 255 
255 168 234 
255 150 255 
255 255 255 
231 151 231 
255 255 255 
212 147 212 
255 207 255 
255 178 255 
255 179 255 
255 112 255 
156 156 255 
145 133 255 
255 241 255 
223 155 255 
255 255 255 
255 255 255 
204 126 199 
226 163 247 
255 94 255 
255 255 255 
119 43 138 
60 47 255 
206 104 255 
198 111 255 
78 78 255 
106 90 255 
92 88 255 
87 79 253 
255 229 255 
119 97 255 
255 70 255 
101 60 255 
99 93 255 
82 81 255 
46 46 150 
255 115 255 
239 92 255 
101 96 255 
87 87 255 
75 65 255 
85 57 255 
114 63 203 
161 80 255 
255 85 255 
109 77 250 
54 42 137 
140 89 255 
147 52 201 
130 130 255 
255 100 255 
177 80 255 
200 94 255 
101 100 255 
76 51 185 
85 85 255 
255 255 255 
255 73 255 
91 79 255 
106 81 255 
255 95 135 
211 59 73 
255 93 99 
255 98 114 
218 63 93 
255 195 216 
255 102 106 
255 93 101 
254 75 148 
195 60 60 
255 196 221 
255 141 255 
255 104 238 
255 84 150 
255 66 66 
255 122 255 
255 88 180 
255 87 164 
255 194 207 
255 82 118 
255 100 114 
255 94 97 
255 124 139 
237 73 120 
255 81 97 
255 105 115 
255 95 95 
255 57 57 
255 134 255 
255 77 91 
80 25 25 
255 73 73 
255 65 101 
255 76 162 
255 96 101 
255 255 255 
255 107 158 
255 148 153 
255 80 186 
255 116 255 
255 142 142 
255 85 89 
255 255 255 
255 202 255 
255 255 255 
255 255 255 
255 200 255 
255 206 255 
255 225 255 
255 193 255 
215 180 255 
255 247 255 
221 196 221 
255 255 255 
255 216 228 
255 255 255 
255 181 223 
255 146 255 
255 255 255 
255 255 255 
216 182 182 
255 255 255 
255 209 209 
255 135 147 
255 200 255 
255 255 255 
255 143 255 
255 255 255 
234 184 204 
255 255 255 
255 201 201 
255 255 255 
255 255 255 
255 255 255 
215 181 181 
255 122 122 
255 232 238 
255 255 255 
239 210 210 
255 190 254 
255 196 196 
255 165 169 
250 190 250 
255 191 255 
255 209 255 
197 168 255 
255 255 255 
255 247 255 
255 246 255 
161 161 161 
255 186 195 
255 218 246 
255 255 255 
255 202 255 
255 199 255 
255 174 209 
255 255 255 
255 255 255 
255 217 234 
255 255 255 
255 255 255 
255 175 255 
255 255 255 
255 255 255 
255 255 255 
255 255 255 
255 182 247 
255 255 255 
255 164 255 
229 229 255 
255 201 255 
255 255 255 
255 255 255 
180 124 135 
255 255 255 
255 204 255 
255 255 255 
255 255 255 
255 255 255 
239 184 209 
255 255 255 
255 203 233 
255 255 255 
255 255 255 
255 255 255 
255 236 236 
255 255 255 
195 147 156 
254 220 255 
255 255 255 
236 231 255 
255 219 255 
255 255 255 
255 255 255 
231 162 192 
255 255 255 
255 238 255 
255 246 255 
255 255 255 
255 255 255 
255 224 255 
255 212 245 
255 221 255 
255 205 255 
255 255 255 
255 120 120 
255 255 255 
255 255 255 
255 222 231 
255 255 255 
255 255 255 
228 166 211 
255 212 255 
255 255 255 
255 245 255 
208 208 208 
217 174 255 
201 190 255 
188 188 228 
255 255 255 
240 240 255 
250 100 255 
255 255 255 
172 172 255 
255 255 255 
255 212 246 
255 160 160 
255 192 255 
255 255 255 
161 161 255 
255 168 204 
255 181 254 
255 163 255 
255 223 255 
255 219 255 
255 255 255 
251 215 255 
255 255 255 
255 255 255 
255 255 255 
222 137 137 
219 196 255 
103 87 103 
225 193 255 
176 118 255 
255 255 255 
255 157 255 
255 247 255 
145 145 255 
255 162 238 
181 181 215 
162 87 215 
255 255 255 
255 255 255 
167 162 218 
255 208 255 
255 220 255 
255 255 255 
230 191 255 
255 174 255 
227 203 255 
159 150 255 
246 230 255 
255 220 255 
231 181 255 
224 183 255 
255 255 255 
217 153 216 
255 255 255 
157 157 255 
255 255 255 
255 244 255 
255 188 188 
255 128 255 
255 169 255 
255 217 255 
162 131 255 
128 121 255 
138 95 255 
131 64 255 
255 108 255 
64 53 200 
60 60 194 
255 93 255 
86 74 255 
112 107 255 
209 65 255 
141 68 255 
66 61 212 
134 130 255 
255 158 255 
255 151 255 
109 77 255 
76 76 255 
232 230 255 
255 255 255 
192 192 255 
255 165 255 
255 70 241 
133 54 255 
152 122 255 
176 65 255 
144 101 255 
221 87 255 
97 74 255 
99 77 247 
163 93 255 
83 76 255 
62 57 191 
86 67 244 
105 58 255 
111 111 255 
255 85 255 
168 55 195 
116 61 255 
255 60 195 
255 110 226 
255 138 189 
255 93 111 
255 71 255 
255 105 115 
255 97 102 
255 103 134 
240 74 74 
255 99 106 
255 255 255 
236 73 120 
255 73 106 
255 94 100 
179 55 86 
246 76 105 
255 78 85 
241 61 99 
182 56 56 
255 105 255 
255 58 80 
255 87 113 
255 89 255 
255 104 108 
255 64 64 
255 78 140 
255 163 177 
255 104 123 
255 72 130 
255 105 255 
255 82 135 
255 76 83 
255 69 69 
255 157 255 
255 58 97 
255 76 130 
255 60 96 
255 168 202 
234 44 44 
238 74 74 
255 124 124 
255 159 206 
255 200 255 
255 210 255 
255 255 255 
255 164 210 
255 155 255 
255 191 198 
221 188 255 
255 171 255 
255 143 169 
255 255 255 
255 194 202 
255 179 255 
255 197 197 
255 182 215 
255 180 180 
255 159 254 
255 255 255 
255 177 177 
255 255 255 
255 196 196 
255 255 255 
255 253 255 
255 168 190 
255 198 255 
100 100 196 
255 203 245 
132 132 240 
255 255 255 
255 167 237 
255 204 204 
255 171 243 
255 174 255 
255 255 255 
255 255 255 
255 255 255 
244 244 244 
255 195 255 
255 255 255 
202 165 165 
255 255 255 
255 255 255 
255 248 248 
255 255 255 
255 118 255 
255 255 255 
202 165 165 
255 190 194 
255 255 255 
255 255 255 
208 208 208 
255 179 255 
255 255 255 
255 220 255 
255 197 255 
255 255 255 
255 255 255 
255 250 255 
255 255 255 
255 255 255 
255 179 186 
202 154 154 
236 236 255 
255 209 219 
220 220 255 
255 197 255 
255 255 255 
255 255 255 
255 148 148 
255 255 255 
165 165 246 
255 255 255 
255 255 255 
255 255 255 
255 255 255 
205 168 205 
255 255 255 
255 193 255 
255 230 255 
255 255 255 
255 255 255 
212 211 254 
178 178 178 
255 255 255 
255 166 255 
255 255 255 
205 168 205 
203 203 240 
255 235 255 
255 255 255 
255 255 255 
255 255 255 
255 202 255 
255 255 255 
255 252 255 
245 199 255 
194 194 194 
255 238 255 
255 171 255 
255 255 255 
255 255 255 
255 255 255 
255 244 255 
255 187 255 
255 171 255 
196 195 243 
255 253 255 
255 230 236 
255 255 255 
255 205 255 
255 175 210 
255 204 204 
255 255 255 
146 146 187 
255 255 255 
255 255 255 
247 163 255 
255 157 238 
255 255 255 
255 236 255 
255 255 255 
255 191 191 
255 219 255 
171 123 123 
255 221 255 
255 160 198 
255 255 255 
255 135 135 
196 196 255 
255 216 216 
255 187 255 
255 255 255 
180 173 255 
255 255 255 
255 142 185 
255 255 255 
255 169 255 
255 240 255 
255 255 255 
255 213 255 
255 255 255 
255 255 255 
255 255 255 
255 255 255 
255 255 255 
180 165 255 
255 243 255 
255 198 255 
255 255 255 
197 197 228 
255 214 255 
153 153 251 
255 147 248 
235 201 255 
166 156 255 
179 112 220 
255 106 170 
255 173 255 
255 255 255 
215 208 255 
255 158 255 
255 98 98 
255 255 255 
255 255 255 
255 179 255 
255 179 255 
255 161 169 
255 255 255 
223 201 255 
255 255 255 
255 252 255 
255 255 255 
204 105 255 
255 200 255 
255 255 255 
255 255 255 
255 255 255 
255 142 255 
100 51 255 
108 103 255 
255 255 255 
169 62 201 
119 106 255 
165 70 255 
255 48 167 
253 87 255 
136 58 255 
73 68 234 
117 79 255 
119 89 255 
118 63 255 
255 255 255 
166 62 199 
255 77 247 
157 101 255 
255 91 255 
255 85 255 
82 59 189 
75 67 255 
101 76 247 
255 60 255 
182 92 255 
74 74 239 
109 92 255 
105 85 255 
67 67 218 
255 255 255 
136 110 255 
215 61 245 
168 74 255 
62 61 255 
107 101 255 
197 197 255 
131 124 255 
52 52 167 
182 103 255 
255 82 93 
185 57 66 
255 253 255 
238 74 89 
142 35 39 
255 86 136 
254 66 85 
255 82 82 
255 80 96 
255 91 91 
176 55 79 
255 83 111 
255 92 207 
255 101 104 
255 73 181 
255 69 92 
255 130 150 
255 93 111 
255 71 71 
255 104 255 
255 90 137 
255 191 210 
239 74 74 
255 117 117 
255 113 139 
255 87 255 
255 47 95 
255 103 120 
255 192 221 
255 103 226 
255 87 143 
255 82 255 
255 116 194 
255 112 187 
255 75 75 
133 41 41 
255 93 108 
103 32 165 
255 127 129 
255 255 255 
255 135 255 
255 152 255 
255 96 255 
255 255 255 
255 255 255 
255 255 255 
255 116 171 
255 193 193 
255 209 255 
255 154 184 
255 115 115 
255 141 141 
255 157 255 
255 255 255 
255 255 255 
255 255 255 
255 255 255 
255 186 255 
255 171 171 
255 193 225 
255 163 255 
196 100 100 
255 255 255 
255 255 255 
255 255 255 
255 188 255 
255 225 255 
255 184 215 
255 190 224 
255 172 245 
255 255 255 
255 255 255 
255 245 248 
255 244 255 
255 243 255 
255 228 255 
255 177 233 
255 202 255 
255 255 255 
255 218 255 
255 255 255 
255 255 255 
255 196 232 
255 255 255 
255 255 255 
255 255 255 
255 255 255 
255 235 255 
255 255 255 
255 255 255 
255 255 255 
255 198 255 
255 255 255 
240 211 255 
240 132 132 
255 203 209 
255 255 255 
255 255 255 
255 183 216 
222 165 204 
196 157 205 
255 212 230 
255 255 255 
255 255 255 
255 234 255 
255 255 255 
255 255 255 
245 245 245 
255 204 255 
255 255 255 
255 255 255 
246 175 175 
255 255 255 
255 184 223 
176 163 255 
255 255 255 
255 255 255 
255 204 212 
255 210 239 
255 223 250 
255 234 249 
203 203 240 
255 255 255 
255 255 255 
255 247 255 
248 220 255 
255 255 255 
255 255 255 
255 255 255 
234 234 255 
255 140 244 
255 255 255 
255 255 255 
255 255 255 
255 230 255 
255 255 255 
255 167 255 
255 246 255 
255 222 255 
255 193 255 
255 255 255 
255 235 235 
255 239 255 
255 172 255 
255 207 255 
202 202 255 
215 172 172 
255 255 255 
194 194 194 
161 161 161 
255 229 255 
255 158 208 
235 133 255 
255 255 255 
255 164 255 
255 241 255 
255 255 255 
227 221 227 
255 228 254 
255 233 255 
255 255 255 
255 255 255 
161 161 161 
255 255 255 
208 208 208 
182 182 216 
255 222 255 
255 255 255 
255 255 255 
255 255 255 
255 236 255 
255 255 255 
255 203 255 
175 175 255 
161 161 161 
253 226 253 
255 255 255 
170 162 170 
159 130 255 
255 255 255 
255 255 255 
255 244 255 
229 212 255 
255 229 255 
255 255 255 
255 255 255 
216 200 255 
166 161 255 
255 222 255 
255 219 255 
137 101 255 
255 255 255 
255 160 160 
250 162 255 
188 181 255 
255 255 255 
255 255 255 
255 255 255 
255 171 255 
255 255 255 
171 122 243 
234 234 255 
255 255 255 
255 255 255 
255 255 255 
255 255 255 
255 180 255 
254 130 255 
255 255 255 
255 235 255 
255 160 189 
158 158 255 
255 179 242 
215 171 255 
142 142 142 
255 255 255 
255 173 255 
92 42 235 
255 148 255 
174 72 255 
175 73 255 
242 232 255 
89 89 255 
144 56 255 
255 236 255 
255 143 255 
96 79 254 
132 118 255 
93 66 255 
143 47 151 
255 75 255 
255 67 255 
95 85 255 
148 119 255 
127 70 224 
140 118 255 
170 82 255 
133 81 255 
217 96 255 
87 53 255 
237 88 255 
132 80 255 
255 255 255 
171 64 208 
255 77 255 
171 67 217 
255 125 255 
83 69 255 
78 46 233 
122 99 255 
183 93 255 
195 83 255 
194 105 255 
101 101 255 
135 103 255 
134 58 255 
255 69 95 
207 64 64 
255 54 72 
255 101 107 
255 77 112 
255 94 94 
255 76 136 
255 131 255 
165 47 69 
255 213 255 
255 131 150 
196 55 167 
255 79 176 
255 135 137 
255 93 108 
255 106 118 
255 194 255 
255 126 130 
255 238 242 
255 88 118 
255 58 255 
255 231 255 
255 57 92 
255 138 206 
255 99 129 
255 119 131 
240 74 175 
235 44 44 
189 52 55 
253 74 109 
255 120 121 
255 69 69 
199 62 166 
231 71 79 
255 195 255 
255 151 166 
255 255 255 
217 64 131 
255 63 63 
255 246 246 
255 148 248 
255 255 255 
255 127 127 
255 126 199 
255 255 255 
255 206 255 
255 159 236 
178 55 131 
255 153 215 
255 212 212 
255 190 190 
255 255 255 
255 199 217 
255 255 255 
255 212 235 
208 205 255 
255 121 121 
255 255 255 
255 200 231 
255 159 159 
255 247 255 
255 255 255 
255 255 255 
255 160 160 
255 193 193 
255 255 255 
255 255 255 
255 255 255 
255 164 255 
255 183 183 
255 255 255 
255 218 255 
255 255 255 
255 255 255 
255 255 255 
255 255 255 
255 164 202 
255 196 219 
255 126 126 
255 255 255 
178 178 178 
255 222 250 
255 255 255 
255 208 208 
255 255 255 
255 218 218 
255 210 210 
255 255 255 
255 255 255 
243 215 255 
255 255 255 
255 219 219 
255 224 255 
255 176 198 
255 240 255 
255 202 232 
255 255 255 
142 142 142 
255 218 218 
255 255 255 
255 237 255 
255 182 182 
255 239 255 
255 255 255 
255 255 255 
255 241 241 
255 184 184 
255 255 255 
255 236 255 
255 255 255 
255 240 240 
255 255 255 
255 255 255 
201 181 201 
235 235 255 
255 255 255 
234 198 204 
228 197 197 
255 190 190 
255 255 255 
205 205 255 
255 226 255 
255 255 255 
208 208 208 
255 255 255 
255 255 255 
255 255 255 
244 216 255 
255 255 255 
249 135 206 
255 190 255 
255 190 255 
255 255 255 
255 255 255 
255 233 255 
255 255 255 
255 237 255 
255 255 255 
230 200 255 
255 193 193 
255 207 255 
255 255 255 
255 255 255 
255 198 255 
255 189 255 
255 205 255 
255 255 255 
255 255 255 
255 255 255 
255 255 255 
255 166 255 
212 193 255 
255 150 255 
255 255 255 
255 160 162 
255 204 204 
255 255 255 
199 176 255 
255 145 217 
255 255 255 
154 154 202 
255 226 255 
255 255 255 
255 97 97 
255 255 255 
255 150 240 
255 255 255 
255 255 255 
241 212 255 
255 255 255 
255 255 255 
255 156 227 
215 191 255 
212 167 190 
255 255 255 
175 175 255 
255 255 255 
202 202 255 
128 128 210 
255 255 255 
255 128 255 
255 175 255 
255 234 255 
255 255 255 
245 190 209 
255 225 255 
255 174 255 
205 205 255 
255 181 255 
255 255 255 
255 191 255 
246 109 247 
255 209 255 
255 167 255 
248 220 255 
255 255 255 
255 200 255 
255 255 255 
255 181 255 
255 255 255 
255 231 255 
165 146 255 
255 175 255 
185 185 255 
255 183 255 
255 144 255 
255 255 255 
156 156 255 
255 161 255 
155 125 255 
255 149 255 
255 254 255 
241 148 255 
56 56 180 
255 213 255 
181 181 255 
188 158 255 
197 75 255 
255 116 255 
160 129 255 
255 78 255 
255 74 255 
255 122 255 
69 53 223 
100 55 255 
80 53 244 
138 75 255 
101 93 255 
255 125 255 
139 84 255 
142 92 255 
255 75 242 
99 70 255 
255 180 255 
133 105 255 
192 63 203 
105 82 255 
255 202 255 
43 43 255 
255 98 255 
223 113 255 
123 79 255 
150 104 255 
82 82 255 
114 100 255 
150 100 255 
255 255 255 
255 112 255 
84 82 255 
76 60 255 
181 65 255 
83 70 240 
126 110 255 
138 71 230 
113 94 255 
255 92 255 
255 96 134 
233 72 86 
255 90 104 
255 89 123 
247 67 75 
255 80 135 
255 88 136 
255 87 255 
235 72 150 
195 60 60 
255 60 77 
255 54 72 
255 255 255 
255 135 135 
255 116 143 
255 161 188 
255 167 171 
255 120 126 
255 76 116 
234 68 73 
255 91 98 
255 88 136 
255 184 184 
255 88 91 
255 87 91 
255 68 171 
255 97 184 
255 246 255 
255 150 152 
255 86 102 
255 88 153 
255 79 102 
255 52 255 
255 96 96 
255 67 75 
255 80 127 
255 102 115 
255 36 36 
0 0 0 
255 226 231 
255 255 255 
255 198 217 
255 255 255 
187 146 146 
255 154 178 
255 255 255 
255 255 255 
255 109 109 
255 255 255 
255 208 226 
255 255 255 
255 154 163 
255 116 116 
255 255 255 
255 147 255 
255 255 255 
255 209 255 
255 139 255 
255 255 255 
255 178 255 
216 182 182 
255 182 182 
255 231 255 
255 172 172 
255 255 255 
255 150 153 
255 175 197 
255 163 163 
255 255 255 
255 156 203 
203 203 240 
255 255 255 
255 219 219 
255 255 255 
255 238 255 
255 195 255 
255 255 255 
255 236 255 
255 255 255 
255 255 255 
255 255 255 
255 255 255 
255 255 255 
255 170 255 
255 247 247 
255 255 255 
255 238 255 
255 208 221 
255 255 255 
255 255 255 
255 157 160 
255 255 255 
255 231 231 
255 251 255 
255 166 189 
255 255 255 
255 255 255 
255 147 162 
255 247 255 
255 210 210 
255 247 247 
255 174 212 
255 255 255 
255 225 255 
187 179 187 
255 255 255 
255 255 255 
255 205 228 
255 246 255 
255 250 255 
255 157 180 
255 255 255 
255 255 255 
255 245 249 
255 199 230 
255 255 255 
255 171 255 
255 239 255 
255 255 255 
255 250 255 
255 224 255 
221 221 221 
255 166 193 
223 150 150 
255 227 255 
255 255 255 
238 188 255 
253 228 255 
255 255 255 
255 255 255 
255 255 255 
255 228 255 
255 255 255 
255 195 195 
255 255 255 
255 210 255 
255 255 255 
255 255 255 
255 255 255 
255 255 255 
210 175 255 
255 255 255 
255 255 255 
255 255 255 
255 255 255 
255 255 255 
255 230 255 
255 188 255 
255 140 243 
255 255 255 
218 190 255 
255 255 255 
255 255 255 
225 185 255 
234 192 255 
255 255 255 
255 217 255 
255 210 255 
255 181 208 
255 212 241 
255 255 255 
146 146 187 
187 187 255 
255 255 255 
193 168 255 
255 255 255 
255 255 255 
255 177 255 
255 232 255 
255 146 226 
255 255 255 
165 165 202 
255 255 255 
177 167 222 
255 255 255 
255 255 255 
255 255 255 
255 194 255 
255 255 255 
255 189 255 
255 255 255 
255 160 255 
240 205 255 
255 163 221 
255 73 205 
255 255 255 
255 255 255 
255 255 255 
255 255 255 
255 255 255 
255 255 255 
239 169 255 
147 135 255 
250 190 255 
255 255 255 
255 255 255 
255 215 215 
232 223 255 
255 191 255 
255 213 255 
170 144 170 
103 87 103 
255 240 255 
255 255 255 
251 153 153 
206 206 255 
255 255 255 
196 196 255 
255 202 255 
255 255 255 
255 176 255 
149 145 255 
219 177 255 
249 144 255 
221 216 255 
255 243 255 
255 255 255 
255 164 255 
255 83 255 
93 93 255 
112 59 255 
112 82 255 
178 78 251 
116 68 235 
162 93 255 
142 141 255 
177 82 255 
154 112 255 
93 86 255 
255 84 255 
215 126 255 
127 91 255 
255 70 226 
227 75 255 
144 111 255 
255 37 187 
120 66 255 
104 104 255 
185 47 151 
255 69 255 
99 90 255 
255 117 255 
255 255 255 
113 108 255 
255 163 255 
179 105 255 
241 119 255 
146 107 255 
180 80 255 
151 117 255 
129 68 255 
114 78 254 
95 72 255 
255 55 242 
89 66 255 
106 100 255 
255 89 94 
255 65 90 
255 96 110 
235 63 63 
255 82 127 
255 185 186 
255 87 106 
255 80 255 
255 81 125 
255 79 160 
201 57 59 
195 60 60 
255 141 255 
255 96 110 
255 72 119 
255 107 112 
255 71 184 
173 52 89 
255 115 116 
255 65 65 
255 115 255 
255 168 255 
255 79 79 
255 97 108 
255 74 255 
255 103 103 
255 195 201 
255 70 101 
255 91 102 
255 147 212 
255 69 113 
255 68 68 
255 56 65 
255 112 124 
255 116 142 
255 82 187 
255 121 152 
195 60 176 
255 88 113 
255 75 181 
255 190 255 
255 255 255 
253 157 196 
255 255 255 
255 255 255 
255 160 198 
255 166 166 
255 172 172 
255 214 255 
255 255 255 
255 197 255 
255 143 194 
255 241 255 
255 191 255 
234 204 255 
255 199 222 
255 184 255 
255 213 213 
233 212 255 
147 118 120 
255 255 255 
212 154 255 
255 255 255 
255 177 177 
255 255 255 
197 130 197 
255 167 167 
123 123 171 
255 229 255 
255 255 255 
255 182 191 
255 160 175 
223 191 230 
255 255 255 
255 197 255 
255 171 255 
206 170 255 
255 223 230 
255 239 239 
255 224 255 
255 164 241 
255 244 249 
255 163 163 
255 255 255 
239 169 181 
255 255 255 
255 255 255 
255 255 255 
255 185 255 
255 224 251 
251 223 223 
255 255 255 
187 146 146 
255 255 255 
255 253 255 
210 210 255 
255 213 255 
255 215 255 
143 133 245 
255 248 255 
255 237 255 
178 178 178 
255 172 255 
255 255 255 
255 255 255 
255 255 255 
255 255 255 
255 255 255 
247 198 255 
255 235 255 
255 228 255 
255 207 255 
164 164 255 
255 221 255 
255 184 255 
255 248 255 
255 112 112 
255 177 177 
255 254 255 
255 255 255 
228 197 197 
255 255 255 
255 255 255 
239 210 210 
255 210 255 
255 218 255 
255 197 228 
161 161 161 
255 255 255 
255 255 255 
197 190 255 
255 255 255 
255 255 255 
255 255 255 
196 196 228 
167 162 191 
255 178 178 
255 153 250 
255 255 255 
255 233 255 
255 242 255 
255 255 255 
247 196 255 
255 162 218 
255 255 255 
221 221 221 
255 255 255 
234 234 234 
255 255 255 
255 187 255 
255 255 255 
249 226 255 
255 178 245 
202 165 165 
221 179 255 
255 192 211 
255 158 255 
255 202 232 
142 142 142 
234 228 255 
223 150 150 
255 198 255 
255 255 255 
255 204 255 
255 255 255 
255 255 255 
239 233 239 
227 227 255 
255 255 255 
255 255 255 
228 106 106 
255 175 210 
255 255 255 
216 152 244 
255 198 255 
255 255 255 
255 216 255 
255 221 226 
255 255 255 
255 224 255 
255 255 255 
255 255 255 
255 255 255 
255 255 255 
255 255 255 
255 255 255 
255 151 194 
255 160 162 
255 255 255 
255 213 255 
255 255 255 
255 254 254 
135 121 152 
255 156 255 
255 220 255 
178 178 255 
255 254 255 
255 255 255 
161 161 161 
86 86 86 
191 191 255 
255 255 255 
255 207 237 
255 255 255 
215 165 255 
255 255 255 
255 164 255 
255 198 255 
193 164 255 
255 215 255 
255 187 255 
255 225 255 
147 92 205 
203 195 214 
190 190 255 
255 233 255 
251 242 255 
75 48 255 
185 179 255 
139 73 255 
255 102 255 
255 246 255 
132 80 255 
150 104 255 
255 137 255 
97 75 255 
193 191 255 
148 116 255 
67 67 255 
233 104 255 
255 255 255 
255 95 255 
195 81 255 
107 107 255 
255 66 239 
82 75 242 
90 90 255 
133 132 255 
206 106 255 
85 79 255 
137 78 253 
59 48 155 
134 92 255 
116 77 255 
234 190 255 
255 206 255 
255 53 172 
84 55 227 
255 158 255 
118 81 255 
165 83 255 
255 255 255 
87 72 255 
113 103 255 
91 63 204 
59 59 255 
255 162 190 
144 45 59 
255 125 255 
255 72 78 
255 63 76 
255 73 73 
255 203 221 
182 56 56 
255 82 213 
255 71 142 
255 82 104 
255 212 255 
255 107 123 
255 98 156 
255 100 100 
255 50 171 
182 56 56 
255 65 65 
255 82 107 
255 69 108 
255 86 151 
255 92 117 
255 73 97 
182 56 56 
255 79 120 
255 46 74 
255 98 101 
255 196 204 
255 83 90 
255 84 101 
255 85 88 
255 145 255 
242 75 112 
255 89 104 
255 110 231 
255 64 83 
255 72 149 
255 76 76 
255 68 68 
255 210 210 
255 124 137 
130 90 109 
255 95 255 
255 157 255 
255 192 192 
255 255 255 
255 181 215 
255 214 255 
255 163 240 
255 141 141 
255 227 255 
109 94 162 
221 176 233 
255 155 255 
255 206 236 
255 203 255 
255 202 202 
255 255 255 
255 255 255 
255 175 255 
255 189 189 
255 255 255 
255 255 255 
244 152 216 
255 200 237 
255 204 255 
255 255 255 
255 156 156 
255 255 255 
255 244 255 
237 216 255 
255 244 244 
255 158 221 
255 255 255 
255 47 97 
255 255 255 
255 255 255 
255 190 192 
255 225 225 
255 255 255 
255 255 255 
255 248 255 
255 198 255 
255 200 255 
176 163 255 
255 164 177 
241 132 132 
255 255 255 
255 255 255 
255 255 255 
255 175 175 
255 255 255 
255 181 255 
255 135 162 
255 255 255 
255 171 228 
255 255 255 
255 255 255 
255 228 255 
208 208 208 
255 224 224 
255 209 255 
202 202 255 
255 255 255 
255 147 254 
255 218 224 
255 255 255 
255 206 255 
255 255 255 
255 255 255 
255 221 255 
255 255 255 
230 230 255 
255 231 255 
255 255 255 
255 206 255 
255 157 157 
255 255 255 
255 255 255 
179 179 179 
221 221 221 
255 235 255 
255 255 255 
255 255 255 
255 194 223 
255 183 255 
255 234 255 
255 255 255 
255 255 255 
255 238 255 
255 255 255 
255 255 255 
255 255 255 
255 189 255 
255 210 255 
193 193 193 
255 255 255 
255 211 246 
255 254 255 
217 184 217 
255 201 255 
255 199 255 
255 255 255 
255 255 255 
255 255 255 
239 194 255 
255 255 255 
208 208 208 
255 255 255 
255 255 255 
255 186 255 
255 177 177 
255 255 255 
207 199 246 
255 255 255 
188 188 255 
142 142 142 
255 255 255 
255 255 255 
255 164 164 
255 251 255 
255 221 255 
214 208 255 
255 255 255 
229 229 255 
255 255 255 
255 244 255 
188 146 255 
255 167 223 
255 226 255 
255 246 255 
214 155 231 
161 161 161 
255 255 255 
255 255 255 
255 229 255 
237 235 255 
255 255 255 
255 178 178 
232 232 255 
255 169 255 
155 126 195 
255 255 255 
255 255 255 
255 255 255 
255 255 255 
255 255 255 
255 255 255 
255 209 209 
0 0 0 
255 255 255 
255 217 255 
255 255 255 
164 155 255 
255 255 255 
255 213 255 
230 158 202 
255 210 255 
117 117 255 
254 134 226 
181 137 242 
255 255 255 
255 255 255 
255 255 255 
222 162 255 
255 254 255 
255 255 255 
255 255 255 
255 255 255 
161 161 255 
162 146 255 
247 247 255 
255 255 255 
255 212 255 
190 190 255 
240 125 255 
255 255 255 
82 78 255 
52 52 167 
255 102 255 
60 40 255 
132 69 223 
99 92 255 
169 97 255 
186 84 255 
255 142 255 
240 209 255 
64 64 255 
119 106 255 
93 67 255 
221 83 255 
255 81 255 
123 89 255 
255 81 255 
94 59 255 
208 87 255 
112 92 255 
150 80 255 
132 88 255 
222 54 226 
80 46 147 
50 50 245 
249 202 255 
151 103 255 
62 61 252 
255 255 255 
91 69 255 
153 76 255 
104 89 255 
255 88 255 
255 255 255 
83 67 255 
67 67 255 
114 68 218 
94 84 255 
141 99 255 
245 76 84 
255 98 122 
255 201 225 
230 71 116 
255 158 255 
255 129 255 
255 152 152 
255 161 177 
255 83 123 
255 255 255 
255 70 96 
255 81 154 
255 66 118 
163 50 109 
255 87 87 
255 87 136 
207 64 64 
255 73 255 
255 105 255 
255 76 243 
255 116 219 
255 140 151 
255 95 255 
242 72 128 
207 64 64 
218 67 67 
255 100 183 
255 88 95 
255 55 86 
255 57 57 
255 68 68 
211 65 99 
255 50 215 
255 80 219 
255 255 255 
255 147 192 
255 56 73 
255 99 255 
255 103 174 
255 255 255 
255 255 255 
255 156 173 
255 255 255 
255 255 255 
255 255 255 
255 255 255 
255 165 236 
255 255 255 
255 157 180 
255 196 255 
255 145 255 
255 255 255 
255 201 255 
255 181 189 
156 15 255 
255 132 132 
255 255 255 
255 255 255 
255 188 188 
208 208 255 
255 128 214 
255 194 199 
162 94 109 
255 255 255 
255 255 255 
255 255 255 
255 255 255 
255 255 255 
255 199 199 
218 193 255 
255 255 255 
255 224 224 
255 255 255 
228 197 197 
255 209 209 
255 255 255 
255 212 255 
255 218 255 
255 233 255 
255 255 255 
255 255 255 
255 160 255 
255 255 255 
235 168 168 
251 153 153 
251 153 153 
255 178 199 
255 202 255 
255 177 177 
243 211 233 
255 255 255 
255 255 255 
161 161 161 
255 204 234 
255 233 255 
255 175 175 
255 197 228 
255 255 255 
255 168 168 
255 255 255 
255 252 255 
255 255 255 
255 206 255 
255 182 255 
255 255 255 
255 231 255 
255 184 217 
255 255 255 
248 248 255 
255 255 255 
255 209 255 
255 255 255 
255 255 255 
255 255 255 
240 203 203 
236 198 255 
174 128 255 
237 207 255 
255 209 209 
255 197 238 
255 255 255 
255 255 255 
255 255 255 
240 240 255 
255 234 255 
255 255 255 
255 255 255 
255 245 245 
255 230 255 
255 198 255 
255 255 255 
255 209 255 
255 219 255 
163 154 255 
255 254 255 
161 161 161 
255 255 255 
255 255 255 
187 132 132 
228 197 197 
255 216 255 
255 255 255 
216 182 182 
255 190 255 
255 237 237 
255 255 255 
255 255 255 
255 171 244 
255 255 255 
255 208 211 
255 255 255 
255 255 255 
243 196 255 
255 255 255 
255 182 182 
255 255 255 
255 193 255 
161 161 161 
255 230 230 
255 234 255 
255 223 255 
255 184 255 
255 255 255 
198 190 255 
255 255 255 
255 234 255 
255 255 255 
255 255 255 
255 205 219 
255 170 255 
157 157 255 
255 229 255 
217 210 255 
255 255 255 
221 221 221 
255 255 255 
215 196 215 
210 210 239 
255 173 255 
255 255 255 
255 255 255 
248 195 255 
255 255 255 
255 255 255 
192 192 255 
160 160 160 
139 129 216 
255 255 255 
241 135 255 
255 117 239 
255 206 255 
222 156 180 
255 246 255 
255 136 136 
255 234 255 
255 154 232 
161 150 255 
205 185 255 
238 184 238 
255 187 255 
255 255 255 
255 255 255 
255 255 255 
255 255 255 
255 93 255 
255 178 255 
161 161 255 
187 179 187 
255 255 255 
234 134 255 
255 161 230 
255 130 255 
255 128 255 
255 166 255 
255 151 255 
255 204 255 
255 253 255 
122 57 185 
255 121 255 
254 194 255 
250 125 255 
101 63 255 
234 93 255 
172 71 255 
59 59 224 
82 77 255 
151 134 255 
255 120 255 
127 74 255 
98 70 226 
204 109 255 
121 72 255 
50 50 255 
156 156 255 
72 64 255 
255 255 255 
178 95 255 
50 50 245 
255 134 255 
105 93 255 
132 128 255 
64 64 255 
94 94 255 
140 57 185 
87 66 214 
255 111 255 
90 59 255 
86 75 255 
215 73 255 
112 90 255 
96 84 255 
164 43 255 
138 69 231 
133 63 255 
61 61 255 
85 74 255 
255 114 197 
208 64 129 
231 52 72 
255 66 70 
255 112 112 
255 74 160 
255 95 95 
255 95 255 
255 85 86 
255 91 110 
255 58 64 
255 39 76 
255 104 160 
255 81 136 
255 106 113 
255 77 205 
255 92 122 
255 76 153 
255 85 130 
255 100 136 
255 120 255 
255 121 220 
175 38 38 
255 104 109 
255 80 174 
255 85 114 
255 105 119 
255 85 95 
255 120 212 
209 65 73 
255 60 71 
255 126 162 
255 90 255 
255 99 141 
255 255 255 
255 75 255 
255 80 80 
255 69 69 
255 206 255 
255 255 255 
255 213 242 
255 234 255 
255 122 167 
201 104 184 
255 255 255 
171 123 123 
93 93 153 
255 236 255 
255 255 255 
255 255 255 
255 165 255 
255 167 253 
255 175 180 
193 193 255 
255 130 140 
255 255 255 
255 181 247 
255 142 255 
255 180 207 
255 255 255 
161 161 161 
255 117 255 
255 165 182 
212 178 255 
255 255 255 
255 255 255 
255 163 255 
255 204 204 
255 132 185 
187 146 146 
255 146 208 
255 167 212 
255 255 255 
255 209 255 
255 164 164 
255 212 255 
255 255 255 
255 255 255 
255 255 255 
255 255 255 
255 251 255 
255 164 255 
240 151 176 
255 147 193 
255 172 172 
255 255 255 
255 246 255 
255 255 255 
255 255 255 
255 255 255 
255 242 255 
248 213 255 
255 255 255 
240 144 255 
255 140 140 
255 255 255 
255 222 255 
255 255 255 
255 255 255 
255 255 255 
255 213 255 
255 226 255 
255 188 255 
255 255 255 
208 208 208 
197 170 255 
255 255 255 
255 213 242 
255 255 255 
255 229 255 
255 255 255 
255 169 255 
255 197 255 
161 161 161 
255 202 233 
222 216 255 
255 222 225 
255 255 255 
255 206 236 
255 224 255 
255 255 255 
255 236 255 
255 235 255 
255 255 255 
202 176 255 
255 255 255 
255 216 255 
255 236 255 
255 237 255 
255 231 255 
255 229 255 
255 255 255 
255 255 255 
205 205 255 
255 255 255 
255 202 255 
255 255 255 
255 220 248 
255 255 255 
255 233 255 
255 248 255 
140 123 183 
255 218 255 
202 147 165 
139 133 255 
255 238 255 
255 255 255 
255 255 255 
161 161 161 
255 255 255 
255 170 214 
249 221 255 
255 218 255 
255 255 255 
182 158 255 
255 255 255 
255 158 255 
255 169 255 
255 255 255 
255 255 255 
237 189 243 
255 255 255 
255 255 255 
255 255 255 
255 255 255 
255 209 255 
255 172 255 
255 219 255 
238 233 255 
255 255 255 
205 205 255 
255 255 255 
255 255 255 
255 255 255 
255 222 255 
255 255 255 
233 203 255 
255 255 255 
204 183 255 
255 255 255 
255 255 255 
255 255 255 
184 137 255 
255 198 255 
252 252 255 
193 157 255 
255 254 255 
255 174 182 
145 145 255 
118 118 118 
206 186 255 
255 226 255 
255 255 255 
255 227 255 
143 124 255 
255 160 255 
255 255 255 
235 160 255 
0 0 0 
255 202 255 
255 211 255 
229 229 255 
255 206 255 
255 210 255 
255 249 255 
255 109 255 
255 255 255 
255 164 201 
255 169 255 
236 137 255 
218 175 210 
255 211 255 
255 255 255 
255 139 255 
255 235 255 
248 248 255 
192 74 239 
66 20 246 
72 57 232 
78 70 255 
255 61 214 
80 41 255 
144 92 255 
97 84 255 
255 255 255 
203 86 255 
198 194 255 
255 96 255 
156 128 255 
255 106 255 
122 105 255 
64 64 207 
71 56 255 
160 91 255 
255 101 255 
189 67 217 
114 67 255 
107 66 255 
84 78 255 
123 94 255 
186 58 255 
153 114 255 
255 70 226 
157 127 255 
105 59 255 
184 101 255 
227 204 255 
68 68 219 
255 82 255 
160 72 255 
86 85 255 
113 71 255 
194 67 216 
77 77 255 
98 55 255 
107 101 255 
255 65 72 
255 67 103 
255 72 91 
255 81 98 
255 95 235 
255 119 218 
255 127 154 
181 56 92 
255 109 128 
255 88 107 
255 76 255 
255 117 195 
226 70 86 
228 71 71 
255 76 152 
255 67 67 
255 46 95 
255 115 117 
255 242 250 
255 255 255 
255 76 94 
255 73 73 
255 95 115 
255 126 219 
255 94 255 
255 177 255 
255 49 82 
255 47 64 
255 169 213 
255 146 255 
255 194 255 
255 65 65 
255 94 240 
255 151 157 
221 69 168 
255 68 90 
255 108 255 
255 74 128 
255 75 108 
255 167 215 
255 171 171 
255 255 255 
255 215 215 
255 247 255 
255 255 255 
255 149 149 
255 205 235 
255 202 210 
255 127 255 
255 255 255 
246 168 233 
255 255 255 
255 255 255 
255 156 255 
255 179 188 
255 161 197 
158 143 183 
255 255 255 
255 199 255 
255 255 255 
202 165 165 
153 93 255 
255 186 186 
255 255 255 
255 237 237 
255 130 130 
255 255 255 
161 161 161 
255 242 255 
255 149 248 
255 255 255 
255 224 255 
255 255 255 
255 255 255 
255 255 255 
255 189 235 
255 191 191 
255 255 255 
255 255 255 
255 182 255 
255 255 255 
255 178 255 
255 129 140 
255 255 255 
255 187 255 
161 161 161 
255 255 255 
255 217 255 
255 255 255 
255 217 222 
255 192 255 
255 255 255 
218 185 218 
255 133 240 
255 209 255 
255 209 209 
255 160 160 
255 255 255 
255 209 226 
251 192 216 
255 161 161 
239 210 210 
255 255 255 
255 255 255 
170 144 170 
255 251 251 
240 132 132 
255 255 255 
255 237 255 
255 204 234 
255 255 255 
255 221 253 
231 191 255 
255 178 241 
255 187 195 
255 255 255 
255 246 246 
255 159 255 
255 170 255 
255 236 236 
218 211 246 
255 224 255 
178 178 178 
255 255 255 
255 212 212 
255 223 255 
255 255 255 
255 255 255 
255 255 255 
255 255 255 
142 142 142 
239 210 210 
255 255 255 
255 204 204 
137 137 255 
255 235 235 
255 255 255 
255 255 255 
255 255 255 
255 237 255 
255 255 255 
255 255 255 
255 255 255 
255 255 255 
255 194 194 
255 255 255 
255 246 255 
172 172 215 
255 255 255 
255 255 255 
255 255 255 
255 255 255 
178 161 255 
255 255 255 
255 255 255 
255 194 255 
255 224 235 
240 200 255 
178 178 255 
255 238 255 
242 207 255 
255 141 255 
179 179 179 
255 190 255 
255 255 255 
255 131 177 
184 184 255 
161 161 161 
237 159 255 
255 235 255 
236 177 255 
255 255 255 
255 255 255 
255 255 255 
255 255 255 
255 217 255 
255 255 255 
255 225 255 
173 169 255 
255 214 255 
255 255 255 
255 255 255 
255 254 255 
255 173 239 
255 255 255 
227 227 255 
255 255 255 
194 123 176 
255 162 255 
255 224 255 
255 255 255 
255 255 255 
255 232 255 
255 223 255 
175 132 255 
255 172 255 
255 136 255 
255 255 255 
255 142 255 
255 255 255 
255 200 255 
150 150 223 
255 235 255 
231 210 255 
255 255 255 
255 210 255 
255 255 255 
255 160 255 
255 234 255 
198 171 255 
255 255 255 
255 226 255 
203 197 234 
255 250 255 
255 162 255 
193 166 255 
255 194 255 
95 42 255 
126 121 255 
82 82 255 
118 88 255 
87 72 255 
128 62 205 
211 187 255 
255 255 255 
204 91 255 
152 108 255 
148 76 255 
122 102 255 
131 92 255 
255 70 255 
234 123 255 
80 46 147 
190 178 255 
50 50 202 
255 125 255 
255 75 255 
55 55 255 
111 87 255 
255 163 255 
255 100 255 
127 89 255 
116 102 255 
85 71 255 
114 100 255 
225 80 255 
173 90 255 
195 75 241 
142 86 255 
255 154 255 
65 55 255 
115 90 255 
115 65 208 
91 84 255 
143 64 255 
86 65 255 
255 73 88 
255 67 101 
230 71 127 
255 103 165 
255 86 147 
255 99 110 
255 110 232 
169 52 67 
224 61 134 
255 63 102 
255 127 255 
128 40 65 
255 74 155 
255 255 255 
255 160 167 
255 45 69 
255 140 192 
255 106 115 
255 107 117 
255 67 71 
255 138 255 
255 74 74 
255 97 172 
255 81 255 
255 167 195 
255 86 117 
255 133 141 
255 255 255 
255 72 174 
255 139 255 
255 75 121 
255 94 94 
255 122 122 
255 62 75 
130 20 65 
255 65 144 
255 58 175 
206 64 64 
255 102 181 
255 201 209 
255 170 255 
255 128 157 
255 233 252 
255 236 245 
255 255 255 
255 125 255 
255 145 222 
255 255 255 
86 86 86 
255 255 255 
187 146 146 
255 186 255 
255 100 255 
255 197 198 
255 255 255 
233 233 233 
255 199 255 
255 255 255 
255 175 175 
255 255 255 
255 213 244 
255 255 255 
205 205 255 
255 197 255 
255 178 255 
161 161 161 
255 209 255 
255 188 255 
255 168 195 
255 255 255 
255 240 255 
255 157 157 
255 209 255 
255 217 255 
255 218 255 
255 164 201 
255 255 255 
255 246 246 
255 255 255 
235 168 168 
255 145 171 
255 188 255 
255 248 248 
255 255 255 
255 229 255 
252 252 255 
255 231 255 
255 175 182 
255 225 255 
188 188 228 
255 212 212 
255 255 255 
255 97 114 
255 194 194 
255 254 255 
255 255 255 
255 255 255 
255 216 252 
255 223 255 
255 222 222 
244 216 255 
255 255 255 
179 179 179 
255 255 255 
223 191 230 
255 229 255 
255 204 255 
255 255 255 
255 175 210 
210 210 255 
255 255 255 
255 255 255 
254 187 255 
255 255 255 
255 255 255 
190 190 255 
179 179 179 
255 218 255 
255 255 255 
255 234 255 
255 255 255 
196 100 100 
255 235 255 
255 202 220 
255 243 255 
215 157 255 
255 255 255 
233 182 219 
194 194 194 
240 211 255 
255 254 255 
255 255 255 
207 207 255 
255 255 255 
252 252 255 
173 165 208 
252 252 255 
237 207 255 
255 255 255 
253 226 255 
255 206 255 
203 195 255 
255 255 255 
255 255 255 
194 194 194 
255 255 255 
255 255 255 
252 176 255 
255 255 255 
255 255 255 
255 255 255 
255 255 255 
255 255 255 
205 157 196 
255 255 255 
255 255 255 
237 202 255 
255 223 255 
255 163 255 
255 183 191 
255 246 255 
255 255 255 
255 198 255 
255 255 255 
255 255 255 
170 169 249 
255 255 255 
195 174 255 
255 255 255 
255 243 255 
255 221 255 
164 162 219 
255 255 255 
154 154 252 
157 157 255 
255 186 255 
255 255 255 
255 224 229 
255 197 255 
255 208 255 
177 177 255 
254 254 255 
253 201 255 
255 255 255 
255 255 255 
255 255 255 
255 255 255 
255 183 255 
255 255 255 
255 242 255 
255 228 255 
238 230 255 
255 174 255 
255 255 255 
255 169 255 
255 255 255 
255 183 255 
244 126 255 
255 255 255 
255 175 255 
197 126 255 
210 164 255 
255 145 154 
255 222 255 
255 255 255 
230 221 255 
152 152 250 
255 190 255 
67 67 255 
215 163 255 
255 129 255 
211 186 255 
130 130 255 
255 255 255 
230 172 255 
142 142 142 
255 177 255 
255 71 255 
255 57 255 
248 191 255 
255 142 255 
162 57 222 
255 142 255 
174 62 255 
255 99 255 
93 80 255 
255 75 240 
73 73 237 
227 138 255 
255 92 255 
255 60 195 
112 69 241 
255 101 255 
190 70 255 
114 84 255 
134 66 255 
255 121 255 
64 63 255 
255 82 255 
255 52 255 
146 104 255 
255 94 255 
255 255 255 
255 150 255 
255 83 255 
128 79 255 
193 109 255 
255 129 255 
100 61 197 
255 255 255 
246 61 195 
157 116 255 
64 64 207 
140 85 255 
243 41 134 
224 82 255 
255 78 79 
255 116 255 
255 121 145 
255 109 143 
255 68 122 
255 188 192 
255 88 231 
255 58 69 
255 119 155 
167 52 52 
255 75 130 
255 68 129 
110 34 34 
255 100 100 
194 59 134 
255 70 105 
255 89 95 
255 115 208 
255 86 96 
255 94 129 
255 89 98 
255 61 61 
255 255 255 
255 137 255 
244 76 130 
255 69 69 
255 81 146 
255 62 74 
255 136 153 
255 62 89 
255 184 255 
255 199 215 
255 110 118 
234 44 203 
255 255 255 
255 86 124 
255 193 195 
255 94 155 
255 83 113 
255 212 212 
255 255 255 
255 192 192 
255 134 134 
255 197 255 
255 205 255 
142 142 142 
255 243 255 
255 255 255 
255 255 255 
255 255 255 
255 153 233 
240 132 132 
255 143 195 
255 255 255 
255 232 232 
255 159 159 
255 145 187 
255 222 228 
255 145 187 
255 255 255 
255 255 255 
255 255 255 
255 255 255 
255 255 255 
255 225 255 
255 255 255 
255 178 217 
255 255 255 
255 145 145 
206 170 255 
255 255 255 
255 179 186 
255 193 255 
255 255 255 
255 190 190 
225 191 255 
255 166 189 
255 255 255 
255 189 196 
255 204 252 
255 255 255 
255 255 255 
255 219 255 
255 255 255 
255 255 255 
201 163 255 
255 231 236 
255 168 241 
255 187 187 
255 193 255 
255 185 255 
255 255 255 
255 223 255 
255 252 255 
255 255 255 
255 255 255 
255 255 255 
253 194 255 
255 169 169 
255 237 255 
255 255 255 
255 255 255 
255 255 255 
255 204 204 
235 168 168 
255 255 255 
255 221 255 
255 216 255 
255 255 255 
255 191 195 
255 255 255 
255 250 255 
255 199 199 
255 255 255 
255 255 255 
255 255 255 
255 185 255 
222 137 137 
255 232 255 
255 178 178 
255 168 255 
255 225 255 
255 204 255 
255 232 255 
202 202 239 
255 228 255 
255 255 255 
255 228 255 
255 183 255 
255 244 255 
255 145 145 
255 169 255 
255 207 255 
255 255 255 
255 255 255 
228 197 197 
255 230 255 
255 255 255 
255 188 255 
255 255 255 
255 255 255 
255 255 255 
255 235 255 
255 218 255 
235 205 242 
255 255 255 
255 239 255 
255 255 255 
223 191 255 
255 255 255 
255 242 242 
255 255 255 
255 245 255 
255 255 255 
255 222 222 
255 205 255 
218 185 218 
255 162 168 
255 255 255 
255 255 255 
235 235 255 
255 254 255 
255 255 255 
255 255 255 
255 245 255 
255 255 255 
255 255 255 
255 189 255 
193 193 255 
227 177 255 
255 232 255 
255 190 255 
255 214 255 
255 255 255 
255 159 255 
255 255 255 
142 142 142 
214 206 255 
255 245 255 
173 123 151 
255 255 255 
255 118 232 
254 222 255 
160 160 255 
122 122 255 
255 222 255 
255 255 255 
219 201 255 
255 255 255 
255 249 255 
255 211 255 
118 118 118 
255 206 255 
255 255 255 
255 255 255 
161 161 161 
255 174 255 
255 190 255 
215 116 255 
255 255 255 
255 195 255 
255 255 255 
255 123 191 
230 230 255 
255 210 255 
255 159 255 
255 199 255 
255 255 255 
255 220 255 
152 129 255 
255 167 255 
255 196 255 
255 255 255 
255 255 255 
186 186 255 
255 255 255 
255 182 255 
148 61 255 
136 119 255 
84 50 234 
140 129 255 
136 77 247 
124 65 209 
91 85 255 
255 174 255 
134 75 255 
97 70 241 
255 109 255 
255 164 255 
139 138 255 
56 56 182 
121 48 242 
52 52 167 
255 147 255 
83 56 255 
104 97 255 
178 69 223 
131 78 251 
25 25 80 
193 193 255 
128 78 255 
255 92 255 
184 165 255 
255 75 255 
255 138 255 
54 54 254 
115 56 181 
193 101 255 
126 85 255 
116 103 255 
147 84 255 
87 80 255 
255 139 255 
255 107 255 
132 79 255 
152 132 255 
255 85 85 
255 157 255 
255 106 132 
255 81 138 
240 65 86 
255 97 97 
255 80 171 
255 64 109 
255 67 137 
255 97 112 
255 183 255 
255 100 154 
222 69 108 
255 156 255 
255 39 49 
255 153 153 
255 228 255 
255 82 82 
249 77 140 
255 99 104 
207 59 86 
255 100 158 
255 97 179 
255 83 255 
255 84 90 
255 87 103 
255 80 86 
255 126 127 
255 57 66 
255 83 103 
255 59 93 
255 63 178 
255 116 120 
255 43 43 
255 57 82 
252 78 153 
255 81 129 
255 225 255 
255 76 136 
255 163 255 
255 144 155 
255 255 255 
255 171 255 
255 255 255 
255 167 255 
255 188 255 
153 153 201 
255 255 255 
220 63 93 
255 201 223 
255 255 255 
255 255 255 
255 167 204 
255 127 127 
255 113 255 
214 208 214 
255 255 255 
171 123 123 
255 152 161 
255 224 255 
255 141 200 
255 173 243 
255 246 255 
255 216 233 
255 255 255 
255 129 242 
223 92 223 
255 246 255 
182 118 182 
255 255 255 
255 243 243 
255 255 255 
255 213 230 
255 255 255 
255 184 255 
255 255 255 
255 246 255 
255 221 221 
255 184 255 
255 151 255 
255 255 255 
255 218 218 
255 255 255 
142 142 142 
255 196 202 
255 188 188 
255 255 255 
255 253 255 
255 255 255 
211 192 255 
244 244 244 
255 213 255 
255 179 232 
255 255 255 
255 203 203 
255 251 251 
255 255 255 
255 255 255 
255 234 255 
255 250 250 
255 232 255 
255 255 255 
255 255 255 
215 215 255 
187 146 146 
228 228 255 
255 255 255 
255 255 255 
192 185 255 
255 179 238 
255 241 255 
255 255 255 
255 152 255 
255 255 255 
255 255 255 
255 255 255 
255 252 252 
255 142 255 
255 205 255 
255 172 172 
255 255 255 
255 245 255 
255 255 255 
255 174 174 
255 171 255 
255 255 255 
255 234 255 
255 196 196 
255 255 255 
255 248 255 
255 255 255 
228 188 188 
255 255 255 
161 161 161 
255 255 255 
255 248 254 
255 255 255 
255 255 255 
255 255 255 
255 230 255 
244 216 255 
255 215 255 
255 255 255 
242 205 235 
240 233 255 
255 160 165 
255 255 255 
255 255 255 
225 186 225 
255 255 255 
204 168 255 
255 255 255 
255 255 255 
255 255 255 
255 255 255 
255 202 209 
175 175 255 
175 175 246 
230 191 223 
255 199 255 
255 255 255 
255 207 207 
255 255 255 
255 255 255 
255 223 255 
255 255 255 
255 255 255 
178 178 255 
255 241 255 
255 255 255 
150 150 223 
255 255 255 
255 255 255 
255 177 255 
255 255 255 
190 190 255 
255 206 255 
226 112 186 
255 255 255 
255 255 255 
247 227 255 
255 255 255 
182 182 255 
255 232 255 
255 245 255 
255 161 169 
123 123 171 
161 161 161 
255 226 242 
238 164 255 
255 255 255 
213 178 255 
255 255 255 
229 214 255 
255 255 255 
255 255 255 
244 107 255 
255 175 255 
41 41 132 
255 255 255 
255 255 255 
255 255 255 
137 137 222 
255 234 255 
85 85 255 
255 255 255 
255 147 255 
255 145 255 
255 219 255 
98 42 255 
169 143 255 
255 198 255 
255 216 255 
255 255 255 
255 185 255 
255 198 255 
255 255 255 
115 59 255 
191 90 255 
176 55 176 
255 222 255 
126 65 220 
255 95 255 
129 121 255 
127 119 255 
54 47 162 
193 82 255 
90 90 255 
117 103 255 
115 61 255 
255 89 255 
224 125 255 
152 93 255 
255 98 255 
79 79 255 
157 68 255 
124 58 186 
255 84 255 
96 80 255 
255 255 255 
85 41 132 
255 76 255 
255 58 201 
213 86 255 
231 62 255 
255 137 255 
255 74 255 
197 66 214 
121 95 255 
109 104 255 
146 100 255 
105 39 255 
64 64 207 
140 122 255 
102 78 255 
143 70 237 
255 96 96 
255 97 198 
255 81 120 
255 155 159 
235 44 44 
181 56 91 
255 138 255 
255 55 158 
218 68 68 
255 130 144 
255 68 77 
255 102 255 
255 80 127 
255 80 103 
255 93 237 
235 71 178 
255 104 106 
209 53 97 
207 64 64 
255 74 86 
255 82 82 
255 89 255 
255 80 158 
255 67 255 
255 187 189 
248 77 255 
255 130 255 
255 100 134 
206 64 64 
255 72 160 
255 68 173 
255 255 255 
255 235 235 
255 119 248 
255 69 89 
255 95 115 
255 80 86 
255 255 255 
255 77 102 
255 131 184 
255 255 255 
255 255 255 
255 163 163 
255 189 241 
255 209 213 
252 99 167 
132 41 41 
255 200 230 
255 172 172 
255 255 255 
255 161 255 
255 201 201 
255 255 255 
255 230 233 
255 183 255 
228 106 106 
255 171 178 
255 255 255 
255 164 252 
255 245 255 
255 157 157 
255 255 255 
255 255 255 
255 111 118 
255 102 206 
171 123 123 
255 118 118 
255 255 255 
255 255 255 
202 165 165 
118 118 118 
255 255 255 
255 255 255 
255 255 255 
210 210 255 
255 255 255 
255 255 255 
255 255 255 
255 255 255 
255 220 220 
230 199 230 
196 161 255 
255 231 255 
255 187 255 
255 255 255 
255 247 255 
255 215 255 
255 205 255 
255 255 255 
157 118 125 
255 243 255 
255 224 255 
255 201 255 
234 198 204 
255 206 255 
255 188 188 
201 195 201 
255 228 233 
255 255 255 
255 200 255 
255 197 221 
255 255 255 
255 214 255 
255 255 255 
255 255 255 
255 255 255 
255 185 255 
255 255 255 
255 200 255 
255 255 255 
123 123 171 
255 198 255 
255 255 255 
221 221 221 
255 195 234 
255 252 255 
255 226 226 
255 204 204 
255 211 255 
255 255 255 
220 220 220 
255 255 255 
244 152 255 
255 255 255 
255 252 255 
255 255 255 
255 255 255 
255 255 255 
255 255 255 
255 255 255 
255 255 255 
255 255 255 
255 255 255 
255 225 225 
255 255 255 
255 255 255 
255 255 255 
255 233 255 
255 255 255 
255 241 241 
255 250 255 
255 255 255 
255 255 255 
255 255 255 
210 210 239 
255 168 255 
255 255 255 
255 255 255 
255 255 255 
215 181 181 
249 221 255 
255 255 255 
255 203 255 
255 255 255 
255 255 255 
255 235 255 
255 255 255 
255 255 255 
255 188 255 
255 255 255 
255 250 250 
238 238 255 
255 255 255 
255 255 255 
255 220 255 
255 255 255 
255 159 197 
255 255 255 
193 156 255 
255 255 255 
185 180 249 
209 154 163 
174 174 255 
255 255 255 
169 82 255 
255 253 255 
255 191 255 
207 171 255 
136 136 255 
255 229 255 
255 193 255 
255 255 255 
245 245 255 
163 161 255 
255 255 255 
255 255 255 
255 255 255 
112 94 255 
255 207 255 
255 147 255 
93 93 153 
255 255 255 
255 220 255 
255 220 255 
93 93 153 
255 230 255 
221 171 255 
211 211 255 
227 201 255 
255 209 254 
255 255 255 
255 255 255 
255 184 255 
156 147 195 
251 150 255 
198 88 255 
255 255 255 
191 119 255 
191 182 255 
197 166 208 
255 255 255 
233 195 255 
165 165 202 
255 176 255 
255 206 255 
224 224 255 
255 255 255 
211 67 255 
105 69 223 
85 44 234 
255 255 255 
64 59 255 
140 77 255 
255 141 255 
187 145 255 
156 122 255 
255 57 255 
238 123 255 
100 100 255 
255 104 255 
141 79 255 
119 67 255 
143 77 255 
121 108 255 
77 61 255 
107 79 255 
105 76 246 
209 95 255 
118 118 255 
136 92 255 
255 255 255 
146 109 255 
145 66 255 
82 75 241 
170 131 255 
121 93 255 
86 55 178 
101 101 255 
128 116 255 
130 101 255 
255 89 255 
92 92 255 
110 78 255 
139 75 255 
132 88 255 
76 74 244 
255 59 117 
255 128 170 
203 61 215 
255 96 255 
255 135 255 
194 60 60 
255 86 141 
255 80 150 
255 109 255 
202 63 73 
229 71 71 
198 61 70 
255 118 255 
255 78 108 
255 77 244 
255 102 187 
255 71 102 
255 67 117 
255 110 121 
255 103 131 
255 165 255 
255 91 255 
255 50 134 
181 56 56 
255 117 254 
255 64 96 
255 63 170 
151 47 47 
255 87 175 
255 92 92 
255 114 148 
255 122 122 
255 88 93 
255 116 116 
255 60 117 
255 40 77 
255 61 88 
255 79 211 
255 82 104 
255 254 255 
255 189 197 
255 193 198 
255 119 128 
255 255 255 
255 255 255 
255 144 207 
245 90 90 
255 143 255 
255 184 192 
255 255 255 
255 255 255 
255 181 181 
255 244 255 
171 123 123 
255 174 202 
255 109 205 
255 87 94 
255 255 255 
255 194 255 
255 255 255 
255 122 122 
255 226 255 
255 175 255 
255 244 255 
255 255 255 
187 146 146 
255 193 219 
255 255 255 
255 126 126 
255 255 255 
255 255 255 
255 181 181 
255 255 255 
255 255 255 
255 255 255 
255 219 235 
255 255 255 
255 246 255 
255 141 184 
255 205 255 
86 86 86 
255 255 255 
255 255 255 
255 255 255 
255 179 255 
209 140 216 
255 237 255 
255 241 241 
255 181 255 
235 235 255 
255 218 218 
255 207 207 
255 255 255 
233 233 233 
255 175 255 
255 166 180 
255 255 255 
255 198 238 
255 238 255 
255 235 255 
255 255 255 
255 255 255 
255 251 255 
221 160 255 
177 172 255 
182 182 216 
255 255 255 
255 223 255 
255 255 255 
255 255 255 
255 215 215 
255 236 236 
255 255 255 
255 204 255 
255 255 255 
255 254 255 
255 161 161 
195 188 255 
255 255 255 
255 228 255 
255 255 255 
255 194 255 
237 237 255 
255 231 231 
255 255 255 
255 255 255 
255 250 255 
255 255 255 
255 196 255 
204 196 215 
193 193 193 
255 241 255 
255 255 255 
211 191 255 
205 203 255 
255 255 255 
255 255 255 
210 210 239 
255 163 255 
213 168 255 
255 255 255 
255 234 255 
255 209 255 
255 175 255 
255 255 255 
255 247 255 
242 205 255 
255 229 255 
255 254 254 
255 232 250 
255 255 255 
255 255 255 
255 227 255 
255 144 240 
233 194 253 
255 255 255 
255 255 255 
234 195 255 
255 255 255 
255 255 255 
255 234 255 
255 255 255 
161 161 161 
236 236 255 
255 149 255 
255 248 255 
255 191 191 
255 255 255 
234 145 145 
255 215 244 
255 255 255 
255 255 255 
255 231 255 
255 237 249 
255 87 103 
255 240 255 
255 140 183 
255 255 255 
216 216 251 
190 190 255 
255 206 255 
255 199 230 
255 255 255 
255 255 255 
255 213 255 
255 254 255 
255 222 255 
255 255 255 
255 130 197 
255 233 255 
86 86 86 
199 161 255 
115 97 180 
255 255 255 
255 109 246 
255 255 255 
255 209 255 
194 194 255 
255 156 255 
193 184 234 
252 163 255 
255 166 223 
149 149 255 
255 255 255 
255 177 255 
255 255 255 
154 116 255 
255 210 255 
255 152 255 
255 178 255 
150 150 223 
255 167 255 
100 100 196 
142 142 142 
41 41 132 
73 44 143 
255 211 255 
115 85 255 
169 66 255 
255 156 255 
122 97 255 
255 95 255 
225 64 221 
255 106 255 
245 105 255 
52 40 227 
109 60 201 
207 59 255 
134 118 255 
68 68 255 
194 64 255 
60 60 194 
78 42 252 
255 129 255 
95 77 255 
118 84 255 
100 84 255 
128 71 255 
130 94 255 
131 66 255 
255 237 255 
129 63 208 
137 122 255 
70 68 224 
25 25 80 
86 65 255 
255 107 255 
85 79 255 
91 70 230 
255 94 255 
255 43 255 
113 102 255 
120 72 255 
73 44 144 
255 255 255 
74 74 255 
214 66 76 
255 133 133 
255 80 109 
255 72 219 
255 106 255 
255 91 93 
255 234 255 
255 76 101 
255 99 205 
255 87 113 
255 80 104 
255 101 114 
138 42 110 
255 111 199 
255 149 255 
255 40 255 
255 191 200 
255 132 132 
255 96 244 
255 172 181 
255 97 103 
255 102 119 
167 52 52 
255 61 61 
245 50 186 
248 67 129 
255 103 135 
255 122 255 
255 94 99 
255 125 127 
255 81 103 
255 115 124 
255 88 233 
255 67 129 
215 67 92 
255 104 255 
255 63 79 
255 78 96 
255 84 139 
255 143 143 
240 132 132 
255 255 255 
226 167 194 
255 255 255 
255 255 255 
255 255 255 
255 149 158 
255 115 115 
255 90 90 
255 98 98 
255 255 255 
255 255 255 
255 178 194 
255 225 255 
255 140 147 
255 255 255 
255 152 185 
255 234 255 
255 255 255 
255 255 255 
255 242 243 
255 255 255 
255 255 255 
255 254 254 
255 230 255 
255 210 255 
255 139 186 
255 225 255 
255 220 255 
255 255 255 
248 145 196 
255 225 255 
255 198 198 
255 174 174 
255 108 195 
255 255 255 
255 202 221 
235 235 255 
255 206 255 
255 171 255 
255 219 255 
255 255 255 
255 255 255 
255 249 249 
255 255 255 
255 255 255 
255 159 255 
255 249 255 
255 183 187 
255 240 255 
183 126 156 
255 249 255 
239 210 210 
255 177 200 
255 155 198 
255 107 255 
255 172 249 
255 239 255 
255 255 255 
255 255 255 
193 193 193 
255 255 255 
255 255 255 
255 233 255 
202 165 165 
157 157 255 
255 255 255 
255 214 255 
255 255 255 
255 212 255 
255 255 255 
255 255 255 
255 175 175 
205 168 205 
255 215 244 
255 229 245 
255 255 255 
255 180 255 
255 255 255 
255 236 255 
255 212 253 
255 255 255 
255 252 255 
255 214 255 
255 255 255 
255 255 255 
193 193 193 
231 200 231 
255 255 255 
255 255 255 
255 255 255 
255 255 255 
255 164 187 
255 255 255 
255 206 242 
255 255 255 
255 222 255 
255 255 255 
255 240 240 
255 191 255 
255 255 255 
255 255 255 
239 222 229 
255 255 255 
255 255 255 
93 93 153 
255 191 255 
255 255 255 
193 193 193 
255 189 196 
249 215 255 
255 175 255 
255 174 255 
255 193 255 
255 255 255 
236 160 255 
255 238 255 
255 255 255 
255 121 214 
255 218 255 
255 253 255 
255 188 231 
255 255 255 
253 209 255 
211 211 240 
255 255 255 
255 255 255 
146 146 187 
255 255 255 
255 255 255 
247 247 255 
255 252 255 
150 150 223 
255 215 255 
255 226 255 
242 203 255 
255 255 255 
255 254 255 
255 252 255 
187 179 187 
255 255 255 
255 158 255 
255 225 255 
255 255 255 
140 117 255 
240 203 203 
255 255 255 
255 255 255 
255 232 255 
255 238 255 
255 193 255 
255 255 255 
168 168 235 
255 255 255 
90 90 245 
255 255 255 
255 203 255 
255 250 255 
255 244 255 
180 172 255 
255 255 255 
255 255 255 
171 171 255 
255 255 255 
255 174 255 
255 255 255 
255 196 255 
114 88 255 
255 136 255 
255 127 255 
255 204 255 
255 255 255 
197 149 255 
255 255 255 
139 137 255 
255 233 255 
255 255 255 
255 133 255 
126 59 255 
92 74 255 
192 190 255 
62 57 201 
88 79 255 
148 108 255 
211 90 255 
221 75 255 
182 155 255 
114 63 203 
121 87 255 
157 60 255 
170 83 255 
255 105 255 
89 69 222 
207 95 255 
255 136 255 
79 60 255 
255 76 255 
113 82 255 
133 85 255 
255 110 255 
69 53 255 
125 98 255 
71 55 178 
108 82 255 
167 85 255 
110 92 255 
255 124 255 
154 72 231 
149 74 255 
101 76 255 
140 91 255 
63 61 213 
90 71 242 
255 120 255 
98 49 197 
96 90 255 
255 61 195 
255 60 68 
255 54 54 
140 41 111 
255 83 91 
255 130 143 
255 89 222 
255 62 95 
255 90 116 
255 193 210 
253 45 45 
255 94 254 
255 99 192 
183 57 88 
246 76 121 
255 70 88 
253 45 45 
255 45 130 
210 62 115 
255 82 95 
255 89 89 
255 63 68 
239 74 74 
255 154 255 
255 79 131 
255 63 63 
235 43 82 
255 92 98 
167 52 52 
255 131 161 
255 59 68 
255 128 231 
255 110 207 
231 53 97 
255 105 105 
255 75 140 
255 81 87 
255 93 255 
255 74 74 
255 192 192 
255 219 225 
255 255 255 
255 255 255 
255 255 255 
255 145 246 
255 160 255 
255 255 255 
255 233 238 
255 255 255 
255 245 255 
183 159 255 
255 165 165 
255 189 255 
255 183 255 
255 232 255 
255 50 50 
255 255 255 
255 212 255 
255 115 255 
255 255 255 
255 255 255 
215 209 255 
255 255 255 
255 245 255 
255 185 205 
255 212 239 
255 233 255 
255 255 255 
239 210 210 
255 201 255 
255 255 255 
255 255 255 
255 185 185 
187 146 146 
255 179 255 
255 217 255 
255 228 255 
255 255 255 
255 255 255 
230 161 207 
255 194 255 
255 212 220 
255 255 255 
255 255 255 
167 117 255 
255 255 255 
255 232 255 
255 255 255 
255 179 179 
255 221 255 
255 255 255 
255 255 255 
255 236 236 
255 255 255 
233 192 255 
255 255 255 
255 239 255 
255 255 255 
255 255 255 
255 255 255 
255 255 255 
255 196 196 
255 255 255 
205 178 255 
255 255 255 
255 255 255 
255 182 255 
255 255 255 
255 255 255 
255 255 255 
255 255 255 
255 187 220 
255 182 255 
255 252 255 
255 242 255 
255 219 219 
255 255 255 
255 235 255 
255 225 255 
255 220 254 
225 221 230 
255 255 255 
255 255 255 
255 255 255 
208 208 255 
182 135 255 
253 178 227 
255 255 255 
255 199 199 
255 160 198 
255 224 224 
112 112 209 
255 194 195 
255 193 225 
255 196 219 
255 255 255 
255 255 255 
255 248 255 
255 255 255 
255 229 229 
255 255 255 
255 255 255 
255 255 255 
255 255 255 
142 142 142 
255 255 255 
255 255 255 
255 164 164 
202 202 255 
179 179 179 
255 124 255 
255 174 174 
255 255 255 
255 255 255 
255 240 255 
255 255 255 
255 255 255 
255 255 255 
255 254 255 
255 196 255 
255 255 255 
255 219 255 
255 255 255 
194 194 194 
255 255 255 
255 182 255 
255 255 255 
255 255 255 
255 185 255 
255 255 255 
255 199 199 
243 227 255 
255 255 255 
255 255 255 
165 165 202 
238 184 238 
246 138 255 
255 255 255 
255 255 255 
255 218 255 
255 233 255 
248 242 255 
255 160 255 
255 172 255 
150 150 223 
255 219 255 
255 255 255 
255 138 255 
134 132 255 
255 255 255 
237 139 255 
255 255 255 
255 254 255 
216 179 255 
201 152 255 
255 255 255 
255 171 255 
190 153 250 
240 150 195 
255 247 248 
255 195 255 
255 194 226 
255 189 255 
255 159 255 
255 203 255 
255 173 255 
255 255 255 
255 162 255 
255 202 255 
244 142 255 
255 217 255 
190 110 250 
255 232 255 
255 152 255 
255 153 247 
255 255 255 
145 145 255 
255 84 255 
255 87 255 
132 60 255 
183 78 255 
197 166 255 
64 64 206 
255 50 203 
106 86 255 
97 97 255 
255 57 184 
103 98 255 
206 107 255 
100 95 255 
255 190 255 
145 80 255 
150 119 255 
198 91 255 
255 83 255 
114 83 255 
255 114 255 
187 86 255 
255 35 219 
59 59 255 
77 68 255 
137 69 255 
87 57 255 
255 111 255 
77 64 255 
68 68 218 
63 50 161 
93 60 194 
108 82 255 
76 50 161 
76 66 214 
255 151 255 
99 63 205 
63 53 170 
255 75 255 
142 80 255 
255 74 88 
255 102 175 
255 24 42 
192 60 78 
229 70 106 
255 81 91 
255 88 104 
255 101 200 
255 103 116 
216 67 83 
255 118 131 
133 41 41 
255 158 255 
255 57 60 
255 73 75 
255 88 88 
203 63 114 
255 193 255 
255 114 120 
211 43 89 
255 122 255 
255 147 235 
255 96 127 
255 85 85 
181 56 56 
255 53 151 
255 149 152 
255 207 250 
255 98 200 
255 97 113 
255 64 91 
255 62 228 
255 109 117 
255 117 147 
234 73 81 
255 86 88 
255 75 80 
255 79 129 
255 67 116 
255 119 119 
255 202 202 
255 205 248 
255 166 225 
255 180 255 
255 109 189 
255 115 133 
255 140 140 
255 219 255 
255 255 255 
255 185 255 
255 220 255 
198 160 255 
255 122 228 
255 130 238 
162 50 81 
255 110 163 
255 200 255 
255 192 255 
255 255 255 
255 238 238 
255 241 255 
244 244 244 
255 215 215 
255 163 209 
255 228 255 
232 201 255 
255 255 255 
255 221 255 
161 161 161 
255 235 235 
255 164 255 
255 255 255 
255 204 247 
246 185 185 
255 236 255 
255 252 255 
255 255 255 
255 194 194 
255 255 255 
255 211 255 
255 227 255 
142 142 142 
255 255 255 
255 191 255 
253 146 252 
255 255 255 
255 216 255 
255 233 255 
255 234 255 
255 255 255 
255 226 255 
255 193 193 
255 255 255 
255 255 255 
255 255 255 
255 209 255 
255 255 255 
255 255 255 
255 180 255 
255 255 255 
255 179 219 
255 255 255 
255 255 255 
255 255 255 
255 154 242 
255 255 255 
255 215 255 
255 235 255 
255 255 255 
242 242 255 
255 255 255 
255 184 184 
255 219 255 
255 255 255 
255 255 255 
255 246 255 
253 226 253 
255 255 255 
255 241 241 
255 255 255 
255 213 213 
255 255 255 
255 255 255 
226 166 175 
255 232 255 
255 255 255 
255 239 255 
255 217 234 
255 227 255 
255 255 255 
255 255 255 
255 255 255 
255 188 255 
255 224 255 
255 255 255 
213 178 248 
255 218 255 
255 255 255 
161 161 161 
255 255 255 
255 184 255 
255 255 255 
255 255 255 
255 255 255 
255 205 220 
201 127 247 
255 255 255 
111 111 255 
255 190 255 
234 217 255 
255 188 188 
255 255 255 
255 220 255 
201 180 255 
255 255 255 
208 208 208 
255 177 255 
255 255 255 
226 194 255 
255 225 225 
162 135 255 
255 255 255 
255 199 255 
255 255 255 
237 199 255 
255 255 255 
255 234 255 
255 255 255 
255 255 255 
255 181 255 
255 255 255 
240 240 255 
255 255 255 
242 187 242 
255 238 255 
255 242 255 
255 195 255 
244 177 255 
187 187 255 
205 136 172 
255 248 255 
203 203 255 
167 167 255 
255 225 255 
241 178 255 
255 255 255 
255 255 255 
255 255 255 
123 123 171 
255 164 229 
167 117 255 
251 202 255 
255 164 255 
187 145 255 
229 177 255 
255 226 255 
255 255 255 
213 163 255 
255 189 255 
255 255 255 
255 167 255 
106 106 229 
255 189 255 
50 50 255 
148 148 255 
255 255 255 
255 255 255 
218 146 165 
255 255 255 
146 146 187 
255 255 255 
255 227 255 
255 194 255 
122 122 255 
255 192 255 
175 175 255 
255 149 255 
113 81 255 
106 85 255 
255 143 255 
255 114 255 
62 43 199 
69 53 195 
44 27 87 
168 141 255 
255 255 255 
111 77 255 
118 95 255 
255 61 214 
255 195 255 
131 120 255 
255 116 255 
113 56 255 
128 69 255 
70 56 255 
80 65 255 
172 149 255 
154 98 255 
52 52 167 
141 58 213 
106 53 255 
90 59 255 
78 53 255 
255 160 255 
121 76 246 
255 53 170 
255 72 254 
133 55 181 
255 94 255 
125 82 255 
56 56 182 
221 221 255 
136 88 255 
86 53 170 
98 89 255 
196 86 255 
255 65 86 
255 46 109 
255 62 66 
255 58 84 
255 131 255 
184 57 66 
219 68 68 
255 60 63 
255 119 231 
255 105 234 
255 82 255 
255 161 255 
255 234 255 
255 88 94 
255 63 63 
255 77 140 
255 79 124 
170 53 96 
255 49 96 
255 110 255 
255 255 255 
255 85 102 
255 73 212 
255 90 150 
255 79 79 
255 83 226 
255 84 222 
248 77 84 
255 110 172 
255 88 120 
255 93 255 
255 255 255 
255 110 111 
255 138 255 
255 120 152 
255 184 217 
255 87 113 
255 70 70 
255 94 99 
255 244 244 
255 255 255 
255 197 255 
255 172 225 
255 120 255 
255 252 252 
255 255 255 
255 221 221 
255 219 255 
255 156 255 
255 198 201 
223 170 255 
255 255 255 
255 202 255 
255 201 224 
255 160 255 
255 229 255 
255 213 253 
255 255 255 
255 255 255 
240 132 132 
255 174 255 
214 195 214 
255 218 252 
255 178 255 
255 255 255 
255 193 195 
255 174 255 
142 142 142 
255 181 255 
255 255 255 
255 208 255 
255 111 195 
255 255 255 
255 255 255 
255 255 255 
255 137 147 
255 183 208 
255 249 255 
178 178 178 
194 194 194 
255 137 232 
181 137 190 
255 200 229 
255 255 255 
255 226 255 
255 129 217 
255 191 255 
255 255 255 
255 115 165 
255 255 255 
221 221 221 
255 230 255 
255 253 255 
255 255 255 
255 193 217 
255 232 255 
255 245 255 
223 191 230 
255 255 255 
255 205 255 
255 172 172 
255 255 255 
255 255 255 
204 167 255 
255 182 189 
221 214 255 
188 188 255 
255 255 255 
255 157 173 
255 252 255 
255 255 255 
142 142 142 
255 207 237 
255 156 250 
255 227 227 
255 141 255 
255 255 255 
255 152 255 
255 177 255 
255 255 255 
221 221 221 
255 202 202 
255 255 255 
241 206 255 
250 181 255 
255 206 255 
255 255 255 
255 255 255 
255 255 255 
255 255 255 
255 238 255 
255 255 255 
255 255 255 
255 255 255 
216 216 255 
255 255 255 
255 250 255 
235 197 255 
255 255 255 
250 250 255 
255 238 255 
255 255 255 
246 246 255 
193 193 255 
255 255 255 
255 255 255 
144 144 255 
255 255 255 
255 249 255 
255 243 243 
255 255 255 
255 255 255 
255 190 255 
255 255 255 
255 237 255 
197 197 228 
255 255 255 
255 255 255 
255 178 178 
255 181 255 
255 247 255 
255 255 255 
198 198 255 
255 205 235 
255 255 255 
179 149 214 
255 255 255 
255 166 226 
125 116 255 
222 190 255 
255 217 255 
255 255 255 
255 149 234 
255 201 255 
255 255 255 
255 191 255 
255 255 255 
255 255 255 
185 146 202 
239 239 255 
255 254 255 
197 197 255 
177 116 255 
255 221 255 
255 255 255 
255 223 255 
255 255 255 
255 229 233 
220 187 255 
189 135 255 
179 179 179 
236 159 255 
255 255 255 
255 210 255 
255 215 255 
255 184 184 
255 255 255 
255 200 255 
255 255 255 
142 129 255 
255 255 255 
255 197 255 
255 144 255 
162 155 255 
255 209 241 
215 147 197 
253 250 255 
255 190 190 
111 111 255 
145 145 187 
255 207 255 
218 199 255 
255 116 255 
219 211 255 
255 157 255 
255 255 255 
118 118 118 
170 79 255 
255 79 254 
103 100 255 
255 130 255 
191 103 255 
176 62 200 
157 15 95 
179 114 255 
128 91 255 
188 80 255 
244 99 255 
89 63 204 
168 79 255 
255 53 255 
225 90 255 
187 117 255 
101 77 255 
79 79 255 
99 78 255 
255 255 255 
106 71 230 
128 87 255 
63 63 255 
125 66 212 
255 85 255 
132 53 184 
132 79 255 
255 81 255 
189 64 207 
255 112 255 
132 66 255 
86 64 244 
248 61 198 
127 122 255 
106 58 190 
168 60 255 
56 56 181 
111 69 255 
82 49 199 
255 90 110 
255 134 141 
255 73 75 
255 90 90 
223 69 255 
255 106 203 
255 133 255 
255 124 153 
255 85 109 
213 66 87 
255 67 67 
255 133 133 
212 60 82 
255 113 113 
142 41 191 
255 69 105 
255 66 244 
255 88 147 
255 86 123 
255 94 255 
255 101 255 
255 93 109 
255 146 255 
255 95 198 
255 96 133 
255 85 122 
255 100 100 
255 255 255 
255 77 154 
255 63 140 
255 59 255 
255 64 90 
255 86 86 
255 73 76 
255 153 255 
250 52 78 
150 46 46 
255 88 119 
255 51 57 
255 255 255 
255 152 251 
255 236 255 
255 169 198 
255 255 255 
141 141 255 
255 164 250 
255 148 242 
255 175 175 
255 229 255 
255 155 178 
255 255 255 
255 245 245 
239 210 210 
255 184 255 
255 175 210 
214 195 203 
255 97 155 
255 255 255 
255 222 222 
255 131 188 
255 211 255 
255 151 151 
255 174 174 
255 225 225 
202 165 165 
255 255 255 
255 255 255 
255 158 163 
255 205 227 
255 193 255 
210 128 128 
255 207 237 
255 255 255 
255 193 193 
255 214 214 
255 255 255 
255 255 255 
255 173 222 
255 255 255 
255 255 255 
255 112 112 
255 147 255 
216 216 251 
255 172 219 
255 149 210 
255 237 255 
255 148 212 
255 161 161 
255 255 255 
238 164 255 
255 255 255 
255 168 255 
255 255 255 
255 112 236 
255 177 178 
255 255 255 
255 255 255 
255 255 255 
255 132 255 
255 242 255 
255 246 255 
194 194 194 
178 178 255 
255 255 255 
255 221 255 
255 255 255 
255 204 255 
255 151 215 
255 255 255 
255 255 255 
255 255 255 
251 170 192 
223 181 255 
255 202 255 
255 168 255 
255 255 255 
255 255 255 
255 233 255 
255 255 255 
255 255 255 
255 248 255 
255 202 255 
132 132 187 
255 253 255 
255 255 255 
255 255 255 
255 249 255 
255 240 240 
255 191 255 
255 191 191 
255 235 255 
255 204 255 
199 199 255 
255 255 255 
255 255 255 
255 126 200 
211 119 139 
255 255 255 
255 255 255 
194 194 194 
255 144 186 
255 255 255 
255 255 255 
255 188 188 
255 248 255 
255 212 255 
255 255 255 
255 225 255 
255 255 255 
255 241 255 
218 198 255 
255 255 255 
255 244 255 
255 255 255 
255 252 255 
255 253 255 
255 255 255 
255 194 255 
255 171 255 
231 200 231 
255 199 255 
255 255 255 
255 255 255 
255 255 255 
255 185 244 
199 199 255 
255 232 255 
255 255 255 
255 255 255 
255 156 180 
255 243 255 
255 182 255 
255 189 255 
255 235 235 
183 139 255 
255 255 255 
201 161 255 
255 209 255 
216 183 255 
142 142 142 
230 192 255 
255 255 255 
177 97 195 
148 146 255 
255 170 255 
255 255 255 
255 255 255 
255 254 255 
255 192 255 
249 233 255 
228 211 255 
255 181 255 
255 196 255 
255 135 255 
255 255 255 
235 185 255 
191 180 248 
255 255 255 
255 150 205 
255 191 251 
255 225 241 
123 123 171 
255 217 255 
255 170 230 
255 217 255 
173 148 209 
255 199 255 
255 130 255 
255 255 255 
255 255 255 
223 107 255 
236 197 255 
153 67 67 
239 183 255 
166 158 255 
245 191 255 
255 239 255 
197 57 255 
255 81 255 
56 36 145 
244 145 255 
255 255 255 
103 82 255 
255 59 255 
86 82 255 
70 70 226 
255 163 255 
255 87 255 
86 70 226 
106 70 255 
93 93 255 
96 86 255 
96 83 255 
66 30 99 
193 148 255 
133 115 255 
115 78 255 
74 67 246 
115 96 255 
174 73 255 
93 78 255 
149 85 255 
183 131 255 
142 90 255 
143 87 255 
102 49 180 
115 94 255 
125 79 255 
231 125 255 
255 255 255 
112 85 255 
255 105 255 
255 96 255 
234 82 255 
86 71 237 
255 110 255 
255 89 101 
245 72 88 
255 94 145 
255 93 150 
255 83 89 
255 98 191 
255 82 186 
255 61 70 
255 128 255 
137 42 54 
255 108 175 
255 84 176 
255 130 255 
255 96 104 
255 170 181 
255 74 82 
255 107 219 
255 55 68 
255 46 87 
255 161 166 
255 75 84 
255 105 131 
238 74 74 
199 61 81 
255 145 171 
255 62 154 
255 118 194 
217 67 97 
255 112 118 
255 71 71 
185 57 113 
255 87 183 
255 88 93 
255 64 255 
255 97 174 
213 30 30 
255 97 97 
255 116 148 
255 109 148 
255 180 255 
255 184 188 
255 157 157 
255 146 151 
255 239 255 
255 207 255 
255 212 212 
255 231 255 
255 187 195 
255 206 255 
255 224 255 
255 232 255 
255 218 218 
255 123 137 
255 255 255 
246 184 184 
255 250 255 
255 112 202 
255 255 255 
255 199 246 
255 123 167 
228 196 196 
255 179 245 
255 139 248 
255 224 231 
252 154 154 
255 159 159 
255 255 255 
255 148 255 
255 255 255 
255 144 216 
255 113 177 
255 227 255 
255 200 255 
255 255 255 
255 197 236 
255 184 220 
255 249 255 
255 157 157 
255 238 255 
242 178 255 
197 197 228 
255 255 255 
255 160 178 
155 155 255 
180 173 222 
255 246 255 
255 217 217 
255 221 226 
241 123 188 
255 225 225 
255 255 255 
255 248 255 
255 255 255 
255 255 255 
255 255 255 
240 240 255 
180 180 255 
255 255 255 
255 255 255 
255 255 255 
247 186 255 
255 224 230 
255 255 255 
255 255 255 
255 255 255 
255 251 255 
202 165 165 
255 255 255 
255 255 255 
255 255 255 
255 246 255 
255 255 255 
255 254 255 
255 229 255 
255 126 237 
142 142 142 
255 247 255 
255 169 255 
255 251 255 
255 167 167 
255 249 255 
255 255 255 
255 230 255 
255 255 255 
230 230 255 
255 255 255 
161 161 161 
255 222 243 
255 255 255 
255 255 255 
228 196 196 
255 240 255 
255 255 255 
255 248 255 
255 240 255 
255 255 255 
255 255 255 
239 239 255 
188 188 255 
184 179 255 
255 255 255 
255 255 255 
255 232 255 
227 168 195 
255 142 205 
208 208 208 
255 255 255 
255 178 225 
187 132 132 
255 181 255 
255 164 255 
194 194 194 
255 217 255 
255 255 255 
175 175 255 
255 255 255 
255 255 255 
255 255 255 
255 255 255 
255 196 255 
255 255 255 
246 246 255 
255 255 255 
255 255 255 
155 146 255 
255 194 255 
174 166 209 
255 217 255 
255 243 255 
206 159 255 
255 255 255 
255 151 250 
255 245 255 
255 178 255 
255 255 255 
224 183 255 
255 255 255 
255 199 233 
255 235 255 
255 172 255 
203 203 255 
255 255 255 
255 255 255 
232 120 255 
200 142 149 
255 235 255 
161 161 161 
255 255 255 
175 139 255 
255 167 255 
196 189 255 
255 247 255 
255 255 255 
255 255 255 
254 250 255 
255 255 255 
208 163 255 
255 208 255 
255 150 255 
199 150 255 
255 188 255 
255 150 223 
255 185 255 
255 255 255 
255 255 255 
144 76 218 
255 149 212 
255 188 255 
142 142 255 
255 225 252 
255 255 255 
255 255 255 
180 180 255 
231 169 255 
246 208 255 
251 226 255 
182 182 216 
54 39 255 
95 78 255 
104 76 255 
255 33 181 
137 59 255 
255 198 255 
240 116 255 
255 90 255 
99 88 255 
255 67 255 
54 54 254 
79 79 255 
72 62 255 
100 67 255 
76 66 213 
147 110 255 
73 73 237 
134 106 255 
113 61 214 
229 75 255 
127 67 255 
109 84 255 
186 75 255 
255 86 255 
99 63 205 
208 73 255 
58 56 188 
91 91 255 
130 130 255 
187 56 182 
101 95 255 
198 104 255 
152 59 255 
100 77 247 
93 87 255 
103 82 255 
255 103 255 
86 55 179 
56 56 181 
255 100 102 
255 105 123 
255 84 90 
255 93 93 
198 54 82 
255 77 99 
191 59 112 
255 77 107 
255 90 90 
255 187 191 
189 59 82 
255 86 86 
255 124 197 
255 155 255 
255 48 91 
255 195 200 
255 69 129 
231 63 255 
255 60 107 
255 92 107 
255 77 255 
255 83 83 
255 86 102 
255 69 126 
255 194 245 
255 69 255 
255 86 97 
221 69 108 
255 73 77 
255 106 203 
255 170 255 
255 119 255 
255 99 109 
255 83 83 
255 130 255 
255 63 64 
216 64 104 
255 147 148 
255 66 66 
255 255 255 
255 232 255 
229 147 198 
255 124 250 
255 255 255 
228 158 255 
255 215 255 
255 161 199 
255 131 211 
255 255 255 
255 246 255 
255 255 255 
255 255 255 
255 255 255 
255 255 255 
255 181 181 
255 193 255 
223 150 150 
255 255 255 
255 172 172 
255 255 255 
222 167 177 
255 252 255 
255 255 255 
255 242 255 
255 255 255 
255 250 255 
255 224 255 
255 255 255 
255 255 255 
255 253 253 
255 196 196 
255 218 255 
255 255 255 
255 244 255 
255 196 227 
255 221 255 
255 255 255 
255 255 255 
255 227 255 
255 252 255 
255 251 255 
255 218 218 
254 196 255 
255 255 255 
255 247 255 
255 195 255 
255 255 255 
255 112 112 
132 132 240 
255 236 236 
234 167 167 
255 255 255 
255 210 255 
255 235 255 
255 184 227 
255 255 255 
255 255 255 
255 205 205 
255 70 255 
255 205 247 
255 255 255 
255 181 250 
255 225 225 
255 177 177 
255 255 255 
255 153 219 
255 255 255 
255 255 255 
255 255 255 
255 157 231 
238 165 245 
232 217 255 
228 196 196 
255 255 255 
255 255 255 
255 255 255 
240 211 211 
255 255 255 
255 187 255 
217 209 227 
255 239 255 
255 188 255 
255 183 255 
255 245 255 
255 255 255 
255 255 255 
255 255 255 
255 211 255 
255 119 255 
255 165 173 
255 169 222 
255 211 255 
255 255 255 
255 237 237 
255 255 255 
161 161 161 
255 255 255 
255 208 255 
255 186 255 
255 251 255 
228 186 246 
255 213 255 
255 255 255 
255 255 255 
255 211 219 
255 255 255 
220 104 187 
255 255 255 
255 231 255 
255 255 255 
255 159 182 
255 255 255 
236 236 255 
255 93 255 
232 201 255 
255 255 255 
181 181 215 
255 200 255 
255 228 255 
255 255 255 
179 179 179 
255 255 255 
255 255 255 
201 181 201 
255 255 255 
228 222 228 
255 251 255 
255 197 255 
217 216 255 
255 255 255 
255 255 255 
255 239 255 
215 215 255 
255 255 255 
252 177 255 
255 255 255 
255 240 255 
93 93 153 
255 255 255 
255 183 255 
255 196 255 
255 255 255 
255 255 255 
255 255 255 
255 197 255 
255 211 255 
255 211 255 
255 251 255 
255 255 255 
255 255 255 
164 127 255 
255 255 255 
255 255 255 
255 249 255 
240 196 255 
182 182 216 
118 118 118 
255 255 255 
255 246 255 
255 211 255 
255 255 255 
255 255 255 
255 158 255 
255 158 255 
255 219 255 
238 222 238 
160 160 255 
255 128 197 
255 189 255 
157 157 255 
168 144 255 
255 255 255 
255 176 255 
255 208 255 
255 174 255 
255 246 255 
191 191 255 
103 73 255 
255 86 255 
255 110 255 
255 233 255 
182 77 255 
238 60 255 
255 111 255 
155 92 255 
255 151 255 
130 80 255 
140 76 245 
81 74 238 
78 69 236 
121 119 255 
255 83 255 
69 68 255 
84 59 255 
67 47 255 
255 102 255 
105 100 255 
151 94 255 
131 76 255 
255 187 255 
164 154 255 
50 36 115 
59 59 225 
192 99 255 
152 66 233 
169 60 200 
255 105 255 
255 79 255 
84 65 255 
117 81 255 
255 181 255 
124 73 255 
73 45 219 
129 125 255 
174 78 255 
157 130 255 
255 119 245 
255 70 255 
255 80 255 
255 73 86 
255 81 122 
167 52 52 
229 71 71 
255 103 106 
255 125 125 
255 189 210 
151 47 47 
255 91 134 
133 41 41 
255 48 48 
255 89 96 
255 255 255 
255 102 105 
255 97 198 
255 68 106 
255 150 245 
255 85 229 
255 89 255 
255 82 82 
255 101 116 
255 69 150 
153 47 63 
255 59 59 
255 42 54 
255 59 255 
255 92 134 
255 67 81 
255 94 102 
255 58 58 
255 72 255 
146 45 107 
255 207 215 
255 89 96 
255 99 105 
255 85 165 
255 250 255 
255 212 255 
255 157 157 
255 133 179 
255 187 191 
255 142 151 
255 147 255 
255 255 255 
255 255 255 
148 142 175 
255 255 255 
255 194 255 
255 255 255 
255 230 255 
255 164 191 
255 173 188 
165 140 255 
255 188 255 
237 172 208 
255 255 255 
255 253 255 
255 190 190 
255 232 232 
255 243 255 
255 255 255 
255 255 255 
210 128 128 
255 255 255 
255 222 238 
255 224 255 
255 255 255 
255 255 255 
226 190 255 
255 190 198 
255 230 230 
255 255 255 
255 255 255 
255 255 255 
255 255 255 
255 255 255 
255 255 255 
228 106 106 
255 217 255 
255 255 255 
254 254 255 
255 181 181 
255 184 241 
255 123 154 
255 255 255 
255 176 232 
255 255 255 
255 163 219 
255 255 255 
255 214 255 
255 254 254 
255 249 255 
255 255 255 
179 179 179 
255 255 255 
255 218 218 
255 255 255 
255 233 255 
255 255 255 
255 177 203 
255 255 255 
255 177 255 
255 229 235 
255 234 255 
255 244 255 
255 193 255 
255 208 255 
240 132 132 
172 172 255 
255 196 196 
231 200 231 
255 209 255 
255 199 237 
255 216 255 
255 255 255 
255 212 255 
255 255 255 
255 255 255 
255 255 255 
255 255 255 
255 255 255 
255 231 250 
255 255 255 
255 255 255 
255 255 255 
255 135 135 
255 194 255 
251 224 224 
255 255 255 
222 167 189 
255 245 255 
255 255 255 
118 118 118 
182 182 255 
255 246 255 
255 212 241 
255 217 255 
255 255 255 
255 255 255 
244 244 244 
194 194 194 
255 243 255 
255 243 255 
255 217 255 
255 255 255 
255 255 255 
253 226 253 
255 255 255 
255 151 217 
255 222 255 
255 255 255 
255 244 255 
255 255 255 
255 255 255 
255 255 255 
255 255 255 
255 177 211 
255 164 164 
255 255 255 
255 255 255 
255 230 255 
190 190 255 
255 237 255 
255 210 255 
255 197 228 
255 255 255 
255 255 255 
188 188 228 
182 182 216 
255 255 255 
255 240 255 
255 255 255 
255 255 255 
243 215 255 
203 139 211 
255 255 255 
255 255 255 
194 116 255 
255 158 255 
255 255 255 
255 255 255 
255 255 255 
255 201 255 
255 218 255 
168 133 243 
255 211 255 
191 191 255 
255 175 255 
255 255 255 
255 255 255 
255 224 255 
255 231 255 
255 255 255 
224 167 255 
255 171 255 
255 193 255 
255 222 255 
248 248 255 
255 241 255 
132 132 240 
239 182 255 
240 235 255 
255 255 255 
108 89 255 
255 255 255 
168 168 255 
230 192 255 
255 129 255 
255 255 255 
255 245 255 
221 172 255 
255 255 255 
228 144 255 
255 172 255 
197 104 255 
103 81 255 
56 56 181 
255 103 255 
175 86 255 
82 57 225 
75 75 255 
141 93 255 
255 255 255 
81 51 163 
68 60 255 
151 133 255 
33 31 255 
255 82 255 
178 77 255 
76 58 193 
59 48 155 
91 76 249 
92 55 255 
235 231 255 
87 87 255 
179 78 255 
112 67 241 
255 60 255 
89 82 255 
250 128 255 
93 87 255 
101 76 255 
100 76 246 
87 77 255 
114 56 255 
120 73 255 
115 79 255 
110 89 255 
255 88 255 
70 70 255 
103 85 255 
122 91 255 
255 80 255 
255 83 83 
255 59 59 
151 47 47 
255 152 255 
255 76 109 
255 155 255 
255 75 87 
255 239 255 
255 92 116 
255 43 78 
236 67 88 
255 107 138 
255 78 95 
246 76 113 
255 113 250 
255 81 90 
255 81 99 
184 57 255 
255 87 99 
255 156 189 
255 85 92 
255 61 137 
255 84 172 
255 128 237 
255 146 255 
255 91 91 
196 61 100 
255 152 255 
221 67 93 
255 68 87 
255 71 255 
255 94 99 
255 44 73 
255 147 178 
167 52 52 
255 77 100 
255 91 129 
255 64 173 
202 63 84 
255 255 255 
255 170 170 
255 193 193 
255 199 255 
255 220 226 
255 169 255 
255 166 166 
255 237 255 
255 204 222 
255 233 255 
219 122 255 
255 167 255 
255 113 132 
255 236 255 
255 240 255 
255 255 255 
255 170 255 
255 180 255 
255 203 209 
255 147 147 
255 179 255 
255 222 255 
255 157 197 
201 102 255 
255 139 139 
230 161 207 
255 255 255 
152 121 135 
255 255 255 
255 255 255 
255 255 255 
255 220 255 
255 255 255 
255 255 255 
255 255 255 
255 187 255 
103 87 255 
255 255 255 
255 158 229 
235 205 255 
255 164 255 
255 239 255 
255 178 178 
255 184 184 
255 255 255 
228 197 197 
255 253 253 
255 177 255 
255 255 255 
255 255 255 
255 255 255 
193 193 193 
255 230 255 
255 255 255 
196 167 255 
255 255 255 
255 145 255 
255 255 255 
255 255 255 
187 187 227 
255 222 255 
255 255 255 
255 245 255 
255 255 255 
179 175 249 
255 255 255 
255 255 255 
255 165 236 
255 255 255 
255 255 255 
255 235 235 
255 255 255 
255 190 190 
228 197 197 
255 255 255 
255 218 255 
255 255 255 
255 219 236 
255 202 255 
255 172 255 
255 229 255 
255 255 255 
255 255 255 
255 234 255 
255 255 255 
255 196 255 
255 255 255 
179 179 179 
255 255 255 
255 255 255 
255 255 255 
255 255 255 
255 223 255 
255 255 255 
255 255 255 
255 255 255 
255 166 180 
255 255 255 
255 255 255 
228 188 255 
255 184 255 
255 255 255 
255 255 255 
152 142 152 
255 255 255 
255 216 255 
255 255 255 
255 201 201 
255 186 255 
255 255 255 
255 255 255 
255 247 255 
255 255 255 
239 210 255 
255 230 230 
255 255 255 
255 255 255 
255 255 255 
255 255 255 
171 169 255 
202 202 255 
255 255 255 
255 154 202 
255 157 255 
255 240 255 
255 216 255 
216 182 182 
237 161 199 
255 255 255 
210 164 255 
255 255 255 
255 255 255 
255 153 193 
184 127 217 
255 255 255 
255 218 255 
255 255 255 
255 255 255 
255 209 255 
255 255 255 
255 201 232 
248 213 255 
255 221 255 
118 118 118 
187 187 255 
255 255 255 
255 255 255 
255 141 251 
255 127 174 
193 193 193 
255 245 255 
228 179 255 
233 193 255 
255 182 255 
232 143 255 
255 230 255 
255 255 255 
255 255 255 
255 255 255 
239 239 255 
255 245 255 
255 255 255 
255 132 255 
255 140 254 
255 130 255 
223 182 255 
255 196 255 
255 110 130 
255 138 255 
143 133 247 
255 156 255 
168 168 235 
255 255 255 
255 255 255 
182 182 255 
255 193 255 
187 146 146 
149 149 255 
128 83 255 
118 94 255 
76 66 213 
107 40 154 
140 89 255 
66 57 255 
49 24 255 
255 184 255 
138 50 175 
112 105 255 
80 58 255 
62 43 200 
255 166 255 
144 95 255 
188 96 255 
255 89 255 
234 90 255 
198 106 255 
185 82 255 
255 255 255 
255 108 255 
75 67 255 
145 94 255 
103 72 233 
51 38 255 
255 74 255 
107 91 255 
73 65 210 
99 96 255 
116 76 255 
255 255 255 
103 97 255 
116 91 255 
113 64 255 
94 88 255 
88 58 255 
96 62 219 
102 50 255 
93 80 255 
255 112 147 
255 88 109 
255 63 63 
255 139 183 
255 125 135 
255 111 255 
255 85 91 
255 245 245 
255 84 136 
255 78 84 
255 147 150 
255 54 72 
255 76 76 
255 102 255 
255 61 102 
255 103 113 
255 74 83 
238 74 117 
255 77 161 
255 78 99 
255 91 96 
197 61 70 
213 66 87 
255 88 109 
255 66 71 
255 140 167 
167 52 52 
255 139 160 
255 128 148 
213 66 87 
255 73 173 
255 84 255 
255 124 255 
255 103 255 
255 53 63 
255 86 86 
255 28 41 
255 78 255 
255 255 255 
143 44 73 
255 221 255 
255 209 219 
255 160 165 
255 255 255 
255 255 255 
255 174 255 
255 255 255 
154 154 202 
255 242 255 
248 132 187 
255 147 248 
118 118 118 
255 206 255 
255 247 255 
255 186 255 
255 116 154 
142 142 142 
255 244 255 
255 212 255 
255 255 255 
255 255 255 
255 255 255 
255 244 244 
255 255 255 
255 210 246 
255 203 255 
255 244 244 
255 255 255 
255 255 255 
255 227 255 
255 174 224 
222 138 255 
255 255 255 
255 67 153 
255 255 255 
255 255 255 
255 241 255 
255 212 255 
255 164 255 
255 255 255 
255 255 255 
255 255 255 
153 93 93 
255 156 203 
208 158 255 
255 188 188 
255 255 255 
255 106 248 
255 255 255 
255 223 255 
193 193 255 
255 255 255 
255 255 255 
240 211 211 
255 255 255 
255 168 212 
188 188 228 
255 255 255 
255 255 255 
255 141 189 
255 247 247 
255 255 255 
118 118 118 
255 255 255 
228 188 188 
255 191 191 
128 128 210 
255 221 221 
255 255 255 
255 255 255 
255 255 255 
209 112 112 
255 255 255 
255 228 255 
255 255 255 
255 173 255 
255 255 255 
255 255 255 
202 154 154 
255 255 255 
255 175 255 
234 107 120 
255 255 255 
255 225 255 
146 146 187 
255 242 255 
255 255 255 
172 172 255 
255 228 228 
255 246 255 
255 255 255 
204 184 224 
194 194 194 
255 255 255 
255 255 255 
212 212 255 
255 255 255 
251 224 224 
255 210 255 
255 255 255 
211 192 255 
255 255 255 
255 255 255 
255 255 255 
255 205 205 
255 255 255 
255 255 255 
255 174 209 
255 255 255 
255 251 255 
254 254 255 
255 255 255 
255 255 255 
219 219 255 
255 140 255 
194 194 194 
205 205 255 
240 211 211 
255 232 255 
172 172 215 
255 209 255 
255 255 255 
255 255 255 
161 161 161 
247 247 255 
255 164 240 
255 255 255 
255 255 255 
255 199 255 
255 255 255 
255 255 255 
255 160 238 
157 149 255 
231 170 249 
255 198 255 
255 255 255 
216 182 182 
255 188 188 
255 255 255 
255 205 235 
130 115 255 
255 216 255 
230 174 255 
255 174 255 
255 202 255 
167 167 255 
106 106 228 
255 255 255 
255 255 255 
255 255 255 
255 255 255 
255 121 255 
255 165 255 
255 172 255 
255 255 255 
200 151 255 
86 86 86 
255 255 255 
255 197 255 
255 255 255 
50 50 255 
255 255 255 
255 255 255 
208 183 238 
178 178 178 
255 209 255 
255 154 255 
255 255 255 
255 191 255 
255 220 255 
171 171 255 
255 255 255 
255 255 255 
154 154 252 
212 119 255 
255 255 255 
255 150 255 
53 28 173 
152 47 211 
227 108 255 
137 70 255 
105 105 255 
255 130 255 
255 170 255 
123 63 255 
76 76 255 
255 255 255 
89 85 255 
67 67 255 
178 78 251 
75 53 225 
221 97 255 
94 51 228 
178 78 251 
63 48 188 
61 48 198 
174 101 255 
112 112 255 
104 62 242 
255 190 255 
72 64 255 
69 60 255 
61 48 178 
126 102 255 
92 67 251 
136 85 255 
154 84 255 
255 96 255 
103 73 248 
255 232 255 
205 105 255 
175 73 255 
78 74 255 
255 83 255 
255 155 255 
0 0 0 
255 75 212 
255 68 70 
255 102 112 
255 60 164 
255 83 179 
144 44 73 
255 91 106 
255 80 80 
184 57 66 
255 97 116 
255 99 185 
255 94 100 
255 83 95 
255 81 136 
255 88 179 
226 70 118 
255 238 255 
255 100 200 
255 79 102 
255 93 101 
255 188 215 
255 90 202 
255 76 112 
255 255 255 
255 73 192 
255 38 64 
141 42 82 
255 97 105 
255 86 133 
255 38 65 
255 196 255 
255 125 142 
255 99 217 
255 61 90 
255 66 149 
255 114 123 
255 97 255 
255 76 83 
255 95 100 
255 194 194 
255 252 255 
255 175 255 
255 148 255 
255 146 255 
255 255 255 
223 150 150 
255 199 255 
255 164 255 
255 200 255 
196 100 100 
255 255 255 
255 219 255 
255 255 255 
255 253 255 
143 44 73 
252 170 180 
255 171 255 
203 131 203 
255 255 255 
178 178 178 
255 236 255 
255 255 255 
255 188 188 
255 148 222 
249 153 235 
255 242 242 
255 255 255 
255 166 231 
255 140 255 
255 255 255 
255 218 239 
255 186 255 
255 255 255 
255 255 255 
255 255 255 
255 238 255 
255 255 255 
234 198 213 
255 255 255 
255 255 255 
255 255 255 
255 249 255 
255 255 255 
255 255 255 
255 174 195 
255 187 228 
255 255 255 
255 197 208 
255 142 145 
255 255 255 
255 255 255 
112 112 209 
244 197 255 
255 137 137 
255 194 255 
255 239 246 
255 203 203 
255 255 255 
255 255 255 
255 255 255 
154 154 202 
255 255 255 
255 255 255 
235 205 242 
255 252 255 
255 199 255 
255 255 255 
255 255 255 
255 110 110 
228 188 188 
255 205 255 
255 255 255 
255 205 255 
215 67 67 
255 129 201 
240 132 132 
255 255 255 
255 255 255 
255 255 255 
153 153 251 
255 202 224 
255 255 255 
255 247 255 
233 233 233 
255 255 255 
255 232 255 
224 206 255 
255 255 255 
255 191 224 
255 255 255 
200 100 145 
255 255 255 
255 196 255 
255 225 255 
255 255 255 
255 255 255 
255 255 255 
255 237 237 
222 137 255 
255 255 255 
255 173 255 
255 255 255 
255 255 255 
255 255 255 
182 176 255 
166 166 255 
255 255 255 
255 255 255 
255 205 255 
255 152 255 
255 198 255 
255 233 255 
255 225 255 
173 147 255 
255 255 255 
255 240 240 
255 193 255 
255 255 255 
179 179 179 
198 135 255 
255 255 255 
255 140 255 
255 198 216 
255 243 255 
255 255 255 
255 255 255 
178 178 178 
174 166 209 
252 218 255 
255 215 255 
255 255 255 
255 251 255 
255 255 255 
255 228 255 
255 255 255 
178 178 178 
255 255 255 
255 191 245 
255 233 255 
255 242 255 
255 203 255 
206 206 255 
67 67 215 
255 255 255 
255 255 255 
255 206 255 
237 121 255 
255 246 255 
206 170 255 
255 238 255 
140 140 255 
255 255 255 
255 140 255 
255 164 255 
200 135 231 
255 230 255 
255 255 255 
253 163 255 
192 152 255 
150 150 223 
255 222 255 
255 255 255 
255 255 255 
208 189 255 
255 141 255 
255 255 255 
255 255 255 
168 122 220 
255 201 255 
255 180 255 
174 128 255 
158 142 255 
219 211 255 
225 225 255 
255 255 255 
255 212 255 
215 191 255 
255 190 255 
255 250 255 
174 83 255 
133 112 255 
119 64 205 
180 89 255 
255 107 255 
91 56 202 
145 123 255 
87 65 255 
156 93 255 
164 41 131 
156 69 255 
95 68 255 
215 95 255 
110 85 255 
180 74 238 
167 91 255 
255 135 255 
255 122 255 
255 255 255 
113 76 255 
84 78 255 
124 68 255 
73 65 255 
255 105 255 
97 97 255 
122 76 255 
214 192 255 
90 65 255 
255 114 255 
176 74 250 
141 131 255 
103 72 233 
255 126 255 
91 61 197 
114 46 255 
132 64 255 
0 0 0 
255 78 83 
255 111 146 
230 71 106 
197 47 87 
185 57 66 
255 92 92 
228 60 255 
255 57 143 
255 89 110 
255 97 192 
255 84 84 
167 52 52 
174 53 103 
255 78 255 
255 94 112 
255 51 164 
164 51 84 
255 71 159 
151 47 47 
255 184 255 
255 96 121 
255 88 105 
255 64 255 
255 131 198 
255 98 98 
151 47 47 
255 52 81 
255 117 164 
255 104 205 
255 79 134 
255 92 107 
255 109 255 
255 120 148 
255 89 112 
255 113 180 
175 54 127 
255 95 95 
255 130 193 
255 56 117 
255 132 245 
255 191 191 
255 255 255 
255 255 255 
255 144 144 
255 186 255 
255 251 255 
165 51 255 
255 255 255 
255 159 170 
255 255 255 
255 190 233 
255 255 255 
255 129 255 
255 146 151 
255 210 255 
255 255 255 
228 106 106 
255 255 255 
255 210 255 
255 255 255 
255 236 255 
233 233 233 
255 255 255 
255 255 255 
255 189 229 
161 161 161 
255 255 255 
255 98 98 
216 182 182 
255 199 237 
255 200 238 
255 126 134 
218 175 255 
255 255 255 
255 152 182 
255 222 255 
255 255 255 
255 246 246 
222 167 177 
255 214 255 
255 255 255 
211 211 240 
255 255 255 
255 231 255 
255 253 255 
255 255 255 
255 254 254 
255 153 153 
255 213 255 
255 192 224 
255 255 255 
255 231 255 
202 165 165 
255 255 255 
255 214 255 
255 255 255 
161 161 161 
255 255 255 
255 255 255 
255 234 249 
255 218 255 
255 197 248 
255 255 255 
255 255 255 
255 252 255 
255 204 255 
255 255 255 
243 211 233 
255 255 255 
255 243 255 
255 189 255 
255 225 225 
220 209 255 
255 171 255 
255 225 255 
255 231 255 
255 255 255 
255 210 255 
255 155 255 
227 196 255 
255 255 255 
202 165 165 
255 255 255 
251 170 192 
118 118 118 
255 211 255 
255 255 255 
255 199 255 
255 255 255 
255 255 255 
255 188 203 
255 255 255 
255 255 255 
255 255 255 
255 255 255 
255 255 255 
208 208 208 
204 189 255 
255 255 255 
255 200 255 
255 255 255 
255 255 255 
255 255 255 
255 215 215 
255 255 255 
255 210 255 
234 234 255 
255 234 255 
255 247 255 
255 255 255 
255 185 255 
239 210 210 
187 146 146 
255 255 255 
187 187 255 
255 255 255 
237 188 193 
216 182 182 
255 255 255 
251 153 153 
215 196 215 
183 182 232 
239 233 239 
255 255 255 
255 255 255 
255 255 255 
255 189 251 
255 190 255 
221 221 221 
219 111 255 
255 189 255 
210 164 255 
255 255 255 
255 148 249 
255 177 255 
255 249 255 
255 255 255 
237 237 255 
224 170 224 
255 219 255 
138 124 255 
255 255 255 
255 255 255 
255 226 255 
240 131 255 
146 109 255 
255 247 255 
209 148 173 
255 171 255 
255 137 255 
255 255 255 
238 238 255 
214 173 243 
255 255 255 
255 255 255 
255 187 255 
232 225 255 
255 168 255 
188 166 221 
210 174 255 
255 168 255 
255 194 255 
255 219 255 
255 187 187 
255 161 230 
255 255 255 
235 235 255 
160 160 255 
255 205 255 
255 106 232 
255 165 203 
145 145 187 
200 139 203 
255 217 255 
255 255 255 
255 180 207 
250 250 255 
255 60 255 
255 143 255 
98 98 255 
155 115 255 
255 78 255 
150 51 255 
213 186 255 
206 189 255 
255 255 255 
255 136 255 
61 59 255 
97 65 255 
134 54 255 
67 55 246 
130 78 255 
255 65 255 
123 74 255 
79 70 225 
107 79 255 
111 55 178 
60 60 194 
154 79 255 
245 82 255 
127 69 236 
71 71 229 
255 26 84 
145 89 255 
145 57 202 
119 77 255 
236 59 255 
255 108 255 
136 129 255 
89 52 180 
121 93 255 
239 237 255 
136 76 244 
69 59 189 
118 80 255 
0 0 0 
255 102 182 
153 47 80 
255 142 255 
255 83 83 
255 130 139 
255 76 86 
255 51 255 
255 124 135 
255 154 255 
246 76 121 
167 52 90 
255 127 195 
255 70 92 
170 52 62 
255 69 83 
207 64 95 
255 74 93 
245 50 50 
255 148 164 
255 70 248 
255 87 255 
255 80 136 
255 102 136 
255 89 89 
255 81 93 
255 80 199 
194 60 60 
177 55 110 
255 145 255 
255 78 78 
255 130 147 
255 80 91 
255 112 139 
255 95 159 
255 191 204 
255 92 255 
255 124 174 
255 64 64 
87 27 44 
255 233 255 
255 145 145 
255 172 172 
255 166 188 
255 255 255 
255 255 255 
255 232 242 
156 147 195 
255 255 255 
255 255 255 
255 175 180 
255 255 255 
109 94 162 
255 255 255 
255 204 204 
255 149 149 
237 207 255 
142 142 255 
223 150 150 
255 255 255 
255 161 199 
238 169 223 
255 187 255 
255 204 204 
255 150 230 
255 126 162 
255 193 241 
255 181 188 
255 174 255 
255 215 255 
255 255 255 
240 132 132 
255 255 255 
255 170 197 
255 181 255 
255 150 199 
255 255 255 
255 217 255 
255 255 255 
255 201 201 
255 193 255 
255 184 184 
255 222 231 
231 203 255 
255 255 255 
255 149 149 
255 122 133 
255 255 255 
255 255 255 
255 255 255 
255 238 255 
255 255 255 
255 199 255 
255 232 255 
255 158 224 
255 159 184 
255 255 255 
255 240 255 
255 255 255 
255 247 255 
255 255 255 
255 207 209 
255 255 255 
255 255 255 
255 213 255 
204 204 255 
255 222 226 
255 255 255 
255 255 255 
135 124 180 
255 255 255 
255 191 229 
255 250 255 
255 234 255 
255 245 255 
255 208 255 
255 255 255 
255 174 255 
154 154 202 
208 208 208 
255 255 255 
255 232 255 
215 172 172 
255 255 255 
255 222 255 
255 228 255 
255 255 255 
255 255 255 
255 255 255 
255 255 255 
255 255 255 
233 224 255 
255 255 255 
254 227 255 
187 164 255 
255 255 255 
118 118 118 
255 255 255 
255 255 255 
255 194 200 
255 252 255 
194 194 194 
255 255 255 
255 255 255 
255 255 255 
247 247 255 
255 223 255 
255 255 255 
255 255 255 
255 213 255 
255 220 255 
123 123 171 
255 196 255 
255 255 255 
255 246 255 
177 176 255 
229 160 255 
255 255 255 
255 188 188 
255 255 255 
255 255 255 
219 167 229 
214 124 185 
255 180 255 
181 175 255 
239 218 255 
255 141 141 
207 171 255 
221 189 255 
255 203 255 
255 140 255 
255 254 255 
255 225 255 
161 161 161 
255 177 177 
255 255 255 
255 251 255 
255 255 255 
255 196 254 
255 255 255 
250 162 255 
255 219 255 
153 93 93 
221 215 255 
255 207 255 
255 176 255 
202 176 255 
168 168 235 
255 248 255 
255 178 255 
255 225 255 
204 204 255 
255 202 255 
86 86 86 
255 161 255 
255 137 137 
255 195 255 
255 209 255 
255 239 255 
255 179 223 
162 161 255 
192 192 255 
147 115 255 
200 113 255 
255 181 255 
255 255 255 
130 130 255 
200 126 162 
255 237 255 
255 255 255 
255 237 255 
255 198 255 
255 255 255 
255 160 198 
255 123 255 
166 166 255 
251 156 255 
255 210 255 
255 89 255 
255 70 255 
255 106 255 
191 146 255 
137 94 255 
108 67 255 
97 79 255 
255 90 255 
195 78 255 
255 81 255 
255 101 255 
138 73 255 
126 85 255 
255 105 255 
172 122 255 
255 166 255 
205 57 187 
255 133 255 
124 56 255 
54 42 137 
78 57 188 
216 55 176 
97 60 197 
167 74 255 
118 70 226 
95 78 255 
114 104 255 
236 75 255 
93 58 255 
80 80 255 
169 146 255 
120 55 255 
70 59 190 
255 119 255 
161 53 255 
201 95 255 
59 59 255 
0 0 0 
0 0 0 
255 58 255 
255 92 223 
218 68 68 
255 147 147 
255 184 188 
255 155 162 
255 105 142 
255 217 234 
255 100 100 
255 75 102 
255 82 244 
255 64 255 
255 103 209 
255 96 107 
255 82 112 
255 41 100 
255 255 255 
255 82 82 
255 64 67 
255 87 137 
255 163 255 
255 131 131 
255 126 202 
162 41 63 
255 70 182 
255 108 146 
255 82 147 
255 84 84 
255 165 188 
255 108 108 
255 213 242 
255 83 89 
243 71 121 
255 153 227 
255 125 255 
255 127 127 
255 60 95 
255 71 185 
255 74 100 
255 175 186 
171 123 123 
255 255 255 
255 201 201 
217 141 193 
255 184 255 
255 120 120 
255 122 181 
255 237 255 
255 184 225 
255 241 255 
255 255 255 
255 221 255 
255 161 161 
255 255 255 
255 255 255 
255 255 255 
171 123 123 
255 132 190 
255 185 188 
255 255 255 
255 132 188 
255 197 255 
255 74 74 
255 189 208 
255 226 255 
255 255 255 
217 217 255 
255 158 158 
255 255 255 
255 244 244 
255 198 221 
255 226 255 
199 126 199 
255 196 196 
255 187 248 
255 212 255 
255 200 255 
210 128 128 
255 255 255 
255 255 255 
255 205 240 
255 237 255 
255 185 185 
255 194 222 
255 199 199 
255 173 255 
255 182 255 
255 145 225 
255 255 255 
255 181 206 
255 252 255 
255 172 255 
255 255 255 
255 191 255 
255 248 255 
255 255 255 
255 255 255 
255 255 255 
255 255 255 
212 132 178 
255 255 255 
255 196 255 
255 255 255 
255 216 255 
255 200 255 
202 165 165 
255 255 255 
255 235 255 
255 255 255 
255 255 255 
255 198 236 
255 216 255 
255 255 255 
255 211 255 
226 194 255 
255 255 255 
255 255 255 
255 255 255 
255 234 255 
255 255 255 
132 132 240 
255 255 255 
255 255 255 
188 188 228 
255 210 246 
255 182 186 
255 255 255 
255 255 255 
255 255 255 
255 252 255 
252 145 255 
255 255 255 
255 135 147 
255 162 166 
255 236 236 
255 255 255 
255 204 205 
255 255 255 
255 232 232 
255 255 255 
255 187 220 
255 255 255 
255 255 255 
255 255 255 
255 255 255 
255 255 255 
255 236 255 
255 234 255 
255 195 255 
255 194 255 
255 255 255 
214 180 255 
214 208 224 
255 156 156 
255 255 255 
255 230 255 
255 193 217 
255 199 255 
255 183 190 
255 255 255 
255 148 255 
251 153 153 
240 211 211 
255 252 255 
255 255 255 
128 128 210 
255 255 255 
255 196 227 
150 150 223 
239 210 210 
255 171 207 
255 255 255 
255 229 255 
255 174 174 
255 188 255 
255 248 255 
182 182 255 
180 172 255 
255 255 255 
218 148 255 
255 206 255 
255 255 255 
255 163 255 
209 203 255 
255 145 255 
255 227 255 
255 187 255 
255 197 255 
255 255 255 
255 225 255 
255 255 255 
255 255 255 
255 255 255 
148 148 255 
255 247 255 
181 155 255 
152 152 250 
255 255 255 
255 202 255 
249 141 255 
255 226 255 
187 179 187 
229 173 255 
255 166 255 
138 90 255 
255 136 242 
255 137 154 
255 255 255 
187 131 255 
255 255 255 
255 140 183 
255 128 210 
255 147 255 
255 163 255 
187 187 255 
255 255 255 
255 255 255 
150 90 255 
41 41 132 
107 77 255 
127 53 255 
137 133 255 
117 85 255 
255 76 255 
255 64 216 
169 76 255 
95 59 239 
255 94 255 
104 73 255 
255 239 255 
255 99 255 
128 54 233 
126 126 255 
129 72 255 
187 47 175 
54 42 137 
176 74 255 
210 70 226 
255 131 255 
150 98 255 
255 91 255 
89 53 208 
66 57 184 
83 69 255 
89 69 255 
25 25 80 
71 63 255 
113 93 255 
84 52 255 
188 59 255 
128 80 255 
209 70 255 
135 118 255 
255 108 255 
0 0 0 
0 0 0 
209 65 73 
161 50 63 
212 50 87 
255 101 255 
200 43 62 
178 54 255 
255 88 138 
255 67 116 
255 107 129 
255 143 255 
255 53 53 
255 93 96 
255 55 65 
255 99 203 
255 66 68 
255 67 67 
255 85 144 
167 52 52 
255 191 225 
255 103 138 
255 82 88 
255 79 96 
255 70 94 
255 94 140 
255 64 172 
255 152 255 
255 236 236 
255 50 85 
255 68 213 
255 70 210 
255 188 199 
248 72 84 
194 60 60 
255 94 255 
255 92 151 
255 55 79 
255 65 65 
255 93 153 
110 34 34 
255 191 255 
255 158 181 
255 183 255 
255 205 255 
255 178 255 
255 206 206 
255 212 255 
255 204 255 
255 96 134 
193 193 193 
255 134 255 
255 176 176 
226 150 210 
255 255 255 
255 152 161 
214 149 179 
229 93 172 
255 155 195 
255 238 255 
206 108 255 
255 244 255 
255 255 255 
255 147 173 
255 255 255 
255 120 255 
255 187 196 
255 194 225 
255 176 255 
255 255 255 
255 205 255 
255 237 255 
218 218 255 
255 255 255 
255 178 255 
175 128 175 
255 198 255 
246 246 255 
255 198 255 
255 200 255 
255 173 173 
241 187 241 
255 224 251 
255 181 247 
255 255 255 
161 161 161 
255 189 255 
255 255 255 
255 255 255 
255 255 255 
255 247 255 
186 156 255 
255 228 228 
255 250 255 
255 141 217 
255 213 255 
255 168 255 
255 255 255 
255 146 255 
255 255 255 
255 255 255 
255 218 255 
255 255 255 
255 214 255 
255 211 211 
255 195 255 
255 255 255 
208 208 208 
171 123 123 
241 220 255 
255 190 255 
255 255 255 
255 255 255 
255 196 199 
255 224 255 
255 255 255 
255 255 255 
255 255 255 
255 255 255 
255 174 255 
255 255 255 
255 255 255 
255 147 255 
255 255 255 
255 234 255 
255 255 255 
255 169 173 
255 217 217 
208 173 224 
118 118 118 
255 247 255 
255 237 255 
255 255 255 
255 255 255 
255 255 255 
255 255 255 
255 255 255 
255 255 255 
255 209 255 
221 221 221 
255 228 255 
209 166 174 
179 179 179 
255 156 255 
255 229 255 
255 255 255 
255 255 255 
255 255 255 
251 153 153 
208 208 208 
255 255 255 
244 215 255 
255 174 215 
255 255 255 
255 255 255 
255 209 255 
255 240 255 
255 176 239 
255 231 255 
249 182 226 
187 146 146 
246 140 255 
217 174 209 
255 255 255 
255 255 255 
177 169 241 
255 147 255 
255 255 255 
193 141 255 
255 255 255 
255 255 255 
225 193 255 
217 197 255 
255 165 202 
255 239 245 
205 157 196 
255 212 218 
255 255 255 
255 255 255 
255 190 255 
255 236 255 
255 222 255 
252 185 255 
255 206 255 
219 167 255 
255 255 255 
123 123 171 
255 255 255 
167 165 249 
162 126 200 
255 245 255 
150 150 223 
255 244 255 
255 255 255 
221 198 249 
188 140 255 
204 157 255 
255 243 255 
255 255 255 
255 192 255 
255 255 255 
255 194 255 
255 255 255 
255 255 255 
191 131 255 
255 255 255 
161 161 255 
255 195 255 
146 146 187 
230 171 255 
150 97 191 
174 141 255 
255 204 255 
123 123 171 
146 122 162 
250 169 255 
255 255 255 
86 86 86 
161 161 161 
255 51 255 
118 47 255 
255 87 255 
95 85 255 
78 53 255 
101 71 255 
127 71 230 
66 55 176 
189 57 200 
77 58 255 
49 35 255 
255 255 255 
70 38 124 
255 129 255 
120 58 215 
186 183 255 
105 99 255 
161 64 255 
115 79 255 
118 57 255 
75 58 187 
41 41 133 
255 150 255 
116 85 255 
255 255 255 
115 72 255 
255 81 255 
121 57 255 
129 74 255 
255 102 255 
54 54 254 
97 82 255 
87 81 255 
86 72 233 
97 90 255 
126 75 243 
0 0 0 
0 0 0 
0 0 0 
198 61 70 
255 120 125 
241 75 82 
255 73 90 
255 87 107 
255 113 143 
255 94 132 
255 163 225 
245 69 107 
255 88 95 
255 87 93 
255 109 134 
255 97 97 
251 63 123 
255 231 235 
255 47 47 
110 34 34 
255 44 87 
255 48 133 
255 60 144 
255 94 255 
255 146 220 
255 153 191 
255 117 255 
255 148 255 
255 72 91 
255 62 62 
255 91 234 
255 84 101 
255 80 148 
255 91 255 
255 58 87 
255 197 217 
255 66 66 
255 67 88 
255 204 239 
255 132 255 
255 69 155 
255 100 100 
255 166 166 
255 255 255 
255 197 211 
255 227 227 
255 163 165 
255 255 255 
255 140 209 
255 150 194 
255 64 64 
255 157 198 
255 255 255 
255 217 255 
255 255 255 
255 255 255 
255 160 160 
255 125 255 
255 149 149 
255 255 255 
255 130 255 
250 132 140 
255 230 230 
255 255 255 
255 255 255 
255 249 255 
255 255 255 
255 255 255 
255 153 255 
255 173 255 
255 244 244 
255 255 255 
255 255 255 
255 225 252 
196 157 205 
255 255 255 
255 144 144 
255 255 255 
255 160 255 
187 146 146 
255 190 190 
255 255 255 
255 250 255 
255 239 255 
255 206 206 
255 255 255 
255 255 255 
213 165 255 
255 255 255 
255 190 255 
255 255 255 
235 212 255 
223 150 150 
255 197 211 
255 255 255 
255 157 157 
255 255 255 
255 255 255 
255 255 255 
255 255 255 
255 229 255 
255 237 237 
255 255 255 
255 255 255 
255 196 254 
255 188 188 
255 178 227 
255 240 255 
255 255 255 
255 255 255 
189 182 243 
255 255 255 
246 218 255 
255 192 255 
255 255 255 
168 168 235 
255 255 255 
168 168 235 
217 181 233 
255 168 235 
255 255 255 
255 255 255 
255 255 255 
255 254 254 
255 240 255 
255 255 255 
255 214 252 
255 255 255 
255 255 255 
255 240 255 
255 255 255 
255 255 255 
255 255 255 
255 255 255 
255 255 255 
204 154 214 
255 250 255 
255 255 255 
255 240 255 
130 119 130 
255 255 255 
255 202 232 
215 172 172 
208 208 208 
255 255 255 
255 209 255 
255 255 255 
255 207 255 
255 255 255 
255 222 255 
178 178 255 
255 218 218 
255 255 255 
255 177 212 
255 238 255 
255 255 255 
255 242 255 
255 252 255 
255 255 255 
255 231 255 
255 143 255 
183 175 255 
251 251 255 
255 255 255 
248 208 255 
255 170 255 
193 184 234 
255 255 255 
255 255 255 
255 212 255 
255 255 255 
176 143 255 
255 255 255 
255 195 255 
161 125 255 
255 239 255 
255 246 246 
255 177 255 
255 200 206 
255 255 255 
218 185 218 
255 126 180 
161 161 161 
255 255 255 
255 190 255 
255 242 255 
255 255 255 
255 255 255 
222 162 255 
161 161 255 
255 208 247 
255 255 255 
228 202 255 
255 175 255 
252 218 246 
219 149 255 
255 255 255 
255 255 255 
210 164 255 
255 255 255 
255 255 255 
255 254 255 
255 255 255 
187 146 146 
137 133 255 
215 171 171 
255 255 255 
255 252 255 
189 148 255 
202 164 255 
255 120 255 
255 255 255 
255 255 255 
255 255 255 
254 159 255 
255 255 255 
255 212 255 
255 177 255 
255 156 249 
255 255 255 
83 83 255 
81 67 255 
119 63 255 
255 61 241 
161 125 255 
236 168 255 
255 142 255 
153 77 255 
255 152 255 
255 99 255 
255 56 181 
46 23 221 
255 60 195 
68 68 218 
255 61 255 
255 58 206 
123 118 255 
255 92 255 
153 137 255 
212 43 220 
91 88 255 
69 59 189 
255 59 255 
141 84 255 
239 87 255 
89 78 255 
255 93 255 
99 88 255 
255 103 255 
85 85 255 
209 43 169 
101 53 255 
142 80 255 
135 98 255 
72 54 173 
76 66 214 
0 0 0 
0 0 0 
0 0 0 
255 79 89 
255 63 65 
255 153 161 
255 114 155 
255 81 88 
255 69 117 
211 64 68 
184 57 89 
255 83 178 
255 55 55 
255 59 255 
255 59 130 
242 65 91 
255 73 99 
255 100 140 
255 75 87 
255 92 170 
231 71 79 
225 70 79 
255 101 101 
255 122 130 
255 43 43 
255 86 179 
255 165 168 
228 71 71 
255 87 111 
255 80 177 
255 86 103 
255 80 123 
255 112 255 
255 74 87 
255 75 75 
133 41 41 
151 47 47 
255 109 190 
255 135 210 
255 91 121 
255 125 146 
255 62 70 
255 242 242 
255 188 195 
255 255 255 
251 242 255 
255 177 177 
255 255 255 
255 175 204 
255 136 136 
255 184 184 
86 86 86 
255 255 255 
255 110 163 
251 216 216 
255 242 249 
255 240 255 
0 0 0 
255 255 255 
255 255 255 
255 255 255 
255 255 255 
255 255 255 
255 212 253 
255 255 255 
255 105 170 
255 150 150 
246 145 246 
118 118 118 
255 233 234 
255 255 255 
255 156 156 
255 216 255 
255 145 224 
255 255 255 
255 159 254 
255 255 255 
255 151 255 
255 225 255 
255 226 232 
255 255 255 
255 255 255 
255 255 255 
255 255 255 
255 255 255 
255 255 255 
238 202 255 
161 161 161 
255 209 223 
255 255 255 
239 210 210 
255 255 255 
255 209 209 
255 240 255 
255 255 255 
255 255 255 
255 255 255 
255 189 189 
255 255 255 
255 255 255 
255 255 255 
255 255 255 
255 172 172 
145 142 255 
255 255 255 
255 174 217 
255 255 255 
255 238 255 
255 255 255 
255 255 255 
255 255 255 
255 255 255 
255 244 255 
255 220 255 
255 255 255 
255 233 255 
255 178 212 
255 255 255 
255 220 248 
255 177 177 
225 185 255 
255 121 212 
255 255 255 
255 255 255 
240 132 132 
255 255 255 
255 141 255 
255 242 242 
255 255 255 
255 255 255 
255 211 255 
202 154 154 
255 255 255 
255 239 255 
255 255 255 
246 242 255 
255 255 255 
255 255 255 
255 246 255 
255 220 255 
255 200 255 
255 255 255 
255 201 255 
255 139 183 
255 204 255 
255 255 255 
255 214 255 
255 236 255 
255 255 255 
255 252 255 
255 255 255 
255 255 255 
255 217 255 
255 255 255 
255 255 255 
255 255 255 
153 153 251 
206 167 255 
239 227 255 
177 177 255 
255 210 231 
255 255 255 
207 161 230 
239 218 255 
255 255 255 
255 184 191 
255 255 255 
255 255 255 
255 212 255 
255 170 255 
218 185 218 
255 247 255 
255 193 255 
255 228 255 
255 241 255 
255 183 233 
255 234 255 
255 255 255 
255 238 255 
255 214 255 
255 255 255 
255 255 255 
134 97 179 
229 174 255 
255 253 255 
153 153 251 
255 255 255 
255 90 255 
255 184 252 
255 238 255 
255 164 255 
255 255 255 
255 193 255 
255 255 255 
255 176 255 
194 194 194 
199 192 255 
193 154 225 
123 123 171 
255 255 255 
255 255 255 
255 212 255 
255 206 255 
255 255 255 
255 255 255 
255 255 255 
255 255 255 
255 220 255 
144 144 255 
179 133 229 
250 250 255 
210 203 255 
225 202 255 
163 78 255 
255 182 255 
153 153 251 
174 127 255 
244 145 255 
255 255 255 
255 236 255 
255 63 255 
133 120 255 
52 52 167 
124 81 255 
167 55 195 
120 59 255 
255 74 255 
105 75 240 
135 94 255 
115 81 255 
255 134 255 
173 140 255 
137 65 255 
154 74 255 
255 106 255 
89 70 225 
146 87 255 
223 91 255 
163 115 255 
78 62 200 
255 76 255 
117 107 255 
255 49 171 
98 74 237 
255 94 255 
113 81 255 
255 96 255 
80 77 255 
138 86 255 
67 65 224 
79 70 225 
64 48 165 
199 48 154 
95 71 255 
108 108 255 
255 216 255 
0 0 0 
0 0 0 
0 0 0 
204 63 89 
217 67 255 
253 69 99 
255 79 79 
255 137 255 
255 77 83 
255 66 66 
255 40 78 
255 112 255 
255 71 121 
208 29 50 
191 59 81 
255 92 255 
255 131 131 
255 79 91 
228 63 94 
254 54 54 
255 68 68 
255 86 107 
255 96 185 
255 105 217 
255 77 124 
255 98 220 
255 81 255 
255 67 89 
255 101 118 
255 81 98 
255 74 255 
241 74 124 
255 130 209 
194 60 60 
181 56 56 
222 58 87 
255 54 72 
255 96 98 
255 128 128 
181 56 56 
255 79 85 
255 118 126 
255 148 148 
255 255 255 
255 197 228 
255 154 162 
255 189 255 
255 204 255 
255 243 255 
255 192 255 
255 186 188 
255 255 255 
255 177 177 
143 109 194 
255 174 174 
255 255 255 
255 172 180 
255 255 255 
255 218 255 
255 183 183 
255 198 206 
255 239 255 
255 172 180 
255 199 255 
219 186 255 
255 209 255 
255 190 255 
255 255 255 
255 242 255 
243 137 181 
255 201 255 
255 111 111 
255 255 255 
192 139 211 
255 255 255 
255 218 255 
171 123 123 
228 106 106 
255 225 231 
255 255 255 
255 255 255 
255 233 255 
255 149 149 
255 255 255 
255 255 255 
255 153 168 
255 220 255 
255 255 255 
118 118 118 
255 184 255 
255 255 255 
255 147 200 
255 170 214 
255 255 255 
255 236 255 
255 185 231 
201 194 201 
255 255 255 
255 255 255 
255 168 255 
191 118 125 
255 255 255 
255 195 255 
255 191 191 
255 255 255 
255 235 255 
255 243 255 
255 255 255 
251 153 153 
255 255 255 
255 241 241 
255 196 227 
255 159 255 
255 172 172 
255 193 255 
255 252 255 
255 255 255 
255 255 255 
255 255 255 
255 255 255 
255 192 255 
255 255 255 
255 211 240 
208 208 208 
255 193 255 
255 255 255 
255 255 255 
246 218 252 
255 255 255 
255 255 255 
255 211 255 
255 184 184 
255 156 156 
255 182 247 
255 201 255 
255 236 255 
255 255 255 
255 255 255 
255 229 255 
255 198 255 
255 149 158 
213 194 255 
255 255 255 
197 130 197 
255 237 255 
255 250 255 
255 255 255 
255 108 255 
252 216 255 
255 255 255 
255 217 255 
202 116 255 
168 131 235 
255 245 255 
255 251 255 
254 235 255 
254 227 255 
147 147 255 
255 233 255 
202 165 165 
255 255 255 
255 255 255 
255 253 255 
255 255 255 
255 213 255 
255 255 255 
255 124 142 
255 218 255 
255 255 255 
255 250 255 
255 255 255 
246 175 175 
255 188 244 
175 128 255 
255 157 196 
255 211 240 
255 216 255 
255 193 255 
255 190 190 
137 137 255 
251 116 255 
255 255 255 
184 184 255 
255 234 255 
193 193 193 
255 255 255 
255 255 255 
143 98 186 
255 122 235 
255 254 255 
255 192 255 
255 208 255 
167 126 255 
255 232 255 
255 255 255 
255 255 255 
255 255 255 
255 217 255 
255 219 236 
255 217 223 
186 186 255 
255 255 255 
100 100 196 
255 225 255 
250 215 255 
255 255 255 
132 132 240 
255 216 255 
255 192 255 
255 202 255 
255 161 246 
252 189 255 
255 144 255 
255 255 255 
255 204 255 
197 193 255 
111 111 255 
255 255 255 
255 113 255 
255 210 255 
87 77 255 
118 60 194 
255 106 255 
221 93 255 
255 111 255 
110 85 255 
255 144 255 
98 27 231 
73 65 209 
255 129 255 
255 119 255 
255 137 255 
255 66 214 
255 149 255 
148 92 255 
104 92 255 
124 14 255 
252 92 255 
121 100 255 
255 85 255 
70 59 190 
255 107 255 
160 80 255 
84 63 202 
99 81 255 
255 107 255 
255 111 255 
72 58 233 
85 60 255 
130 81 255 
165 82 255 
156 83 255 
156 100 255 
113 97 255 
77 45 232 
0 0 0 
0 0 0 
0 0 0 
0 0 0 
255 73 85 
192 60 188 
155 48 59 
255 69 81 
255 189 191 
255 182 208 
255 128 189 
255 92 92 
202 62 178 
255 61 198 
182 56 56 
255 121 168 
255 76 103 
255 144 153 
255 59 59 
224 38 38 
255 136 255 
255 78 217 
255 81 81 
221 51 64 
220 68 76 
255 126 126 
176 55 66 
255 118 127 
255 100 132 
255 86 144 
255 72 114 
194 60 60 
255 94 118 
255 64 231 
255 255 255 
255 108 152 
255 179 179 
255 79 82 
255 146 155 
255 73 73 
255 191 255 
255 96 193 
255 253 254 
255 188 188 
255 160 160 
255 164 210 
255 171 171 
255 116 144 
255 121 170 
255 155 255 
255 209 209 
255 255 255 
225 154 193 
255 210 226 
255 255 255 
255 255 255 
255 125 125 
201 164 164 
255 201 238 
255 185 192 
235 122 181 
255 147 255 
255 199 255 
239 210 210 
255 203 255 
214 149 179 
255 142 255 
255 189 255 
255 143 154 
255 184 237 
202 165 165 
255 191 255 
255 255 255 
255 255 255 
255 100 127 
255 255 255 
255 255 255 
255 202 255 
175 128 175 
255 78 106 
255 196 196 
255 255 255 
255 155 169 
255 255 255 
255 192 224 
255 255 255 
255 255 255 
255 172 230 
255 255 255 
240 211 211 
255 255 255 
255 255 255 
255 230 255 
255 229 255 
255 203 203 
255 214 255 
246 211 255 
255 245 255 
255 210 255 
255 194 213 
255 255 255 
212 169 212 
255 180 255 
255 255 255 
255 220 240 
255 182 247 
255 219 255 
255 255 255 
255 255 255 
255 255 255 
255 194 245 
255 214 236 
255 255 255 
163 163 255 
255 183 255 
255 255 255 
242 214 242 
255 250 255 
255 255 255 
245 245 255 
255 181 236 
233 233 233 
156 147 195 
188 188 228 
255 155 166 
255 205 255 
199 106 160 
255 255 255 
169 166 255 
255 255 255 
255 255 255 
255 255 255 
255 172 172 
255 228 255 
255 255 255 
255 148 189 
255 255 255 
255 151 255 
255 233 255 
255 255 255 
255 207 255 
255 255 255 
255 189 255 
255 213 242 
255 172 207 
255 255 255 
255 156 255 
255 199 199 
255 255 255 
255 239 255 
255 255 255 
246 145 246 
255 255 255 
255 191 255 
196 184 255 
255 192 216 
199 161 237 
255 255 255 
146 146 187 
255 255 255 
255 238 255 
255 188 255 
167 162 218 
255 255 255 
171 106 106 
255 235 255 
255 255 255 
255 255 255 
255 164 239 
255 168 231 
255 255 255 
255 255 255 
255 255 255 
255 200 255 
255 190 255 
255 255 255 
255 255 255 
255 191 255 
255 223 255 
251 223 223 
80 25 255 
255 232 255 
255 224 255 
255 255 255 
255 253 255 
255 181 255 
255 255 255 
240 132 132 
213 134 223 
255 199 255 
251 215 255 
255 255 255 
255 185 255 
255 255 255 
195 195 255 
255 255 255 
255 255 255 
255 205 255 
123 123 171 
255 127 255 
255 204 220 
255 255 255 
255 255 255 
255 255 255 
255 210 255 
174 106 255 
205 168 205 
143 130 229 
191 99 255 
250 103 197 
255 175 255 
225 225 255 
255 224 255 
255 235 255 
255 178 255 
255 207 237 
200 194 255 
189 189 255 
255 190 255 
255 187 255 
255 177 255 
181 44 255 
144 58 255 
156 101 255 
109 67 255 
174 85 255 
177 86 255 
193 62 201 
93 58 186 
94 86 255 
255 85 255 
51 47 221 
154 36 255 
109 66 219 
71 38 134 
255 101 255 
255 203 255 
81 57 255 
255 117 255 
255 68 224 
84 77 255 
78 52 250 
255 78 255 
79 72 255 
188 105 255 
228 224 255 
159 80 255 
255 85 255 
68 60 255 
220 82 255 
133 124 255 
70 61 198 
198 81 255 
255 143 255 
66 57 183 
111 111 255 
0 0 0 
0 0 0 
0 0 0 
0 0 0 
255 94 200 
255 65 83 
255 71 145 
208 64 247 
218 51 77 
255 87 152 
167 52 52 
255 89 108 
255 53 193 
198 60 73 
255 77 79 
231 72 79 
255 153 169 
255 81 81 
234 73 135 
255 82 82 
255 66 91 
255 210 232 
255 96 113 
255 91 177 
255 70 90 
255 75 133 
124 38 70 
255 104 222 
255 113 255 
255 139 151 
255 88 88 
255 52 163 
255 166 166 
255 86 110 
255 144 206 
255 88 93 
255 74 74 
255 104 147 
255 73 178 
255 47 67 
255 237 255 
255 84 255 
255 33 166 
255 158 255 
255 207 255 
255 153 153 
255 95 109 
246 185 185 
255 97 97 
255 165 173 
255 255 255 
255 220 255 
255 127 127 
255 221 242 
201 164 164 
255 255 255 
255 225 245 
255 202 238 
255 255 255 
255 157 157 
153 93 93 
255 255 255 
255 173 230 
255 255 255 
255 255 255 
255 255 255 
255 255 255 
255 90 163 
255 146 211 
255 133 255 
255 255 255 
255 200 255 
255 212 255 
179 179 179 
161 161 161 
255 253 255 
255 223 227 
178 94 158 
255 186 186 
160 160 160 
255 164 209 
255 202 255 
255 225 225 
255 235 255 
255 255 255 
238 222 238 
255 216 219 
255 218 255 
255 224 255 
255 243 255 
255 175 177 
255 255 255 
255 141 141 
255 255 255 
255 231 255 
255 255 255 
255 232 254 
255 156 255 
251 153 153 
255 255 255 
207 207 207 
246 145 196 
237 183 237 
255 184 184 
255 255 255 
255 255 255 
255 232 255 
255 183 204 
255 207 244 
255 255 255 
171 171 255 
255 171 255 
255 182 255 
255 255 255 
255 255 255 
208 208 208 
255 251 255 
197 197 228 
255 249 255 
255 178 255 
255 255 255 
255 210 255 
255 255 255 
209 198 255 
255 255 255 
255 210 255 
247 203 254 
255 255 255 
153 153 251 
255 255 255 
255 214 215 
255 229 255 
255 255 255 
255 198 249 
255 255 255 
255 210 233 
255 255 255 
255 200 255 
255 66 180 
142 142 142 
255 255 255 
255 233 255 
146 146 187 
249 233 255 
255 255 255 
255 220 255 
255 212 255 
255 211 255 
153 153 251 
255 196 255 
221 221 221 
205 205 255 
242 202 255 
226 128 195 
255 255 255 
255 237 255 
255 255 255 
255 255 255 
255 172 172 
255 255 255 
255 255 255 
255 216 255 
255 253 253 
67 67 215 
255 187 255 
255 255 255 
255 242 255 
147 147 255 
247 195 255 
255 255 255 
255 186 255 
255 255 255 
255 255 255 
233 177 255 
248 178 213 
255 171 255 
255 255 255 
255 160 255 
255 255 255 
255 218 255 
255 251 255 
255 215 255 
255 248 255 
255 255 255 
255 255 255 
255 255 255 
255 255 255 
246 175 175 
255 199 255 
255 166 255 
255 158 255 
255 255 255 
255 179 255 
255 255 255 
183 159 255 
146 146 187 
255 203 255 
255 164 210 
255 144 255 
229 182 255 
255 180 255 
252 252 255 
255 173 255 
255 193 255 
255 255 255 
255 255 255 
198 198 255 
139 126 195 
255 255 255 
255 169 255 
255 189 255 
255 192 255 
255 239 255 
255 176 255 
255 255 255 
174 174 255 
193 193 193 
182 121 255 
222 222 255 
195 174 255 
255 255 255 
198 133 255 
255 110 255 
82 82 255 
210 207 255 
255 109 255 
72 58 233 
98 48 255 
83 67 255 
117 82 255 
255 139 255 
129 117 255 
255 74 255 
103 73 255 
102 72 255 
112 97 255 
166 58 196 
140 67 255 
255 67 226 
112 50 255 
136 87 255 
98 86 255 
255 89 255 
108 74 255 
88 51 218 
120 115 255 
131 92 255 
150 73 255 
133 102 255 
81 70 240 
221 69 255 
255 105 255 
160 68 255 
255 55 255 
102 81 255 
255 75 255 
0 0 0 
0 0 0 
0 0 0 
0 0 0 
255 79 79 
255 90 90 
177 48 64 
255 138 163 
137 36 55 
255 38 54 
255 66 81 
255 74 81 
255 85 120 
255 71 83 
255 89 159 
255 70 90 
252 78 134 
227 68 109 
255 103 129 
255 153 186 
255 76 83 
255 87 107 
255 91 255 
167 52 52 
253 79 96 
255 209 234 
255 68 255 
255 56 111 
255 187 255 
255 85 89 
185 50 74 
255 126 129 
255 100 255 
255 99 139 
255 92 98 
255 73 84 
255 156 159 
248 64 255 
255 84 93 
255 80 80 
255 102 127 
255 68 68 
255 36 50 
255 163 184 
255 201 255 
255 208 255 
221 209 221 
160 160 160 
255 148 157 
255 214 255 
255 127 138 
255 250 255 
255 255 255 
255 255 255 
255 202 255 
255 255 255 
255 255 255 
255 255 255 
255 255 255 
255 155 255 
255 168 168 
255 101 157 
255 164 191 
255 194 255 
255 254 255 
255 198 255 
171 123 123 
255 255 255 
255 205 205 
255 255 255 
255 210 231 
255 127 127 
255 255 255 
255 255 255 
255 206 243 
187 86 88 
255 183 255 
255 147 211 
255 191 191 
255 255 255 
255 194 194 
255 180 255 
255 255 255 
255 255 255 
193 193 193 
106 106 171 
255 199 251 
255 255 255 
255 255 255 
255 196 220 
255 255 255 
130 90 130 
255 199 255 
255 211 211 
255 202 255 
255 255 255 
163 163 255 
255 232 255 
167 52 186 
255 255 255 
255 255 255 
255 226 255 
255 235 255 
255 178 213 
255 235 255 
255 222 255 
255 187 240 
255 155 203 
255 172 172 
255 255 255 
255 195 243 
255 255 255 
255 255 255 
255 255 255 
255 230 230 
255 255 255 
255 255 255 
255 255 255 
132 132 240 
255 219 255 
255 255 255 
195 168 227 
255 255 255 
255 235 255 
255 250 255 
255 255 255 
238 161 216 
255 224 255 
255 255 255 
217 198 255 
255 255 255 
179 179 179 
255 255 255 
225 154 159 
255 218 255 
255 255 255 
219 91 255 
255 190 255 
248 220 255 
255 255 255 
255 138 255 
255 250 255 
255 203 255 
255 180 226 
255 220 255 
255 255 255 
255 255 255 
255 255 255 
228 197 197 
255 255 255 
255 239 239 
255 255 255 
255 178 255 
170 162 170 
255 223 255 
255 126 173 
255 244 255 
255 243 255 
255 199 255 
255 255 255 
255 255 255 
255 255 255 
255 211 255 
255 255 255 
161 161 161 
255 255 255 
255 255 255 
255 255 255 
255 255 255 
255 167 234 
255 248 255 
204 163 187 
255 182 203 
255 242 255 
255 255 255 
255 255 255 
255 231 255 
255 201 255 
177 141 255 
215 181 181 
255 205 255 
251 145 255 
255 223 255 
255 255 255 
175 167 255 
255 255 255 
255 145 248 
255 255 255 
64 64 255 
210 144 255 
255 209 255 
255 240 255 
255 255 255 
255 170 255 
255 195 255 
230 104 255 
255 219 255 
255 182 255 
255 255 255 
255 255 255 
255 137 255 
255 255 255 
209 209 255 
255 232 255 
255 255 255 
161 161 161 
255 104 255 
255 255 255 
244 244 255 
255 255 255 
235 163 255 
174 166 209 
255 225 255 
247 240 255 
255 195 255 
255 225 255 
255 255 255 
255 255 255 
255 196 255 
179 134 255 
255 208 255 
94 55 255 
218 79 255 
112 84 255 
112 97 255 
116 71 227 
87 84 255 
255 84 255 
159 81 255 
108 61 251 
255 132 255 
119 52 208 
155 117 255 
221 64 255 
117 106 255 
88 63 255 
254 56 255 
104 87 255 
255 171 255 
151 101 255 
250 90 255 
125 121 255 
124 49 255 
186 127 255 
96 48 168 
121 73 255 
61 59 240 
108 73 255 
107 107 255 
152 147 255 
255 93 255 
161 85 255 
107 65 255 
94 88 255 
255 102 255 
0 0 0 
0 0 0 
0 0 0 
0 0 0 
0 0 0 
255 98 255 
133 41 41 
255 74 84 
251 66 140 
255 74 77 
255 68 104 
255 84 110 
255 99 113 
255 50 63 
255 116 144 
183 56 61 
255 83 109 
255 88 118 
255 63 107 
255 82 88 
255 79 91 
216 62 121 
255 132 132 
255 71 88 
255 96 112 
175 54 66 
255 79 86 
193 59 81 
255 131 193 
255 78 107 
255 96 187 
255 96 131 
255 106 255 
255 94 94 
255 70 70 
255 255 255 
255 76 83 
255 78 89 
255 122 140 
255 92 136 
255 75 178 
255 96 131 
255 89 144 
255 105 127 
255 195 195 
255 220 255 
255 212 255 
255 255 255 
135 135 255 
255 255 255 
255 222 255 
255 244 255 
255 255 255 
255 232 255 
255 255 255 
255 255 255 
153 93 93 
255 184 184 
255 165 202 
255 157 204 
255 137 137 
255 239 255 
255 195 255 
255 201 243 
171 123 123 
255 255 255 
252 252 252 
255 255 255 
255 204 255 
255 162 255 
255 191 255 
255 171 171 
255 255 255 
224 152 255 
255 255 255 
255 213 255 
255 230 255 
255 255 255 
255 255 255 
251 153 153 
255 176 255 
255 218 252 
255 228 255 
255 255 255 
255 255 255 
255 255 255 
255 213 213 
255 255 255 
255 243 255 
255 156 156 
255 168 220 
255 255 255 
255 255 255 
255 240 255 
255 255 255 
255 255 255 
255 255 255 
255 255 255 
255 245 255 
255 255 255 
255 213 248 
255 244 247 
255 238 255 
255 255 255 
255 255 255 
255 255 255 
255 205 205 
255 193 193 
255 255 255 
202 165 165 
255 230 255 
255 255 255 
242 137 181 
255 168 205 
255 246 255 
255 255 255 
153 93 93 
255 199 255 
142 142 142 
255 255 255 
255 178 255 
255 255 255 
220 145 227 
255 198 242 
255 255 255 
255 226 255 
255 209 255 
244 244 255 
255 212 255 
255 244 255 
241 200 255 
255 228 244 
255 255 255 
255 255 255 
255 180 189 
255 255 255 
255 255 255 
255 255 255 
242 214 242 
255 255 255 
255 255 255 
255 255 255 
255 255 255 
234 161 255 
255 203 255 
255 229 255 
223 184 255 
255 193 255 
255 255 255 
255 235 255 
255 255 255 
255 255 255 
224 206 255 
210 175 255 
255 238 255 
255 126 255 
255 255 255 
255 227 255 
255 236 255 
255 255 255 
255 255 255 
255 241 255 
255 215 255 
187 146 146 
255 255 255 
255 177 241 
255 234 255 
255 151 255 
255 255 255 
255 251 255 
255 255 255 
255 199 199 
85 85 229 
98 98 255 
255 255 255 
255 253 253 
255 147 154 
255 75 255 
201 194 255 
255 255 255 
183 154 255 
255 255 255 
242 213 242 
170 159 255 
255 255 255 
255 217 255 
255 255 255 
255 227 255 
136 56 136 
255 202 255 
255 255 255 
255 255 255 
247 247 255 
255 190 255 
255 149 182 
255 255 255 
255 208 255 
255 191 255 
255 255 255 
226 176 255 
181 181 215 
255 255 255 
255 255 255 
255 204 255 
255 250 255 
255 220 255 
255 157 255 
86 86 86 
255 255 255 
255 255 255 
255 255 255 
255 187 251 
255 255 255 
255 201 255 
143 120 255 
255 255 255 
255 234 249 
192 170 251 
255 172 255 
94 94 255 
208 183 238 
255 255 255 
54 54 254 
207 55 255 
255 103 255 
112 67 255 
255 109 255 
120 57 183 
255 57 202 
158 143 255 
255 84 255 
73 47 216 
204 94 255 
165 93 255 
60 47 255 
178 75 247 
85 85 255 
255 204 255 
151 97 255 
73 51 195 
255 46 183 
185 66 255 
255 57 233 
218 80 255 
89 62 255 
130 64 206 
255 67 255 
221 71 255 
67 49 197 
255 85 255 
81 54 216 
92 63 255 
255 255 255 
255 64 255 
121 114 255 
215 70 255 
0 0 0 
0 0 0 
0 0 0 
0 0 0 
0 0 0 
255 50 69 
255 81 191 
255 95 108 
198 61 196 
255 90 123 
255 109 109 
255 90 90 
255 131 132 
255 85 85 
255 255 255 
255 65 73 
255 84 84 
255 255 255 
209 65 73 
255 59 113 
255 85 255 
255 96 102 
255 106 209 
255 59 165 
255 80 255 
166 44 67 
255 82 157 
255 195 227 
255 92 92 
255 138 138 
255 42 80 
255 76 119 
255 73 194 
255 255 255 
255 98 255 
255 114 114 
255 144 144 
255 82 143 
255 163 169 
255 122 255 
255 80 102 
255 56 65 
255 84 84 
181 56 56 
255 255 255 
255 141 184 
255 255 255 
255 255 255 
255 168 176 
255 255 255 
255 141 184 
255 185 255 
201 147 189 
255 128 255 
255 116 116 
240 152 177 
255 166 166 
223 127 203 
255 161 199 
255 246 246 
255 144 144 
255 255 255 
255 255 255 
255 202 252 
255 240 240 
255 255 255 
255 209 255 
255 181 222 
255 255 255 
254 254 255 
255 255 255 
255 198 255 
168 83 255 
255 177 223 
251 153 153 
255 255 255 
255 255 255 
255 127 237 
255 117 255 
255 255 255 
255 255 255 
255 192 199 
255 157 196 
255 132 199 
246 184 184 
195 147 156 
227 183 250 
255 154 255 
255 231 255 
255 234 255 
255 201 232 
255 255 255 
255 255 255 
255 255 255 
255 255 255 
255 255 255 
255 255 255 
255 204 255 
255 192 192 
255 203 233 
255 255 255 
255 230 255 
255 255 255 
255 255 255 
255 212 241 
255 248 255 
255 255 255 
217 184 217 
160 160 160 
215 215 255 
255 255 255 
255 255 255 
255 255 255 
255 188 188 
255 255 255 
255 255 255 
255 181 188 
255 255 255 
255 157 231 
255 208 208 
255 203 255 
255 255 255 
255 255 255 
255 255 255 
255 224 255 
255 255 255 
255 199 255 
255 255 255 
194 194 194 
255 228 228 
118 118 118 
255 225 255 
255 222 255 
175 175 255 
255 245 245 
255 255 255 
255 255 255 
246 145 196 
255 191 191 
255 239 255 
228 188 188 
255 175 175 
255 255 255 
255 255 255 
255 255 255 
255 255 255 
255 255 255 
255 255 255 
255 255 255 
171 123 123 
255 255 255 
255 255 255 
255 186 201 
204 204 255 
255 171 255 
255 207 255 
246 246 255 
255 255 255 
255 255 255 
255 237 237 
255 255 255 
255 223 223 
255 214 255 
190 174 255 
255 255 255 
246 184 184 
255 229 255 
255 239 255 
255 205 235 
255 255 255 
255 255 255 
255 255 255 
255 249 255 
255 249 255 
255 255 255 
146 146 187 
255 255 255 
255 255 255 
253 216 255 
255 255 255 
255 255 255 
227 196 255 
255 216 255 
255 255 255 
211 211 240 
255 166 255 
255 208 208 
255 197 255 
255 170 255 
255 255 255 
255 160 198 
187 146 146 
255 255 255 
255 178 182 
255 255 255 
255 174 255 
255 255 255 
255 233 255 
139 139 255 
255 237 255 
255 255 255 
250 170 255 
255 211 229 
255 97 255 
255 255 255 
255 238 255 
255 163 255 
255 250 255 
204 154 255 
255 255 255 
255 255 255 
161 161 255 
255 150 255 
255 234 255 
203 166 255 
255 255 255 
255 204 255 
189 160 255 
255 168 255 
255 144 255 
255 68 255 
255 255 255 
54 38 255 
161 60 255 
147 74 255 
66 33 255 
80 46 147 
96 64 250 
151 82 255 
75 49 255 
103 87 255 
236 173 255 
129 114 255 
255 100 255 
255 76 255 
255 74 255 
175 100 255 
230 230 255 
57 57 255 
158 82 255 
179 63 225 
255 43 211 
117 85 255 
186 63 246 
141 59 202 
32 32 255 
50 50 244 
222 70 227 
94 88 255 
255 152 255 
79 72 231 
76 50 255 
93 71 255 
70 60 255 
76 76 255 
0 0 0 
0 0 0 
0 0 0 
0 0 0 
0 0 0 
0 0 0 
255 94 94 
255 100 156 
182 56 56 
248 77 77 
255 123 158 
255 102 187 
255 110 139 
248 77 137 
255 156 255 
250 55 141 
255 96 210 
255 66 76 
255 78 109 
255 97 255 
255 130 133 
185 57 66 
194 47 67 
255 90 150 
255 81 255 
255 121 122 
255 102 192 
255 117 255 
255 90 241 
255 149 151 
255 106 255 
255 181 181 
255 82 136 
255 63 63 
255 126 255 
255 92 214 
255 47 255 
255 73 240 
255 255 255 
202 63 84 
255 73 120 
255 255 255 
255 87 87 
80 25 25 
255 66 255 
255 183 203 
255 170 255 
255 255 255 
255 195 195 
255 211 255 
255 215 255 
255 159 188 
255 255 255 
208 195 208 
255 109 122 
255 255 255 
255 164 164 
255 113 190 
255 255 255 
255 246 255 
255 165 255 
255 208 255 
255 255 255 
255 126 126 
255 249 255 
250 239 255 
255 96 255 
255 255 255 
202 165 165 
255 169 169 
255 255 255 
255 199 255 
255 255 255 
255 255 255 
255 173 255 
255 137 137 
255 255 255 
255 165 165 
255 248 255 
255 255 255 
255 182 255 
195 156 255 
255 241 255 
255 255 255 
228 197 197 
255 255 255 
255 181 255 
253 194 255 
255 197 197 
255 255 255 
255 205 255 
255 255 255 
237 172 208 
255 235 255 
255 255 255 
255 255 255 
251 153 153 
255 255 255 
172 172 255 
255 163 198 
255 255 255 
216 216 255 
255 184 233 
239 201 255 
255 255 255 
255 255 255 
255 238 255 
255 255 255 
255 183 255 
255 223 255 
255 128 238 
255 167 255 
255 255 255 
255 251 255 
255 202 204 
255 255 255 
255 255 255 
217 174 209 
255 255 255 
255 180 255 
255 190 222 
255 255 255 
255 255 255 
255 255 255 
255 255 255 
201 181 190 
159 143 224 
255 255 255 
255 255 255 
255 232 255 
255 255 255 
157 100 157 
255 255 255 
255 227 255 
255 255 255 
187 132 132 
255 143 255 
255 193 255 
255 255 255 
235 196 255 
255 255 255 
255 220 255 
255 240 240 
255 255 255 
255 206 255 
255 255 255 
187 132 132 
255 181 255 
130 108 255 
255 139 255 
205 168 205 
255 210 255 
255 255 255 
255 247 255 
255 255 255 
255 255 255 
255 255 255 
255 255 255 
255 255 255 
248 220 255 
255 174 209 
255 255 255 
255 255 255 
235 157 157 
255 204 255 
255 255 255 
255 255 255 
255 255 255 
255 247 255 
165 165 202 
255 234 255 
255 151 159 
255 220 255 
255 255 255 
179 179 179 
255 255 255 
255 251 255 
255 196 254 
202 138 255 
172 172 255 
255 145 207 
220 187 255 
255 254 255 
255 181 255 
255 130 211 
255 255 255 
255 255 255 
255 240 255 
255 177 177 
255 255 255 
122 93 255 
255 184 255 
255 255 255 
255 255 255 
202 119 255 
255 208 255 
194 194 255 
255 255 255 
255 156 156 
247 157 255 
255 141 255 
255 255 255 
93 93 153 
255 190 255 
255 232 255 
255 193 255 
255 255 255 
163 154 255 
255 255 255 
255 146 146 
255 186 255 
255 192 232 
214 213 255 
255 190 255 
184 141 255 
255 202 255 
255 234 255 
255 221 255 
255 173 255 
164 102 255 
143 46 255 
219 149 233 
149 149 255 
255 94 255 
89 63 204 
119 71 255 
122 47 255 
77 76 255 
187 65 255 
255 58 255 
255 32 193 
116 60 255 
132 79 255 
133 126 255 
255 105 255 
113 86 255 
255 69 236 
181 97 255 
127 66 243 
112 77 255 
143 91 255 
118 118 255 
255 84 255 
93 90 255 
166 122 255 
248 75 241 
76 67 255 
92 58 255 
117 67 247 
255 87 255 
59 48 155 
110 92 255 
72 54 173 
95 87 255 
81 63 205 
67 65 224 
0 0 0 
0 0 0 
0 0 0 
0 0 0 
0 0 0 
0 0 0 
255 104 105 
255 92 125 
239 71 255 
255 91 157 
255 203 255 
255 91 236 
255 111 255 
199 62 78 
255 63 63 
255 81 166 
255 62 89 
255 103 183 
255 88 255 
255 103 255 
250 53 78 
159 49 125 
255 114 252 
255 147 255 
255 42 77 
255 94 118 
255 186 220 
255 87 103 
255 52 63 
218 67 67 
255 145 145 
206 64 64 
255 66 116 
255 255 255 
133 41 41 
255 80 105 
255 103 103 
255 53 53 
255 51 65 
255 73 255 
255 84 100 
255 57 135 
255 47 54 
255 60 82 
254 57 97 
255 159 221 
255 209 255 
255 155 161 
255 127 127 
255 255 255 
255 255 255 
255 100 114 
255 247 255 
255 201 249 
255 201 252 
255 242 255 
202 165 165 
255 126 255 
142 142 142 
146 146 187 
255 255 255 
255 197 220 
255 166 255 
255 243 255 
255 255 255 
255 255 255 
255 255 255 
255 255 255 
255 252 252 
227 210 255 
255 178 235 
255 255 255 
162 87 215 
255 255 255 
255 255 255 
255 255 255 
255 224 255 
255 243 255 
255 189 189 
255 163 255 
255 255 255 
255 192 255 
255 224 255 
255 149 149 
255 255 255 
255 249 255 
254 196 255 
255 255 255 
255 241 241 
255 218 218 
255 162 162 
255 255 255 
255 164 255 
255 230 255 
255 157 196 
255 160 255 
255 178 185 
255 255 255 
255 146 255 
255 137 137 
189 189 255 
255 237 237 
255 180 255 
255 255 255 
255 210 251 
255 154 255 
255 179 188 
255 255 255 
255 194 243 
255 178 255 
255 111 111 
252 252 252 
255 255 255 
255 184 255 
255 211 255 
255 255 255 
255 255 255 
255 255 255 
255 255 255 
255 255 255 
255 239 255 
255 255 255 
255 202 255 
255 255 255 
255 180 180 
255 116 116 
255 255 255 
255 255 255 
255 255 255 
190 150 190 
203 149 255 
255 201 255 
255 255 255 
255 243 255 
205 157 196 
255 255 255 
182 182 216 
255 255 255 
255 255 255 
255 231 255 
86 86 86 
255 255 255 
255 196 199 
255 145 255 
255 198 255 
255 255 255 
217 155 255 
255 221 255 
255 175 248 
255 192 255 
255 244 255 
203 154 177 
255 190 255 
255 203 255 
255 255 255 
255 255 255 
156 132 191 
255 255 255 
255 177 177 
255 255 255 
255 255 255 
255 215 255 
255 255 255 
201 181 201 
165 158 255 
255 255 255 
255 234 255 
255 163 255 
255 189 255 
255 125 255 
179 179 255 
255 255 255 
255 255 255 
255 255 255 
255 255 255 
255 177 255 
255 255 255 
255 126 126 
255 255 255 
255 196 255 
255 212 255 
255 255 255 
255 255 255 
255 240 255 
255 255 255 
255 118 118 
250 200 255 
228 197 255 
255 207 255 
255 149 255 
255 255 255 
255 255 255 
166 158 255 
255 154 255 
255 255 255 
255 255 255 
255 255 255 
255 170 255 
255 255 255 
255 189 194 
215 67 67 
255 255 255 
255 193 255 
255 222 255 
228 210 255 
255 182 255 
255 176 255 
202 194 255 
255 203 255 
225 83 194 
255 128 210 
199 197 239 
210 165 210 
255 255 255 
255 255 255 
248 239 255 
255 255 255 
196 169 255 
255 255 255 
255 194 255 
228 195 255 
255 255 255 
255 240 255 
92 64 255 
134 56 191 
255 71 255 
182 93 255 
255 102 255 
159 85 255 
153 89 255 
250 91 255 
123 46 255 
153 88 255 
139 65 255 
134 58 255 
120 80 255 
64 24 125 
255 69 223 
149 75 255 
112 69 241 
128 61 215 
255 153 255 
253 74 255 
72 70 255 
130 123 255 
255 90 255 
255 88 255 
206 189 255 
129 67 255 
151 82 255 
85 61 245 
255 80 255 
59 45 144 
102 102 255 
255 64 255 
255 63 223 
0 0 0 
0 0 0 
0 0 0 
0 0 0 
0 0 0 
0 0 0 
255 67 179 
236 53 98 
254 66 85 
255 48 83 
255 126 131 
255 115 124 
255 252 255 
255 108 129 
255 168 255 
255 100 105 
255 92 98 
255 84 205 
255 115 128 
255 87 255 
255 57 76 
222 61 135 
255 80 80 
255 114 255 
255 82 82 
199 62 124 
178 53 87 
255 73 142 
255 90 201 
255 116 255 
255 107 107 
255 87 219 
255 105 188 
255 72 117 
255 70 101 
255 74 104 
255 72 130 
244 39 39 
255 90 155 
255 113 113 
255 130 130 
251 53 110 
178 53 107 
228 71 71 
255 48 52 
255 164 164 
255 102 248 
255 161 169 
255 255 255 
228 71 255 
255 255 255 
255 215 243 
255 217 255 
255 237 255 
255 152 216 
255 219 255 
255 195 255 
255 147 255 
255 203 229 
239 222 229 
255 240 255 
0 0 0 
255 218 218 
240 203 203 
255 255 255 
255 226 255 
255 255 255 
255 249 255 
255 150 255 
255 255 255 
198 160 255 
255 218 255 
255 221 255 
255 255 255 
255 255 255 
255 252 252 
255 255 255 
255 168 168 
142 142 142 
255 175 178 
255 255 255 
255 90 90 
255 255 255 
255 175 255 
255 202 202 
255 255 255 
255 255 255 
255 121 121 
255 226 255 
161 161 161 
166 63 151 
255 159 194 
255 255 255 
255 243 255 
255 255 255 
255 218 223 
255 255 255 
255 190 190 
255 255 255 
255 157 232 
190 150 190 
255 255 255 
255 194 255 
215 172 172 
255 185 255 
255 202 202 
255 240 255 
255 255 255 
255 255 255 
255 167 255 
255 255 255 
255 120 255 
255 245 255 
255 129 255 
255 255 255 
190 190 255 
255 124 143 
255 227 255 
186 98 255 
86 86 86 
255 255 255 
255 255 255 
255 255 255 
255 178 255 
255 192 216 
227 156 255 
255 255 255 
255 255 255 
255 255 255 
255 255 255 
193 193 193 
255 208 255 
255 161 199 
255 227 255 
227 145 255 
255 255 255 
255 210 210 
255 233 255 
255 255 255 
255 255 255 
255 218 218 
255 218 224 
255 191 255 
255 188 255 
255 237 255 
255 255 255 
255 255 255 
255 239 255 
255 204 204 
255 255 255 
165 165 202 
255 135 135 
255 251 255 
255 212 255 
255 255 255 
255 255 255 
255 196 255 
255 163 201 
255 255 255 
255 222 255 
255 255 255 
255 209 255 
202 154 154 
255 255 255 
255 255 255 
255 219 255 
255 190 255 
255 216 255 
255 249 255 
255 255 255 
255 255 255 
255 255 255 
229 171 229 
190 137 181 
255 167 189 
255 255 255 
242 231 255 
255 205 255 
255 190 255 
255 148 255 
255 238 255 
255 255 255 
157 157 255 
255 255 255 
255 163 255 
255 255 255 
255 202 255 
209 174 255 
255 254 255 
255 166 255 
255 253 255 
255 191 255 
255 193 255 
255 231 255 
156 147 195 
153 153 251 
255 224 255 
229 179 255 
255 255 255 
255 193 225 
159 156 255 
153 93 93 
255 255 255 
168 168 235 
255 209 255 
255 223 255 
255 255 255 
142 142 255 
123 123 171 
255 254 255 
255 84 200 
255 175 255 
165 146 255 
255 232 255 
255 221 255 
255 140 255 
255 168 255 
255 255 255 
255 243 255 
255 160 255 
255 181 255 
255 242 255 
163 154 255 
84 77 255 
62 62 255 
77 48 168 
255 104 255 
136 101 255 
50 47 174 
112 94 255 
122 53 172 
219 80 255 
255 100 255 
185 83 255 
160 136 255 
255 255 255 
255 88 255 
255 62 202 
255 199 255 
146 119 255 
134 72 239 
255 255 255 
63 41 195 
255 67 255 
255 83 255 
111 79 255 
245 155 255 
218 87 255 
75 65 240 
127 68 255 
172 122 255 
57 57 255 
133 91 255 
212 94 255 
246 62 255 
92 57 201 
0 0 0 
0 0 0 
0 0 0 
0 0 0 
0 0 0 
0 0 0 
255 77 138 
255 100 255 
255 65 78 
255 188 188 
255 97 112 
203 58 71 
255 78 86 
255 119 121 
255 85 150 
255 81 114 
255 79 148 
255 83 178 
237 74 98 
255 94 116 
255 187 188 
176 54 79 
255 105 221 
255 149 174 
201 42 66 
255 145 183 
255 126 144 
170 53 63 
255 68 80 
255 159 169 
255 128 141 
255 82 86 
255 104 213 
164 49 169 
108 33 108 
255 82 95 
255 98 137 
255 135 141 
255 142 217 
255 46 83 
255 255 255 
255 190 255 
255 71 79 
255 63 63 
255 65 255 
255 147 173 
255 236 255 
188 115 197 
255 131 147 
255 255 255 
255 138 170 
255 165 239 
160 160 160 
255 99 113 
255 175 175 
255 255 255 
255 255 255 
210 128 128 
255 255 255 
255 163 209 
255 194 194 
255 255 255 
255 137 220 
255 189 255 
255 154 180 
153 153 251 
255 255 255 
255 218 255 
255 255 255 
255 255 255 
255 255 255 
255 205 255 
255 238 255 
255 231 255 
255 208 255 
255 178 255 
255 124 137 
255 162 255 
255 255 255 
255 178 182 
153 93 93 
255 200 255 
255 255 255 
255 149 235 
255 255 255 
255 246 255 
248 198 248 
255 255 255 
255 255 255 
255 152 175 
179 97 134 
255 211 211 
255 169 181 
255 255 255 
255 255 255 
255 255 255 
255 255 255 
255 213 255 
255 255 255 
255 255 255 
255 161 161 
255 255 255 
255 255 255 
231 95 255 
255 214 255 
255 198 255 
228 197 197 
255 255 255 
255 198 205 
255 212 223 
255 255 255 
255 255 255 
255 165 255 
255 255 255 
178 178 178 
255 255 255 
255 206 255 
255 255 255 
255 255 255 
255 254 255 
255 255 255 
255 174 174 
255 192 255 
142 142 142 
255 161 234 
255 255 255 
255 255 255 
255 255 255 
255 187 251 
255 241 255 
255 255 255 
255 193 255 
255 255 255 
255 198 255 
255 255 255 
223 217 255 
244 222 255 
255 211 255 
255 255 255 
255 250 255 
239 202 202 
201 153 255 
255 217 255 
255 218 255 
205 134 255 
255 255 255 
255 255 255 
255 255 255 
255 150 255 
255 255 255 
255 223 255 
255 200 231 
255 235 255 
255 255 255 
255 247 255 
255 255 255 
174 127 255 
255 255 255 
146 146 187 
255 255 255 
255 255 255 
255 203 255 
255 255 255 
146 146 187 
255 255 255 
255 255 255 
106 106 228 
255 166 255 
255 207 255 
255 175 255 
255 211 255 
255 210 255 
255 255 255 
193 193 255 
255 203 203 
194 138 255 
139 133 255 
171 171 255 
195 100 255 
255 238 243 
166 166 255 
255 185 255 
197 197 228 
253 157 255 
154 125 255 
255 175 255 
255 133 255 
255 255 255 
255 255 255 
255 255 255 
255 255 255 
252 245 255 
255 197 255 
204 204 255 
202 165 165 
218 134 255 
211 184 240 
255 213 255 
218 218 255 
255 211 255 
244 232 255 
255 140 255 
255 255 255 
255 225 255 
255 126 255 
255 244 255 
255 255 255 
255 233 255 
255 255 255 
189 189 255 
255 185 255 
255 255 255 
32 32 255 
144 144 255 
133 96 255 
255 112 163 
255 255 255 
255 254 255 
118 44 255 
255 255 255 
255 203 255 
255 129 255 
255 139 255 
58 44 255 
255 159 255 
133 82 255 
61 51 204 
184 90 255 
125 74 255 
79 57 211 
255 255 255 
122 71 255 
114 63 203 
214 48 211 
116 47 240 
255 147 255 
132 122 255 
126 81 255 
96 66 237 
194 118 255 
81 58 255 
223 54 235 
59 45 144 
41 41 133 
106 94 255 
97 97 255 
178 70 255 
124 62 255 
255 92 255 
117 76 255 
196 86 255 
157 65 249 
86 72 233 
255 69 255 
144 57 255 
188 67 255 
0 0 0 
0 0 0 
0 0 0 
0 0 0 
0 0 0 
0 0 0 
255 55 92 
255 95 170 
190 59 70 
211 59 158 
255 51 140 
255 86 94 
255 89 156 
198 42 83 
255 75 96 
255 236 255 
255 65 88 
255 56 113 
225 68 90 
255 62 169 
255 56 165 
255 65 161 
156 48 64 
255 112 229 
163 51 81 
255 58 152 
255 80 126 
255 194 194 
255 51 167 
175 54 79 
255 149 255 
255 127 255 
227 70 98 
255 111 111 
255 212 213 
255 75 107 
255 64 70 
124 38 70 
230 31 41 
253 79 96 
255 69 107 
255 138 255 
255 56 255 
255 86 92 
255 60 60 
255 152 255 
255 255 255 
255 169 255 
255 255 255 
246 185 185 
255 255 255 
255 201 201 
255 255 255 
255 215 221 
255 255 255 
216 182 182 
106 106 228 
255 190 209 
255 190 194 
255 164 164 
255 106 122 
255 230 255 
255 255 255 
255 255 255 
255 236 255 
255 255 255 
255 163 255 
255 187 246 
255 228 255 
255 227 227 
215 181 181 
93 93 153 
246 185 185 
255 237 255 
255 255 255 
255 255 255 
255 255 255 
255 206 255 
255 255 255 
222 199 255 
255 219 255 
255 192 192 
255 185 209 
255 195 203 
255 254 255 
215 67 67 
255 233 238 
255 111 111 
255 255 255 
255 228 255 
255 255 255 
255 193 193 
215 215 255 
255 255 255 
255 208 246 
255 255 255 
255 234 234 
255 255 255 
255 137 246 
255 255 255 
255 170 178 
255 255 255 
255 255 255 
255 255 255 
255 159 164 
255 194 255 
255 255 255 
203 203 255 
160 160 160 
255 205 214 
255 215 255 
255 255 255 
255 255 255 
255 192 255 
255 255 255 
255 255 255 
246 145 196 
253 253 255 
255 210 246 
255 224 230 
255 222 255 
219 219 255 
255 235 255 
187 146 146 
255 255 255 
255 255 255 
255 233 255 
255 229 255 
255 255 255 
255 255 255 
255 191 223 
181 181 215 
255 207 255 
255 255 255 
255 255 255 
255 253 255 
154 154 202 
227 196 255 
222 199 250 
255 195 255 
126 126 255 
255 212 255 
255 163 255 
255 255 255 
255 255 255 
255 186 188 
255 255 255 
255 213 255 
255 233 255 
255 255 255 
255 255 255 
255 180 255 
255 167 234 
255 128 255 
208 208 255 
255 232 255 
255 193 255 
255 255 255 
255 231 231 
232 232 232 
118 118 118 
255 255 255 
255 255 255 
255 255 255 
255 255 255 
162 162 255 
198 195 255 
255 170 228 
196 196 255 
255 255 255 
255 255 255 
255 255 255 
255 219 255 
255 223 255 
255 242 255 
255 255 255 
255 254 255 
255 163 255 
255 184 255 
255 253 255 
255 169 255 
255 254 255 
255 255 255 
186 178 186 
255 226 255 
250 250 255 
255 177 255 
199 126 199 
189 160 255 
184 98 255 
166 139 255 
255 255 255 
255 215 255 
255 187 255 
255 239 239 
163 163 255 
255 255 255 
202 157 255 
255 255 255 
224 135 255 
229 219 255 
255 240 255 
214 138 255 
255 255 255 
255 255 255 
181 150 255 
255 198 255 
155 96 255 
255 255 255 
255 255 255 
255 255 255 
204 150 255 
255 232 255 
255 255 255 
255 255 255 
255 221 255 
255 121 255 
255 218 255 
255 186 255 
90 90 255 
255 248 255 
255 255 255 
255 217 255 
145 68 255 
76 39 255 
255 255 255 
138 79 255 
65 63 255 
255 207 255 
136 115 255 
255 53 255 
64 64 207 
129 59 255 
146 87 255 
97 76 255 
255 184 255 
92 60 255 
255 255 255 
47 47 151 
181 149 255 
151 137 255 
119 100 255 
255 54 229 
96 56 255 
47 37 188 
83 72 255 
75 67 217 
50 36 115 
179 88 255 
217 97 255 
112 80 255 
123 79 255 
86 71 255 
68 68 219 
84 83 255 
90 74 252 
0 0 0 
0 0 0 
0 0 0 
0 0 0 
0 0 0 
0 0 0 
255 122 204 
255 92 169 
255 124 255 
255 46 79 
255 109 109 
255 74 103 
255 156 201 
255 80 114 
80 25 25 
255 85 155 
176 55 66 
218 68 68 
255 255 255 
255 85 102 
197 61 70 
255 60 113 
255 82 127 
255 123 131 
246 76 100 
255 58 132 
110 34 34 
255 68 131 
255 82 144 
255 96 115 
255 62 144 
255 84 235 
150 46 46 
255 60 77 
255 139 255 
255 85 188 
255 100 100 
255 69 77 
255 142 255 
255 94 94 
255 106 131 
255 183 234 
255 88 88 
255 60 79 
255 57 80 
255 168 204 
86 86 86 
206 202 255 
255 182 255 
255 67 75 
255 255 255 
255 202 202 
255 211 255 
255 123 145 
255 184 255 
255 255 255 
255 255 255 
255 235 255 
255 255 255 
255 252 255 
255 166 166 
255 202 208 
255 196 215 
255 164 210 
255 255 255 
255 254 255 
255 222 255 
255 255 255 
255 192 255 
255 186 255 
255 192 255 
255 255 255 
255 194 208 
179 114 255 
255 176 255 
255 219 219 
255 212 255 
255 255 255 
255 255 255 
255 137 137 
255 185 192 
255 255 255 
161 161 161 
255 255 255 
255 154 255 
255 197 255 
255 255 255 
187 187 227 
246 184 184 
255 215 215 
255 255 255 
255 157 157 
255 255 255 
255 255 255 
255 198 255 
255 255 255 
255 255 255 
255 205 205 
255 202 255 
255 89 130 
255 255 255 
255 255 255 
255 184 207 
255 234 255 
228 197 255 
255 238 240 
255 255 255 
255 246 255 
255 255 255 
215 181 181 
255 255 255 
245 199 217 
179 179 179 
255 176 250 
255 255 255 
118 118 118 
161 161 161 
255 130 176 
255 209 255 
255 255 255 
255 243 243 
255 184 184 
179 179 179 
255 255 255 
255 233 255 
255 204 204 
210 210 239 
230 137 255 
255 195 255 
255 97 97 
255 252 252 
255 200 255 
255 255 255 
118 118 118 
212 178 255 
255 185 255 
255 233 255 
187 146 146 
177 177 255 
86 86 86 
255 252 255 
255 255 255 
255 255 255 
255 196 255 
255 255 255 
255 255 255 
142 142 142 
255 211 255 
255 201 255 
255 255 255 
153 153 201 
255 255 255 
255 208 255 
255 155 255 
255 255 255 
255 223 255 
255 201 231 
255 255 255 
255 255 255 
202 202 255 
115 97 180 
255 174 245 
255 255 255 
255 255 255 
187 146 146 
255 255 255 
255 138 255 
255 215 255 
250 250 255 
255 255 255 
255 207 255 
207 203 255 
183 183 255 
255 255 255 
255 255 255 
255 199 217 
255 255 255 
255 175 202 
217 173 255 
255 223 255 
255 183 255 
255 251 255 
255 255 255 
255 255 255 
255 229 255 
255 217 217 
255 237 255 
165 165 202 
255 174 255 
209 202 255 
244 244 255 
255 168 255 
147 104 221 
255 255 255 
255 243 255 
255 255 255 
147 145 255 
255 152 255 
255 228 255 
190 182 222 
255 255 255 
255 113 177 
255 119 216 
255 197 255 
255 236 255 
203 177 255 
212 147 255 
255 240 255 
255 255 255 
255 224 251 
159 148 255 
255 255 255 
255 213 255 
255 164 255 
255 167 167 
255 190 255 
255 184 255 
255 255 255 
255 207 210 
86 86 86 
255 189 255 
255 253 255 
161 161 161 
92 83 255 
88 62 255 
255 123 255 
255 49 255 
164 69 223 
255 145 255 
255 48 255 
85 41 255 
99 90 255 
187 55 255 
194 89 255 
55 42 255 
156 136 255 
255 80 255 
127 81 255 
255 255 255 
207 138 255 
255 238 255 
103 82 255 
255 72 255 
255 255 255 
72 64 255 
52 40 178 
149 96 255 
47 47 151 
255 122 255 
30 9 96 
71 71 229 
92 70 255 
255 53 255 
94 76 255 
76 68 220 
255 69 255 
99 94 255 
0 0 0 
0 0 0 
0 0 0 
0 0 0 
0 0 0 
255 123 127 
155 48 59 
255 99 110 
255 54 96 
255 81 96 
255 73 186 
255 96 193 
255 127 250 
255 75 91 
255 67 137 
255 91 182 
196 47 75 
255 74 93 
255 72 72 
153 45 74 
255 82 145 
255 96 210 
255 87 87 
170 52 62 
255 94 116 
255 87 154 
255 68 90 
255 77 95 
237 46 255 
255 255 255 
255 98 199 
110 34 34 
255 82 220 
255 102 220 
255 100 255 
255 49 255 
255 37 55 
255 105 105 
255 207 255 
255 162 255 
255 63 85 
255 76 83 
255 68 255 
255 105 108 
106 106 171 
255 172 172 
255 255 255 
255 92 92 
255 177 255 
255 255 255 
222 98 236 
255 112 115 
255 167 255 
255 130 201 
255 154 251 
255 226 231 
209 174 217 
255 255 255 
255 255 255 
255 195 254 
255 255 255 
255 168 182 
202 165 165 
255 204 204 
255 255 255 
255 252 255 
232 138 255 
255 168 212 
255 188 255 
255 227 255 
255 166 166 
255 150 210 
255 161 255 
255 185 255 
255 255 255 
255 158 159 
255 255 255 
255 240 255 
255 255 255 
255 190 190 
255 183 255 
255 162 176 
255 235 255 
255 255 255 
255 204 255 
255 255 255 
255 226 232 
255 125 255 
255 234 255 
93 93 153 
255 255 255 
221 221 221 
255 252 255 
255 227 232 
255 255 255 
255 255 255 
255 196 255 
255 255 255 
181 137 190 
255 124 181 
255 233 240 
255 255 255 
255 255 255 
255 255 255 
215 181 255 
255 213 213 
255 255 255 
255 172 172 
255 118 120 
255 169 192 
255 255 255 
255 201 255 
255 219 255 
255 226 255 
255 255 255 
157 137 255 
255 213 242 
255 220 255 
255 167 255 
255 255 255 
255 191 211 
182 182 216 
255 255 255 
255 255 255 
255 172 234 
255 42 150 
255 238 238 
255 255 255 
255 213 242 
255 255 255 
255 255 255 
255 206 206 
255 255 255 
255 255 255 
255 255 255 
255 182 255 
255 229 229 
255 178 255 
255 235 252 
214 191 255 
160 160 160 
255 255 255 
255 183 238 
255 168 232 
255 255 255 
255 255 255 
255 255 255 
255 255 255 
255 211 255 
255 204 255 
255 255 255 
153 93 93 
210 210 239 
255 238 255 
240 203 203 
255 164 167 
255 255 255 
192 163 255 
255 255 255 
255 190 255 
255 192 255 
159 135 255 
255 255 255 
255 160 160 
255 147 255 
255 155 255 
193 193 193 
255 144 217 
255 206 231 
93 93 153 
255 136 255 
255 188 225 
255 255 255 
255 255 255 
255 255 255 
255 255 255 
157 157 255 
255 212 255 
255 255 255 
235 108 211 
255 255 255 
255 234 250 
255 255 255 
255 184 255 
93 93 153 
255 255 255 
255 255 255 
255 255 255 
255 255 255 
255 255 255 
255 232 255 
180 119 250 
255 158 255 
255 148 255 
255 255 255 
255 173 255 
255 214 255 
255 244 255 
255 255 255 
255 255 255 
157 157 255 
255 151 255 
255 146 254 
255 255 255 
159 103 255 
219 151 255 
255 255 255 
255 255 255 
99 99 255 
255 212 241 
255 205 229 
255 255 255 
255 235 255 
86 86 86 
255 156 255 
255 142 255 
255 255 255 
255 255 255 
255 255 255 
255 255 255 
143 133 245 
255 255 255 
255 255 255 
140 78 255 
101 54 255 
112 80 255 
25 25 80 
188 78 255 
59 59 255 
255 161 255 
148 99 255 
199 91 255 
183 126 255 
255 255 255 
255 79 255 
108 102 255 
139 125 255 
76 76 246 
255 162 255 
197 130 255 
104 54 255 
148 79 255 
70 70 255 
255 116 255 
40 38 222 
107 73 254 
182 64 250 
103 36 226 
73 44 170 
79 54 175 
115 86 255 
255 58 255 
69 67 255 
255 155 255 
70 54 209 
255 89 255 
0 0 0 
0 0 0 
0 0 0 
0 0 0 
0 0 0 
255 86 87 
255 50 76 
255 255 255 
255 99 123 
254 61 82 
255 55 83 
255 88 88 
255 92 131 
255 35 37 
255 255 255 
255 60 156 
227 64 65 
255 80 218 
255 87 146 
255 91 106 
190 38 59 
255 255 255 
255 81 238 
255 99 203 
255 110 190 
255 69 135 
255 70 78 
255 117 152 
255 97 224 
255 99 234 
229 71 173 
255 76 118 
255 204 255 
255 103 143 
255 88 88 
255 61 87 
255 27 71 
255 110 110 
206 45 226 
255 205 255 
255 120 131 
255 111 111 
255 127 137 
174 52 54 
255 201 236 
255 149 255 
220 220 220 
255 255 255 
255 191 230 
172 64 172 
228 106 106 
255 175 246 
215 181 181 
255 140 255 
255 255 255 
255 247 248 
255 135 255 
255 174 174 
255 12 38 
255 255 255 
201 164 164 
255 193 255 
255 112 112 
255 188 188 
255 144 144 
255 255 255 
255 255 255 
255 190 210 
241 212 255 
255 251 255 
255 253 254 
255 217 217 
161 94 145 
255 229 229 
255 255 255 
255 255 255 
244 152 216 
255 217 253 
255 138 138 
255 255 255 
252 252 252 
153 93 93 
217 141 193 
255 255 255 
255 255 255 
255 183 255 
255 244 255 
255 229 255 
255 175 210 
255 121 121 
234 107 120 
255 142 152 
224 194 200 
255 255 255 
255 193 236 
255 151 255 
255 255 255 
255 208 255 
255 232 255 
255 204 204 
217 141 255 
255 253 255 
255 230 255 
255 255 255 
255 255 255 
255 180 255 
231 95 255 
255 161 207 
255 255 255 
255 124 255 
213 94 103 
228 188 188 
237 184 250 
255 160 255 
255 195 212 
255 255 255 
255 144 255 
255 218 255 
255 180 235 
255 208 255 
250 179 255 
255 255 255 
255 224 255 
255 255 255 
255 255 255 
255 171 228 
255 255 255 
255 255 255 
255 245 246 
255 255 255 
212 132 178 
255 255 255 
187 187 255 
106 106 171 
255 255 255 
255 255 255 
255 255 255 
255 255 255 
255 255 255 
253 253 255 
255 203 255 
255 255 255 
255 255 255 
255 255 255 
255 255 255 
255 255 255 
255 206 255 
202 164 255 
255 250 255 
255 202 255 
255 255 255 
255 255 255 
255 255 255 
255 255 255 
255 234 247 
255 193 255 
161 161 161 
255 255 255 
255 255 255 
255 226 255 
255 253 255 
255 230 255 
255 255 255 
255 179 255 
255 255 255 
255 217 255 
199 149 230 
255 255 255 
255 255 255 
217 165 217 
255 191 223 
248 248 255 
220 220 255 
255 255 255 
255 255 255 
255 255 255 
255 255 255 
255 255 255 
91 87 176 
150 150 223 
255 148 148 
159 154 255 
255 204 255 
255 168 197 
255 191 255 
255 202 255 
255 139 240 
255 126 173 
255 212 255 
255 148 255 
255 242 255 
255 255 255 
240 122 255 
255 169 255 
255 97 155 
255 255 255 
255 255 255 
255 235 255 
255 136 190 
255 222 222 
222 149 179 
142 142 142 
255 248 255 
187 146 146 
255 255 255 
255 215 255 
255 245 255 
255 169 255 
244 244 244 
216 153 217 
252 231 255 
255 255 255 
255 255 255 
255 255 255 
255 255 255 
255 255 255 
255 237 255 
173 126 255 
117 43 138 
175 175 255 
186 186 255 
210 210 239 
143 119 255 
220 113 255 
117 45 219 
144 91 255 
255 193 255 
167 87 255 
133 63 246 
255 55 255 
255 106 255 
255 64 206 
85 85 255 
186 151 255 
166 98 255 
150 95 255 
152 82 255 
255 77 255 
255 94 255 
255 81 255 
255 103 255 
225 92 255 
255 128 255 
195 89 255 
96 91 255 
128 108 255 
120 64 238 
60 48 203 
113 47 255 
114 79 255 
137 101 255 
170 61 195 
94 89 255 
227 90 255 
121 52 255 
153 150 255 
0 0 0 
0 0 0 
0 0 0 
0 0 0 
0 0 0 
255 84 150 
255 69 255 
255 49 90 
179 56 126 
255 66 129 
255 148 255 
255 73 147 
255 79 79 
255 91 198 
204 51 61 
255 184 203 
255 83 129 
255 71 100 
255 79 79 
255 255 255 
255 130 150 
255 71 78 
255 187 255 
255 233 255 
255 145 149 
255 82 105 
255 80 255 
151 47 47 
255 140 145 
255 86 146 
255 117 255 
255 85 255 
255 103 202 
255 83 128 
255 43 136 
255 81 137 
181 56 56 
255 63 63 
255 96 104 
255 37 37 
215 31 99 
215 67 67 
255 143 223 
255 145 150 
255 203 255 
255 126 167 
142 142 142 
255 255 255 
255 97 181 
255 255 255 
255 202 255 
255 194 255 
255 250 253 
255 204 255 
176 130 255 
255 173 173 
255 194 219 
255 255 255 
255 151 151 
255 178 255 
255 163 163 
255 150 253 
255 156 216 
255 229 229 
255 255 255 
255 141 222 
255 255 255 
255 246 249 
255 166 255 
255 255 255 
210 128 128 
255 255 255 
255 218 250 
255 255 255 
255 248 255 
146 146 187 
255 255 255 
106 106 171 
255 255 255 
255 235 235 
255 254 255 
255 255 255 
255 199 199 
67 67 153 
255 255 255 
255 217 234 
255 194 194 
255 169 255 
255 244 244 
255 255 255 
255 143 143 
255 255 255 
154 154 202 
255 255 255 
255 192 255 
255 255 255 
255 224 255 
255 255 255 
255 255 255 
255 232 255 
255 148 198 
255 255 255 
255 254 255 
255 255 255 
255 189 255 
255 255 255 
255 223 255 
255 255 255 
171 123 123 
255 231 231 
231 146 200 
255 190 255 
255 187 194 
255 255 255 
255 216 255 
255 255 255 
255 128 128 
255 255 255 
255 252 255 
255 251 255 
255 210 239 
255 255 255 
255 130 130 
255 255 255 
255 162 197 
255 255 255 
255 188 254 
255 255 255 
230 111 164 
255 198 255 
255 255 255 
255 196 255 
255 172 255 
255 255 255 
255 255 255 
255 199 255 
255 253 255 
255 255 255 
255 202 255 
255 237 255 
248 198 248 
255 209 255 
174 174 255 
255 255 255 
255 241 255 
255 255 255 
194 194 255 
208 208 208 
255 240 255 
255 193 255 
214 195 214 
162 50 81 
255 237 255 
255 240 240 
255 249 255 
172 172 215 
216 182 182 
93 93 153 
255 213 255 
255 199 203 
255 182 237 
161 161 161 
222 198 222 
242 172 255 
255 255 255 
255 148 189 
255 150 195 
255 255 255 
255 255 255 
159 151 229 
224 155 255 
255 218 225 
255 255 255 
167 117 255 
229 212 255 
135 124 180 
223 198 255 
255 218 255 
255 255 255 
252 252 252 
255 185 224 
255 202 255 
255 222 255 
255 187 255 
223 223 251 
255 204 255 
255 203 249 
255 255 255 
255 255 255 
255 255 255 
255 152 255 
255 198 255 
255 245 255 
161 161 255 
255 189 255 
181 129 246 
255 221 255 
181 164 255 
255 255 255 
255 249 255 
231 201 255 
255 255 255 
188 188 255 
255 252 255 
255 210 255 
255 252 255 
255 191 235 
255 119 255 
255 255 255 
255 218 255 
255 187 255 
211 167 255 
255 181 255 
255 207 255 
255 194 255 
255 238 255 
255 185 255 
255 115 255 
178 178 255 
255 181 255 
235 174 255 
243 181 250 
190 104 255 
207 96 255 
214 113 255 
255 89 255 
255 186 255 
255 61 255 
255 255 255 
118 64 205 
48 42 255 
255 124 255 
255 155 255 
255 62 255 
66 66 255 
127 64 255 
207 106 255 
234 69 255 
103 73 255 
255 67 255 
110 61 255 
165 90 255 
155 81 255 
255 92 255 
154 74 255 
178 73 255 
255 52 255 
58 55 255 
241 113 255 
163 88 255 
69 56 255 
106 81 255 
255 68 220 
159 70 225 
127 72 231 
106 67 230 
152 80 255 
0 0 0 
0 0 0 
0 0 0 
0 0 0 
255 123 255 
255 154 158 
248 77 126 
248 77 193 
255 71 85 
255 77 120 
255 73 96 
255 97 98 
255 73 73 
251 65 215 
255 42 52 
237 73 73 
255 69 74 
255 188 248 
255 195 198 
255 79 113 
255 81 255 
255 93 135 
255 106 108 
255 65 255 
255 133 255 
255 85 138 
255 87 100 
255 80 142 
223 53 60 
255 113 255 
255 55 60 
255 187 187 
255 114 199 
255 45 45 
255 73 145 
255 90 110 
226 34 43 
255 182 198 
255 255 255 
255 97 100 
255 89 106 
255 36 58 
255 72 89 
255 247 255 
255 153 153 
255 158 227 
255 247 255 
243 133 199 
255 190 190 
102 32 102 
255 172 255 
255 255 255 
255 255 255 
186 179 255 
255 121 121 
255 255 255 
255 185 255 
255 165 236 
255 242 255 
255 194 194 
255 212 212 
255 255 255 
255 182 255 
255 245 245 
255 175 239 
255 149 184 
255 131 131 
255 255 255 
86 86 86 
255 113 192 
255 199 199 
255 220 254 
255 255 255 
255 233 255 
255 255 255 
255 229 255 
163 154 209 
255 156 255 
255 164 255 
255 201 255 
255 255 255 
255 229 255 
255 255 255 
255 225 255 
255 255 255 
255 255 255 
255 184 255 
255 255 255 
255 172 216 
255 167 255 
255 255 255 
255 255 255 
255 150 182 
255 116 155 
255 220 255 
255 234 255 
255 255 255 
255 255 255 
255 242 255 
255 245 255 
202 154 154 
255 211 255 
255 255 255 
255 179 205 
255 255 255 
255 255 255 
255 175 255 
255 255 255 
255 135 135 
255 255 255 
255 208 238 
255 205 234 
255 255 255 
160 160 160 
187 146 146 
255 242 255 
255 205 255 
255 255 255 
255 255 255 
255 176 248 
211 211 240 
234 167 167 
255 255 255 
255 255 255 
118 118 118 
255 255 255 
255 123 255 
255 146 255 
255 171 255 
207 144 255 
255 180 255 
255 226 255 
255 178 178 
255 164 255 
255 175 201 
179 179 179 
255 255 255 
255 200 200 
255 246 255 
255 183 255 
255 255 255 
255 255 255 
255 119 181 
255 255 255 
202 156 255 
123 123 171 
255 174 230 
255 95 255 
255 245 255 
251 153 153 
255 172 192 
255 220 248 
255 255 255 
255 202 245 
171 123 123 
180 97 115 
255 255 255 
255 255 255 
163 154 255 
255 255 255 
255 232 232 
255 255 255 
255 255 255 
255 255 255 
255 230 255 
255 255 255 
255 255 255 
255 255 255 
255 166 226 
255 255 255 
255 184 221 
255 255 255 
93 93 153 
255 255 255 
255 255 255 
255 199 199 
255 255 255 
236 186 236 
255 110 251 
178 178 255 
255 187 187 
255 155 255 
249 223 255 
255 230 230 
255 255 255 
135 133 255 
255 255 255 
255 145 255 
255 255 255 
255 170 255 
190 188 255 
255 255 255 
255 255 255 
234 108 255 
232 232 255 
255 255 255 
255 255 255 
255 255 255 
255 255 255 
239 134 255 
255 197 255 
233 196 255 
255 204 255 
255 255 255 
255 255 255 
255 211 255 
255 227 255 
142 142 142 
128 98 188 
187 56 255 
228 99 196 
255 226 255 
255 255 255 
172 172 255 
146 146 187 
255 220 255 
255 175 255 
182 180 255 
255 255 255 
255 167 255 
255 156 255 
104 70 255 
131 89 255 
172 46 255 
142 92 255 
255 131 255 
177 62 255 
249 71 255 
107 68 255 
255 34 110 
123 97 255 
138 60 255 
70 54 226 
52 52 167 
255 105 255 
91 54 255 
118 100 255 
150 113 255 
220 80 255 
96 87 255 
255 66 255 
81 74 255 
66 51 255 
229 125 255 
105 68 255 
221 53 255 
88 82 255 
143 67 255 
255 158 255 
74 48 255 
88 74 255 
111 50 255 
95 82 255 
185 55 255 
114 104 255 
132 79 255 
0 0 0 
0 0 0 
0 0 0 
0 0 0 
255 115 255 
255 71 77 
179 55 75 
99 30 66 
255 61 118 
255 102 255 
163 51 255 
255 79 85 
255 93 153 
255 88 95 
255 109 152 
255 81 255 
255 80 132 
255 106 179 
255 66 176 
255 57 225 
228 71 71 
174 47 255 
255 115 127 
255 88 139 
255 60 85 
255 75 86 
255 123 182 
255 65 209 
255 160 255 
255 255 255 
255 90 90 
255 191 193 
255 116 128 
253 79 96 
239 74 74 
255 97 102 
213 30 30 
255 74 139 
255 177 177 
255 94 94 
255 92 138 
255 255 255 
255 42 54 
255 149 255 
255 255 255 
255 255 255 
255 244 255 
228 106 106 
169 17 221 
255 175 175 
255 250 255 
255 180 255 
255 227 255 
255 212 239 
255 253 255 
255 111 111 
255 171 171 
255 237 255 
255 199 199 
255 143 255 
255 255 255 
255 170 255 
255 133 163 
255 255 255 
255 244 255 
255 224 226 
215 67 67 
255 221 255 
255 255 255 
255 255 255 
255 240 255 
246 145 196 
255 226 252 
255 255 255 
255 214 241 
255 255 255 
255 178 255 
255 241 255 
210 128 128 
255 175 246 
255 255 255 
255 255 255 
255 255 255 
246 76 76 
255 196 255 
255 255 255 
255 255 255 
255 194 255 
255 126 200 
255 235 255 
186 163 186 
246 231 255 
255 223 255 
255 255 255 
255 235 255 
255 234 255 
255 255 255 
255 229 255 
255 123 136 
226 70 255 
255 255 255 
255 255 255 
142 142 142 
255 255 255 
255 255 255 
195 183 255 
255 200 255 
255 255 255 
255 255 255 
249 148 255 
110 110 250 
255 153 255 
255 255 255 
255 255 255 
255 178 255 
216 153 217 
255 255 255 
228 106 106 
255 255 255 
255 255 255 
187 132 132 
255 255 255 
255 204 241 
255 195 198 
255 246 255 
255 140 255 
255 255 255 
255 248 250 
255 219 255 
255 149 255 
255 183 255 
156 156 255 
255 199 255 
255 252 252 
255 239 255 
255 255 255 
192 192 255 
255 251 255 
255 255 255 
255 241 255 
255 207 236 
255 255 255 
93 93 153 
196 196 228 
255 255 255 
255 182 233 
255 217 255 
255 157 177 
223 178 255 
255 225 255 
182 182 216 
255 167 167 
255 255 255 
255 255 255 
178 178 178 
255 255 255 
255 255 255 
255 232 255 
255 172 255 
241 199 255 
255 255 255 
255 223 250 
255 183 255 
255 189 255 
255 207 255 
255 255 255 
198 198 255 
255 255 255 
228 228 255 
179 179 179 
255 192 255 
34 15 158 
255 255 255 
255 127 237 
255 190 255 
255 255 255 
255 255 255 
255 255 255 
255 188 255 
255 255 255 
255 253 255 
255 209 255 
255 199 255 
255 252 255 
255 255 255 
200 165 216 
255 255 255 
219 219 255 
194 150 255 
255 255 255 
255 174 245 
255 255 255 
255 255 255 
255 206 255 
192 192 255 
255 255 255 
255 255 255 
255 210 255 
255 140 255 
255 243 255 
195 168 195 
255 202 255 
255 195 255 
255 168 168 
255 162 255 
198 198 255 
240 211 255 
255 214 255 
251 201 255 
182 149 215 
255 148 148 
255 255 255 
137 137 255 
255 203 255 
255 148 255 
255 250 255 
255 161 255 
255 255 255 
255 203 255 
255 201 255 
255 219 255 
93 56 255 
89 58 255 
255 148 255 
255 137 255 
255 74 255 
255 100 255 
255 77 255 
105 57 255 
255 102 255 
90 83 255 
74 66 255 
54 38 124 
166 61 198 
255 112 255 
67 58 255 
249 132 255 
139 88 255 
255 180 255 
157 80 255 
70 66 255 
127 78 255 
255 90 255 
97 97 255 
255 106 255 
255 114 255 
113 61 255 
255 98 255 
177 60 255 
255 185 255 
255 69 255 
82 47 209 
104 92 255 
77 77 248 
93 69 246 
230 186 255 
0 0 0 
0 0 0 
0 0 0 
0 0 0 
255 79 163 
151 47 47 
255 80 97 
255 87 97 
255 65 240 
255 119 120 
255 99 255 
255 93 115 
255 86 164 
255 74 144 
255 78 89 
167 48 74 
255 130 180 
217 62 128 
255 67 86 
255 161 255 
255 110 110 
222 69 255 
255 87 255 
134 27 70 
0 0 0 
98 30 118 
252 65 78 
255 73 111 
255 86 128 
132 41 41 
255 98 98 
255 106 106 
167 52 52 
255 118 159 
255 89 135 
255 70 74 
255 51 204 
255 101 131 
255 76 117 
255 89 89 
255 115 115 
221 14 39 
224 38 38 
255 198 198 
255 95 255 
255 227 255 
255 121 255 
255 255 255 
255 191 223 
255 120 120 
255 160 160 
255 142 190 
255 134 141 
255 135 255 
255 253 255 
255 255 255 
255 255 255 
187 145 255 
255 255 255 
255 142 255 
255 193 255 
255 145 184 
248 198 248 
255 211 255 
255 205 255 
255 121 196 
255 209 209 
228 228 255 
255 233 234 
255 255 255 
255 148 213 
255 255 255 
255 241 255 
255 237 255 
255 255 255 
255 111 111 
162 94 109 
255 255 255 
255 255 255 
255 255 255 
255 255 255 
255 255 255 
255 221 255 
255 224 255 
255 255 255 
255 153 255 
255 235 255 
255 255 255 
255 255 255 
255 180 180 
255 245 245 
251 136 255 
255 165 182 
255 255 255 
255 255 255 
255 254 255 
255 138 237 
255 150 255 
255 255 255 
255 255 255 
255 255 255 
255 242 255 
255 168 170 
255 255 255 
255 255 255 
153 93 93 
255 255 255 
255 174 174 
255 255 255 
255 255 255 
255 193 201 
255 255 255 
142 142 142 
255 255 255 
255 255 255 
255 255 255 
196 196 228 
255 255 255 
255 255 255 
255 198 247 
255 255 255 
255 212 255 
255 193 255 
255 194 194 
255 207 207 
255 248 248 
255 211 255 
255 174 255 
255 180 180 
255 255 255 
255 255 255 
255 221 221 
255 202 232 
255 247 255 
255 203 255 
206 148 217 
255 180 255 
255 202 202 
255 255 255 
172 172 215 
185 162 185 
255 255 255 
196 145 196 
255 234 255 
255 148 255 
255 255 255 
161 161 161 
255 224 255 
255 239 255 
255 213 219 
255 184 255 
169 71 255 
255 255 255 
255 195 255 
255 255 255 
190 182 255 
217 72 255 
255 183 255 
255 255 255 
255 255 255 
255 255 255 
255 255 255 
255 255 255 
255 255 255 
255 195 255 
170 144 156 
153 93 93 
255 255 255 
255 255 255 
255 255 255 
255 251 255 
222 191 255 
255 145 255 
162 135 255 
255 175 210 
152 142 152 
255 243 255 
255 255 255 
255 252 255 
109 94 162 
255 160 198 
255 255 255 
155 146 255 
255 255 255 
169 120 255 
223 210 255 
224 146 255 
255 255 255 
255 255 255 
235 197 255 
255 143 255 
255 227 255 
255 177 255 
182 98 190 
174 166 209 
255 188 255 
238 166 214 
255 249 255 
255 205 255 
255 228 255 
255 255 255 
255 200 255 
255 215 255 
123 123 171 
255 255 255 
255 240 255 
255 159 255 
255 183 255 
255 184 255 
255 229 235 
255 255 255 
104 104 255 
151 122 255 
153 153 251 
255 255 255 
170 144 170 
255 255 255 
255 255 255 
216 216 255 
255 192 255 
255 255 255 
255 255 255 
255 170 255 
255 123 255 
229 68 227 
220 73 255 
204 137 255 
101 95 255 
255 29 255 
169 90 255 
240 151 255 
65 55 255 
255 248 255 
125 113 255 
255 101 255 
255 148 255 
255 59 226 
82 61 207 
224 93 255 
162 48 206 
80 64 255 
142 85 255 
187 103 255 
130 60 255 
116 97 255 
145 101 255 
130 74 255 
120 64 255 
155 89 255 
77 54 224 
241 55 255 
255 255 255 
63 63 255 
255 81 255 
105 65 255 
157 74 255 
106 95 255 
0 0 0 
0 0 0 
0 0 0 
234 42 83 
255 69 105 
255 68 99 
252 65 78 
255 90 91 
255 73 84 
225 50 119 
135 42 77 
255 255 255 
255 93 97 
255 45 45 
255 53 64 
255 126 127 
255 255 255 
200 62 87 
255 112 142 
243 58 143 
189 45 45 
255 68 80 
255 126 239 
255 109 109 
255 58 253 
255 63 89 
255 57 59 
255 96 170 
255 130 224 
255 96 185 
255 102 113 
255 134 134 
255 101 156 
255 52 114 
255 135 192 
255 59 70 
255 89 255 
255 137 255 
247 50 58 
255 46 57 
255 133 150 
255 27 65 
255 174 255 
255 163 255 
201 150 232 
255 221 255 
214 195 214 
255 255 255 
123 123 171 
255 193 255 
246 184 184 
255 224 255 
255 144 255 
142 142 142 
255 177 177 
255 140 196 
255 255 255 
255 167 255 
255 159 170 
255 255 255 
190 150 190 
255 207 255 
215 181 181 
255 200 255 
255 100 187 
255 255 255 
255 247 254 
255 255 255 
255 175 175 
255 188 255 
255 201 255 
255 255 255 
255 255 255 
179 179 179 
255 255 255 
255 175 228 
255 255 255 
238 202 255 
255 103 159 
255 244 255 
255 255 255 
255 255 255 
255 183 224 
255 255 255 
255 106 255 
255 185 185 
255 255 255 
255 255 255 
255 255 255 
255 255 255 
255 255 255 
255 187 255 
255 255 255 
255 255 255 
255 255 255 
255 163 255 
255 255 255 
255 200 231 
255 255 255 
255 255 255 
201 126 255 
255 255 255 
255 199 255 
255 247 255 
240 132 132 
255 103 255 
255 255 255 
255 201 255 
255 190 247 
255 255 255 
255 159 255 
255 162 255 
255 255 255 
255 236 255 
255 187 187 
255 255 255 
255 255 255 
255 255 255 
255 255 255 
255 248 255 
255 199 255 
255 204 204 
255 255 255 
255 174 195 
255 177 198 
255 137 202 
255 255 255 
255 222 255 
255 171 255 
255 255 255 
255 211 255 
255 255 255 
255 232 255 
202 202 255 
255 201 231 
240 220 255 
255 202 255 
255 237 255 
255 183 255 
255 181 215 
255 118 255 
255 255 255 
237 172 208 
255 255 255 
214 138 255 
205 205 255 
255 255 255 
255 229 255 
255 255 255 
255 255 255 
255 185 200 
198 111 230 
255 183 222 
255 246 246 
255 255 255 
255 255 255 
255 255 255 
255 255 255 
255 255 255 
255 165 237 
255 170 255 
255 255 255 
255 255 255 
255 255 255 
142 142 142 
219 219 255 
255 102 249 
255 255 255 
255 255 255 
215 181 181 
255 255 255 
188 180 255 
255 255 255 
155 126 195 
255 255 255 
255 244 249 
255 255 255 
220 137 255 
204 204 255 
255 255 255 
255 150 255 
255 255 255 
255 255 255 
255 255 255 
255 255 255 
255 163 255 
255 255 255 
255 246 255 
255 255 255 
255 179 255 
255 255 255 
255 255 255 
0 0 0 
62 19 62 
255 237 255 
179 179 179 
255 255 255 
164 117 255 
225 218 255 
255 187 220 
122 115 255 
255 151 255 
255 194 231 
255 222 255 
137 137 255 
255 255 255 
183 179 255 
162 162 255 
254 214 255 
255 165 255 
255 195 255 
255 108 210 
171 157 255 
255 211 255 
255 190 255 
195 150 240 
255 255 255 
255 135 255 
121 121 255 
255 255 255 
132 96 255 
125 64 255 
64 52 245 
112 64 255 
255 83 255 
255 85 255 
184 93 255 
118 85 255 
241 74 255 
136 76 255 
135 132 255 
100 94 255 
62 57 255 
255 81 255 
215 124 255 
110 110 255 
189 45 146 
106 49 255 
39 39 255 
92 82 255 
92 42 255 
111 106 255 
111 72 233 
98 69 255 
164 69 245 
82 59 255 
70 63 255 
255 81 255 
255 92 255 
72 63 237 
255 151 255 
190 74 255 
66 57 185 
88 57 255 
166 85 255 
66 57 185 
0 0 0 
0 0 0 
0 0 0 
255 124 130 
255 70 142 
255 127 204 
255 84 154 
255 83 126 
255 75 87 
255 67 107 
255 183 232 
206 64 64 
255 140 140 
255 45 79 
255 81 112 
255 115 218 
255 121 170 
255 77 122 
255 87 111 
230 71 71 
255 72 103 
255 73 105 
255 150 255 
255 47 104 
255 62 132 
255 193 200 
224 69 89 
255 59 59 
255 99 168 
255 57 107 
255 91 112 
255 88 108 
255 58 163 
255 81 99 
255 67 75 
255 63 101 
255 95 95 
255 152 255 
255 109 245 
255 88 126 
255 59 82 
255 54 69 
255 255 255 
255 218 253 
255 145 145 
255 255 255 
255 146 158 
255 149 255 
255 255 255 
255 245 255 
255 117 117 
255 135 135 
255 211 232 
255 220 255 
255 145 187 
255 110 110 
255 181 202 
255 170 206 
255 242 242 
255 149 255 
255 255 255 
255 174 174 
200 148 255 
255 255 255 
255 255 255 
255 174 227 
255 248 255 
234 192 255 
255 255 255 
255 255 255 
255 242 255 
255 186 186 
255 255 255 
229 191 236 
255 172 172 
255 130 255 
255 255 255 
255 220 255 
255 223 227 
255 208 244 
255 141 255 
255 160 233 
241 168 255 
255 255 255 
255 123 123 
255 165 186 
172 172 255 
223 150 150 
255 255 255 
204 204 255 
216 182 182 
255 194 214 
255 226 235 
255 203 255 
221 221 221 
255 255 255 
255 162 170 
255 255 255 
255 255 255 
255 207 255 
255 255 255 
228 196 196 
171 171 215 
255 144 255 
255 255 255 
255 98 255 
198 160 255 
255 255 255 
255 255 255 
255 255 255 
255 155 251 
255 143 194 
255 255 255 
255 188 188 
255 255 255 
255 183 192 
225 193 255 
255 255 255 
255 255 255 
86 86 86 
255 147 247 
255 209 215 
255 151 214 
255 255 255 
255 255 255 
255 127 174 
127 127 255 
255 255 255 
255 215 255 
255 212 255 
255 255 255 
255 255 255 
255 255 255 
202 165 165 
255 255 255 
255 255 255 
255 230 255 
255 163 190 
255 255 255 
255 212 255 
255 251 255 
255 201 255 
241 241 255 
255 255 255 
255 246 255 
179 73 96 
255 144 210 
255 201 215 
255 221 255 
202 165 165 
255 255 255 
255 255 255 
255 201 255 
156 147 195 
255 255 255 
255 255 255 
132 132 240 
255 123 240 
255 255 255 
255 192 255 
255 255 255 
255 254 255 
195 195 255 
255 221 255 
255 255 255 
255 255 255 
255 152 211 
255 255 255 
255 255 255 
193 184 234 
255 202 255 
255 157 255 
255 204 204 
255 192 255 
255 255 255 
255 156 255 
209 150 255 
255 157 255 
255 175 255 
255 189 208 
225 154 193 
199 199 255 
255 255 255 
255 173 255 
255 208 255 
255 255 255 
255 185 255 
255 255 255 
255 160 160 
255 255 255 
255 255 255 
255 238 255 
255 123 172 
255 255 255 
255 255 255 
255 252 255 
255 139 255 
142 142 142 
255 255 255 
255 165 255 
255 255 255 
255 243 255 
255 255 255 
162 126 200 
255 234 255 
255 116 172 
255 255 255 
236 151 255 
255 255 255 
255 219 255 
86 86 86 
168 126 225 
255 230 255 
255 180 255 
255 127 255 
255 203 255 
121 121 255 
255 214 255 
118 118 118 
255 160 255 
255 74 238 
183 75 255 
255 104 255 
255 116 255 
99 68 255 
127 77 255 
112 62 255 
225 131 255 
151 99 255 
145 56 194 
200 92 255 
144 74 253 
255 186 255 
255 102 255 
255 151 255 
172 103 255 
170 73 255 
255 231 255 
87 71 255 
103 47 159 
92 73 255 
111 69 255 
91 86 255 
70 70 255 
255 76 255 
203 97 255 
224 79 255 
200 146 255 
254 121 255 
144 67 255 
255 85 255 
116 100 255 
98 66 245 
129 121 255 
114 67 227 
255 77 250 
0 0 0 
0 0 0 
0 0 0 
194 60 60 
255 82 82 
255 87 87 
142 35 44 
255 88 165 
255 136 255 
255 114 255 
151 47 47 
255 108 216 
209 60 90 
255 66 112 
255 115 115 
255 83 98 
194 60 60 
255 116 116 
191 59 255 
255 119 242 
255 108 121 
255 49 49 
133 41 41 
243 75 88 
255 74 188 
255 78 172 
197 47 87 
255 101 206 
255 89 222 
255 111 111 
255 73 73 
218 67 67 
255 88 100 
255 74 152 
255 60 121 
255 60 86 
255 85 85 
210 65 97 
255 51 255 
255 103 103 
255 136 136 
255 112 114 
255 170 228 
255 209 255 
255 255 255 
255 255 255 
255 136 164 
255 255 255 
255 136 136 
255 255 255 
255 255 255 
255 222 222 
255 193 255 
255 140 150 
255 255 255 
255 235 255 
255 255 255 
255 255 255 
255 199 255 
255 255 255 
255 239 239 
255 173 199 
255 255 255 
255 250 255 
255 239 255 
255 255 255 
255 255 255 
255 200 255 
255 173 255 
255 198 221 
255 143 255 
255 170 170 
255 255 255 
255 255 255 
255 145 145 
255 255 255 
255 188 188 
246 153 255 
255 172 172 
252 127 127 
227 209 227 
255 199 229 
255 250 255 
228 197 197 
171 123 123 
255 202 255 
255 203 203 
255 204 204 
162 94 109 
255 255 255 
228 106 106 
255 209 220 
214 149 179 
255 255 255 
255 255 255 
255 255 255 
255 235 238 
255 255 255 
255 255 255 
255 195 195 
255 255 255 
179 179 179 
255 249 255 
255 217 255 
250 165 255 
255 197 247 
255 255 255 
229 229 255 
255 255 255 
255 239 255 
234 167 255 
255 255 255 
255 255 255 
255 250 255 
171 123 123 
188 188 228 
255 255 255 
255 255 255 
255 255 255 
220 132 255 
255 255 255 
255 180 214 
255 207 225 
172 172 215 
255 255 255 
255 204 255 
255 229 255 
255 242 255 
230 149 199 
255 213 213 
255 209 231 
196 157 253 
255 235 255 
255 255 255 
255 211 255 
255 255 255 
255 195 255 
255 225 255 
255 255 255 
241 241 241 
255 255 255 
255 255 255 
255 255 255 
255 255 255 
255 245 245 
255 200 208 
255 226 255 
255 255 255 
255 232 255 
255 193 255 
255 206 255 
255 178 178 
255 205 255 
255 255 255 
255 255 255 
255 169 255 
255 255 255 
255 254 255 
255 179 255 
255 212 255 
146 146 187 
248 198 248 
255 225 255 
255 255 255 
255 205 255 
255 255 255 
255 163 255 
255 222 229 
210 210 239 
208 208 255 
255 174 174 
255 185 255 
255 255 255 
255 228 234 
255 234 255 
255 237 255 
255 163 255 
255 246 255 
255 241 255 
255 206 255 
255 174 255 
255 132 255 
255 255 255 
255 208 249 
255 168 243 
250 186 255 
255 255 255 
255 108 142 
255 255 255 
255 179 255 
255 255 255 
177 177 255 
255 186 255 
210 210 239 
255 167 255 
255 255 255 
255 255 255 
255 213 255 
255 120 255 
172 172 255 
164 111 230 
255 152 255 
221 188 248 
238 119 255 
255 255 255 
255 255 255 
255 142 255 
255 126 126 
255 210 255 
255 122 255 
238 117 255 
255 36 174 
255 255 255 
255 83 255 
114 96 255 
215 172 172 
147 115 255 
255 242 255 
255 161 255 
217 184 217 
255 255 255 
72 64 255 
255 124 255 
255 48 243 
41 41 133 
255 70 255 
141 96 255 
255 119 255 
198 62 255 
51 33 255 
255 196 255 
208 123 255 
255 42 255 
255 85 255 
97 85 255 
170 80 255 
255 63 255 
86 73 255 
222 72 255 
101 101 255 
50 50 245 
137 98 255 
79 64 249 
112 65 210 
56 56 181 
193 93 255 
158 102 255 
193 107 255 
76 64 255 
255 61 197 
89 63 255 
151 83 255 
209 47 253 
123 60 194 
75 65 255 
109 49 170 
80 64 255 
0 0 0 
0 0 0 
179 31 161 
255 80 81 
255 59 105 
255 85 90 
255 240 255 
255 146 163 
255 90 138 
255 85 85 
255 83 141 
255 88 200 
255 70 108 
255 86 127 
195 57 91 
166 48 64 
255 115 115 
255 83 252 
255 76 123 
189 59 69 
255 110 255 
255 142 142 
255 74 182 
255 189 255 
255 110 255 
255 90 255 
255 135 190 
255 93 115 
255 150 220 
240 75 129 
255 62 111 
255 87 128 
255 66 69 
255 107 120 
255 117 210 
255 64 101 
85 16 54 
230 67 80 
255 114 212 
255 100 255 
193 60 173 
255 223 243 
255 117 156 
187 146 146 
255 176 176 
255 255 255 
233 173 255 
187 145 145 
255 218 255 
255 205 255 
255 191 255 
255 126 153 
255 184 255 
255 255 255 
255 179 255 
249 181 255 
255 255 255 
255 255 255 
255 255 255 
255 174 255 
243 213 255 
255 223 255 
255 134 255 
255 132 255 
255 255 255 
255 223 255 
251 153 153 
238 233 238 
255 191 255 
255 194 252 
255 204 204 
255 126 144 
255 249 255 
255 211 216 
255 217 255 
255 255 255 
255 255 255 
170 144 156 
255 168 255 
255 229 229 
255 230 255 
196 145 246 
175 128 175 
255 243 255 
255 255 255 
255 201 255 
255 210 255 
226 123 126 
255 193 222 
255 255 255 
255 169 228 
255 255 255 
255 255 255 
255 136 136 
255 197 221 
255 255 255 
255 247 255 
255 152 251 
210 175 218 
255 255 255 
255 255 255 
247 246 255 
255 241 255 
255 211 255 
255 181 255 
255 255 255 
255 179 179 
255 122 255 
255 255 255 
255 228 255 
255 217 255 
242 137 181 
255 255 255 
255 123 193 
255 215 255 
255 255 255 
255 211 229 
255 246 255 
255 131 255 
255 252 255 
174 174 255 
255 255 255 
210 210 239 
255 174 174 
255 175 218 
255 255 255 
255 255 255 
255 255 255 
255 198 252 
132 111 255 
255 255 255 
255 223 255 
202 129 255 
251 224 255 
255 255 255 
255 249 255 
215 152 255 
255 190 255 
255 198 229 
255 255 255 
255 218 246 
255 255 255 
255 170 214 
255 255 255 
255 255 255 
144 142 206 
255 255 255 
255 255 255 
255 255 255 
255 255 255 
67 67 153 
246 235 255 
255 255 255 
255 213 255 
255 247 255 
255 242 242 
255 255 255 
255 255 255 
255 212 255 
255 171 255 
255 200 255 
255 255 255 
255 255 255 
255 197 255 
255 178 178 
255 187 255 
189 182 255 
255 162 219 
255 238 254 
255 255 255 
195 187 255 
255 255 255 
229 171 229 
255 255 255 
255 211 255 
255 197 255 
255 255 255 
255 255 255 
255 223 255 
255 255 255 
255 159 190 
255 255 255 
106 106 229 
255 255 255 
255 255 255 
255 208 255 
157 119 255 
255 152 224 
198 177 255 
118 118 118 
255 255 255 
255 217 255 
255 224 255 
255 233 255 
255 96 174 
254 254 255 
204 184 234 
192 107 237 
255 190 255 
255 168 255 
255 138 195 
199 178 255 
130 115 255 
255 217 255 
255 211 255 
255 209 255 
255 251 255 
255 237 242 
239 144 255 
255 166 255 
255 255 255 
255 255 255 
185 47 150 
168 168 235 
255 154 255 
255 232 255 
227 127 255 
106 106 228 
255 255 255 
120 57 254 
100 61 196 
255 87 255 
114 57 231 
112 65 255 
155 93 255 
255 95 255 
88 57 255 
89 78 255 
129 75 255 
255 102 255 
169 40 149 
255 103 255 
76 24 171 
255 58 255 
95 82 255 
255 124 255 
65 43 140 
144 87 255 
167 65 255 
75 56 255 
133 118 255 
160 70 255 
133 67 255 
80 78 255 
123 73 255 
124 72 255 
80 80 255 
255 255 255 
91 67 221 
136 70 255 
122 48 211 
100 94 255 
196 191 255 
101 64 214 
109 69 255 
124 123 255 
0 0 0 
0 0 0 
255 134 213 
255 92 118 
255 85 171 
255 78 145 
255 92 99 
255 117 128 
254 45 119 
205 61 78 
255 74 207 
246 72 194 
255 84 90 
146 45 107 
255 56 70 
253 66 97 
255 105 203 
255 72 82 
255 144 165 
255 80 82 
255 118 255 
255 119 120 
255 82 128 
255 98 244 
155 45 108 
255 110 143 
213 64 113 
255 255 255 
255 57 231 
255 65 107 
255 54 85 
255 59 122 
255 110 190 
255 155 179 
255 111 200 
255 255 255 
255 109 238 
246 76 255 
255 59 119 
255 82 150 
255 130 145 
255 95 106 
255 219 255 
255 141 141 
255 255 255 
228 196 196 
255 138 255 
255 182 255 
255 142 143 
255 198 255 
255 152 152 
255 255 255 
255 194 223 
251 153 255 
255 255 255 
255 253 255 
255 169 255 
255 171 207 
210 210 255 
255 255 255 
255 255 255 
255 255 255 
255 178 255 
255 205 255 
255 255 255 
255 255 255 
187 146 146 
247 223 255 
255 255 255 
255 255 255 
255 178 255 
255 185 255 
255 162 255 
255 124 154 
208 164 255 
255 192 255 
255 254 255 
255 126 126 
255 234 255 
255 211 255 
255 193 224 
255 255 255 
252 237 255 
255 255 255 
255 255 255 
255 214 231 
255 255 255 
255 193 217 
255 236 255 
181 181 255 
161 161 161 
255 178 178 
255 255 255 
255 219 255 
255 199 199 
255 255 255 
255 255 255 
227 168 195 
255 202 255 
255 255 255 
228 196 196 
255 255 255 
194 164 182 
255 255 255 
255 178 255 
255 221 221 
255 255 255 
179 179 179 
255 205 216 
214 211 255 
255 213 219 
237 127 217 
255 144 144 
255 235 255 
255 254 255 
240 203 203 
232 201 255 
255 255 255 
255 195 195 
255 255 255 
255 122 171 
255 255 255 
222 173 255 
255 255 255 
215 182 255 
255 137 255 
201 153 153 
255 255 255 
232 155 255 
255 255 255 
255 255 255 
255 253 255 
132 132 240 
255 248 255 
188 151 255 
255 237 255 
255 255 255 
255 219 255 
255 192 224 
255 228 254 
255 197 255 
255 255 255 
255 255 255 
255 255 255 
255 207 255 
255 201 255 
187 179 187 
255 255 255 
255 255 255 
255 255 255 
255 195 195 
248 212 255 
255 194 255 
255 255 255 
255 255 255 
255 222 255 
255 180 255 
255 255 255 
255 255 255 
210 210 239 
255 255 255 
255 178 178 
121 121 255 
255 208 255 
93 93 153 
255 255 255 
255 230 255 
255 255 255 
255 255 255 
255 238 255 
255 255 255 
255 189 255 
255 211 255 
255 248 255 
255 140 212 
255 255 255 
205 157 196 
255 255 255 
255 172 255 
123 123 171 
255 255 255 
255 255 255 
255 221 249 
255 255 255 
255 255 255 
188 188 255 
255 195 255 
255 255 255 
213 149 255 
255 183 255 
255 195 255 
255 222 255 
255 148 255 
222 222 255 
255 255 255 
255 154 255 
255 255 255 
255 209 255 
228 196 255 
255 218 255 
255 255 255 
255 178 255 
255 214 255 
255 226 255 
222 142 255 
255 255 255 
255 255 255 
255 202 255 
255 135 255 
255 240 255 
255 152 255 
255 133 230 
255 255 255 
255 255 255 
255 255 255 
255 188 255 
50 50 255 
255 205 255 
255 156 255 
46 46 150 
89 51 215 
108 88 255 
198 145 255 
255 104 255 
244 82 255 
77 50 211 
194 79 254 
64 52 255 
128 113 255 
148 59 190 
255 123 255 
97 86 255 
75 48 255 
115 115 255 
192 111 255 
65 50 255 
247 95 255 
126 83 255 
255 33 144 
114 50 255 
79 64 250 
106 84 255 
98 81 255 
243 70 255 
245 69 255 
255 111 255 
144 60 255 
73 65 255 
82 82 255 
118 76 255 
86 44 189 
255 76 255 
99 62 255 
103 55 255 
85 79 255 
255 93 255 
0 0 0 
0 0 0 
255 87 98 
255 54 107 
176 52 84 
255 90 255 
255 77 88 
255 84 90 
255 83 149 
255 53 66 
255 100 114 
255 99 99 
255 120 128 
255 60 231 
255 93 111 
215 64 65 
225 70 79 
255 59 92 
255 122 136 
255 79 79 
255 164 255 
255 85 85 
255 149 149 
255 76 83 
133 34 48 
255 124 124 
255 96 168 
255 128 255 
255 95 107 
157 49 99 
255 63 63 
255 255 255 
255 99 143 
255 196 255 
132 41 41 
255 189 255 
255 47 51 
255 38 61 
255 63 66 
255 99 99 
252 65 78 
223 150 150 
176 176 255 
181 181 215 
255 156 156 
255 255 255 
255 245 255 
255 255 255 
255 255 255 
255 162 176 
255 196 255 
255 255 255 
228 196 196 
255 141 160 
255 255 255 
255 191 255 
255 232 255 
255 255 255 
255 255 255 
255 255 255 
255 255 255 
255 255 255 
255 77 255 
255 171 187 
255 228 255 
255 162 255 
255 255 255 
236 233 255 
175 100 175 
255 255 255 
255 249 255 
255 176 255 
255 113 255 
255 255 255 
255 172 255 
255 221 255 
255 250 255 
153 93 93 
255 255 255 
255 226 226 
178 178 178 
255 255 255 
255 234 234 
255 246 255 
202 165 165 
218 218 255 
255 255 255 
255 255 255 
255 255 255 
255 255 255 
228 197 197 
255 255 255 
255 231 231 
255 255 255 
255 222 255 
255 255 255 
255 201 255 
255 255 255 
255 255 255 
255 164 201 
255 163 255 
255 255 255 
255 133 136 
215 181 181 
255 255 255 
255 255 255 
255 167 237 
255 212 255 
161 161 161 
255 191 255 
255 255 255 
255 255 255 
255 202 255 
255 190 202 
255 242 255 
110 110 250 
255 255 255 
255 255 255 
255 255 255 
255 255 255 
255 255 255 
196 145 246 
255 195 203 
255 234 255 
255 177 255 
156 147 195 
255 180 255 
161 161 161 
216 129 139 
255 255 255 
255 137 181 
255 177 212 
255 238 255 
255 255 255 
255 255 255 
255 191 223 
194 194 194 
255 222 255 
255 255 255 
255 217 217 
255 255 255 
175 175 255 
255 160 206 
239 210 210 
255 178 178 
255 255 255 
255 214 253 
255 255 255 
255 255 255 
255 180 206 
255 191 255 
255 255 255 
240 193 255 
255 178 179 
255 255 255 
255 255 255 
254 216 230 
255 255 255 
255 255 255 
255 146 255 
255 243 255 
255 255 255 
255 174 255 
255 232 255 
255 255 255 
255 255 255 
255 255 255 
255 210 255 
255 224 255 
172 172 215 
208 208 255 
255 174 255 
255 255 255 
105 105 255 
255 255 255 
255 230 255 
255 255 255 
255 255 255 
255 255 255 
255 255 255 
255 201 255 
255 144 255 
255 255 255 
179 179 179 
255 255 255 
208 208 255 
255 207 255 
255 186 255 
255 200 255 
255 255 255 
255 255 255 
255 255 255 
255 255 255 
132 132 240 
255 255 255 
255 255 255 
255 255 255 
255 158 203 
177 177 255 
230 230 230 
233 192 255 
255 175 182 
248 153 255 
150 150 223 
255 173 255 
255 165 255 
255 204 255 
255 149 190 
123 123 171 
255 214 255 
255 193 255 
234 224 255 
255 210 255 
156 156 255 
165 165 202 
255 115 255 
255 109 244 
222 189 255 
189 128 255 
91 88 255 
107 54 255 
255 55 255 
202 120 255 
91 83 255 
255 111 255 
255 145 255 
94 69 255 
255 137 255 
146 98 255 
166 89 255 
113 68 255 
185 91 255 
108 66 214 
167 74 255 
190 190 255 
133 88 255 
254 199 255 
228 82 255 
117 81 255 
118 69 255 
151 66 255 
83 36 126 
255 64 255 
121 55 177 
138 87 255 
111 68 255 
255 83 255 
79 54 175 
134 61 208 
80 70 248 
164 54 193 
110 74 255 
88 51 183 
149 89 255 
80 46 147 
128 108 255 
79 69 227 
0 0 0 
255 139 211 
255 240 255 
255 81 89 
255 123 202 
255 82 82 
255 82 115 
252 78 91 
255 71 255 
255 62 196 
255 72 118 
187 52 124 
255 69 83 
255 84 111 
202 63 73 
255 91 94 
255 96 141 
255 66 68 
255 223 255 
173 28 105 
255 143 255 
255 121 255 
255 99 122 
255 255 255 
255 148 255 
255 128 238 
255 59 94 
255 82 222 
255 78 101 
255 151 176 
255 91 121 
180 56 56 
255 138 150 
255 68 106 
0 0 0 
255 67 119 
255 69 69 
255 154 255 
255 73 121 
244 50 50 
255 182 182 
255 212 255 
255 255 255 
255 172 173 
255 255 255 
255 248 255 
255 255 255 
255 138 145 
255 254 254 
255 168 171 
201 164 164 
255 205 205 
255 251 255 
255 255 255 
255 163 255 
255 255 255 
255 255 255 
226 105 255 
255 205 255 
255 189 240 
255 255 255 
255 255 255 
255 255 255 
255 255 255 
255 176 255 
255 255 255 
255 213 213 
255 255 255 
237 128 150 
255 130 255 
255 251 255 
255 221 255 
255 255 255 
255 255 255 
255 218 255 
255 197 216 
255 255 255 
247 112 255 
255 175 184 
255 175 193 
255 192 192 
255 255 255 
255 255 255 
255 255 255 
255 180 255 
255 198 255 
255 255 255 
255 255 255 
255 255 255 
142 142 142 
255 166 222 
255 174 255 
255 255 255 
255 111 173 
255 255 255 
255 213 213 
255 255 255 
255 255 255 
255 126 159 
255 255 255 
255 255 255 
222 182 190 
213 208 255 
118 118 118 
255 211 255 
255 146 181 
255 255 255 
236 179 255 
202 202 255 
255 226 255 
255 255 255 
171 106 106 
171 106 106 
255 255 255 
198 160 255 
241 241 241 
255 179 255 
255 255 255 
255 251 255 
255 222 255 
255 255 255 
255 255 255 
255 179 184 
255 255 255 
255 255 255 
255 255 255 
255 255 255 
255 255 255 
255 207 207 
255 255 255 
255 255 255 
208 208 208 
255 255 255 
255 255 255 
255 255 255 
255 164 255 
239 209 209 
202 154 154 
255 255 255 
255 255 255 
255 229 255 
255 156 180 
255 215 255 
255 255 255 
255 179 179 
255 255 255 
255 207 255 
255 186 255 
202 165 165 
255 255 255 
255 157 255 
255 236 255 
236 219 255 
255 228 255 
255 255 255 
255 193 196 
255 240 240 
255 255 255 
255 255 255 
255 192 255 
255 208 226 
255 255 255 
255 227 255 
255 217 255 
255 255 255 
255 255 255 
255 174 174 
255 255 255 
255 176 217 
227 198 255 
255 238 255 
255 255 255 
255 255 255 
255 201 255 
255 160 240 
255 213 255 
255 200 255 
206 200 255 
255 206 255 
255 255 255 
222 142 255 
255 188 255 
155 155 255 
255 240 255 
255 208 255 
255 255 255 
255 202 230 
255 255 255 
251 251 255 
255 204 204 
237 205 255 
255 119 133 
255 255 255 
132 132 240 
255 181 255 
255 241 255 
67 67 215 
255 255 255 
175 128 175 
118 118 118 
255 255 255 
255 255 255 
255 255 255 
216 180 255 
255 255 255 
255 255 255 
255 255 255 
255 232 255 
187 128 255 
177 167 222 
212 177 255 
255 255 255 
255 182 255 
255 144 186 
255 174 174 
255 255 255 
255 162 255 
255 203 255 
255 191 255 
183 47 255 
186 130 255 
255 91 255 
94 62 255 
255 116 255 
112 53 172 
255 70 255 
255 83 255 
255 74 255 
169 101 255 
242 85 255 
121 107 255 
255 60 255 
99 68 255 
255 255 255 
94 85 255 
180 86 255 
165 80 255 
64 50 169 
255 83 255 
105 71 255 
141 75 255 
65 52 208 
73 65 218 
238 93 255 
190 127 255 
255 82 255 
96 86 255 
154 66 255 
255 106 255 
72 34 200 
44 25 107 
255 86 255 
139 81 255 
51 41 138 
137 121 255 
143 64 207 
0 0 0 
255 101 103 
255 57 160 
255 50 118 
255 110 255 
255 57 75 
124 38 54 
255 67 96 
255 102 255 
237 51 97 
255 255 255 
255 117 255 
255 70 95 
255 126 250 
255 121 126 
255 113 234 
255 81 87 
255 106 106 
255 93 255 
255 55 68 
170 52 62 
93 29 57 
255 255 255 
255 126 137 
255 229 255 
255 81 255 
255 89 89 
255 82 134 
255 52 94 
255 76 121 
162 32 73 
255 92 125 
255 89 255 
255 85 159 
255 90 130 
255 70 70 
213 61 215 
255 69 81 
230 71 79 
255 122 255 
255 140 255 
169 143 155 
179 83 188 
255 140 225 
255 202 255 
255 196 196 
86 86 86 
255 162 190 
255 205 255 
255 197 255 
255 212 255 
255 233 237 
255 255 255 
220 220 220 
255 148 255 
255 229 229 
255 255 255 
255 255 255 
255 181 244 
255 168 168 
255 190 209 
255 147 255 
180 178 231 
255 251 255 
255 165 238 
255 156 161 
255 255 255 
255 153 153 
255 255 255 
255 160 160 
255 220 220 
255 255 255 
255 82 82 
255 245 255 
255 142 255 
255 76 76 
246 184 184 
255 170 255 
255 191 255 
255 176 185 
255 206 255 
255 255 255 
159 142 255 
255 252 255 
255 156 156 
255 255 255 
255 197 255 
255 255 255 
255 255 255 
255 199 255 
255 202 202 
255 224 232 
255 222 222 
255 187 255 
255 174 174 
249 164 166 
255 207 207 
255 166 252 
255 255 255 
255 219 219 
255 191 255 
255 224 255 
255 255 255 
255 184 255 
255 241 255 
255 255 255 
255 223 228 
255 255 255 
196 146 255 
255 255 255 
255 226 226 
255 218 218 
255 255 255 
255 246 255 
255 204 255 
255 255 255 
255 255 255 
255 255 255 
255 255 255 
255 255 255 
255 255 255 
255 255 255 
255 255 255 
255 230 255 
255 255 255 
255 215 215 
255 182 189 
255 255 255 
255 223 255 
255 209 255 
255 185 240 
255 198 198 
240 211 255 
255 244 255 
255 253 255 
255 255 255 
255 255 255 
255 204 255 
255 221 255 
255 244 255 
255 224 255 
161 161 161 
255 255 255 
255 255 255 
255 255 255 
255 244 246 
93 93 153 
255 255 255 
255 255 255 
255 208 241 
255 245 255 
255 255 255 
153 93 93 
255 215 255 
255 204 249 
255 178 255 
255 190 255 
255 111 255 
255 251 255 
255 248 255 
255 238 255 
252 252 252 
255 255 255 
255 124 255 
255 167 255 
255 165 255 
255 174 174 
255 212 255 
255 255 255 
255 209 227 
255 255 255 
188 118 148 
255 255 255 
250 110 110 
255 251 255 
187 172 255 
255 255 255 
219 170 255 
109 90 130 
186 181 237 
255 161 255 
202 131 232 
255 255 255 
255 255 255 
255 255 255 
255 255 255 
255 161 255 
177 177 255 
255 126 255 
255 255 255 
255 223 255 
255 245 255 
240 167 255 
241 178 255 
251 251 255 
255 195 255 
255 198 255 
180 163 255 
229 229 255 
241 135 255 
255 112 255 
255 192 255 
255 255 255 
232 187 255 
255 255 255 
255 205 255 
255 128 255 
255 255 255 
255 255 255 
255 212 255 
147 135 255 
255 170 255 
255 179 255 
167 167 255 
154 116 233 
255 255 255 
255 255 255 
255 117 167 
229 67 255 
255 159 255 
99 61 255 
255 129 255 
247 113 255 
255 189 255 
191 101 255 
241 88 255 
255 69 255 
255 78 255 
92 45 237 
255 150 255 
193 100 255 
255 255 255 
120 95 255 
96 55 255 
65 43 140 
161 67 255 
95 63 255 
86 60 255 
255 86 255 
70 48 249 
103 74 255 
255 89 255 
245 111 255 
255 69 255 
41 41 133 
99 86 255 
118 87 255 
142 45 255 
50 18 162 
255 255 255 
131 52 220 
255 66 213 
236 116 255 
115 46 149 
96 65 255 
255 82 255 
0 0 0 
208 59 74 
255 80 150 
255 80 84 
255 70 70 
218 67 67 
255 78 164 
225 70 118 
193 55 107 
255 111 132 
255 186 255 
255 60 102 
254 72 138 
255 67 171 
232 43 77 
255 67 75 
255 96 123 
255 72 79 
255 147 148 
255 104 113 
255 85 117 
255 177 255 
255 132 255 
255 90 90 
255 194 218 
255 102 130 
255 81 85 
255 84 108 
255 50 123 
206 64 64 
255 202 227 
255 66 70 
255 63 186 
255 89 255 
255 60 255 
255 155 255 
255 66 98 
196 61 69 
170 52 62 
255 88 118 
255 255 255 
255 209 255 
255 201 201 
255 255 255 
232 131 202 
255 255 255 
255 129 142 
255 43 106 
255 122 122 
228 106 106 
255 255 255 
255 255 255 
255 255 255 
255 172 172 
255 253 255 
228 196 255 
255 255 255 
255 146 150 
255 212 255 
255 196 196 
255 177 212 
239 210 210 
255 220 255 
255 189 204 
255 104 181 
255 93 225 
255 255 255 
255 255 255 
255 176 255 
255 234 255 
255 204 204 
255 177 255 
255 199 199 
255 255 255 
255 50 108 
251 153 153 
255 255 255 
179 179 179 
255 255 255 
255 254 255 
255 255 255 
255 181 255 
255 226 255 
255 188 255 
255 255 255 
246 184 184 
255 208 208 
255 255 255 
194 194 194 
255 188 220 
255 221 255 
255 255 255 
255 255 255 
255 255 255 
255 209 255 
210 128 128 
255 255 255 
255 231 255 
217 217 255 
255 178 221 
255 219 255 
255 255 255 
255 171 171 
243 135 255 
255 146 146 
255 223 255 
255 255 255 
255 202 251 
255 205 205 
255 228 255 
255 255 255 
196 126 255 
255 243 243 
217 181 233 
253 157 196 
255 165 255 
255 125 255 
255 255 255 
255 225 255 
255 255 255 
255 247 255 
255 255 255 
255 175 255 
255 255 255 
255 255 255 
255 149 255 
255 255 255 
255 239 255 
255 228 255 
255 197 255 
255 233 255 
255 255 255 
255 255 255 
255 228 255 
255 255 255 
255 255 255 
255 115 255 
255 197 255 
255 231 255 
255 255 255 
255 255 255 
255 206 255 
255 255 255 
238 195 255 
255 255 255 
255 255 255 
255 255 255 
255 255 255 
202 165 165 
255 217 255 
255 205 255 
255 198 255 
255 255 255 
255 255 255 
255 253 253 
255 255 255 
255 255 255 
193 184 234 
253 226 255 
255 255 255 
255 192 255 
255 197 197 
246 175 175 
229 229 255 
255 255 255 
254 142 154 
190 190 255 
255 255 255 
255 236 255 
255 198 255 
255 255 255 
244 172 244 
255 178 255 
255 255 255 
255 210 255 
255 200 255 
255 255 255 
255 238 255 
179 179 179 
255 156 255 
255 255 255 
255 193 255 
255 255 255 
255 189 255 
255 255 255 
255 215 255 
255 255 255 
220 162 182 
255 187 255 
255 225 255 
255 255 255 
255 255 255 
255 255 255 
255 190 255 
255 255 255 
255 206 255 
222 179 255 
255 251 255 
255 174 255 
255 151 224 
255 165 210 
188 154 255 
172 136 255 
255 242 255 
170 153 252 
255 255 255 
255 106 255 
255 187 255 
255 98 255 
255 129 255 
195 115 255 
255 255 255 
255 246 255 
215 196 255 
255 255 255 
255 151 255 
255 159 255 
202 165 165 
129 73 255 
199 191 255 
255 153 255 
255 81 255 
146 80 255 
255 85 255 
255 93 255 
255 140 255 
105 74 255 
78 73 255 
59 43 255 
255 230 255 
120 50 255 
250 112 255 
100 74 255 
255 96 255 
39 35 142 
173 72 255 
255 255 255 
143 125 255 
220 59 235 
124 55 255 
160 68 255 
41 41 133 
255 255 255 
65 48 159 
86 64 255 
85 62 255 
144 54 174 
41 41 133 
66 55 176 
116 48 255 
141 58 233 
68 46 147 
255 255 255 
223 76 255 
151 69 255 
134 92 255 
74 74 239 
255 92 95 
255 67 80 
144 40 109 
255 86 86 
255 119 255 
255 92 93 
255 219 221 
255 111 172 
255 104 112 
255 147 255 
255 89 90 
255 66 78 
255 92 255 
255 68 72 
255 147 255 
255 78 97 
255 86 86 
255 62 62 
255 59 255 
167 52 52 
252 74 78 
255 202 202 
160 15 64 
255 99 213 
255 68 96 
255 64 64 
255 47 101 
255 76 255 
234 65 81 
255 110 212 
255 255 255 
255 68 137 
255 86 255 
255 53 122 
255 135 197 
255 86 103 
166 51 255 
255 128 132 
255 97 134 
255 201 255 
255 138 219 
255 255 255 
255 255 255 
255 214 214 
255 255 255 
255 255 255 
255 244 255 
255 255 255 
255 255 255 
255 255 255 
255 165 255 
227 210 255 
255 119 215 
212 167 255 
255 255 255 
255 255 255 
255 255 255 
255 255 255 
255 255 255 
255 255 255 
255 255 255 
255 255 255 
255 171 178 
255 197 212 
255 243 255 
252 252 252 
255 194 232 
255 255 255 
255 220 255 
255 148 255 
255 255 255 
255 255 255 
255 255 255 
255 255 255 
255 169 255 
255 174 174 
255 193 193 
255 255 255 
255 105 227 
255 236 255 
255 184 184 
255 247 255 
255 255 255 
255 224 255 
255 180 255 
130 119 130 
255 204 204 
255 228 228 
255 182 182 
255 190 190 
255 255 255 
255 255 255 
255 255 255 
255 255 255 
255 193 193 
255 255 255 
255 209 209 
255 233 255 
255 234 255 
255 189 238 
255 156 223 
255 232 255 
255 255 255 
255 160 160 
255 162 236 
255 212 212 
255 189 222 
255 255 255 
255 244 244 
255 145 145 
255 255 255 
255 255 255 
255 255 255 
255 246 246 
132 132 240 
255 255 255 
255 255 255 
118 118 118 
255 207 255 
224 146 192 
255 167 216 
255 175 255 
255 255 255 
255 255 255 
255 246 255 
255 200 238 
255 255 255 
255 161 255 
255 255 255 
255 255 255 
255 195 255 
118 118 118 
255 196 255 
255 232 255 
206 143 255 
255 255 255 
255 131 217 
255 191 255 
255 255 255 
255 119 255 
255 255 255 
255 210 255 
255 217 255 
255 255 255 
255 255 255 
246 184 184 
255 255 255 
255 165 255 
255 159 255 
255 255 255 
255 255 255 
255 207 255 
255 241 247 
255 255 255 
245 202 209 
255 255 255 
255 253 255 
255 177 255 
255 237 237 
231 201 255 
255 159 255 
255 174 174 
255 255 255 
255 255 255 
255 229 255 
255 217 255 
255 156 156 
255 194 225 
255 243 255 
255 207 255 
255 255 255 
255 194 255 
255 203 255 
250 250 255 
255 198 255 
255 196 255 
255 255 255 
201 146 209 
255 255 255 
161 161 161 
253 188 255 
255 255 255 
255 255 255 
255 183 255 
255 255 255 
255 255 255 
255 174 255 
255 157 255 
255 153 255 
252 252 252 
93 93 153 
215 191 255 
255 255 255 
249 225 255 
199 161 255 
216 158 255 
255 255 255 
255 255 255 
223 186 255 
215 172 172 
255 255 255 
93 93 153 
222 214 255 
255 221 255 
255 242 243 
224 99 255 
134 97 179 
136 56 136 
255 183 255 
175 113 255 
196 133 218 
255 255 255 
255 255 255 
255 97 255 
255 184 255 
255 171 255 
222 142 255 
220 68 225 
103 31 215 
195 86 255 
89 89 255 
255 132 255 
255 237 255 
222 185 255 
86 55 178 
122 53 255 
133 75 242 
113 82 255 
50 50 244 
88 31 136 
168 105 255 
209 72 243 
158 121 255 
255 194 255 
255 60 255 
25 25 80 
226 57 193 
255 113 255 
79 71 231 
94 60 199 
101 68 255 
74 43 246 
255 113 255 
204 75 255 
93 48 255 
235 51 255 
61 45 169 
189 63 255 
101 61 255 
125 120 255 
151 77 255 
55 52 189 
59 59 255 
107 45 146 
151 83 255 
110 49 213 
255 87 255 
255 127 151 
255 255 255 
255 94 255 
255 90 131 
255 119 255 
232 59 65 
255 63 71 
147 46 68 
184 54 128 
255 74 196 
133 41 41 
255 79 249 
255 71 108 
255 54 141 
255 67 99 
255 129 129 
255 82 255 
255 166 255 
255 53 79 
255 62 90 
255 71 80 
255 109 130 
255 87 146 
179 47 255 
255 158 168 
255 22 49 
255 93 161 
255 70 176 
255 76 76 
255 41 41 
255 86 149 
255 255 255 
255 101 184 
255 85 113 
255 119 122 
255 155 255 
255 96 145 
255 102 104 
255 146 224 
255 193 207 
255 237 237 
255 250 255 
255 198 221 
255 128 157 
255 233 255 
255 255 255 
255 250 255 
255 141 255 
255 255 255 
255 255 255 
0 0 0 
255 136 255 
255 214 218 
255 211 222 
255 255 255 
171 123 123 
255 255 255 
255 164 236 
255 202 255 
255 255 255 
255 201 255 
255 255 255 
255 156 156 
255 255 255 
233 181 217 
255 237 255 
228 106 106 
255 174 243 
234 183 192 
255 254 255 
255 241 255 
255 90 130 
255 255 255 
255 161 161 
232 232 232 
255 232 232 
255 210 255 
255 121 210 
255 255 255 
255 255 255 
255 255 255 
179 179 179 
255 255 255 
255 255 255 
255 255 255 
255 255 255 
255 220 255 
255 255 255 
255 236 236 
255 163 163 
255 255 255 
255 255 255 
255 255 255 
255 175 255 
255 159 207 
255 255 255 
255 236 255 
255 225 255 
255 230 230 
186 178 186 
255 255 255 
255 255 255 
255 255 255 
255 255 255 
255 177 177 
255 241 255 
223 186 255 
255 203 203 
154 145 255 
255 255 255 
255 254 254 
255 97 97 
255 255 255 
255 255 255 
255 255 255 
255 225 255 
255 255 255 
255 128 255 
255 255 255 
255 244 255 
132 41 41 
255 255 255 
255 255 255 
161 161 161 
255 255 255 
255 255 255 
255 209 255 
255 255 255 
255 255 255 
255 255 255 
255 181 248 
255 244 255 
0 0 0 
255 190 255 
255 229 229 
255 212 212 
255 255 255 
188 188 228 
255 255 255 
255 255 255 
255 164 207 
255 255 255 
255 255 255 
255 193 255 
255 243 255 
255 178 212 
255 137 255 
255 211 229 
255 255 255 
255 255 255 
255 255 255 
204 137 255 
255 145 255 
208 208 208 
255 255 255 
247 179 247 
255 163 224 
208 161 250 
255 255 255 
255 255 255 
255 255 255 
178 178 255 
255 255 255 
255 255 255 
255 186 255 
190 137 181 
255 255 255 
255 255 255 
255 255 255 
255 255 255 
235 161 255 
255 255 255 
255 255 255 
255 214 255 
255 255 255 
184 179 255 
255 255 255 
255 218 218 
255 255 255 
255 153 217 
146 146 187 
157 157 255 
255 176 198 
130 90 109 
255 255 255 
255 199 255 
255 145 243 
255 119 246 
110 99 255 
255 255 255 
86 86 86 
194 142 240 
255 255 255 
255 216 255 
255 163 223 
255 255 255 
255 248 255 
255 190 190 
246 155 255 
150 150 255 
255 255 255 
67 67 217 
234 195 255 
210 121 255 
181 181 215 
118 118 118 
255 245 255 
255 156 255 
255 236 255 
255 128 255 
255 222 255 
255 255 255 
255 255 255 
255 187 255 
255 200 255 
123 123 171 
64 40 255 
168 69 255 
255 113 255 
89 43 255 
46 4 32 
150 49 255 
213 47 255 
154 109 255 
80 68 255 
255 59 255 
227 150 255 
74 74 239 
207 110 255 
135 86 255 
237 48 192 
255 255 255 
200 92 255 
39 35 142 
92 79 255 
114 95 255 
136 77 255 
83 67 216 
178 76 255 
84 84 255 
34 34 110 
107 71 255 
108 72 246 
255 80 255 
149 76 255 
115 99 255 
109 92 255 
34 34 110 
197 60 239 
68 55 196 
94 70 228 
82 64 214 
95 67 232 
76 50 161 
116 56 206 
255 215 255 
121 26 38 
255 68 68 
255 101 148 
255 74 108 
255 58 165 
194 60 60 
255 42 52 
255 119 136 
255 59 96 
255 146 255 
255 122 134 
255 32 88 
255 55 98 
255 136 209 
255 83 244 
255 80 108 
255 75 75 
255 255 255 
255 54 255 
87 27 44 
155 48 59 
255 93 98 
255 72 72 
255 87 93 
251 40 236 
255 100 255 
255 66 132 
255 105 143 
255 106 106 
255 118 255 
110 34 34 
255 112 211 
255 85 93 
255 54 115 
255 37 42 
255 186 255 
255 71 118 
255 115 255 
255 149 185 
242 168 254 
178 178 178 
240 132 132 
255 205 255 
255 112 174 
255 255 255 
255 255 255 
255 255 255 
255 255 255 
255 163 255 
255 255 255 
255 170 170 
255 255 255 
255 244 244 
255 255 255 
255 183 190 
255 173 255 
208 146 255 
255 255 255 
255 255 255 
255 255 255 
255 245 255 
255 215 255 
255 172 181 
73 73 255 
255 236 255 
255 199 231 
255 198 255 
255 172 255 
255 255 255 
255 255 255 
255 255 255 
255 93 152 
255 255 255 
178 145 178 
255 255 255 
255 228 255 
255 224 255 
255 165 182 
255 213 255 
255 153 251 
255 255 255 
255 169 255 
255 255 255 
255 219 247 
255 255 255 
255 255 255 
255 215 255 
255 255 255 
255 222 238 
255 255 255 
255 255 255 
255 255 255 
255 185 255 
255 255 255 
255 255 255 
255 255 255 
255 197 197 
255 218 246 
202 89 155 
255 196 196 
255 255 255 
214 66 255 
255 255 255 
255 163 163 
255 255 255 
255 255 255 
255 138 255 
255 227 255 
255 255 255 
255 255 255 
255 255 255 
214 195 203 
255 255 255 
255 255 255 
255 230 255 
255 255 255 
221 221 221 
255 255 255 
255 255 255 
255 228 255 
255 255 255 
255 255 255 
255 255 255 
255 233 255 
255 255 255 
255 255 255 
255 196 255 
255 255 255 
255 249 255 
255 138 255 
255 255 255 
255 166 255 
255 203 203 
255 229 229 
255 255 255 
255 255 255 
157 128 255 
243 243 243 
255 255 255 
255 255 255 
140 140 140 
255 255 255 
255 100 226 
255 216 216 
255 122 255 
255 255 255 
255 255 255 
255 255 255 
243 138 255 
255 255 255 
255 232 255 
255 178 212 
255 255 255 
252 252 252 
255 118 137 
255 255 255 
255 200 255 
255 228 255 
255 255 255 
255 255 255 
255 238 255 
255 168 255 
187 132 132 
255 202 213 
255 255 255 
255 167 255 
255 212 255 
255 229 255 
255 255 255 
255 255 255 
162 126 200 
255 242 255 
171 145 255 
255 255 255 
179 179 255 
255 240 255 
239 200 255 
255 180 231 
255 255 255 
230 191 255 
255 169 255 
255 217 255 
255 221 255 
255 206 255 
252 218 246 
255 255 255 
255 255 255 
255 140 183 
128 128 210 
235 169 255 
255 150 255 
201 152 212 
255 148 148 
255 192 255 
255 243 255 
142 142 142 
175 175 255 
179 179 255 
255 151 228 
213 148 255 
255 255 255 
255 174 255 
181 151 255 
255 255 255 
146 146 187 
255 229 255 
255 255 255 
179 128 202 
255 255 255 
255 255 255 
255 255 255 
255 190 255 
255 220 255 
170 144 170 
255 255 255 
245 223 255 
161 150 255 
216 92 255 
135 75 255 
255 70 255 
108 68 255 
204 76 255 
255 98 255 
103 54 213 
255 111 255 
78 73 255 
150 67 255 
85 69 238 
60 60 194 
171 59 255 
109 86 255 
255 102 255 
255 73 255 
120 85 255 
108 69 255 
158 91 255 
255 255 255 
140 103 255 
84 59 255 
103 69 238 
68 50 255 
166 63 255 
255 255 255 
134 95 255 
67 50 255 
179 71 228 
160 88 255 
142 83 255 
74 55 188 
71 67 255 
135 90 255 
183 77 255 
144 62 213 
135 40 131 
60 48 203 
255 78 100 
189 59 69 
255 56 105 
255 116 218 
255 74 186 
239 59 94 
255 72 75 
255 132 143 
255 146 158 
255 76 96 
255 88 148 
255 104 255 
255 100 100 
255 148 255 
255 116 126 
255 77 91 
255 87 134 
255 117 121 
255 130 133 
255 123 255 
255 68 104 
255 80 80 
255 64 64 
255 62 114 
255 255 255 
255 103 187 
255 119 173 
253 54 205 
255 74 169 
255 194 227 
255 59 69 
255 255 255 
255 93 108 
255 190 255 
255 103 255 
255 102 116 
255 45 73 
255 126 243 
255 97 166 
215 67 67 
255 55 205 
255 255 255 
255 202 255 
255 211 211 
187 146 146 
255 187 255 
255 255 255 
255 255 255 
255 195 255 
255 255 255 
205 142 148 
171 123 123 
255 235 255 
240 132 132 
255 150 255 
255 171 179 
255 192 245 
255 175 175 
255 255 255 
255 255 255 
255 255 255 
255 255 255 
255 121 136 
255 255 255 
255 255 255 
255 217 251 
255 143 237 
255 255 255 
255 255 255 
255 160 255 
118 118 118 
232 232 255 
255 129 255 
255 255 255 
244 244 255 
255 210 220 
255 255 255 
255 194 255 
255 240 255 
255 255 255 
255 208 208 
253 208 211 
222 222 255 
255 165 242 
246 184 184 
255 230 255 
255 188 188 
255 179 205 
255 173 255 
190 178 183 
255 228 255 
255 226 226 
255 255 255 
255 176 176 
199 199 255 
187 146 146 
255 182 190 
255 255 255 
255 160 207 
255 251 255 
255 255 255 
255 255 255 
255 202 255 
234 234 255 
255 217 251 
255 218 255 
255 255 255 
255 194 255 
255 191 255 
249 165 167 
207 207 207 
255 255 255 
254 165 255 
255 245 251 
255 213 255 
255 255 255 
153 153 251 
93 93 153 
255 255 255 
242 195 255 
255 162 255 
255 255 255 
255 217 217 
255 255 255 
255 246 255 
178 178 178 
255 255 255 
255 255 255 
255 255 255 
255 255 255 
255 163 255 
255 255 255 
255 228 255 
255 253 255 
255 178 255 
193 193 193 
255 210 255 
255 248 255 
255 255 255 
255 255 255 
255 225 255 
255 255 255 
255 223 241 
255 236 255 
255 255 255 
255 255 255 
118 118 118 
255 252 255 
227 168 195 
255 255 255 
255 165 202 
255 255 255 
255 207 207 
255 194 194 
255 255 255 
199 149 255 
255 255 255 
255 255 255 
255 255 255 
255 255 255 
255 193 225 
255 245 255 
255 184 255 
255 178 223 
255 163 255 
255 255 255 
222 137 137 
207 207 255 
255 244 255 
255 255 255 
231 231 255 
255 255 255 
255 177 212 
255 255 255 
255 179 255 
255 255 255 
255 255 255 
255 91 255 
255 220 220 
255 235 255 
255 255 255 
153 93 93 
255 255 255 
255 255 255 
255 252 255 
255 177 212 
255 255 255 
255 190 190 
227 100 197 
255 250 255 
156 156 255 
255 255 255 
182 164 194 
255 255 255 
242 211 255 
255 167 255 
255 197 255 
255 155 223 
255 255 255 
255 203 255 
170 121 255 
255 188 255 
201 152 255 
255 240 255 
130 90 130 
247 223 255 
255 255 255 
255 255 255 
255 137 255 
86 86 86 
255 255 255 
255 181 255 
255 202 255 
123 123 171 
242 96 255 
255 169 255 
255 154 255 
114 63 203 
255 99 255 
146 67 255 
25 25 80 
200 124 255 
255 240 255 
179 62 255 
255 72 255 
255 119 255 
153 105 255 
132 79 255 
255 64 255 
187 75 255 
255 255 255 
136 122 255 
255 99 255 
32 4 46 
90 80 255 
255 125 255 
74 65 255 
163 71 255 
63 61 213 
255 189 255 
255 123 255 
255 255 255 
255 115 255 
90 53 187 
155 59 255 
67 67 218 
180 47 190 
50 47 175 
49 42 146 
255 115 255 
255 73 255 
101 84 255 
200 94 255 
99 66 255 
138 87 255 
255 255 255 
185 57 66 
255 156 211 
255 255 255 
255 70 79 
255 90 142 
196 53 69 
255 135 135 
255 78 96 
255 164 189 
255 111 111 
255 71 121 
255 96 117 
255 62 255 
255 66 119 
154 48 58 
255 74 202 
255 65 129 
255 72 111 
255 73 154 
255 133 133 
255 147 255 
255 90 198 
255 93 255 
255 243 255 
255 53 93 
255 113 255 
255 102 255 
255 62 69 
218 51 70 
234 73 92 
255 108 255 
255 128 255 
255 66 74 
255 35 35 
196 61 69 
255 129 153 
110 34 34 
255 88 255 
255 62 83 
255 175 255 
255 211 211 
255 199 230 
250 152 152 
255 202 255 
255 255 255 
255 255 255 
160 160 160 
255 255 255 
255 150 187 
255 195 195 
255 127 157 
255 200 255 
255 255 255 
123 123 171 
255 197 197 
255 255 255 
255 255 255 
255 255 255 
255 239 255 
200 126 162 
255 255 255 
255 255 255 
255 255 255 
255 145 154 
255 175 175 
255 202 255 
255 147 147 
255 255 255 
255 255 255 
255 155 255 
255 158 255 
255 132 255 
255 204 204 
255 167 255 
210 128 128 
255 246 255 
255 255 255 
255 50 50 
255 255 255 
118 118 118 
255 255 255 
255 255 255 
255 223 255 
255 255 255 
255 211 217 
255 140 255 
255 142 255 
255 175 175 
255 255 255 
255 255 255 
255 255 255 
255 199 255 
173 126 255 
215 172 172 
255 255 255 
255 255 255 
255 253 255 
255 193 255 
255 255 255 
255 214 232 
255 157 196 
217 184 255 
255 255 255 
255 255 255 
255 255 255 
255 255 255 
255 248 255 
255 172 172 
255 255 255 
255 215 255 
255 165 182 
255 255 255 
255 255 255 
255 252 255 
255 255 255 
255 255 255 
255 255 255 
255 255 255 
142 142 142 
255 255 255 
255 255 255 
215 181 181 
181 163 255 
255 215 255 
255 255 255 
223 191 255 
255 191 255 
255 255 255 
255 255 255 
255 140 140 
255 255 255 
198 160 255 
255 255 255 
255 221 255 
255 246 255 
255 255 255 
255 255 255 
255 126 175 
255 174 174 
255 255 255 
255 177 255 
225 184 252 
255 255 255 
255 255 255 
255 255 255 
255 255 255 
255 176 255 
255 255 255 
255 255 255 
208 208 208 
255 221 255 
255 235 250 
255 255 255 
255 255 255 
255 255 255 
255 255 255 
255 255 255 
255 178 212 
255 218 255 
255 255 255 
252 137 255 
255 224 255 
255 183 255 
255 105 255 
255 232 255 
255 227 254 
255 232 255 
255 92 169 
255 255 255 
255 82 189 
246 195 255 
255 120 139 
255 255 255 
255 255 255 
255 255 255 
255 255 255 
255 233 255 
255 233 255 
255 255 255 
161 161 255 
255 255 255 
255 255 255 
255 182 255 
255 255 255 
255 240 255 
178 178 178 
255 255 255 
255 180 255 
255 196 196 
255 255 255 
242 166 255 
255 255 255 
255 225 255 
240 187 255 
237 208 255 
255 174 174 
255 216 216 
146 146 187 
255 255 255 
255 255 255 
109 94 162 
255 205 255 
255 255 255 
255 179 255 
255 203 255 
255 25 255 
255 174 255 
255 255 255 
255 255 255 
247 231 255 
189 166 255 
255 166 255 
255 100 255 
123 123 171 
0 0 0 
255 255 255 
255 187 255 
191 87 255 
172 114 255 
255 86 255 
168 114 255 
46 46 150 
255 152 255 
146 83 255 
91 85 255 
74 61 255 
255 66 255 
110 75 255 
255 53 255 
255 57 255 
255 175 255 
255 89 255 
160 103 255 
255 116 255 
255 93 255 
53 50 255 
131 83 255 
117 99 255 
90 58 203 
50 31 99 
155 121 255 
110 60 195 
34 34 110 
101 61 251 
101 90 255 
255 92 255 
192 38 145 
93 54 255 
255 90 255 
183 72 253 
195 89 255 
255 131 255 
95 60 195 
255 87 255 
56 39 206 
194 49 158 
255 233 255 
206 64 64 
255 128 156 
191 53 97 
255 70 71 
255 121 140 
255 234 255 
180 56 129 
255 61 61 
255 89 255 
255 63 66 
255 92 182 
255 107 255 
255 67 125 
255 193 222 
160 50 165 
255 79 255 
255 75 77 
255 73 220 
255 91 176 
255 233 245 
255 91 212 
255 65 87 
255 187 195 
255 65 152 
255 105 143 
181 56 56 
255 124 172 
255 82 85 
215 67 93 
255 88 88 
228 71 71 
255 81 81 
255 102 134 
255 135 255 
255 255 255 
255 85 199 
255 53 53 
255 105 255 
255 235 255 
255 175 255 
255 130 255 
255 255 255 
255 255 255 
255 255 255 
255 103 255 
171 123 123 
255 255 255 
255 196 255 
255 255 255 
241 108 255 
225 149 207 
255 212 218 
255 201 255 
255 184 255 
228 196 196 
255 128 172 
255 192 192 
255 32 32 
255 255 255 
255 242 255 
255 255 255 
255 196 255 
221 104 147 
255 214 221 
246 185 185 
118 118 118 
239 210 210 
255 150 150 
255 255 255 
255 255 255 
255 255 255 
255 148 198 
255 255 255 
255 255 255 
255 164 164 
255 197 204 
227 187 187 
255 255 255 
255 255 255 
255 255 255 
255 190 222 
255 255 255 
255 202 255 
255 220 226 
201 123 125 
255 210 255 
255 255 255 
255 92 166 
243 222 255 
255 119 255 
255 179 255 
255 255 255 
255 255 255 
255 255 255 
255 255 255 
255 199 199 
255 255 255 
255 255 255 
255 255 255 
255 255 255 
240 203 203 
251 223 223 
255 255 255 
255 255 255 
255 254 255 
255 178 213 
255 255 255 
247 242 247 
255 207 255 
255 255 255 
255 255 255 
245 90 90 
255 255 255 
255 255 255 
255 255 255 
255 255 255 
255 249 255 
255 128 255 
255 214 255 
182 182 216 
255 255 255 
255 255 255 
255 255 255 
255 211 255 
255 255 255 
255 255 255 
255 255 255 
255 255 255 
255 255 255 
179 179 179 
255 255 255 
255 159 255 
255 221 221 
255 255 255 
255 255 255 
255 252 255 
222 222 255 
255 202 232 
255 255 255 
255 250 255 
255 255 255 
255 255 255 
255 162 212 
255 182 255 
255 248 255 
255 255 255 
255 255 255 
255 255 255 
255 156 164 
255 255 255 
255 255 255 
255 188 253 
255 236 255 
255 191 255 
246 175 255 
235 197 255 
235 235 255 
255 225 255 
255 217 255 
208 208 208 
255 255 255 
255 164 255 
255 216 255 
118 118 118 
255 255 255 
255 255 255 
255 241 255 
255 255 255 
255 255 255 
255 112 255 
255 255 255 
255 255 255 
255 255 255 
146 146 187 
218 199 236 
255 255 255 
184 184 255 
255 255 255 
255 255 255 
255 255 255 
255 255 255 
255 255 255 
153 132 255 
255 255 255 
255 140 255 
106 106 228 
255 255 255 
255 143 236 
255 255 255 
255 194 255 
123 123 171 
187 146 146 
224 151 255 
173 173 255 
255 141 255 
197 135 255 
194 194 255 
181 136 255 
161 161 161 
255 165 255 
255 255 255 
255 182 255 
255 186 255 
255 255 255 
255 255 255 
161 161 161 
255 33 255 
255 147 242 
98 98 255 
255 255 255 
200 152 255 
187 146 146 
255 255 255 
150 150 255 
255 147 255 
82 82 255 
145 78 255 
185 78 255 
255 150 255 
255 137 255 
255 38 255 
250 102 255 
134 86 255 
111 65 255 
255 148 255 
189 91 255 
141 98 255 
79 62 255 
97 93 255 
123 62 255 
67 40 156 
100 73 255 
210 116 255 
178 74 255 
187 59 255 
127 119 255 
104 77 248 
90 48 255 
68 49 157 
89 86 255 
68 49 157 
139 67 255 
42 27 151 
138 58 255 
111 81 255 
148 82 255 
58 52 255 
92 69 255 
170 71 255 
91 63 204 
73 54 180 
107 45 146 
113 89 255 
128 60 255 
77 46 255 
255 57 77 
255 58 153 
255 63 92 
202 63 73 
255 66 77 
255 99 111 
255 91 255 
255 147 147 
255 58 165 
207 64 64 
255 60 68 
238 46 67 
255 102 189 
255 78 128 
255 45 134 
255 74 80 
255 163 255 
255 106 159 
255 94 145 
181 56 56 
183 52 148 
255 136 136 
234 55 255 
255 136 139 
255 84 255 
255 68 82 
255 73 248 
146 22 42 
255 107 196 
255 88 88 
246 76 76 
255 119 127 
255 102 255 
255 76 83 
255 121 209 
174 52 54 
255 178 245 
255 102 229 
255 61 255 
255 162 255 
255 255 255 
255 215 215 
255 224 255 
255 191 255 
255 154 255 
255 255 255 
255 126 126 
255 255 255 
255 255 255 
255 109 109 
255 162 255 
183 129 183 
255 212 217 
255 194 213 
208 135 163 
255 255 255 
255 255 255 
255 167 175 
255 132 175 
255 126 126 
255 216 222 
255 186 193 
178 178 178 
255 193 255 
255 255 255 
187 146 146 
255 216 255 
255 203 255 
217 217 255 
171 123 123 
255 222 222 
255 227 227 
255 255 255 
255 255 255 
255 255 255 
223 218 255 
255 248 255 
157 120 255 
255 255 255 
228 197 197 
255 213 243 
255 213 255 
255 255 255 
171 123 123 
255 225 255 
255 242 255 
255 251 255 
255 111 111 
252 252 252 
255 255 255 
255 255 255 
255 255 255 
255 194 255 
255 255 255 
255 170 255 
187 145 145 
255 255 255 
255 142 228 
255 156 156 
255 245 255 
255 201 201 
255 237 255 
255 255 255 
255 255 255 
255 176 255 
255 255 255 
255 209 209 
255 228 255 
255 255 255 
255 194 255 
255 255 255 
255 244 255 
255 255 255 
255 220 248 
255 255 255 
255 164 225 
255 255 255 
255 255 255 
255 193 255 
153 93 93 
255 255 255 
255 154 223 
255 160 222 
255 209 255 
255 255 255 
255 211 255 
142 142 142 
255 255 255 
255 127 127 
255 172 255 
178 178 178 
184 39 255 
255 241 255 
160 160 160 
255 246 255 
255 137 243 
255 181 255 
195 195 255 
255 239 255 
255 255 255 
255 182 189 
216 173 253 
255 255 255 
202 202 255 
255 150 190 
255 255 255 
255 255 255 
255 255 255 
255 255 255 
196 100 255 
255 124 255 
231 163 255 
239 202 202 
255 152 255 
123 123 171 
255 197 255 
255 163 231 
255 199 230 
255 255 255 
255 219 247 
255 231 255 
255 243 255 
255 182 182 
255 255 255 
255 255 255 
255 253 255 
255 232 255 
255 243 255 
255 255 255 
255 174 179 
255 180 236 
231 174 255 
255 255 255 
255 214 243 
214 208 214 
224 220 241 
255 166 255 
255 159 255 
255 255 255 
255 217 255 
255 177 255 
142 142 142 
255 138 255 
255 230 255 
193 93 255 
255 248 255 
255 255 255 
255 255 255 
146 146 187 
255 255 255 
255 255 255 
255 161 255 
255 255 255 
207 184 255 
255 255 255 
229 109 252 
255 151 255 
244 175 255 
151 121 151 
255 255 255 
255 206 255 
255 255 255 
255 252 255 
251 251 255 
255 223 255 
219 219 255 
255 231 255 
255 191 255 
255 255 255 
253 187 255 
132 132 240 
118 118 118 
255 228 255 
154 145 215 
255 255 255 
255 204 255 
255 167 255 
255 85 255 
54 54 254 
136 92 255 
92 73 255 
255 255 255 
137 115 255 
255 72 255 
190 183 255 
121 57 183 
255 230 255 
38 12 38 
129 80 255 
255 106 255 
147 103 255 
255 255 255 
59 48 155 
255 96 255 
121 57 203 
88 84 255 
232 72 255 
202 38 223 
129 46 255 
189 97 255 
132 65 255 
87 79 254 
75 58 187 
238 100 255 
255 127 255 
69 59 189 
144 75 243 
255 113 255 
106 55 209 
66 54 175 
92 66 255 
106 43 255 
102 77 255 
100 71 232 
255 230 255 
68 46 147 
255 59 86 
255 84 130 
255 67 146 
255 101 255 
255 61 161 
255 47 57 
251 76 96 
255 85 103 
255 83 111 
255 75 75 
255 52 117 
255 90 211 
255 90 114 
255 92 92 
255 87 138 
255 55 57 
255 98 109 
255 122 212 
255 63 80 
255 87 231 
255 78 88 
182 56 56 
255 255 255 
255 63 106 
255 97 120 
255 64 64 
255 87 87 
255 115 115 
255 82 82 
255 92 160 
255 133 133 
255 78 255 
255 132 167 
255 169 238 
255 80 80 
255 59 193 
255 137 191 
255 101 119 
255 74 93 
255 255 255 
255 215 255 
255 145 185 
255 139 139 
219 127 168 
255 162 255 
255 239 255 
255 196 255 
255 79 107 
255 255 255 
255 161 209 
255 177 177 
250 152 152 
255 255 255 
255 154 154 
255 255 255 
247 231 238 
231 178 180 
255 202 208 
255 255 255 
255 255 255 
255 255 255 
255 234 234 
226 220 226 
255 211 211 
255 255 255 
255 255 255 
255 255 255 
255 135 172 
255 236 236 
255 194 206 
220 104 187 
255 255 255 
255 255 255 
255 127 184 
255 255 255 
255 110 255 
255 255 255 
255 255 255 
255 217 217 
215 181 181 
255 255 255 
255 186 246 
255 255 255 
255 181 181 
255 255 255 
255 213 255 
255 255 255 
255 255 255 
255 255 255 
255 167 255 
255 167 255 
255 184 184 
255 255 255 
255 184 184 
255 148 222 
255 255 255 
255 166 246 
246 184 184 
255 246 255 
255 169 169 
255 222 255 
255 121 197 
255 183 237 
255 255 255 
228 196 196 
255 211 255 
255 255 255 
255 255 255 
255 165 165 
255 255 255 
255 166 239 
255 180 255 
255 158 255 
255 255 255 
255 255 255 
255 255 255 
255 255 255 
255 255 255 
255 165 255 
255 255 255 
255 212 233 
255 175 216 
148 148 255 
255 255 255 
255 215 250 
255 255 255 
255 255 255 
255 255 255 
255 222 222 
255 204 255 
153 93 93 
255 226 232 
248 182 255 
255 255 255 
255 238 255 
255 247 247 
255 255 255 
142 142 142 
255 193 225 
255 255 255 
255 186 255 
255 255 255 
255 157 233 
255 255 255 
255 225 255 
255 191 203 
255 218 255 
255 197 238 
255 255 255 
173 148 209 
255 209 255 
255 214 255 
255 255 255 
255 224 255 
255 222 255 
255 255 255 
255 214 255 
255 255 255 
255 232 255 
255 255 255 
255 255 255 
255 255 255 
255 162 255 
190 150 190 
255 160 198 
255 173 255 
255 113 146 
255 166 166 
255 255 255 
255 209 255 
255 255 255 
255 255 255 
255 250 255 
255 232 255 
255 211 211 
255 255 255 
255 184 255 
255 251 251 
255 153 255 
255 143 255 
255 237 255 
255 196 255 
255 255 255 
255 255 255 
255 126 126 
255 186 255 
255 167 255 
255 192 255 
255 255 255 
255 228 255 
255 126 255 
255 212 255 
173 71 255 
255 190 190 
231 193 255 
255 255 255 
255 223 255 
255 255 255 
123 123 171 
255 255 255 
255 255 255 
255 255 255 
134 97 179 
120 120 255 
165 160 255 
255 141 255 
255 154 255 
255 243 255 
255 141 255 
117 108 255 
171 123 123 
201 198 255 
255 255 255 
255 222 255 
255 217 255 
186 173 255 
250 239 255 
177 105 255 
138 90 255 
30 9 96 
255 150 255 
45 45 255 
255 94 255 
146 108 255 
255 121 255 
255 108 255 
105 105 255 
79 53 255 
238 84 255 
255 82 255 
255 152 255 
255 153 255 
255 68 255 
233 106 255 
255 100 255 
167 56 182 
255 70 255 
133 52 212 
198 104 255 
75 48 197 
119 58 255 
105 100 255 
121 56 255 
246 186 255 
47 47 151 
71 71 229 
48 48 255 
255 79 255 
217 90 255 
86 47 165 
120 92 255 
255 235 255 
79 65 255 
75 65 244 
189 187 255 
255 109 255 
255 120 120 
255 84 154 
255 56 126 
255 96 255 
255 85 102 
255 81 109 
255 117 121 
255 77 78 
255 53 65 
255 70 153 
255 120 255 
255 102 103 
255 103 255 
255 50 57 
255 105 191 
255 73 143 
255 97 255 
110 34 34 
189 59 82 
222 63 74 
255 80 98 
255 104 106 
200 53 64 
255 95 96 
255 71 90 
255 97 122 
255 131 183 
255 89 110 
255 83 120 
255 119 255 
255 45 105 
255 106 255 
255 114 114 
255 69 122 
255 51 115 
255 103 103 
255 50 113 
194 54 128 
255 247 255 
255 172 172 
255 204 255 
255 255 255 
255 255 255 
255 192 255 
255 217 250 
255 117 255 
255 255 255 
255 255 255 
153 93 93 
255 160 160 
255 149 195 
255 191 255 
153 93 93 
118 118 118 
255 207 237 
255 205 227 
255 118 118 
255 210 255 
255 255 255 
255 255 255 
255 255 255 
255 129 164 
255 255 255 
255 237 237 
255 206 255 
255 109 208 
255 255 255 
255 143 223 
255 255 255 
255 255 255 
214 195 214 
255 255 255 
255 255 255 
255 253 255 
0 0 0 
255 255 255 
255 192 255 
255 160 220 
187 146 146 
255 255 255 
255 204 204 
255 255 255 
255 204 255 
255 255 255 
255 201 201 
255 255 255 
255 239 255 
204 204 255 
255 255 255 
255 245 255 
255 234 255 
255 255 255 
184 98 184 
255 255 255 
255 255 255 
255 255 255 
255 230 255 
255 255 255 
255 224 255 
255 255 255 
255 255 255 
255 255 255 
255 221 255 
130 90 109 
255 255 255 
255 255 255 
255 178 255 
142 142 142 
250 199 222 
198 179 180 
190 182 222 
255 181 255 
255 195 200 
232 137 245 
255 200 255 
255 253 253 
255 255 255 
187 146 255 
255 255 255 
183 178 204 
255 255 255 
255 229 255 
255 255 255 
255 255 255 
255 252 255 
255 255 255 
191 191 255 
255 216 255 
255 182 251 
255 255 255 
202 202 255 
255 255 255 
255 255 255 
255 255 255 
255 246 255 
255 255 255 
255 159 255 
255 223 255 
255 172 175 
255 255 255 
255 177 255 
255 212 255 
174 174 255 
255 255 255 
255 255 255 
255 210 255 
255 255 255 
255 239 255 
255 255 255 
255 255 255 
255 218 220 
255 203 250 
161 161 255 
255 221 255 
255 228 228 
255 231 255 
207 154 255 
255 247 247 
255 198 255 
255 178 178 
255 255 255 
255 184 255 
192 121 255 
255 161 255 
255 161 202 
255 255 255 
255 229 255 
255 255 255 
242 137 181 
255 228 255 
255 205 255 
205 157 255 
255 255 255 
255 239 255 
255 250 255 
234 176 255 
255 140 255 
255 233 255 
255 189 189 
255 255 255 
255 195 255 
255 215 244 
130 90 130 
255 255 255 
255 177 255 
124 86 255 
246 156 246 
255 255 255 
255 194 255 
255 255 255 
132 41 41 
255 188 219 
212 151 255 
255 241 255 
165 165 202 
255 162 255 
255 170 255 
255 208 255 
255 205 255 
255 64 139 
255 194 255 
255 188 255 
255 186 255 
255 224 255 
255 255 255 
163 116 255 
194 167 226 
255 255 255 
255 248 255 
255 243 255 
237 174 255 
255 172 255 
179 155 255 
255 255 255 
255 200 255 
255 213 255 
255 168 255 
99 88 255 
255 131 255 
117 112 255 
138 102 255 
41 41 133 
255 245 255 
128 37 202 
70 55 255 
68 59 255 
56 56 255 
125 68 255 
146 114 255 
165 128 255 
255 71 255 
102 65 214 
255 73 237 
224 50 255 
80 48 255 
251 84 255 
121 62 216 
120 80 255 
164 96 255 
94 74 245 
255 255 255 
143 100 255 
86 53 255 
148 65 255 
185 47 151 
228 102 255 
116 114 255 
76 64 255 
64 63 255 
163 96 255 
255 255 255 
54 42 137 
255 125 255 
91 55 255 
122 122 255 
78 77 255 
255 73 96 
255 50 73 
253 66 71 
194 59 75 
124 38 54 
255 73 255 
237 74 88 
255 55 143 
255 89 97 
255 41 185 
255 101 255 
255 69 177 
255 255 255 
255 99 255 
255 185 255 
255 59 112 
255 152 255 
255 255 255 
255 60 78 
255 94 95 
255 73 75 
255 127 127 
255 108 212 
255 148 157 
80 25 25 
255 136 255 
255 85 85 
255 121 121 
255 70 226 
255 52 52 
255 88 136 
241 75 82 
255 56 107 
255 70 114 
255 75 97 
160 31 31 
255 120 130 
255 92 124 
255 255 255 
255 189 230 
118 118 118 
255 255 255 
255 175 175 
255 81 124 
255 168 226 
255 207 208 
223 169 255 
255 183 183 
255 255 255 
223 150 150 
255 255 255 
255 131 212 
255 243 255 
255 210 255 
255 157 255 
255 182 255 
187 146 146 
255 242 255 
255 255 255 
255 212 255 
255 255 255 
224 192 255 
255 123 255 
255 244 255 
255 230 255 
255 202 255 
255 172 218 
255 255 255 
255 216 255 
255 255 255 
255 155 195 
255 255 255 
156 156 255 
188 188 228 
255 215 255 
255 98 98 
255 227 255 
255 190 190 
255 255 255 
181 181 215 
255 148 209 
255 217 255 
255 221 249 
255 218 255 
255 211 240 
255 255 255 
255 255 255 
255 200 231 
255 255 255 
255 255 255 
255 209 209 
255 109 205 
255 214 255 
255 255 255 
255 255 255 
255 255 255 
255 137 137 
255 183 255 
255 170 202 
255 255 255 
255 199 255 
255 255 255 
187 187 255 
255 255 255 
255 255 255 
255 149 255 
255 255 255 
255 255 255 
255 218 255 
255 231 255 
255 102 145 
255 176 255 
255 204 255 
255 255 255 
255 255 255 
255 255 255 
255 238 255 
142 142 142 
255 223 223 
132 132 187 
255 232 255 
255 172 255 
255 255 255 
255 223 235 
255 200 255 
255 187 248 
255 254 254 
255 241 252 
255 255 255 
153 93 93 
255 255 255 
255 132 175 
255 255 255 
255 255 255 
148 146 206 
255 206 255 
255 198 255 
255 255 255 
255 178 178 
247 219 255 
255 223 223 
255 194 255 
248 248 255 
118 118 118 
255 207 255 
255 207 255 
255 146 187 
255 201 201 
255 245 255 
255 255 255 
255 120 132 
255 255 255 
243 108 118 
255 255 255 
255 159 255 
255 255 255 
255 206 255 
255 255 255 
255 196 255 
255 255 255 
255 255 255 
255 121 158 
255 255 255 
255 248 255 
255 231 247 
255 255 255 
255 255 255 
170 121 255 
235 235 255 
255 255 255 
205 157 196 
255 255 255 
219 172 255 
255 156 156 
255 255 255 
255 215 255 
255 123 245 
183 153 245 
255 177 255 
210 210 239 
255 148 148 
205 179 255 
255 255 255 
255 255 255 
159 159 255 
255 255 255 
255 255 255 
249 184 255 
255 223 255 
255 255 255 
255 200 255 
196 191 255 
255 239 255 
253 208 255 
255 255 255 
255 255 255 
255 255 255 
78 69 255 
255 255 255 
255 121 255 
255 255 255 
255 173 255 
255 255 255 
255 250 255 
255 255 255 
255 243 255 
255 240 255 
255 165 255 
180 122 255 
255 156 255 
255 255 255 
212 128 255 
255 194 255 
255 255 255 
156 147 195 
255 119 187 
255 199 199 
220 206 255 
255 63 229 
58 48 154 
255 134 255 
141 129 255 
255 81 255 
61 59 255 
71 55 195 
79 57 255 
117 97 255 
191 59 255 
111 79 255 
66 61 212 
128 59 207 
50 50 244 
106 60 255 
94 66 255 
198 70 225 
81 74 240 
255 66 255 
179 141 255 
127 39 255 
97 52 255 
125 77 255 
176 84 255 
200 149 255 
160 61 246 
255 106 255 
72 40 190 
67 28 112 
58 36 122 
180 113 255 
255 25 90 
107 72 255 
187 182 255 
228 62 255 
98 66 255 
255 90 255 
79 51 166 
255 93 156 
189 59 82 
255 103 150 
255 87 194 
255 93 98 
255 92 255 
255 41 52 
255 70 255 
231 42 72 
255 151 168 
255 87 101 
255 37 115 
255 32 39 
255 107 193 
230 35 55 
255 80 93 
255 92 159 
255 62 122 
243 49 82 
255 255 255 
255 88 255 
214 66 116 
255 52 68 
255 212 255 
255 94 126 
255 103 120 
255 233 255 
255 101 193 
255 124 124 
255 93 142 
255 210 255 
255 36 115 
255 93 93 
255 183 255 
255 97 179 
255 77 78 
255 89 120 
255 96 126 
255 71 90 
255 255 255 
255 170 255 
255 255 255 
255 177 255 
255 155 169 
255 195 234 
255 144 144 
255 184 255 
255 222 255 
255 255 255 
255 197 228 
255 255 255 
255 255 255 
255 196 255 
255 119 255 
255 187 187 
235 168 168 
240 132 132 
255 136 152 
255 255 255 
255 255 255 
255 186 255 
255 187 187 
106 106 171 
255 181 241 
255 255 255 
255 195 199 
255 255 255 
255 86 197 
255 209 255 
255 179 255 
198 160 255 
255 255 255 
255 186 255 
255 181 244 
255 196 255 
255 250 255 
255 187 255 
255 198 255 
255 188 188 
255 255 255 
255 255 255 
251 140 255 
255 164 255 
255 255 255 
255 151 232 
255 200 255 
255 245 255 
255 255 255 
255 255 255 
255 255 255 
255 255 255 
255 132 132 
255 234 255 
255 255 255 
255 190 190 
255 209 217 
255 255 255 
255 176 255 
255 255 255 
255 255 255 
227 209 217 
255 255 255 
255 255 255 
255 171 214 
255 237 255 
255 225 255 
255 255 255 
255 236 236 
255 255 255 
255 255 255 
255 172 255 
255 255 255 
255 255 255 
255 183 230 
255 178 178 
231 174 255 
255 153 237 
255 255 255 
255 255 255 
118 118 118 
126 126 255 
255 255 255 
255 237 255 
255 255 255 
255 145 255 
255 225 255 
228 168 185 
255 255 255 
170 162 170 
184 175 255 
201 164 164 
255 255 255 
255 184 255 
255 181 181 
255 220 255 
255 90 244 
255 255 255 
153 153 251 
255 206 206 
255 255 255 
255 255 255 
255 255 255 
255 235 235 
199 126 199 
255 179 255 
255 255 255 
255 255 255 
255 228 255 
255 215 215 
171 123 123 
255 213 213 
255 255 255 
255 168 255 
255 255 255 
255 255 255 
255 254 255 
255 189 255 
255 255 255 
255 255 255 
255 219 255 
255 195 227 
255 255 255 
228 106 106 
142 142 142 
255 255 255 
255 238 255 
93 93 153 
255 255 255 
255 249 255 
173 125 255 
255 255 255 
255 176 176 
197 158 255 
229 139 255 
248 228 255 
255 255 255 
162 162 255 
255 208 255 
255 207 255 
255 255 255 
255 255 255 
255 161 255 
255 255 255 
255 236 255 
179 179 179 
255 191 255 
176 130 255 
255 255 255 
255 137 139 
118 118 118 
255 159 255 
255 255 255 
255 170 255 
255 249 255 
235 149 255 
248 213 255 
255 205 205 
118 118 118 
255 248 255 
255 255 255 
255 255 255 
112 106 255 
255 255 255 
255 250 255 
255 234 255 
255 223 255 
255 255 255 
253 166 255 
255 255 255 
255 255 255 
219 216 255 
255 189 255 
255 255 255 
255 255 255 
54 14 255 
157 157 255 
255 255 255 
127 118 255 
182 81 255 
41 41 133 
155 96 255 
255 137 255 
52 28 126 
208 51 176 
142 124 255 
219 194 255 
255 153 255 
87 66 213 
204 84 255 
102 96 255 
234 47 255 
76 47 255 
68 47 255 
255 255 255 
97 69 236 
255 47 169 
92 72 255 
97 83 255 
111 55 206 
255 74 255 
221 85 255 
104 87 255 
255 80 255 
77 77 248 
255 67 255 
146 68 255 
77 66 255 
134 114 255 
255 186 255 
255 75 241 
139 124 255 
48 42 255 
81 81 255 
72 52 179 
255 58 255 
255 145 255 
255 86 255 
255 115 188 
255 184 190 
207 43 68 
255 87 93 
255 94 117 
255 235 240 
255 78 131 
255 98 255 
255 111 142 
255 106 113 
255 182 210 
255 82 122 
255 99 203 
255 77 111 
255 78 123 
255 61 63 
246 76 98 
255 68 170 
255 100 147 
255 98 132 
255 123 255 
255 93 155 
255 94 151 
194 60 60 
244 50 50 
255 87 87 
255 98 219 
255 99 121 
255 71 81 
255 87 255 
255 95 255 
255 255 255 
255 46 53 
255 125 164 
255 45 81 
255 135 255 
255 127 231 
255 44 162 
255 255 255 
255 144 144 
210 128 128 
204 117 178 
255 236 236 
255 255 255 
86 86 86 
255 92 117 
255 249 249 
255 232 232 
254 143 255 
255 255 255 
255 246 255 
255 255 255 
255 255 255 
255 255 255 
255 168 168 
255 255 255 
255 160 255 
255 186 234 
255 255 255 
187 146 146 
255 177 216 
255 214 255 
255 194 255 
255 255 255 
255 115 251 
255 255 255 
255 169 223 
255 255 255 
255 255 255 
255 255 255 
255 167 225 
255 156 180 
255 202 248 
255 166 188 
178 178 178 
255 236 255 
255 184 255 
255 99 255 
255 239 255 
130 90 130 
255 178 185 
255 230 230 
255 180 255 
255 250 255 
255 131 230 
208 172 255 
255 136 201 
86 86 86 
196 196 255 
255 197 236 
251 153 153 
255 255 255 
255 255 255 
220 220 220 
255 255 255 
255 201 232 
255 255 255 
255 187 255 
255 201 255 
255 201 255 
255 180 180 
255 232 255 
255 255 255 
255 238 255 
194 97 255 
255 180 255 
255 235 255 
255 140 172 
255 213 213 
252 193 232 
255 255 255 
255 255 255 
255 174 255 
255 250 255 
255 167 183 
255 218 228 
255 255 255 
255 255 255 
197 170 255 
255 160 255 
208 208 208 
255 255 255 
255 120 227 
255 255 255 
255 246 255 
255 255 255 
255 255 255 
255 255 255 
255 255 255 
255 255 255 
255 193 255 
255 210 255 
157 100 157 
255 189 222 
255 199 255 
255 255 255 
255 191 255 
255 163 223 
255 195 255 
255 176 255 
255 188 255 
255 223 227 
255 255 255 
255 209 255 
255 255 255 
255 255 255 
211 151 211 
255 221 255 
255 242 255 
255 255 255 
255 118 118 
156 126 183 
255 193 255 
255 187 255 
140 140 140 
255 247 255 
255 255 255 
255 255 255 
93 93 153 
255 216 255 
230 169 211 
220 178 255 
255 255 255 
142 142 142 
255 255 255 
255 209 255 
240 132 255 
255 217 255 
255 227 255 
255 255 255 
255 229 255 
255 170 255 
255 255 255 
255 249 255 
255 255 255 
255 172 255 
255 148 255 
255 143 255 
255 170 170 
255 150 255 
255 120 135 
255 158 208 
255 109 109 
255 129 150 
255 95 155 
255 128 128 
255 178 240 
255 110 255 
255 206 255 
248 109 144 
133 59 82 
255 162 255 
255 255 255 
255 255 255 
255 255 255 
255 255 255 
132 118 255 
255 255 255 
255 255 255 
255 208 255 
255 230 255 
200 95 169 
203 145 255 
98 98 255 
255 222 255 
246 210 255 
253 224 255 
123 110 255 
255 255 255 
255 184 255 
255 131 255 
255 144 255 
255 255 255 
163 163 255 
255 159 255 
168 52 168 
255 199 255 
215 104 255 
255 255 255 
255 89 255 
139 65 255 
49 41 158 
192 72 255 
80 80 255 
255 127 255 
118 96 255 
34 34 110 
84 61 255 
202 139 255 
131 69 255 
255 76 255 
255 109 255 
255 74 238 
255 95 255 
255 77 255 
255 51 247 
148 140 255 
116 52 255 
223 127 255 
72 38 139 
161 66 255 
112 36 133 
124 84 255 
255 77 247 
86 73 255 
64 60 255 
87 66 214 
70 62 255 
62 19 62 
151 148 255 
160 72 255 
85 73 255 
57 49 212 
70 57 212 
105 50 168 
126 35 221 
245 50 50 
255 102 133 
255 75 75 
255 89 183 
255 74 74 
255 89 125 
255 107 135 
255 63 255 
209 65 93 
255 86 86 
255 94 255 
164 51 71 
255 105 179 
176 55 66 
255 116 255 
255 145 255 
255 79 124 
255 88 92 
255 132 255 
255 81 117 
255 136 255 
255 60 138 
255 81 84 
255 97 229 
255 85 171 
196 61 69 
255 90 95 
255 94 255 
255 82 161 
254 54 54 
255 109 255 
206 64 64 
255 83 255 
87 27 44 
255 57 255 
255 80 188 
255 103 124 
255 60 69 
255 255 255 
67 67 153 
255 142 255 
255 123 255 
255 150 188 
255 255 255 
255 103 116 
255 213 226 
255 173 255 
255 120 120 
255 234 255 
255 229 231 
255 205 205 
255 255 255 
255 152 215 
255 233 255 
255 242 255 
255 255 255 
255 255 255 
255 40 255 
255 138 255 
0 0 0 
255 255 255 
215 181 181 
255 166 193 
255 255 255 
255 163 209 
255 255 255 
255 145 227 
158 94 178 
255 255 255 
255 190 255 
142 142 142 
255 132 132 
255 211 255 
255 205 205 
255 195 255 
255 215 232 
255 129 238 
255 225 225 
255 255 255 
255 205 255 
255 207 220 
255 214 255 
245 189 198 
255 255 255 
255 253 255 
231 214 255 
255 255 255 
255 255 255 
221 61 211 
255 234 255 
255 205 255 
255 243 255 
255 118 180 
255 225 255 
255 176 185 
255 193 255 
179 179 179 
255 255 255 
255 255 255 
255 255 255 
255 229 255 
255 255 255 
255 255 255 
255 255 255 
255 255 255 
211 168 211 
255 214 255 
255 255 255 
237 207 255 
255 255 255 
255 233 255 
255 255 255 
255 242 255 
255 209 209 
255 142 142 
255 255 255 
255 255 255 
255 255 255 
255 158 173 
201 164 164 
255 255 255 
255 255 255 
255 255 255 
255 188 221 
255 255 255 
237 207 255 
204 167 204 
255 215 255 
195 147 156 
255 255 255 
255 189 255 
255 255 255 
255 196 228 
255 187 255 
255 255 255 
118 118 118 
255 255 255 
222 160 229 
145 77 156 
255 255 255 
255 185 255 
255 177 255 
255 221 255 
255 255 255 
255 255 255 
237 127 255 
255 255 255 
255 255 255 
255 255 255 
210 210 255 
235 123 255 
255 255 255 
255 158 255 
255 233 240 
255 170 255 
255 238 255 
255 255 255 
178 178 178 
255 152 201 
255 255 255 
255 245 255 
255 255 255 
255 205 255 
255 188 255 
165 165 202 
255 219 255 
255 239 255 
132 132 240 
255 255 255 
118 118 118 
255 255 255 
255 172 255 
255 181 211 
255 176 255 
255 107 127 
255 111 145 
255 203 255 
255 151 255 
255 96 96 
255 135 148 
255 255 255 
255 111 255 
255 161 255 
255 103 158 
255 192 255 
255 182 209 
255 154 165 
255 144 255 
255 118 118 
255 108 139 
214 78 94 
255 220 234 
241 98 142 
255 159 255 
255 140 255 
212 150 255 
255 255 255 
255 250 255 
255 255 255 
255 255 255 
200 158 255 
255 255 255 
219 212 255 
86 86 86 
255 255 255 
255 255 255 
255 190 255 
153 134 251 
255 253 255 
255 255 255 
255 157 255 
255 255 255 
255 111 255 
163 106 255 
255 203 255 
255 195 255 
255 120 255 
182 87 255 
66 66 255 
255 233 255 
176 81 255 
255 110 255 
95 64 205 
72 71 255 
242 131 255 
255 97 255 
83 83 255 
155 144 255 
255 143 255 
125 96 255 
179 133 255 
202 183 255 
78 40 155 
51 41 138 
255 41 197 
255 86 255 
82 77 255 
63 53 170 
52 52 167 
86 86 255 
52 52 167 
106 71 255 
69 59 189 
52 29 155 
131 88 255 
178 90 255 
254 37 207 
128 52 255 
78 25 106 
255 119 255 
46 46 150 
112 52 255 
91 75 240 
139 73 237 
78 57 184 
136 42 80 
255 80 181 
255 89 96 
255 66 97 
255 124 138 
255 101 133 
255 89 156 
255 57 74 
255 104 105 
255 79 233 
255 120 120 
255 117 124 
255 77 77 
255 125 203 
255 87 89 
237 73 73 
255 151 255 
255 54 66 
255 211 217 
255 90 132 
255 55 142 
255 66 131 
255 122 165 
255 131 166 
255 61 66 
255 85 104 
255 90 90 
255 147 159 
255 167 167 
255 121 125 
255 113 255 
255 59 60 
255 115 157 
255 75 255 
255 67 67 
114 35 88 
243 74 255 
255 87 220 
255 58 102 
255 199 255 
255 224 255 
255 149 190 
255 255 255 
255 174 255 
255 146 235 
255 255 255 
255 255 255 
255 177 198 
255 184 250 
255 255 255 
255 171 255 
255 176 255 
255 130 130 
255 255 255 
255 171 255 
255 255 255 
255 203 255 
234 167 167 
255 255 255 
255 253 253 
255 255 255 
255 139 255 
255 216 255 
171 123 123 
255 180 225 
255 162 255 
236 171 207 
255 255 255 
255 255 255 
255 210 255 
255 255 255 
255 255 255 
195 100 255 
255 224 255 
255 251 255 
118 118 118 
255 255 255 
255 212 255 
255 255 255 
255 255 255 
255 128 128 
255 255 255 
255 147 168 
255 255 255 
255 255 255 
255 255 255 
255 255 255 
255 255 255 
255 255 255 
255 205 255 
255 255 255 
255 255 255 
255 186 255 
255 255 255 
132 132 241 
255 153 255 
255 190 190 
255 255 255 
228 106 106 
255 187 255 
255 195 255 
255 243 252 
255 198 198 
255 255 255 
255 169 255 
255 219 255 
255 168 255 
255 182 191 
219 161 163 
255 255 255 
255 255 255 
255 255 255 
255 255 255 
210 210 239 
255 255 255 
128 128 210 
255 255 255 
255 255 255 
210 128 128 
255 244 255 
255 255 255 
255 255 255 
255 222 228 
255 255 255 
255 255 255 
255 239 239 
142 142 142 
255 209 255 
255 214 255 
255 255 255 
255 255 255 
255 181 215 
255 255 255 
255 255 255 
255 255 255 
255 245 255 
255 252 255 
255 255 255 
255 131 255 
255 165 255 
255 255 255 
164 164 255 
193 193 193 
255 246 255 
255 255 255 
255 255 255 
255 225 225 
132 41 255 
255 230 255 
255 202 255 
255 255 255 
255 248 255 
255 255 255 
255 242 247 
255 195 254 
255 255 255 
255 144 247 
255 255 255 
255 255 255 
255 255 255 
255 255 255 
255 255 255 
255 211 211 
225 145 255 
255 255 255 
255 198 229 
255 255 255 
255 255 255 
255 144 218 
255 255 255 
255 170 207 
255 98 133 
255 157 176 
255 255 255 
255 255 255 
255 137 145 
255 133 139 
255 119 255 
255 255 255 
255 121 158 
241 106 106 
255 118 118 
255 197 215 
255 255 255 
255 149 180 
255 255 255 
255 255 255 
255 137 178 
255 133 162 
255 111 255 
255 125 129 
255 128 130 
255 142 162 
255 71 91 
255 146 255 
223 98 146 
255 129 255 
255 122 255 
255 153 255 
255 255 255 
255 255 255 
235 235 255 
255 182 255 
255 255 255 
255 191 255 
242 108 255 
255 186 255 
255 205 255 
142 142 142 
255 255 255 
255 255 255 
255 244 244 
255 160 198 
255 206 255 
255 154 255 
247 242 255 
192 139 255 
255 134 255 
255 105 255 
248 175 255 
184 72 234 
78 70 255 
129 62 255 
110 74 255 
157 114 255 
162 110 255 
255 255 255 
128 69 255 
255 244 255 
75 38 130 
255 97 255 
255 86 255 
255 117 255 
255 76 255 
255 183 255 
134 53 255 
255 117 255 
151 62 255 
255 39 255 
255 61 255 
91 67 255 
97 72 255 
253 145 255 
176 79 255 
160 108 255 
247 79 255 
165 58 205 
120 87 255 
104 80 255 
255 197 255 
63 53 170 
255 66 255 
121 62 255 
117 117 255 
82 71 255 
82 59 255 
255 75 106 
224 38 38 
255 109 152 
255 214 255 
255 57 114 
255 130 143 
167 44 148 
255 47 88 
176 55 66 
255 73 100 
255 128 143 
255 83 143 
187 58 103 
255 63 205 
255 81 119 
255 126 132 
255 101 134 
255 82 102 
255 151 255 
255 70 73 
255 91 97 
255 91 91 
255 85 167 
255 75 90 
255 74 166 
255 82 108 
255 255 255 
255 138 255 
255 97 159 
255 92 102 
255 255 255 
255 87 106 
255 190 202 
255 111 233 
255 127 138 
255 83 178 
255 79 249 
255 57 105 
255 69 69 
255 248 255 
173 165 208 
255 255 255 
255 255 255 
255 255 255 
255 201 201 
255 252 252 
255 135 135 
255 237 237 
255 174 174 
255 255 255 
255 168 169 
255 166 193 
255 255 255 
255 209 255 
255 105 226 
255 106 111 
209 174 255 
255 193 255 
255 140 243 
255 232 232 
255 189 196 
255 204 204 
255 255 255 
187 187 255 
219 133 186 
255 190 255 
255 255 255 
255 255 255 
255 255 255 
255 255 255 
255 172 213 
255 236 255 
255 214 246 
234 167 167 
255 204 226 
255 121 121 
255 113 125 
255 223 255 
255 255 255 
255 220 248 
255 239 255 
255 255 255 
171 123 123 
255 171 198 
255 249 255 
204 204 255 
255 179 255 
255 167 167 
255 255 255 
255 176 255 
255 192 218 
222 149 149 
255 255 255 
255 128 170 
255 255 255 
255 255 255 
255 209 255 
255 193 202 
255 255 255 
255 255 255 
255 255 255 
255 206 242 
255 255 255 
255 255 255 
255 205 246 
255 188 255 
118 118 118 
161 161 161 
193 193 193 
255 255 255 
255 205 242 
255 171 255 
255 255 255 
255 255 255 
175 128 175 
255 196 255 
255 255 255 
255 246 255 
255 255 255 
255 216 255 
255 231 255 
255 212 255 
255 255 255 
255 255 255 
255 255 255 
255 255 255 
255 255 255 
255 255 255 
255 178 186 
255 255 255 
118 118 118 
255 251 255 
255 255 255 
255 242 242 
235 122 181 
255 200 255 
255 255 255 
255 255 255 
255 196 196 
255 255 255 
255 130 209 
255 255 255 
255 255 255 
255 255 255 
255 255 255 
255 255 255 
255 255 255 
255 225 255 
255 239 255 
255 172 215 
255 255 255 
255 167 167 
118 118 118 
255 165 255 
255 255 255 
255 255 255 
255 255 255 
255 193 255 
255 255 255 
255 197 255 
255 229 255 
190 161 255 
255 230 255 
217 184 217 
255 255 255 
207 207 255 
255 191 200 
255 182 182 
255 118 118 
255 107 107 
255 175 243 
255 172 255 
255 255 255 
255 116 128 
255 166 255 
255 177 177 
203 86 90 
255 165 255 
255 130 255 
255 110 213 
255 128 128 
255 111 145 
255 181 255 
255 134 145 
255 128 139 
255 107 107 
255 131 218 
255 133 162 
255 121 255 
194 86 86 
255 107 180 
251 96 111 
255 161 161 
255 110 191 
255 113 128 
255 111 123 
255 255 255 
255 118 152 
217 96 123 
255 112 228 
255 112 212 
255 167 255 
255 167 255 
181 181 215 
93 93 153 
255 104 255 
255 255 255 
255 144 255 
152 142 152 
195 162 255 
255 255 255 
255 108 255 
255 246 255 
255 255 255 
214 192 255 
255 181 255 
255 136 255 
131 67 255 
101 101 255 
73 62 201 
255 203 255 
143 81 255 
174 61 199 
99 51 255 
95 64 255 
101 101 255 
69 37 141 
115 88 255 
102 86 255 
255 66 255 
75 69 255 
111 37 255 
87 76 255 
162 49 157 
112 55 237 
74 57 203 
83 80 255 
103 61 224 
0 0 0 
255 110 255 
94 60 200 
156 75 255 
85 83 255 
111 66 213 
169 50 251 
80 40 156 
43 14 102 
96 67 255 
224 84 255 
255 93 255 
126 72 255 
70 70 255 
124 78 255 
255 149 255 
91 54 225 
115 71 228 
255 85 85 
255 41 86 
255 88 255 
255 101 157 
255 112 152 
255 255 255 
255 58 130 
248 58 67 
255 239 255 
255 53 237 
255 103 213 
255 129 134 
255 202 255 
255 92 93 
167 52 52 
255 42 60 
155 47 193 
212 49 57 
255 91 108 
255 101 147 
255 202 255 
255 83 86 
255 95 95 
255 92 113 
255 72 95 
255 40 51 
236 73 182 
207 64 64 
255 149 255 
255 137 141 
255 58 213 
255 51 51 
255 72 165 
248 51 163 
255 84 84 
255 80 93 
255 98 98 
255 92 194 
255 83 213 
255 121 255 
255 158 255 
255 160 255 
255 148 196 
255 255 255 
255 255 255 
255 255 255 
255 156 180 
255 255 255 
187 146 146 
255 146 255 
255 134 255 
155 86 93 
255 170 255 
255 136 136 
255 199 207 
255 222 255 
255 255 255 
255 255 255 
255 255 255 
255 255 255 
255 225 250 
255 255 255 
255 250 255 
255 136 255 
255 248 255 
255 255 255 
255 255 255 
255 189 208 
255 255 255 
255 197 255 
255 255 255 
118 118 255 
255 251 255 
255 126 255 
255 180 188 
255 255 255 
255 123 193 
255 132 208 
255 252 255 
255 242 255 
255 220 255 
255 202 255 
255 244 255 
255 94 135 
255 200 255 
255 200 200 
255 255 255 
255 253 255 
255 174 255 
255 209 217 
255 161 255 
255 255 255 
255 121 121 
255 207 255 
255 255 255 
255 255 255 
255 196 203 
255 236 255 
255 255 255 
255 255 255 
219 130 255 
255 255 255 
255 255 255 
255 255 255 
255 167 255 
255 196 255 
255 213 255 
255 158 183 
255 255 255 
255 223 255 
255 156 193 
215 172 172 
255 255 255 
255 192 192 
255 143 143 
255 255 255 
255 169 255 
255 255 255 
255 255 255 
255 223 225 
255 160 160 
255 255 255 
255 255 255 
255 255 255 
255 254 255 
196 196 228 
255 255 255 
255 255 255 
118 118 118 
224 194 224 
255 255 255 
255 196 255 
255 253 255 
255 255 255 
146 146 187 
255 164 255 
255 237 255 
255 255 255 
255 255 255 
255 104 104 
255 188 255 
255 255 255 
239 201 201 
255 255 255 
123 123 171 
255 255 255 
179 179 179 
255 135 255 
255 128 150 
255 204 255 
255 255 255 
155 153 255 
160 160 160 
255 251 255 
255 200 255 
216 182 182 
255 187 255 
255 190 228 
255 255 255 
255 255 255 
255 230 255 
255 255 255 
255 255 255 
172 172 255 
255 207 242 
255 194 255 
255 174 249 
255 173 255 
255 165 255 
255 101 155 
255 165 255 
255 112 201 
255 104 105 
255 172 172 
255 120 197 
255 239 255 
255 255 255 
255 157 255 
255 218 235 
255 230 255 
251 96 111 
255 127 255 
255 171 182 
255 128 128 
255 145 147 
255 123 255 
255 124 251 
255 164 164 
255 117 117 
255 130 150 
255 255 255 
255 156 245 
255 255 255 
210 93 93 
255 128 189 
255 148 255 
255 129 255 
255 115 115 
255 108 225 
196 82 121 
255 114 255 
255 133 171 
255 156 187 
255 116 174 
255 255 255 
255 255 255 
255 146 255 
255 155 255 
238 208 255 
255 137 154 
255 255 255 
165 149 255 
255 255 255 
255 161 255 
255 204 255 
120 107 234 
137 126 255 
238 93 255 
255 224 255 
255 145 255 
195 87 255 
255 203 255 
190 116 255 
83 77 255 
112 65 255 
211 80 255 
88 53 255 
83 41 131 
63 63 255 
142 85 255 
231 61 214 
126 104 255 
72 62 215 
255 45 241 
164 43 255 
90 67 217 
126 57 255 
85 75 255 
166 61 255 
255 131 255 
128 59 207 
62 50 255 
125 55 255 
95 50 218 
47 47 151 
142 107 255 
255 255 255 
85 43 255 
83 80 255 
255 119 255 
90 84 255 
139 32 255 
255 52 255 
127 88 255 
88 60 210 
81 80 255 
224 59 59 
255 94 255 
255 86 170 
255 61 109 
255 89 125 
255 52 255 
221 56 114 
251 75 141 
255 94 112 
255 63 255 
251 53 120 
255 41 115 
255 63 63 
255 127 255 
255 41 128 
193 56 255 
182 50 98 
255 54 255 
213 36 71 
255 60 69 
255 120 209 
255 255 255 
255 134 255 
255 69 78 
255 116 215 
255 80 255 
255 115 117 
255 89 113 
255 65 107 
255 76 170 
132 41 41 
255 76 83 
255 70 72 
255 255 255 
255 55 109 
255 56 62 
255 130 255 
255 81 119 
255 31 61 
255 255 255 
255 207 243 
255 109 109 
255 121 122 
255 225 225 
255 193 225 
255 98 98 
142 142 142 
255 255 255 
255 255 255 
255 231 255 
255 255 255 
255 172 172 
255 255 255 
255 165 255 
255 241 255 
86 86 86 
255 165 255 
252 154 154 
255 255 255 
255 255 255 
255 255 255 
132 132 187 
255 255 255 
255 213 233 
230 230 255 
255 202 203 
255 255 255 
255 191 255 
255 233 255 
255 255 255 
255 165 165 
255 232 232 
255 255 255 
255 227 255 
255 155 255 
228 228 255 
255 255 255 
255 193 195 
255 255 255 
255 255 255 
255 255 255 
255 255 255 
255 177 255 
255 177 186 
255 255 255 
255 255 255 
255 255 255 
255 207 237 
255 210 245 
193 193 193 
255 209 231 
244 244 244 
255 255 255 
255 98 164 
255 164 255 
255 255 255 
255 188 255 
255 255 255 
201 164 164 
255 255 255 
255 240 255 
255 246 255 
178 178 178 
255 185 255 
255 255 255 
255 205 255 
255 255 255 
255 236 255 
255 255 255 
255 39 89 
255 255 255 
255 188 255 
204 204 255 
255 225 255 
239 239 255 
255 255 255 
255 248 255 
255 255 255 
255 255 255 
255 224 252 
255 255 255 
255 236 255 
255 255 255 
255 255 255 
255 255 255 
255 247 255 
255 179 255 
255 255 255 
255 255 255 
255 255 255 
255 255 255 
255 255 255 
255 255 255 
255 199 222 
255 202 233 
255 148 255 
255 255 255 
255 180 255 
255 255 255 
255 251 255 
255 202 255 
255 255 255 
255 255 255 
123 123 171 
255 255 255 
255 255 255 
255 195 246 
255 255 255 
255 255 255 
255 255 255 
255 165 255 
255 171 255 
255 206 213 
255 255 255 
255 136 136 
255 179 255 
255 255 255 
255 175 210 
255 255 255 
255 255 255 
255 129 255 
255 243 255 
255 255 255 
255 255 255 
255 172 199 
255 159 255 
255 158 158 
255 113 255 
255 115 115 
255 190 255 
255 210 255 
255 174 195 
255 131 167 
255 173 173 
255 124 124 
255 113 148 
255 161 255 
255 112 132 
241 106 106 
255 135 241 
255 248 255 
255 169 177 
254 112 112 
255 144 212 
255 195 255 
255 125 156 
255 127 187 
255 150 159 
255 169 255 
255 250 255 
255 114 178 
255 140 190 
255 134 144 
255 143 158 
253 112 112 
255 119 180 
220 97 136 
255 149 163 
255 184 255 
255 77 95 
255 112 156 
225 67 137 
255 146 255 
255 143 169 
219 93 97 
255 133 255 
255 67 195 
255 255 255 
130 115 255 
238 164 255 
255 255 255 
227 157 255 
255 255 255 
255 97 255 
208 163 255 
179 135 255 
255 128 255 
34 34 110 
109 53 189 
125 70 235 
169 77 255 
255 97 255 
255 82 255 
255 115 255 
255 53 255 
255 124 255 
90 83 255 
137 83 255 
255 255 255 
73 65 208 
154 131 255 
102 101 255 
67 63 255 
255 87 255 
74 54 255 
173 66 220 
182 82 255 
138 38 213 
64 54 255 
147 84 255 
67 67 218 
131 69 239 
137 84 255 
255 73 255 
255 88 255 
255 145 255 
64 51 255 
230 53 255 
81 46 171 
77 50 169 
107 50 255 
55 52 189 
84 57 255 
131 66 231 
54 54 254 
255 89 255 
255 64 85 
255 75 141 
255 192 255 
255 95 135 
255 73 150 
255 255 255 
255 255 255 
255 103 244 
255 93 167 
167 52 52 
255 45 76 
255 92 173 
223 64 255 
255 57 255 
255 48 49 
255 72 107 
255 210 255 
255 92 198 
255 73 73 
80 25 25 
203 44 63 
255 119 187 
255 68 255 
255 124 247 
255 79 94 
255 79 255 
255 163 255 
255 39 84 
255 72 72 
255 47 88 
211 65 194 
255 99 148 
255 164 164 
255 238 255 
255 91 231 
255 89 183 
105 32 61 
115 36 50 
255 56 120 
255 190 197 
255 158 187 
255 255 255 
255 203 211 
255 182 255 
255 255 255 
255 243 255 
255 212 218 
255 196 255 
255 255 255 
255 190 255 
255 150 255 
255 181 255 
255 254 254 
220 104 187 
220 104 187 
255 132 178 
255 167 255 
244 152 216 
255 229 229 
255 101 118 
255 250 255 
255 255 255 
255 196 227 
153 93 93 
255 225 232 
255 123 194 
255 255 255 
255 255 255 
220 220 220 
255 168 212 
255 255 255 
255 163 254 
255 255 255 
255 255 255 
255 223 223 
255 255 255 
255 255 255 
255 255 255 
255 255 255 
255 255 255 
255 206 216 
142 142 142 
255 251 255 
255 112 137 
255 244 255 
255 199 255 
255 143 255 
255 254 255 
255 255 255 
255 255 255 
255 254 255 
255 189 189 
255 255 255 
255 255 255 
255 198 198 
255 255 255 
255 255 255 
255 255 255 
255 255 255 
255 255 255 
255 238 255 
210 204 255 
177 163 236 
255 177 255 
130 90 109 
255 255 255 
255 255 255 
255 255 255 
255 255 255 
255 255 255 
255 211 255 
167 167 255 
255 255 255 
255 255 255 
240 132 132 
255 234 255 
255 255 255 
255 255 255 
255 255 255 
255 255 255 
255 99 255 
251 153 153 
255 243 244 
255 255 255 
255 168 255 
255 255 255 
255 255 255 
255 217 217 
255 255 255 
171 123 123 
193 193 193 
255 205 255 
232 232 255 
255 255 255 
255 255 255 
255 226 255 
255 255 255 
255 127 255 
255 255 255 
255 255 255 
255 213 255 
255 255 255 
255 208 248 
255 167 255 
255 189 189 
255 255 255 
255 255 255 
255 255 255 
255 255 255 
255 211 255 
165 165 202 
255 175 175 
255 255 255 
255 255 255 
255 189 189 
255 160 255 
194 112 255 
255 255 255 
255 255 255 
255 255 255 
215 181 181 
209 155 255 
255 196 199 
255 138 138 
255 124 138 
255 151 197 
255 163 191 
255 213 255 
255 139 149 
243 107 121 
255 118 118 
255 150 255 
255 164 164 
255 180 220 
255 171 241 
211 93 93 
255 144 255 
255 211 211 
255 203 211 
241 106 106 
221 88 112 
255 123 123 
255 133 134 
255 172 181 
255 180 232 
255 118 118 
255 109 122 
255 98 114 
255 152 214 
255 106 165 
154 68 68 
245 106 159 
255 119 139 
255 77 220 
237 93 95 
255 129 255 
255 255 255 
255 159 255 
255 145 165 
255 165 188 
255 105 125 
186 82 221 
255 255 255 
255 173 195 
255 119 176 
254 112 112 
245 108 133 
255 193 255 
130 90 130 
255 229 255 
255 115 255 
255 196 255 
255 255 255 
255 166 255 
162 116 255 
93 93 153 
255 220 220 
30 30 213 
216 178 255 
53 53 255 
146 76 255 
56 56 181 
255 146 255 
163 92 255 
255 65 255 
143 101 255 
164 70 255 
255 97 255 
72 26 255 
102 76 255 
100 100 255 
255 129 255 
82 82 255 
91 60 255 
98 95 255 
179 71 255 
166 53 255 
122 95 255 
202 36 134 
111 75 255 
81 53 226 
103 81 255 
81 46 232 
255 71 255 
25 25 80 
197 190 255 
125 54 255 
102 79 255 
54 47 174 
68 47 220 
255 61 230 
255 111 255 
120 106 255 
61 37 120 
89 63 255 
102 95 255 
255 104 126 
255 79 153 
255 104 255 
255 72 147 
255 98 206 
239 74 74 
167 52 52 
183 57 109 
255 79 140 
181 56 56 
255 214 255 
255 117 200 
255 50 117 
255 110 255 
255 70 173 
255 90 100 
255 255 255 
255 90 195 
207 64 64 
255 200 231 
255 151 163 
206 64 64 
255 67 69 
255 82 82 
255 183 255 
255 199 202 
255 119 253 
255 73 78 
255 198 255 
255 49 93 
255 125 242 
255 116 134 
255 90 90 
255 114 255 
255 66 170 
132 41 41 
255 58 146 
255 199 199 
255 135 141 
255 235 255 
255 82 133 
255 255 255 
255 255 255 
180 56 56 
255 191 255 
255 139 169 
255 187 219 
255 176 183 
255 166 255 
255 182 255 
228 197 255 
255 255 255 
255 255 255 
255 173 228 
255 150 218 
255 220 255 
255 210 228 
255 136 180 
255 255 255 
255 216 255 
255 232 255 
199 126 199 
255 255 255 
255 212 255 
255 222 222 
255 255 255 
255 255 255 
255 235 255 
255 199 199 
255 255 255 
255 235 235 
255 207 255 
255 255 255 
255 255 255 
255 169 255 
255 255 255 
255 255 255 
255 255 255 
255 193 255 
255 255 255 
208 208 208 
255 255 255 
255 210 211 
255 242 255 
152 121 135 
255 255 255 
255 255 255 
171 123 123 
255 255 255 
255 144 230 
255 255 255 
255 255 255 
255 255 255 
255 255 255 
255 255 255 
249 214 255 
255 255 255 
255 255 255 
131 131 255 
255 100 197 
255 234 234 
255 255 255 
249 165 167 
242 194 198 
255 159 254 
255 238 238 
255 255 255 
255 255 255 
255 255 255 
244 152 182 
153 93 93 
255 255 255 
255 189 189 
255 255 255 
255 183 183 
255 222 255 
255 245 255 
255 255 255 
255 242 255 
255 255 255 
255 255 255 
255 255 255 
255 71 71 
255 255 255 
255 118 209 
200 191 255 
255 255 255 
255 232 232 
255 214 255 
118 118 118 
255 255 255 
255 196 214 
255 127 255 
222 190 230 
207 207 207 
255 240 255 
136 136 255 
255 215 255 
255 252 255 
255 255 255 
194 162 255 
255 208 211 
255 98 98 
255 255 255 
255 255 255 
255 214 255 
255 255 255 
255 183 183 
255 255 255 
255 255 255 
255 246 255 
73 32 103 
252 252 252 
255 247 255 
255 195 214 
255 255 255 
251 153 153 
255 255 255 
255 255 255 
255 255 255 
255 138 255 
255 167 255 
255 142 255 
255 133 133 
255 178 255 
255 161 165 
255 155 166 
255 111 127 
255 115 130 
255 141 172 
255 133 133 
254 112 112 
255 122 122 
255 132 143 
255 141 178 
255 106 255 
255 179 220 
255 126 126 
255 125 149 
255 149 149 
255 91 179 
211 93 93 
255 99 121 
255 115 174 
255 124 124 
255 133 186 
255 149 185 
255 104 131 
255 118 120 
255 103 158 
255 150 255 
255 111 255 
255 86 89 
248 95 95 
200 88 167 
216 96 123 
248 95 95 
255 255 255 
255 129 140 
255 101 163 
198 87 104 
255 122 159 
255 87 227 
255 92 107 
214 95 110 
255 125 127 
192 73 221 
255 146 255 
255 132 186 
255 255 255 
255 255 255 
255 231 255 
255 128 255 
66 5 255 
183 183 255 
255 244 244 
255 181 255 
82 66 227 
124 80 255 
225 76 255 
189 53 255 
146 50 255 
59 59 255 
86 53 170 
255 115 255 
63 63 255 
255 202 255 
139 95 255 
255 74 255 
255 179 255 
53 28 173 
117 74 238 
64 46 190 
124 57 185 
67 67 218 
74 69 255 
69 45 247 
255 65 255 
235 97 255 
48 28 126 
124 70 232 
50 47 175 
81 53 255 
160 66 255 
72 51 255 
102 57 185 
150 61 255 
114 53 202 
131 48 186 
73 45 144 
255 100 255 
255 134 255 
114 59 255 
128 74 255 
255 75 255 
44 35 126 
255 88 163 
255 87 107 
255 189 189 
255 75 120 
255 68 144 
255 145 255 
255 64 255 
255 188 255 
255 87 110 
248 77 77 
255 49 124 
255 104 149 
255 101 157 
255 142 147 
255 64 82 
255 73 134 
255 74 74 
255 67 67 
255 71 100 
255 81 123 
244 76 98 
255 46 104 
255 136 136 
255 69 101 
255 102 201 
255 125 125 
194 60 60 
255 86 141 
255 73 73 
255 92 180 
255 70 70 
255 66 91 
255 111 115 
255 133 165 
255 51 56 
255 101 255 
255 75 255 
255 68 166 
255 195 239 
86 86 86 
255 255 255 
255 255 255 
255 255 255 
255 187 255 
255 255 255 
255 255 255 
255 255 255 
255 83 135 
255 77 255 
255 171 171 
250 222 222 
255 182 255 
143 109 194 
255 230 230 
103 87 103 
255 255 255 
226 105 195 
255 213 255 
255 255 255 
255 231 255 
255 255 255 
255 151 233 
255 212 255 
255 155 255 
255 255 255 
125 118 191 
255 193 225 
118 118 118 
255 255 255 
255 255 255 
255 207 229 
255 255 255 
255 255 255 
255 255 255 
255 174 210 
255 228 255 
255 255 255 
255 215 236 
255 201 201 
255 255 255 
255 163 176 
255 223 255 
255 255 255 
255 149 255 
255 191 255 
255 255 255 
255 255 255 
208 165 173 
255 255 255 
255 238 255 
255 195 255 
255 255 255 
255 232 255 
255 255 255 
255 255 255 
250 190 255 
255 216 255 
255 255 255 
255 255 255 
255 255 255 
255 242 255 
255 255 255 
255 255 255 
255 255 255 
193 193 193 
248 242 255 
255 255 255 
255 214 255 
255 192 253 
253 195 255 
255 255 255 
255 172 208 
255 255 255 
255 255 255 
252 225 255 
194 194 255 
202 165 165 
255 255 255 
255 255 255 
255 255 255 
0 0 0 
255 255 255 
193 193 193 
255 187 187 
255 248 255 
255 255 255 
255 139 243 
142 142 142 
255 255 255 
255 216 255 
255 255 255 
255 255 255 
255 255 255 
255 255 255 
255 255 255 
255 255 255 
255 255 255 
255 255 255 
255 255 255 
255 255 255 
255 255 255 
255 255 255 
255 196 255 
255 255 255 
255 167 255 
255 255 255 
255 218 255 
255 255 255 
255 151 255 
161 161 161 
255 209 211 
255 230 255 
255 244 255 
255 255 255 
255 255 255 
255 215 232 
255 255 255 
255 255 255 
255 216 255 
255 148 163 
255 230 255 
255 121 121 
255 179 205 
255 140 167 
194 86 86 
255 138 255 
255 130 130 
255 111 255 
255 134 142 
255 168 168 
255 183 183 
255 83 135 
255 106 147 
255 255 255 
255 125 155 
255 107 107 
255 98 98 
255 119 121 
255 112 165 
255 124 195 
255 113 113 
255 177 255 
255 148 220 
255 121 159 
255 137 137 
255 255 255 
255 180 255 
255 135 152 
226 100 100 
251 96 111 
255 113 126 
255 104 104 
255 253 255 
229 101 115 
255 138 178 
255 130 255 
255 124 255 
206 87 97 
93 41 41 
255 110 110 
255 255 255 
255 131 131 
255 100 220 
156 68 80 
165 72 114 
255 70 236 
229 101 115 
255 85 183 
234 76 134 
255 146 242 
255 229 255 
255 234 255 
255 255 255 
255 181 255 
255 255 255 
255 160 255 
255 255 255 
113 56 255 
79 54 175 
243 116 255 
255 76 255 
255 77 251 
255 190 255 
164 128 255 
255 255 255 
125 67 255 
255 124 255 
202 79 255 
186 153 255 
255 69 255 
56 56 181 
153 91 255 
107 45 255 
255 124 255 
247 100 255 
205 145 255 
133 80 255 
255 138 255 
176 75 255 
152 112 255 
140 74 255 
124 51 255 
89 83 255 
50 31 99 
117 104 255 
84 74 255 
72 55 255 
147 74 255 
167 124 255 
68 33 255 
255 122 255 
136 73 255 
53 47 153 
255 232 255 
96 79 253 
116 40 130 
255 124 157 
255 80 150 
255 81 118 
255 79 127 
255 47 55 
255 80 131 
255 71 255 
255 64 64 
191 59 87 
255 66 173 
255 94 154 
238 74 99 
255 71 77 
149 46 112 
255 84 127 
255 65 157 
255 60 90 
255 86 88 
255 121 136 
255 70 112 
255 60 60 
110 34 34 
255 84 176 
204 63 91 
255 95 180 
244 50 50 
255 130 144 
224 67 125 
255 82 103 
255 76 121 
255 58 101 
255 63 90 
180 56 56 
255 255 255 
255 87 128 
255 102 255 
255 76 82 
255 101 255 
152 47 80 
255 233 255 
245 90 90 
255 255 255 
255 156 156 
201 164 164 
255 164 164 
255 192 255 
187 146 146 
255 189 189 
255 221 255 
255 255 255 
255 134 255 
255 140 140 
255 223 255 
255 243 255 
255 255 255 
255 169 178 
255 255 255 
187 146 146 
255 255 255 
255 164 255 
255 224 231 
238 183 208 
234 72 119 
255 189 255 
255 129 255 
255 93 255 
255 255 255 
255 255 255 
255 255 255 
255 171 171 
255 241 255 
255 223 243 
255 255 255 
255 234 255 
255 255 255 
255 255 255 
255 174 255 
255 245 255 
255 186 186 
255 220 255 
255 240 255 
255 137 255 
255 255 255 
255 166 172 
255 123 146 
255 255 255 
255 247 247 
255 248 255 
255 166 211 
255 234 255 
255 255 255 
255 255 255 
255 255 255 
255 255 255 
255 255 255 
255 123 171 
255 255 255 
255 177 212 
252 225 252 
255 170 170 
255 188 255 
255 244 244 
255 255 255 
255 255 255 
255 96 255 
255 255 255 
255 171 255 
255 255 255 
255 255 255 
255 205 255 
255 225 255 
255 238 255 
255 250 255 
255 255 255 
255 193 193 
255 255 255 
255 255 255 
255 137 255 
255 255 255 
255 228 228 
160 160 160 
255 212 255 
255 255 255 
255 243 243 
255 250 250 
255 255 255 
255 255 255 
255 255 255 
255 255 255 
255 118 255 
254 200 254 
255 177 255 
255 209 209 
255 255 255 
255 255 255 
171 123 123 
255 255 255 
255 255 255 
255 251 251 
255 255 255 
255 255 255 
255 199 255 
255 255 255 
255 255 255 
255 255 255 
255 205 255 
255 255 255 
255 220 255 
255 255 255 
255 198 255 
255 179 219 
255 229 255 
255 159 182 
255 169 255 
255 157 255 
255 255 255 
255 255 255 
255 255 255 
255 124 162 
255 175 255 
255 119 214 
255 201 245 
255 153 158 
255 177 246 
255 141 255 
255 135 241 
255 138 191 
255 102 125 
255 102 160 
255 135 255 
255 121 121 
202 78 89 
255 136 136 
255 192 216 
255 184 255 
255 255 255 
255 131 255 
255 106 119 
255 129 129 
255 255 255 
255 105 113 
255 173 173 
255 144 144 
255 205 205 
255 174 255 
255 157 166 
211 93 93 
255 253 253 
255 123 237 
255 131 131 
255 117 219 
234 103 211 
255 207 255 
255 136 164 
254 112 112 
255 114 138 
255 101 101 
255 146 155 
255 191 255 
255 145 255 
255 106 255 
255 97 255 
255 140 140 
255 110 144 
255 119 255 
255 110 221 
222 97 151 
198 87 104 
255 113 125 
255 131 197 
225 92 151 
255 255 255 
255 255 255 
255 93 255 
255 146 255 
255 135 255 
255 255 255 
41 41 133 
115 36 221 
58 52 188 
104 94 255 
255 196 255 
176 61 255 
107 87 255 
164 81 255 
242 116 255 
121 107 255 
109 94 255 
171 61 255 
255 89 255 
255 199 255 
76 64 222 
91 76 255 
255 81 255 
86 51 255 
255 75 255 
91 48 253 
102 65 209 
88 59 218 
255 187 255 
54 42 137 
203 96 255 
251 85 255 
197 77 252 
54 54 254 
134 64 255 
201 124 255 
255 52 169 
69 50 166 
150 63 255 
116 73 255 
64 64 207 
189 69 222 
112 90 255 
137 64 255 
154 90 255 
193 54 117 
255 100 168 
255 70 121 
255 79 109 
213 54 90 
255 78 88 
255 136 255 
255 73 85 
248 77 77 
237 45 154 
255 146 255 
255 107 151 
255 150 183 
255 139 255 
244 76 84 
255 94 255 
255 70 255 
255 86 102 
255 117 186 
255 153 255 
132 41 41 
255 105 121 
255 234 234 
233 72 86 
255 90 97 
255 116 116 
255 91 121 
255 63 255 
255 90 90 
255 85 85 
255 68 114 
255 92 166 
80 25 25 
255 80 190 
255 95 95 
255 79 79 
255 85 127 
255 119 211 
255 79 79 
255 255 255 
255 119 128 
0 0 0 
255 173 173 
255 125 255 
255 189 255 
0 0 0 
255 255 255 
255 137 255 
255 255 255 
255 142 158 
183 139 255 
241 220 224 
255 255 255 
255 228 255 
255 242 255 
255 191 255 
255 139 255 
255 255 255 
255 188 255 
255 255 255 
255 255 255 
255 188 241 
254 195 255 
255 187 227 
255 255 255 
255 255 255 
255 157 255 
255 255 255 
255 255 255 
255 255 255 
232 232 232 
255 181 198 
255 251 255 
255 220 220 
255 178 178 
255 207 255 
255 216 216 
255 255 255 
255 255 255 
235 162 235 
255 250 255 
255 255 255 
255 255 255 
255 255 255 
255 211 255 
255 183 255 
255 255 255 
255 233 248 
255 255 255 
196 196 228 
246 230 255 
153 93 93 
255 249 249 
255 188 188 
255 255 255 
255 96 177 
255 193 255 
255 189 230 
255 255 255 
255 255 255 
215 215 250 
210 196 255 
255 145 145 
201 152 255 
255 255 255 
255 217 223 
255 255 255 
255 255 255 
255 168 204 
217 174 255 
255 216 216 
241 193 255 
255 255 255 
255 169 255 
255 255 255 
190 190 255 
255 194 213 
255 203 211 
255 255 255 
255 255 255 
255 255 255 
255 255 255 
255 228 255 
255 194 245 
255 142 255 
255 255 255 
255 255 255 
255 162 255 
255 255 255 
255 255 255 
255 255 255 
255 255 255 
244 244 244 
255 255 255 
255 255 255 
255 255 255 
255 255 255 
255 255 255 
255 237 255 
255 193 255 
255 226 255 
255 247 255 
255 189 255 
255 255 255 
255 224 255 
255 255 255 
210 210 239 
255 255 255 
255 149 255 
255 255 255 
255 195 255 
255 198 198 
255 247 255 
255 255 255 
255 255 255 
255 222 255 
255 237 255 
255 137 167 
255 123 202 
255 115 184 
255 148 166 
255 142 175 
255 149 183 
255 130 186 
255 120 229 
255 101 101 
254 112 112 
255 108 241 
154 68 68 
255 152 177 
255 124 162 
255 179 187 
255 95 119 
255 125 125 
247 108 129 
255 116 116 
255 116 116 
255 159 207 
255 172 172 
255 116 116 
255 167 167 
255 140 150 
189 83 179 
255 137 148 
255 127 130 
198 87 104 
255 138 255 
255 117 132 
226 100 100 
255 128 128 
255 146 224 
255 138 138 
255 121 144 
255 137 255 
255 141 151 
255 107 109 
255 123 123 
255 159 255 
255 140 167 
255 152 161 
242 86 255 
255 120 160 
236 101 118 
147 59 86 
255 133 184 
255 117 255 
255 138 255 
192 80 107 
255 111 160 
255 111 255 
255 137 255 
255 113 171 
213 94 162 
255 197 255 
255 255 255 
246 167 255 
255 255 255 
255 173 255 
255 90 255 
200 63 255 
232 144 255 
106 91 255 
218 68 255 
87 66 213 
137 57 241 
128 87 255 
255 125 255 
116 43 255 
140 84 255 
76 74 255 
189 58 255 
50 50 255 
255 236 255 
90 66 255 
255 63 255 
80 66 255 
91 59 189 
118 51 255 
108 107 255 
91 82 255 
102 65 255 
62 53 255 
201 66 255 
255 91 255 
115 56 181 
81 59 255 
255 103 255 
255 95 255 
255 66 255 
134 60 205 
41 41 133 
169 94 255 
85 63 255 
183 183 255 
69 38 130 
255 62 255 
255 59 86 
255 84 92 
255 125 155 
255 58 79 
115 18 63 
255 127 148 
255 47 84 
255 78 111 
255 202 218 
255 102 114 
255 100 126 
255 198 255 
255 51 109 
255 183 255 
255 126 255 
150 46 46 
255 75 219 
168 52 134 
230 61 83 
255 100 148 
255 87 128 
255 92 255 
244 39 39 
255 61 79 
255 97 111 
255 124 143 
255 77 185 
255 122 255 
255 209 255 
217 66 156 
0 0 0 
255 70 109 
178 55 251 
255 82 82 
255 106 255 
255 118 226 
255 255 255 
255 60 179 
255 94 164 
255 255 255 
255 151 205 
255 69 251 
255 157 255 
255 255 255 
255 212 255 
255 255 255 
255 255 255 
255 159 233 
255 106 169 
255 200 255 
160 157 255 
255 255 255 
255 255 255 
255 220 255 
255 234 234 
255 114 166 
255 100 146 
142 142 142 
255 255 255 
255 91 219 
255 141 255 
255 160 189 
255 226 255 
255 194 194 
255 156 222 
255 195 255 
255 255 255 
255 233 255 
255 255 255 
255 44 235 
255 203 255 
255 180 180 
255 255 255 
255 255 255 
255 255 255 
171 171 215 
255 255 255 
255 255 255 
255 219 255 
255 232 255 
255 182 230 
255 255 255 
255 255 255 
255 255 255 
255 206 255 
255 183 238 
255 255 255 
255 255 255 
255 252 255 
255 255 255 
255 255 255 
255 170 255 
255 253 255 
118 118 118 
86 86 86 
152 141 255 
255 255 255 
255 246 249 
255 255 255 
255 157 255 
229 160 255 
255 241 255 
255 200 255 
255 158 255 
255 255 255 
255 255 255 
255 251 255 
255 255 255 
255 171 198 
255 255 255 
204 204 255 
255 205 255 
255 245 255 
255 255 255 
255 91 132 
255 255 255 
255 255 255 
255 238 255 
255 255 255 
255 188 255 
255 239 255 
255 227 255 
255 246 255 
255 145 177 
255 234 255 
255 97 134 
255 255 255 
255 255 255 
193 193 193 
212 156 238 
255 146 255 
255 255 255 
255 255 255 
202 165 165 
255 136 136 
255 205 255 
255 255 255 
171 106 106 
248 246 255 
255 255 255 
255 239 255 
255 170 255 
255 255 255 
252 252 252 
255 255 255 
255 181 215 
255 255 255 
255 255 255 
255 255 255 
255 255 255 
142 142 142 
255 255 255 
255 255 255 
255 217 217 
185 162 255 
255 198 255 
255 119 122 
255 164 169 
255 198 255 
255 125 155 
255 98 98 
255 255 255 
255 75 75 
255 175 255 
255 101 101 
255 157 162 
255 112 231 
247 101 109 
255 130 198 
255 98 98 
255 104 104 
255 189 190 
255 109 109 
226 100 100 
202 78 89 
255 163 193 
248 95 95 
255 155 231 
255 255 255 
255 111 127 
255 101 101 
255 214 255 
255 96 96 
254 112 112 
255 119 131 
255 132 150 
255 123 152 
255 148 148 
255 115 163 
250 108 123 
255 161 224 
255 90 151 
202 83 171 
255 80 178 
255 132 169 
255 255 255 
255 104 104 
255 88 88 
255 121 155 
255 128 255 
255 113 207 
255 109 213 
255 238 255 
240 106 158 
198 87 104 
142 57 62 
255 115 191 
231 102 128 
255 130 161 
255 115 148 
255 255 255 
255 148 255 
255 144 255 
216 95 139 
86 86 86 
250 235 255 
140 71 227 
85 78 255 
98 64 223 
255 58 255 
255 88 255 
83 68 255 
255 118 255 
83 61 255 
175 73 255 
161 43 138 
103 88 255 
87 65 250 
96 87 255 
255 96 255 
123 60 255 
255 187 255 
191 188 255 
76 66 213 
255 83 255 
140 61 255 
105 80 255 
146 146 255 
125 82 255 
174 53 190 
118 73 255 
129 109 255 
255 157 255 
255 96 255 
143 78 255 
255 92 255 
133 69 255 
129 95 255 
93 43 255 
96 70 227 
85 64 248 
162 85 255 
190 60 255 
108 61 230 
71 71 255 
132 46 255 
160 50 62 
255 66 91 
255 108 255 
255 101 255 
202 63 84 
255 88 96 
255 86 104 
255 99 186 
255 75 220 
255 63 183 
255 44 108 
255 203 212 
255 88 136 
255 92 205 
255 78 199 
255 106 111 
255 69 122 
255 64 120 
255 107 255 
255 61 255 
255 130 160 
207 64 64 
255 104 109 
255 58 255 
255 62 91 
255 45 80 
211 53 83 
255 156 173 
255 108 168 
176 55 176 
255 82 113 
255 90 105 
255 55 171 
255 81 147 
255 46 57 
255 65 65 
255 80 101 
255 91 135 
255 135 135 
255 136 255 
255 212 255 
255 195 195 
86 86 86 
255 255 255 
255 255 255 
255 160 207 
171 123 123 
255 153 255 
255 255 255 
255 244 255 
255 255 255 
255 255 255 
195 156 252 
255 208 208 
255 128 182 
255 178 255 
255 255 255 
255 147 254 
255 124 160 
255 255 255 
255 233 255 
255 248 255 
255 222 222 
255 255 255 
162 94 109 
255 255 255 
255 218 255 
255 255 255 
255 190 190 
255 89 255 
255 255 255 
255 230 255 
255 195 255 
255 171 255 
255 255 255 
255 168 255 
255 111 111 
255 232 232 
255 215 255 
255 255 255 
255 188 208 
255 135 135 
255 255 255 
255 255 255 
255 255 255 
255 255 255 
255 255 255 
255 255 255 
255 189 189 
255 209 255 
255 255 255 
255 255 255 
255 156 156 
255 230 230 
255 255 255 
255 126 126 
228 106 106 
255 255 255 
255 198 255 
255 255 255 
255 197 248 
255 236 255 
255 255 255 
255 169 255 
255 255 255 
255 185 255 
255 255 255 
208 147 255 
255 198 198 
255 255 255 
255 255 255 
255 167 255 
252 212 255 
255 223 223 
255 255 255 
255 232 255 
255 255 255 
255 255 255 
255 255 255 
255 154 255 
255 222 255 
255 255 255 
255 255 255 
255 255 255 
255 255 255 
255 255 255 
255 255 255 
255 255 255 
255 164 232 
255 255 255 
255 255 255 
255 255 255 
249 243 255 
255 239 239 
255 156 234 
255 255 255 
255 255 255 
255 255 255 
255 255 255 
255 255 255 
255 255 255 
255 167 167 
255 255 255 
208 140 255 
255 255 255 
255 242 255 
255 255 255 
255 255 255 
255 255 255 
255 255 255 
255 255 255 
255 187 255 
227 196 255 
255 250 255 
255 255 255 
255 140 255 
200 88 199 
255 140 209 
255 118 118 
255 106 145 
255 232 255 
255 177 177 
255 210 255 
255 127 157 
255 109 163 
255 122 159 
255 141 160 
255 110 110 
255 123 143 
255 123 171 
255 136 136 
255 191 255 
255 165 165 
255 164 164 
255 154 179 
255 190 217 
255 131 166 
255 141 151 
255 117 117 
255 113 126 
238 78 79 
255 117 156 
255 113 126 
255 123 237 
255 213 228 
194 86 86 
255 221 221 
255 113 117 
175 77 77 
237 89 105 
255 111 196 
255 182 194 
255 100 149 
255 104 152 
201 89 118 
247 94 94 
217 96 123 
128 56 56 
255 156 156 
255 148 255 
154 68 68 
136 59 92 
175 77 77 
255 135 213 
255 106 123 
158 70 90 
144 63 115 
255 118 255 
187 79 255 
157 68 99 
255 132 255 
201 89 118 
255 96 145 
255 161 190 
255 72 206 
255 172 255 
211 186 255 
255 171 255 
132 79 255 
149 88 255 
177 75 255 
132 85 255 
255 117 255 
255 120 255 
135 64 255 
54 42 137 
255 80 255 
210 185 255 
192 79 255 
84 77 255 
100 68 255 
169 160 255 
137 78 255 
255 92 255 
52 52 167 
255 36 250 
95 83 255 
62 52 170 
226 64 255 
255 63 255 
255 55 255 
69 62 255 
163 49 180 
50 47 175 
85 85 255 
255 255 255 
75 72 255 
220 63 255 
99 91 255 
255 161 255 
163 63 255 
125 64 205 
255 77 255 
122 122 255 
177 56 255 
78 69 236 
167 52 52 
255 89 228 
255 110 110 
255 71 124 
255 84 84 
255 71 109 
255 57 157 
255 82 137 
255 47 58 
255 77 83 
255 182 182 
255 120 126 
255 118 118 
244 66 66 
255 80 81 
255 132 233 
255 61 190 
255 77 86 
220 47 68 
255 82 255 
255 97 97 
255 166 255 
255 93 255 
255 106 118 
255 164 255 
255 108 172 
255 101 255 
228 71 71 
255 255 255 
255 87 126 
255 64 128 
255 54 92 
255 101 119 
255 70 255 
255 255 255 
255 91 134 
255 99 99 
255 190 190 
255 76 112 
255 255 255 
255 255 255 
255 255 255 
255 163 165 
255 117 117 
255 190 255 
255 174 255 
255 255 255 
213 208 255 
170 130 255 
255 177 255 
201 155 255 
134 134 255 
181 165 255 
182 128 255 
143 121 255 
243 161 255 
255 221 255 
255 247 255 
255 142 255 
141 109 255 
253 156 255 
242 169 255 
255 168 255 
181 181 255 
255 193 255 
142 120 255 
255 133 255 
255 134 255 
255 255 255 
255 255 255 
255 255 255 
255 255 255 
235 35 161 
255 123 239 
255 255 255 
255 128 184 
255 255 255 
255 255 255 
255 160 160 
255 255 255 
255 194 194 
255 145 160 
255 255 255 
255 197 255 
255 186 211 
255 255 255 
255 172 255 
255 255 255 
255 255 255 
255 203 253 
255 255 255 
255 218 255 
255 172 172 
255 255 255 
255 250 250 
255 255 255 
255 126 255 
255 255 255 
255 169 255 
255 246 255 
255 223 255 
255 255 255 
255 255 255 
255 255 255 
255 106 228 
255 255 255 
255 217 217 
255 231 255 
255 255 255 
255 217 245 
255 179 255 
153 93 93 
255 249 255 
255 255 255 
255 255 255 
255 237 255 
255 255 255 
255 255 255 
255 255 255 
255 151 162 
255 201 201 
255 148 148 
255 255 255 
255 237 255 
255 255 255 
255 212 255 
238 208 255 
255 255 255 
255 156 156 
255 255 255 
255 255 255 
255 255 255 
255 255 255 
255 224 255 
255 254 254 
255 255 255 
118 118 118 
190 187 255 
204 204 255 
255 255 255 
255 255 255 
255 255 255 
255 255 255 
255 137 137 
255 255 255 
255 234 255 
255 255 255 
233 131 166 
255 108 255 
255 255 255 
93 41 255 
255 199 199 
255 255 255 
255 132 255 
255 227 227 
255 85 200 
255 103 106 
255 194 255 
255 150 255 
255 121 212 
255 142 148 
255 130 138 
255 129 159 
255 129 178 
255 92 92 
255 195 195 
255 117 132 
207 72 91 
255 161 161 
255 112 120 
255 163 163 
255 118 196 
255 113 175 
255 129 142 
255 109 122 
255 113 128 
255 112 165 
226 100 100 
211 93 93 
255 119 119 
255 118 137 
255 133 147 
255 163 235 
255 190 190 
247 101 109 
255 121 135 
194 86 86 
255 121 121 
255 107 107 
255 116 116 
194 86 86 
221 82 154 
255 146 146 
255 156 193 
255 99 153 
251 96 111 
255 127 138 
241 106 106 
255 123 123 
255 149 159 
204 70 70 
175 77 144 
234 73 117 
255 249 255 
167 74 121 
204 90 130 
255 127 255 
255 74 121 
255 105 118 
154 68 68 
255 188 255 
255 68 140 
206 87 97 
255 124 255 
255 145 255 
255 140 140 
255 255 255 
255 249 255 
53 28 173 
68 46 255 
143 136 255 
255 161 255 
255 184 255 
209 188 255 
255 157 255 
255 185 255 
219 77 255 
255 159 255 
255 193 255 
55 55 255 
100 60 255 
194 102 255 
180 79 255 
144 62 250 
255 144 255 
107 59 255 
255 52 255 
255 69 255 
72 70 255 
136 59 255 
219 169 255 
23 4 255 
255 100 255 
157 83 255 
114 53 255 
128 52 234 
111 84 255 
246 52 255 
255 233 255 
113 47 173 
255 80 255 
85 62 255 
255 231 255 
255 133 255 
91 61 197 
93 80 255 
154 37 109 
255 80 186 
234 73 92 
250 47 57 
255 75 88 
255 75 126 
255 60 76 
255 62 88 
255 64 128 
255 86 103 
255 59 59 
255 80 131 
255 79 255 
255 201 221 
255 136 136 
255 46 81 
255 76 130 
255 213 255 
255 150 255 
255 69 99 
255 185 194 
217 62 120 
255 89 143 
255 55 66 
255 85 179 
255 63 65 
255 162 162 
255 71 103 
255 101 106 
255 58 63 
255 64 184 
255 87 87 
255 138 255 
255 107 107 
255 255 255 
255 82 147 
255 72 87 
255 67 79 
202 61 255 
255 255 255 
255 142 222 
255 255 255 
255 186 255 
255 255 255 
184 132 255 
192 105 244 
255 111 255 
255 248 255 
196 82 225 
97 79 179 
255 202 255 
164 112 253 
140 105 255 
100 100 226 
142 120 255 
166 148 255 
255 124 255 
255 135 255 
255 125 255 
120 113 255 
184 140 255 
121 107 243 
126 113 255 
160 124 255 
165 127 255 
255 127 255 
139 139 255 
235 232 255 
147 129 255 
186 157 255 
255 132 255 
115 112 255 
175 128 175 
255 168 255 
255 255 255 
255 176 255 
255 255 255 
255 255 255 
255 135 148 
255 117 255 
255 255 255 
255 195 255 
255 255 255 
244 210 255 
255 255 255 
255 188 205 
255 254 255 
255 254 255 
171 123 123 
255 133 223 
255 255 255 
255 255 255 
255 188 236 
255 202 255 
255 151 151 
255 242 255 
255 255 255 
255 194 194 
255 250 255 
255 139 255 
255 202 224 
255 255 255 
255 255 255 
252 252 252 
255 255 255 
255 197 255 
255 255 255 
255 255 255 
255 255 255 
255 255 255 
255 255 255 
255 255 255 
217 179 255 
255 255 255 
255 199 255 
255 255 255 
255 255 255 
255 184 255 
255 255 255 
255 255 255 
255 201 255 
255 197 255 
220 175 255 
255 255 255 
255 255 255 
255 179 213 
255 255 255 
255 255 255 
255 255 255 
255 255 255 
255 255 255 
226 220 226 
255 255 255 
255 255 255 
255 245 255 
255 202 244 
255 255 255 
255 255 255 
255 255 255 
255 255 255 
255 255 255 
255 255 255 
255 197 255 
255 255 255 
255 148 255 
111 111 255 
255 223 255 
255 255 255 
255 255 255 
255 255 255 
255 217 217 
255 255 255 
255 128 255 
255 140 250 
255 157 183 
255 161 161 
255 142 199 
255 170 192 
255 115 115 
255 141 141 
255 139 139 
255 143 153 
255 212 255 
255 147 255 
255 122 122 
248 95 95 
255 129 131 
255 138 183 
255 136 238 
255 107 120 
255 254 254 
226 100 100 
255 122 255 
255 129 129 
255 154 255 
255 123 123 
255 199 199 
255 123 123 
255 123 161 
255 177 255 
255 133 245 
255 121 201 
255 129 129 
211 93 93 
255 79 80 
255 124 124 
255 82 82 
255 118 118 
229 101 255 
255 255 255 
255 115 145 
255 85 105 
241 106 106 
229 101 115 
255 153 153 
236 101 167 
255 106 207 
185 78 82 
255 84 84 
158 70 90 
255 93 153 
219 93 97 
189 83 143 
255 175 220 
255 137 148 
255 124 135 
223 83 255 
255 119 255 
233 103 255 
156 64 255 
255 147 225 
137 60 135 
208 82 169 
255 95 126 
153 68 140 
255 96 255 
144 63 115 
255 255 255 
157 55 255 
110 67 255 
64 64 255 
255 116 255 
80 72 255 
220 123 255 
85 44 234 
203 106 255 
67 64 255 
194 43 200 
122 58 255 
44 27 87 
82 54 255 
255 90 255 
78 58 229 
229 129 255 
84 29 255 
139 70 255 
106 79 255 
204 38 175 
199 89 255 
113 113 255 
81 75 255 
213 120 255 
114 70 255 
79 63 255 
255 91 255 
86 80 255 
163 72 255 
82 46 212 
102 62 255 
255 37 137 
112 88 255 
34 34 110 
88 74 255 
132 69 237 
47 41 255 
161 96 255 
255 57 79 
255 82 90 
255 97 247 
255 125 203 
255 91 110 
255 79 142 
255 114 114 
255 82 111 
255 107 117 
255 115 120 
255 105 143 
255 82 195 
255 90 110 
255 84 84 
255 86 101 
255 146 255 
255 147 151 
255 86 100 
115 36 50 
255 81 98 
255 90 90 
174 47 54 
255 115 115 
255 79 127 
255 87 93 
255 169 170 
255 43 43 
255 139 139 
255 120 144 
255 157 161 
255 68 116 
255 105 255 
255 125 184 
255 142 187 
255 71 96 
193 50 94 
255 51 69 
255 119 255 
255 72 127 
255 248 255 
255 255 255 
183 76 184 
214 133 255 
255 255 255 
255 255 255 
100 100 226 
134 103 249 
174 141 255 
97 97 255 
175 112 255 
137 137 255 
255 176 255 
255 255 255 
255 176 255 
188 153 255 
128 116 255 
255 165 255 
197 130 255 
237 174 255 
144 110 248 
131 118 255 
224 96 250 
149 149 255 
131 92 242 
212 158 255 
112 112 253 
151 149 255 
137 137 255 
255 130 255 
107 107 255 
120 113 255 
255 168 255 
153 132 255 
147 116 255 
255 106 255 
255 255 255 
255 255 255 
255 191 255 
255 255 255 
255 255 255 
255 255 255 
255 219 255 
255 166 166 
255 183 216 
255 216 255 
255 212 255 
255 122 122 
255 255 255 
255 133 234 
255 126 238 
202 154 154 
202 202 239 
255 255 255 
255 243 255 
255 255 255 
255 255 255 
255 255 255 
255 255 255 
255 255 255 
240 132 132 
255 233 255 
156 156 255 
255 255 255 
216 168 255 
255 255 255 
255 255 255 
255 255 255 
255 194 255 
140 140 140 
255 255 255 
255 246 246 
238 183 208 
255 229 229 
255 255 255 
255 198 255 
255 179 220 
255 245 245 
143 109 245 
255 255 255 
255 255 255 
255 178 255 
0 0 0 
255 255 255 
171 123 123 
255 255 255 
255 255 255 
255 234 234 
255 195 255 
255 136 136 
255 255 255 
255 255 255 
255 255 255 
255 197 234 
255 174 255 
255 255 255 
255 255 255 
255 255 255 
255 255 255 
255 255 255 
255 255 255 
201 194 201 
255 218 224 
255 230 255 
255 220 255 
255 255 255 
255 239 255 
255 255 255 
226 167 255 
255 167 206 
255 255 255 
255 255 255 
255 227 255 
255 135 147 
255 253 253 
255 154 154 
255 171 255 
255 197 207 
255 124 124 
255 149 208 
255 140 173 
255 119 134 
255 134 153 
255 176 255 
255 124 128 
255 156 164 
255 124 135 
255 129 131 
255 123 123 
255 119 255 
255 91 166 
255 140 209 
255 116 116 
255 133 255 
255 142 143 
255 138 241 
255 61 61 
242 92 131 
226 100 100 
255 119 207 
255 97 97 
255 132 174 
255 140 173 
255 115 135 
255 107 107 
255 130 204 
255 123 123 
255 123 123 
195 75 106 
255 113 148 
255 102 116 
255 129 255 
255 89 113 
255 131 131 
255 123 135 
255 128 128 
214 95 110 
214 95 110 
206 91 182 
167 74 120 
241 106 106 
255 130 255 
255 126 156 
165 58 73 
167 74 120 
209 92 190 
255 78 85 
255 131 131 
252 111 124 
255 104 178 
205 91 199 
154 68 68 
236 95 118 
125 48 97 
226 100 156 
255 130 255 
255 88 165 
255 154 255 
125 45 99 
255 96 255 
83 54 255 
255 128 255 
255 40 130 
225 58 255 
82 34 141 
253 119 255 
148 138 255 
255 255 255 
98 76 244 
215 62 255 
255 87 255 
179 95 255 
255 45 255 
95 77 255 
106 86 255 
255 125 255 
140 79 255 
79 45 147 
255 110 255 
143 91 255 
255 129 255 
71 37 255 
34 34 110 
134 65 255 
66 54 175 
124 76 255 
149 66 255 
84 81 255 
255 255 255 
67 55 255 
173 110 255 
126 97 255 
61 40 255 
121 116 255 
97 77 248 
87 64 207 
72 61 215 
255 76 86 
255 54 236 
255 63 63 
255 60 69 
255 62 79 
255 66 84 
255 69 69 
255 61 127 
213 30 30 
255 93 255 
255 84 84 
255 121 255 
151 47 47 
150 46 46 
255 68 137 
255 98 159 
255 74 74 
241 60 73 
255 47 73 
255 73 89 
255 64 64 
227 71 116 
255 85 234 
255 121 136 
255 88 213 
255 83 98 
255 64 255 
255 93 93 
255 105 111 
160 50 76 
255 82 178 
255 123 255 
251 53 141 
255 119 124 
255 88 195 
255 81 255 
255 83 83 
255 95 105 
181 148 255 
255 171 255 
255 112 254 
255 95 216 
255 147 255 
255 84 204 
255 101 230 
172 113 255 
82 59 133 
142 92 207 
139 139 255 
73 45 101 
166 121 255 
121 108 255 
106 106 240 
206 153 255 
162 143 255 
168 159 255 
255 184 255 
255 255 255 
156 116 255 
191 130 255 
124 111 255 
121 107 243 
158 106 240 
154 154 255 
104 87 198 
168 150 255 
255 130 255 
202 117 255 
155 155 255 
188 166 255 
213 200 255 
238 178 255 
159 145 255 
255 171 255 
146 98 223 
152 152 255 
255 255 255 
255 185 255 
254 254 255 
255 255 255 
255 255 255 
255 87 87 
255 255 255 
225 154 193 
255 222 255 
255 255 255 
255 241 255 
255 255 255 
255 255 255 
255 255 255 
255 255 255 
255 255 255 
255 255 255 
255 255 255 
255 169 228 
255 255 255 
255 255 255 
255 255 255 
255 156 255 
255 255 255 
255 255 255 
255 255 255 
255 118 118 
160 160 160 
255 255 255 
255 255 255 
255 255 255 
255 201 251 
255 202 255 
255 255 255 
255 223 255 
255 255 255 
255 165 202 
255 216 216 
255 143 194 
255 196 255 
255 184 255 
255 197 255 
255 235 255 
255 151 255 
255 191 255 
255 255 255 
255 255 255 
255 184 184 
106 106 228 
255 198 255 
255 242 255 
255 217 255 
255 255 255 
251 184 255 
178 178 178 
255 238 238 
255 167 255 
235 235 255 
255 255 255 
255 255 255 
255 255 255 
255 231 255 
255 255 255 
255 255 255 
255 226 255 
183 140 255 
255 255 255 
255 229 255 
255 225 225 
173 142 255 
255 249 255 
255 139 255 
255 187 187 
255 230 255 
255 255 255 
255 188 255 
255 151 171 
255 100 163 
228 84 126 
255 152 165 
255 159 166 
255 192 255 
255 119 158 
255 255 255 
255 171 171 
255 126 139 
255 144 144 
255 155 155 
255 125 150 
255 189 189 
255 116 176 
255 81 81 
255 193 255 
144 63 90 
255 134 204 
255 124 125 
255 121 170 
255 142 142 
255 105 143 
255 152 159 
255 98 136 
255 132 152 
255 88 88 
158 70 90 
255 100 100 
254 98 227 
255 97 97 
255 131 175 
245 80 108 
255 107 107 
250 107 115 
231 63 85 
255 216 255 
236 95 118 
194 86 86 
255 102 255 
255 116 116 
255 121 121 
255 98 127 
241 106 106 
255 132 143 
255 74 74 
255 198 198 
253 112 112 
255 131 255 
255 93 132 
255 115 255 
255 255 255 
171 75 133 
255 143 169 
154 68 68 
255 118 239 
194 86 86 
255 104 138 
255 184 192 
171 75 133 
253 112 163 
249 106 255 
173 71 100 
255 110 255 
211 93 152 
166 72 128 
105 44 158 
252 89 255 
255 118 255 
255 132 255 
225 93 255 
84 78 250 
255 62 243 
186 87 255 
119 68 255 
158 28 92 
255 125 255 
255 253 255 
208 106 255 
140 57 255 
134 75 255 
245 230 255 
59 57 201 
97 73 249 
255 93 255 
104 75 255 
86 36 255 
58 53 207 
255 88 255 
255 62 255 
79 72 255 
78 41 222 
117 43 255 
73 63 202 
59 59 255 
255 66 255 
80 64 255 
99 69 255 
134 90 255 
65 40 254 
54 42 137 
87 65 218 
240 75 246 
53 36 146 
255 60 105 
255 50 255 
255 58 98 
201 43 52 
148 45 78 
255 76 117 
255 75 255 
170 53 63 
255 95 101 
255 167 255 
255 119 125 
212 63 91 
255 131 138 
255 79 146 
255 108 181 
163 50 109 
255 80 83 
255 133 133 
255 93 98 
255 104 109 
255 86 106 
209 65 73 
255 78 241 
255 131 131 
255 190 190 
255 79 228 
255 151 255 
255 112 255 
255 192 255 
255 122 127 
255 48 59 
255 98 103 
255 73 92 
255 126 232 
255 255 255 
255 76 178 
255 117 255 
170 121 255 
255 109 255 
68 68 154 
193 121 255 
255 255 255 
231 126 255 
190 146 255 
163 149 255 
214 128 255 
255 178 255 
163 149 255 
255 221 255 
150 133 255 
252 245 255 
183 183 255 
125 121 255 
255 126 255 
106 80 206 
255 255 255 
172 73 237 
222 146 255 
144 133 255 
138 114 255 
145 135 255 
158 158 255 
150 107 242 
115 115 255 
126 86 241 
113 98 255 
255 255 255 
255 100 255 
145 134 255 
136 98 255 
255 144 255 
225 107 255 
255 229 255 
255 104 255 
255 134 255 
142 142 255 
156 119 255 
255 193 255 
152 118 255 
160 125 255 
255 255 255 
255 255 255 
255 152 152 
142 142 142 
255 255 255 
255 255 255 
255 204 204 
255 227 255 
255 195 255 
230 178 182 
255 230 255 
255 255 255 
255 255 255 
255 206 206 
255 230 255 
255 255 255 
255 255 255 
255 121 255 
86 86 86 
255 251 255 
255 226 255 
255 255 255 
255 255 255 
255 255 255 
255 255 255 
255 238 255 
193 50 113 
255 255 255 
255 202 202 
153 153 251 
255 228 228 
255 105 176 
202 165 165 
255 253 255 
255 242 255 
255 255 255 
255 180 255 
255 255 255 
230 230 230 
255 241 255 
255 255 255 
255 255 255 
255 255 255 
255 200 240 
160 160 160 
255 227 255 
255 245 255 
255 255 255 
255 224 255 
255 255 255 
255 245 245 
255 255 255 
255 187 255 
255 255 255 
255 255 255 
255 209 209 
255 255 255 
255 255 255 
255 255 255 
255 222 255 
255 255 255 
255 255 255 
255 140 140 
255 194 255 
255 233 233 
255 255 255 
255 222 255 
255 182 255 
255 233 255 
255 240 255 
255 255 255 
255 169 179 
255 91 91 
255 126 173 
255 155 218 
255 95 98 
235 104 120 
255 113 113 
255 134 237 
255 123 140 
255 92 92 
241 95 106 
255 142 142 
255 147 255 
220 97 135 
255 107 107 
255 255 255 
255 131 131 
255 137 158 
255 133 226 
255 153 153 
255 113 113 
255 150 255 
255 123 124 
255 121 131 
255 111 192 
255 126 199 
255 82 82 
255 157 254 
255 113 113 
255 255 255 
255 115 241 
255 118 130 
255 98 146 
240 106 106 
254 112 112 
255 149 149 
255 124 124 
248 110 144 
255 187 241 
255 111 115 
250 110 192 
167 74 121 
255 98 98 
226 82 114 
255 106 255 
255 143 210 
255 200 255 
243 70 152 
255 87 255 
211 93 93 
255 83 83 
220 97 135 
255 95 95 
214 95 110 
255 151 176 
211 93 93 
229 101 115 
228 97 137 
255 87 117 
210 91 186 
255 159 167 
190 79 255 
164 67 135 
189 79 100 
255 84 183 
115 51 109 
224 61 99 
255 79 194 
254 69 223 
64 64 206 
255 255 255 
80 77 255 
150 61 255 
255 135 255 
230 80 255 
255 50 161 
255 189 255 
91 91 255 
113 104 255 
129 69 255 
163 85 255 
62 56 255 
255 61 255 
127 127 255 
255 66 255 
140 93 255 
255 147 255 
255 84 255 
255 197 255 
52 52 167 
113 56 215 
130 89 255 
255 143 255 
110 90 255 
195 193 255 
255 94 255 
255 79 255 
105 88 255 
37 25 203 
64 55 255 
188 82 255 
134 60 255 
61 53 224 
100 98 255 
255 85 255 
255 71 110 
243 61 68 
255 54 56 
255 255 255 
255 77 159 
255 94 146 
255 66 216 
255 137 149 
192 51 88 
255 93 196 
255 94 159 
163 50 255 
255 79 209 
255 60 113 
255 103 255 
255 52 73 
255 78 214 
255 123 255 
255 101 199 
255 76 90 
255 82 150 
255 119 124 
166 51 113 
255 122 251 
255 255 255 
255 84 138 
255 159 159 
202 57 123 
255 76 93 
255 56 255 
255 114 168 
255 55 76 
255 181 255 
237 56 137 
116 81 192 
140 84 199 
255 124 255 
140 104 235 
126 82 187 
255 116 255 
149 149 255 
132 107 255 
118 101 236 
255 96 255 
255 147 255 
115 101 229 
159 149 255 
255 127 255 
197 127 255 
182 130 255 
146 125 255 
205 122 255 
255 188 255 
117 95 216 
224 138 255 
255 169 255 
206 199 255 
255 247 255 
154 82 185 
255 176 255 
148 115 255 
174 104 236 
255 128 255 
165 127 255 
106 106 241 
162 147 255 
204 131 255 
253 182 255 
198 103 234 
179 155 255 
255 255 255 
106 106 241 
112 112 254 
188 186 255 
120 96 255 
189 150 255 
255 169 255 
100 100 226 
121 107 243 
255 155 255 
132 128 255 
167 139 255 
255 185 255 
255 255 255 
255 255 255 
255 255 255 
255 200 200 
255 255 255 
255 255 255 
255 201 201 
255 240 255 
255 255 255 
255 224 255 
228 106 106 
255 223 255 
255 255 255 
255 247 255 
255 255 255 
255 180 180 
255 227 255 
255 111 111 
255 240 240 
255 255 255 
255 222 222 
255 182 232 
255 192 255 
255 255 255 
255 255 255 
255 255 255 
255 255 255 
255 255 255 
255 255 255 
255 255 255 
255 159 159 
255 249 255 
255 255 255 
255 255 255 
255 180 180 
255 255 255 
255 206 255 
255 255 255 
255 229 255 
215 171 171 
255 255 255 
213 194 213 
255 255 255 
132 41 41 
255 255 255 
255 181 255 
255 255 255 
255 230 255 
255 185 255 
255 255 255 
255 255 255 
255 255 255 
255 217 230 
234 167 167 
255 248 255 
255 210 255 
255 148 255 
255 255 255 
255 255 255 
255 255 255 
255 255 255 
255 255 255 
255 217 255 
255 255 255 
255 255 255 
255 166 220 
189 85 220 
255 255 255 
255 141 174 
255 101 167 
255 127 255 
255 108 122 
255 104 104 
255 147 147 
255 198 255 
203 86 232 
175 77 77 
255 111 119 
255 92 153 
255 148 174 
255 136 164 
255 122 164 
255 114 114 
255 58 65 
255 119 151 
255 123 123 
255 130 130 
255 141 222 
248 110 126 
255 131 144 
228 101 115 
255 116 158 
254 112 112 
255 124 166 
255 112 255 
255 132 132 
255 136 255 
255 126 255 
255 109 129 
255 96 129 
255 76 80 
226 100 100 
241 106 106 
255 106 112 
255 255 255 
255 114 226 
255 200 255 
255 112 115 
255 105 140 
167 74 120 
255 100 157 
236 101 118 
154 68 68 
178 77 130 
255 115 255 
255 110 110 
253 112 199 
234 87 87 
255 102 239 
255 137 147 
255 82 147 
0 0 0 
137 60 255 
255 133 153 
255 56 136 
255 107 255 
255 74 74 
255 136 142 
255 116 116 
255 118 211 
237 105 150 
255 81 178 
179 75 178 
56 20 96 
144 63 116 
208 81 252 
148 65 128 
157 114 255 
214 61 255 
68 68 255 
255 83 255 
56 49 255 
255 112 255 
255 212 255 
255 112 255 
255 156 255 
191 97 255 
118 57 255 
255 154 255 
255 248 255 
255 195 255 
87 71 255 
84 55 255 
255 158 255 
128 121 255 
58 53 255 
255 232 255 
255 124 255 
176 61 255 
82 59 255 
60 60 194 
85 75 255 
84 42 212 
66 64 223 
58 56 188 
255 50 255 
51 37 207 
142 61 237 
135 75 255 
140 82 255 
219 107 255 
41 41 133 
255 50 255 
255 88 167 
255 116 187 
255 83 255 
255 47 88 
219 67 96 
255 80 255 
255 63 117 
255 64 105 
255 56 114 
255 75 96 
255 61 61 
255 147 221 
255 85 102 
255 255 255 
255 82 92 
255 80 115 
255 125 153 
255 97 184 
255 187 190 
255 127 128 
255 108 196 
255 255 255 
255 127 255 
180 56 56 
255 90 90 
255 96 204 
184 57 66 
255 96 127 
207 60 144 
194 60 60 
132 41 41 
255 72 183 
146 98 223 
73 45 101 
125 113 255 
169 73 166 
103 71 195 
104 87 198 
127 88 255 
224 125 255 
255 172 255 
155 145 255 
88 88 255 
255 90 204 
213 114 255 
151 105 238 
187 157 255 
255 255 255 
119 116 255 
97 87 255 
255 147 255 
93 93 211 
202 152 255 
148 115 255 
171 144 255 
170 144 255 
255 123 255 
154 116 255 
255 110 255 
255 139 255 
161 152 255 
203 131 255 
152 120 255 
160 123 255 
81 69 185 
124 112 255 
137 114 255 
103 103 255 
128 128 255 
255 168 255 
255 255 255 
166 127 255 
116 106 255 
133 114 255 
120 96 241 
215 150 255 
140 127 255 
255 156 255 
255 149 255 
255 129 255 
255 255 255 
255 120 255 
173 147 255 
179 172 255 
255 255 255 
255 255 255 
255 188 191 
255 214 255 
255 178 255 
242 210 254 
255 255 255 
255 142 142 
255 255 255 
255 255 255 
255 255 255 
255 226 255 
255 255 255 
255 255 255 
255 227 227 
230 230 255 
156 156 255 
183 125 255 
255 255 255 
255 255 255 
255 255 255 
255 255 255 
255 246 251 
255 229 255 
255 225 255 
255 255 255 
255 253 255 
249 189 255 
255 242 255 
255 255 255 
255 255 255 
255 122 255 
255 255 255 
255 121 255 
255 255 255 
255 255 255 
255 255 255 
255 255 255 
255 237 255 
255 255 255 
255 191 195 
255 255 255 
254 132 255 
255 164 210 
255 255 255 
255 227 255 
255 255 255 
255 255 255 
255 202 255 
255 139 255 
255 255 255 
255 219 255 
255 220 220 
255 255 255 
255 255 255 
255 221 255 
255 255 255 
132 41 41 
255 233 255 
255 238 255 
255 255 255 
255 152 255 
255 255 255 
142 142 142 
255 249 255 
255 255 255 
255 57 61 
255 165 255 
255 104 255 
255 113 131 
255 117 139 
255 255 255 
255 113 134 
234 87 87 
186 59 59 
255 139 173 
255 117 148 
255 176 185 
255 122 174 
255 116 132 
255 108 255 
255 116 116 
255 107 107 
255 117 117 
255 130 170 
255 169 179 
242 92 111 
255 96 96 
255 129 142 
255 158 169 
255 113 113 
255 114 134 
255 97 97 
243 107 121 
255 193 255 
255 86 86 
255 86 202 
255 108 181 
255 131 160 
248 110 126 
255 93 104 
255 181 181 
229 101 115 
179 79 97 
255 111 119 
255 119 131 
255 118 118 
255 83 255 
255 203 255 
192 85 187 
255 119 119 
214 95 110 
226 100 100 
194 86 86 
255 97 97 
255 112 115 
255 115 156 
154 68 68 
133 5 59 
255 142 255 
201 89 118 
242 107 235 
255 155 164 
178 78 133 
255 93 123 
255 53 115 
93 41 41 
255 100 111 
196 86 195 
167 74 120 
207 89 202 
255 127 255 
255 86 255 
133 59 82 
255 255 255 
255 74 188 
99 36 120 
255 255 255 
98 82 255 
73 73 237 
238 238 255 
255 118 255 
255 104 255 
76 76 246 
142 67 255 
72 62 255 
143 77 255 
117 63 220 
86 68 255 
251 36 255 
39 35 142 
0 0 0 
95 84 255 
96 48 189 
205 46 255 
255 134 255 
116 112 255 
255 255 255 
208 59 229 
255 166 255 
255 255 255 
78 25 106 
255 66 255 
62 42 142 
86 71 255 
121 85 255 
78 44 166 
67 67 255 
92 61 255 
59 58 255 
90 48 255 
59 45 255 
255 73 164 
255 59 65 
255 77 163 
255 120 255 
255 84 84 
255 96 176 
255 63 82 
255 79 146 
255 79 90 
255 62 120 
255 58 255 
233 65 83 
155 47 55 
255 132 180 
255 154 255 
255 124 147 
255 148 255 
145 36 56 
255 87 255 
255 129 133 
255 141 255 
255 255 255 
242 75 94 
255 184 255 
255 76 130 
255 236 255 
255 69 108 
181 56 56 
110 34 34 
255 155 162 
255 66 195 
166 148 255 
231 84 255 
187 85 192 
185 71 176 
255 235 255 
121 82 196 
141 65 179 
162 94 214 
255 119 255 
255 125 255 
184 158 255 
110 95 214 
107 72 163 
255 119 255 
182 129 255 
119 118 255 
247 92 255 
203 104 255 
97 79 179 
177 108 245 
77 77 175 
255 96 255 
204 162 255 
91 72 207 
122 122 255 
255 102 255 
128 100 255 
154 116 255 
133 114 255 
255 146 255 
169 118 255 
125 113 255 
111 96 251 
255 93 210 
209 202 255 
98 98 255 
212 122 255 
255 255 255 
139 91 207 
148 115 255 
126 113 255 
255 164 255 
255 135 255 
166 95 255 
152 121 255 
118 118 255 
89 89 255 
190 130 255 
223 140 255 
255 178 255 
215 215 255 
255 141 255 
135 121 255 
176 148 255 
255 255 255 
255 255 255 
255 187 255 
255 255 255 
255 179 188 
255 200 200 
255 244 255 
255 255 255 
255 255 255 
255 222 255 
255 184 255 
136 56 136 
255 252 255 
255 132 132 
255 255 255 
255 198 255 
255 255 255 
255 255 255 
255 255 255 
255 255 255 
255 255 255 
255 255 255 
255 255 255 
255 158 255 
255 191 255 
255 198 248 
255 255 255 
255 255 255 
255 255 255 
255 250 255 
255 255 255 
255 62 255 
209 166 174 
132 41 41 
255 218 239 
255 255 255 
255 211 255 
255 255 255 
255 255 255 
255 243 255 
255 255 255 
255 255 255 
255 159 255 
255 245 255 
255 255 255 
255 255 255 
255 241 255 
255 236 236 
255 187 193 
255 255 255 
255 116 209 
255 149 255 
255 255 255 
255 255 255 
255 255 255 
255 225 255 
255 255 255 
187 145 255 
142 142 142 
255 181 255 
255 255 255 
255 255 255 
255 255 255 
118 118 118 
255 186 186 
255 111 111 
255 118 255 
255 169 169 
255 115 127 
255 153 153 
255 113 164 
255 115 130 
255 117 204 
255 92 92 
255 176 190 
255 116 120 
255 108 124 
255 137 170 
240 106 106 
255 104 114 
255 79 82 
255 145 146 
255 112 127 
255 107 107 
255 125 139 
234 94 98 
255 218 255 
255 129 129 
255 124 255 
255 146 255 
255 96 255 
255 153 153 
254 112 112 
255 124 135 
144 63 115 
255 124 135 
255 104 104 
211 93 93 
250 111 152 
255 92 92 
255 113 113 
255 129 147 
167 74 120 
255 102 167 
255 124 135 
208 92 123 
255 64 162 
255 106 201 
255 105 140 
204 90 109 
233 101 125 
255 82 82 
255 168 168 
255 136 187 
211 93 93 
182 80 255 
175 77 77 
194 86 86 
255 165 255 
175 77 77 
255 74 74 
154 68 68 
128 56 56 
204 90 130 
255 108 121 
142 57 62 
255 92 255 
255 92 143 
168 56 175 
171 75 133 
223 79 149 
255 58 182 
92 40 131 
216 91 196 
255 72 109 
121 53 124 
255 126 211 
128 116 255 
107 70 255 
129 89 255 
124 65 209 
255 164 255 
255 167 255 
255 88 255 
255 84 255 
131 115 255 
128 118 255 
125 68 219 
88 57 255 
79 71 230 
85 54 205 
46 46 150 
209 113 255 
101 85 255 
182 73 255 
203 95 255 
127 66 255 
251 102 255 
62 57 218 
68 54 255 
255 101 255 
58 47 165 
66 52 255 
82 48 177 
195 54 255 
61 48 255 
98 62 217 
106 85 255 
171 47 255 
38 12 38 
255 151 255 
136 32 115 
225 66 198 
255 211 255 
255 52 52 
211 49 66 
255 59 85 
255 63 79 
255 89 99 
255 86 103 
255 80 81 
203 63 255 
255 72 97 
255 97 138 
255 124 138 
255 72 81 
228 68 178 
207 64 176 
255 200 255 
255 87 120 
255 82 255 
255 77 97 
255 159 255 
255 147 255 
255 255 255 
255 66 152 
255 48 255 
255 116 255 
255 111 120 
180 75 255 
104 87 198 
255 81 255 
107 107 255 
255 255 255 
140 104 235 
241 163 255 
115 81 216 
255 78 177 
219 200 255 
115 63 144 
143 92 255 
255 255 255 
151 141 255 
68 68 154 
226 97 223 
184 88 199 
107 107 255 
255 255 255 
136 80 255 
159 130 255 
172 172 255 
114 88 255 
138 114 255 
255 249 255 
174 106 255 
138 112 255 
120 107 242 
115 101 229 
135 129 255 
255 154 255 
132 132 255 
235 110 255 
157 147 255 
93 93 211 
213 200 255 
112 112 254 
123 123 255 
87 84 255 
144 110 248 
93 93 211 
223 90 207 
159 130 255 
121 107 243 
146 109 255 
138 102 255 
142 142 255 
128 128 255 
120 117 255 
112 109 255 
172 167 255 
124 75 196 
106 102 255 
142 116 255 
198 121 255 
162 134 255 
133 133 255 
90 90 255 
246 187 255 
255 255 255 
255 234 255 
255 215 215 
255 255 255 
255 187 196 
255 255 255 
255 255 255 
255 147 255 
255 245 245 
255 186 228 
196 100 100 
255 255 255 
255 222 255 
255 220 255 
255 222 255 
255 255 255 
255 187 187 
195 147 156 
255 216 255 
255 255 255 
255 255 255 
255 195 255 
255 255 255 
208 208 208 
213 149 213 
255 201 239 
255 209 239 
255 255 255 
255 255 255 
255 25 81 
255 255 255 
255 255 255 
255 255 255 
255 225 255 
255 255 255 
255 255 255 
255 255 255 
255 255 255 
255 246 255 
255 255 255 
255 255 255 
255 255 255 
255 255 255 
255 255 255 
255 255 255 
255 209 255 
255 255 255 
255 255 255 
173 162 255 
255 163 231 
255 248 255 
222 190 230 
255 255 255 
255 249 255 
255 255 255 
255 255 255 
255 255 255 
255 220 220 
255 184 184 
255 131 255 
255 255 255 
255 255 255 
255 255 255 
255 149 227 
255 123 255 
255 249 255 
255 124 124 
255 124 175 
255 105 121 
255 100 215 
255 142 255 
255 175 210 
255 128 129 
255 99 137 
255 196 196 
255 133 194 
255 255 255 
255 131 131 
255 160 255 
255 111 127 
203 86 90 
255 119 125 
226 100 100 
255 112 112 
255 120 120 
255 178 255 
255 82 255 
253 112 112 
211 93 93 
255 180 255 
255 126 140 
139 57 134 
211 93 93 
255 119 131 
255 123 213 
255 110 255 
154 68 68 
255 105 255 
226 100 100 
255 101 101 
254 112 112 
255 117 135 
222 80 98 
204 70 70 
175 77 77 
255 160 160 
255 136 136 
187 82 103 
194 86 86 
231 102 128 
255 142 255 
211 93 93 
255 100 227 
255 129 158 
255 82 175 
175 77 77 
255 173 180 
154 68 68 
255 114 138 
133 59 82 
255 121 255 
128 56 56 
156 65 194 
128 56 56 
255 110 150 
229 101 115 
255 122 150 
255 134 134 
255 86 255 
196 86 163 
93 41 41 
93 41 41 
134 52 255 
255 79 255 
150 63 255 
129 50 162 
79 54 175 
149 75 255 
82 82 255 
112 59 191 
25 25 80 
255 119 255 
133 66 255 
69 36 255 
252 54 255 
46 46 150 
255 255 255 
60 60 194 
64 58 233 
31 26 122 
175 100 255 
205 93 255 
98 42 255 
67 61 255 
159 81 255 
82 51 164 
254 106 255 
70 58 255 
113 61 255 
59 57 201 
60 53 223 
121 37 255 
255 114 255 
73 39 187 
255 90 255 
255 78 250 
66 66 244 
81 72 232 
114 57 255 
251 69 69 
255 59 76 
255 83 234 
190 46 67 
255 74 86 
255 73 112 
255 86 255 
212 39 74 
255 91 158 
255 66 255 
255 48 83 
255 92 172 
255 102 255 
255 56 135 
255 69 126 
255 145 255 
255 116 116 
194 60 60 
133 41 41 
255 47 68 
255 71 152 
255 153 177 
255 111 126 
255 47 70 
255 80 86 
255 132 139 
255 70 92 
234 76 177 
107 72 163 
255 108 255 
166 101 229 
176 118 255 
255 255 255 
255 248 255 
107 72 163 
142 92 207 
155 79 255 
182 84 255 
77 77 175 
82 59 133 
255 99 255 
143 113 255 
180 172 255 
125 65 222 
82 59 133 
93 93 211 
110 110 255 
255 104 255 
191 163 255 
146 98 223 
138 114 255 
128 102 232 
133 118 255 
126 82 187 
108 89 244 
160 106 240 
160 122 255 
255 255 255 
182 91 206 
255 166 255 
106 106 241 
77 77 175 
151 141 255 
255 96 255 
136 136 255 
181 125 255 
255 115 255 
255 87 196 
255 216 255 
210 129 255 
255 133 255 
148 125 255 
160 125 255 
118 93 255 
137 137 255 
129 129 255 
197 160 255 
106 106 241 
187 116 255 
153 143 255 
128 128 255 
148 146 255 
138 107 255 
152 152 255 
234 110 255 
124 124 255 
128 97 255 
251 223 255 
106 106 228 
193 193 193 
255 255 255 
255 255 255 
255 255 255 
255 255 255 
255 255 255 
255 255 255 
255 199 213 
255 172 187 
255 212 255 
255 255 255 
255 255 255 
255 204 255 
255 255 255 
255 255 255 
255 165 255 
255 255 255 
255 166 166 
255 186 226 
255 138 255 
255 154 178 
255 255 255 
255 255 255 
255 125 236 
255 236 255 
255 255 255 
255 255 255 
255 255 255 
118 118 118 
253 238 255 
255 255 255 
210 191 255 
255 255 255 
255 219 255 
255 255 255 
244 151 255 
255 255 255 
255 255 255 
255 253 255 
255 255 255 
255 255 255 
255 206 255 
255 210 255 
132 41 41 
255 255 255 
255 211 255 
255 216 237 
255 255 255 
255 247 255 
255 238 255 
255 255 255 
255 246 255 
255 182 255 
255 155 155 
255 255 255 
255 151 250 
255 232 255 
255 255 255 
255 255 255 
255 141 154 
255 98 136 
255 147 147 
255 139 225 
255 121 175 
255 102 190 
255 193 230 
255 112 145 
255 82 82 
255 86 255 
154 68 68 
255 79 118 
255 123 123 
255 112 166 
255 138 255 
234 103 139 
253 112 112 
255 101 129 
255 111 115 
255 98 116 
234 87 87 
255 112 112 
194 86 86 
254 112 112 
255 133 255 
175 77 77 
255 121 135 
255 107 107 
255 103 227 
255 101 118 
234 87 87 
255 252 255 
253 112 112 
190 84 118 
214 95 110 
255 145 216 
255 159 255 
226 100 100 
211 93 93 
255 90 102 
186 59 59 
255 110 255 
255 63 63 
255 111 135 
240 106 106 
250 107 115 
179 79 97 
255 161 255 
255 118 118 
255 75 94 
255 153 170 
207 72 255 
174 77 77 
255 232 255 
128 56 56 
211 93 93 
142 57 62 
255 65 87 
255 145 207 
255 196 255 
133 59 82 
169 70 94 
101 45 73 
232 102 128 
183 76 181 
183 81 113 
255 91 255 
255 141 255 
255 101 255 
255 83 205 
119 52 153 
116 51 199 
255 60 190 
121 53 123 
145 46 148 
255 161 255 
188 60 195 
255 45 255 
96 77 255 
255 85 255 
79 45 255 
159 122 255 
255 203 255 
255 255 255 
208 29 255 
55 43 217 
133 82 255 
255 89 255 
255 60 255 
255 255 255 
95 46 255 
104 67 255 
255 70 230 
87 44 255 
73 52 255 
255 157 255 
69 60 255 
65 47 255 
255 151 255 
117 117 255 
72 68 233 
151 147 255 
109 46 193 
59 49 229 
112 99 255 
58 44 234 
79 79 255 
49 42 206 
255 81 184 
255 124 148 
255 51 83 
255 162 207 
255 73 255 
255 91 136 
202 50 50 
255 57 105 
255 236 255 
222 48 76 
255 75 83 
255 120 237 
255 86 87 
255 72 241 
255 79 85 
255 43 43 
255 89 255 
131 40 110 
255 104 137 
255 255 255 
255 39 84 
255 255 255 
255 120 123 
255 123 205 
255 61 122 
255 72 164 
174 82 195 
89 78 202 
119 52 136 
140 41 97 
155 92 255 
147 99 223 
84 84 255 
110 72 187 
179 83 189 
77 77 175 
100 100 255 
151 141 255 
77 77 175 
108 93 255 
104 87 198 
181 119 255 
170 121 255 
142 132 255 
119 90 255 
110 95 214 
77 77 175 
214 87 255 
136 124 255 
148 106 255 
158 116 255 
147 100 255 
137 119 255 
158 116 255 
123 123 255 
100 100 226 
255 151 255 
112 112 254 
189 130 255 
213 147 255 
110 95 214 
181 137 255 
159 129 255 
149 117 255 
255 89 255 
144 144 255 
255 142 255 
158 158 255 
68 68 154 
120 120 255 
139 104 235 
135 97 220 
171 123 255 
135 128 255 
255 138 255 
100 100 226 
100 100 226 
127 106 244 
103 71 225 
255 133 255 
154 154 255 
255 175 255 
135 124 255 
86 86 194 
140 140 255 
118 105 255 
246 168 255 
140 127 255 
255 255 255 
255 169 169 
255 115 115 
255 255 255 
255 255 255 
255 204 222 
255 255 255 
255 192 241 
255 204 204 
255 255 255 
255 255 255 
118 118 118 
255 229 255 
255 224 224 
255 255 255 
255 255 255 
255 255 255 
255 255 255 
255 255 255 
255 255 255 
255 255 255 
255 255 255 
255 255 255 
255 255 255 
255 204 255 
255 255 255 
86 86 86 
255 255 255 
255 255 255 
255 255 255 
255 255 255 
255 255 255 
255 203 203 
255 214 214 
255 218 255 
142 142 142 
255 255 255 
255 255 255 
255 255 255 
255 255 255 
255 160 198 
255 255 255 
255 224 255 
255 255 255 
255 255 255 
255 255 255 
255 255 255 
255 255 255 
255 255 255 
255 255 255 
255 255 255 
255 255 255 
255 69 89 
255 255 255 
146 123 255 
255 243 255 
255 255 255 
255 255 255 
255 187 255 
255 194 217 
255 115 255 
255 130 236 
255 116 131 
255 132 247 
255 65 69 
228 91 134 
255 107 107 
255 141 209 
255 175 255 
255 130 144 
255 119 158 
255 106 139 
255 119 119 
255 117 141 
255 69 74 
255 198 255 
255 118 118 
255 115 174 
255 125 125 
220 79 79 
255 111 111 
255 123 127 
255 115 237 
255 90 90 
255 96 107 
255 121 152 
204 70 70 
255 103 255 
255 131 255 
255 100 168 
186 59 59 
241 80 91 
248 109 144 
255 100 105 
255 109 122 
255 255 255 
204 70 70 
234 87 87 
255 109 117 
226 100 100 
247 94 94 
206 80 106 
211 93 93 
128 56 56 
229 101 115 
255 109 246 
255 143 211 
194 86 86 
255 24 24 
211 93 93 
194 86 86 
255 255 255 
222 98 186 
255 127 138 
183 81 113 
133 59 82 
255 108 250 
148 65 128 
175 77 77 
240 106 106 
255 255 255 
181 76 135 
255 107 205 
202 78 89 
133 59 82 
133 59 82 
108 48 94 
172 71 156 
165 72 204 
113 50 195 
93 41 41 
255 89 189 
162 56 199 
199 84 140 
125 46 255 
255 47 153 
142 89 255 
255 138 255 
175 69 255 
180 68 221 
81 67 255 
149 102 255 
142 85 255 
255 255 255 
178 81 255 
255 100 255 
87 50 255 
255 89 255 
52 47 255 
168 66 227 
63 44 212 
243 110 255 
255 81 255 
54 43 255 
122 99 255 
70 46 172 
189 50 255 
73 42 255 
242 35 112 
75 48 241 
122 50 225 
78 55 235 
75 53 172 
65 29 255 
255 56 181 
73 65 255 
75 57 193 
50 50 202 
255 72 74 
236 68 80 
255 63 97 
255 58 67 
255 60 97 
255 87 118 
255 58 104 
255 64 64 
217 57 118 
255 110 255 
255 113 207 
255 90 111 
255 114 185 
255 65 135 
255 73 89 
255 56 56 
255 62 70 
255 199 255 
255 63 65 
255 119 124 
206 61 167 
255 87 149 
255 89 89 
255 73 149 
202 190 255 
103 87 197 
252 103 255 
255 101 247 
158 116 255 
113 77 255 
143 58 213 
198 87 253 
255 167 255 
255 98 222 
195 86 196 
83 83 255 
181 151 255 
255 79 179 
222 204 255 
112 112 254 
113 93 255 
255 180 255 
92 92 255 
255 82 214 
113 81 183 
255 180 255 
150 140 255 
106 106 241 
106 106 240 
203 197 255 
255 69 201 
146 85 193 
77 77 175 
202 59 138 
139 104 235 
138 132 255 
197 134 255 
104 87 198 
135 124 255 
86 86 194 
140 140 255 
255 106 255 
163 135 255 
160 120 255 
112 112 254 
90 69 157 
255 131 255 
255 148 255 
126 113 255 
110 95 214 
255 147 255 
131 119 255 
224 155 255 
102 102 255 
255 121 255 
208 97 255 
150 118 255 
171 171 255 
148 135 255 
255 116 255 
161 143 255 
134 134 255 
175 109 255 
255 144 255 
142 130 255 
82 82 255 
209 209 255 
133 133 255 
255 201 255 
255 166 255 
255 193 255 
255 126 255 
255 232 255 
255 255 255 
255 255 255 
255 255 255 
255 187 235 
255 255 255 
255 255 255 
255 255 255 
255 255 255 
255 199 199 
255 255 255 
255 255 255 
234 156 156 
255 255 255 
202 202 255 
86 86 86 
255 233 255 
255 217 255 
255 255 255 
255 254 255 
255 255 255 
255 255 255 
255 133 255 
255 255 255 
255 255 255 
255 255 255 
255 255 255 
255 215 255 
255 255 255 
255 255 255 
255 211 255 
255 255 255 
242 213 255 
181 137 190 
255 255 255 
255 232 255 
128 128 210 
255 251 255 
255 255 255 
255 255 255 
255 232 232 
255 255 255 
255 255 255 
255 255 255 
255 255 255 
255 255 255 
255 255 255 
255 255 255 
255 255 255 
255 255 255 
255 255 255 
255 255 255 
255 219 235 
255 255 255 
255 242 255 
255 98 138 
255 255 255 
255 145 171 
255 162 255 
255 156 186 
255 140 152 
255 87 110 
248 95 95 
255 222 222 
255 145 212 
255 153 255 
255 89 119 
255 113 120 
255 101 157 
255 79 79 
255 154 255 
255 141 255 
255 100 129 
255 114 253 
255 143 143 
255 90 255 
255 102 121 
255 183 240 
241 106 106 
211 93 93 
175 77 77 
255 120 135 
255 84 84 
255 113 139 
254 112 255 
226 100 100 
255 69 144 
217 81 230 
255 107 107 
204 90 130 
255 135 135 
236 101 135 
255 94 103 
255 133 172 
220 79 79 
255 133 168 
255 113 255 
255 121 121 
255 119 131 
175 77 77 
128 56 56 
255 90 255 
220 97 115 
255 94 126 
186 59 59 
255 88 114 
128 56 56 
213 94 162 
198 87 255 
243 107 121 
255 88 88 
211 93 93 
175 77 77 
255 68 100 
155 52 118 
154 68 68 
255 82 147 
255 63 63 
101 45 73 
218 77 142 
255 186 255 
144 60 145 
144 63 116 
255 156 181 
212 64 122 
255 86 92 
158 60 90 
123 44 96 
246 49 102 
131 58 166 
255 106 255 
156 68 156 
38 12 38 
48 48 255 
121 121 255 
255 196 255 
114 76 255 
255 77 255 
255 255 255 
234 45 255 
255 97 255 
255 239 255 
255 152 255 
255 140 255 
21 9 97 
255 255 255 
255 45 255 
113 56 215 
199 66 255 
85 84 255 
109 56 255 
138 68 255 
255 122 255 
127 56 255 
56 56 182 
91 89 255 
215 63 255 
49 30 255 
71 71 228 
48 21 113 
47 47 151 
139 79 255 
81 35 185 
149 42 160 
255 63 86 
255 98 137 
255 84 126 
193 60 143 
255 64 116 
246 76 76 
255 64 255 
255 77 114 
255 126 255 
255 69 177 
255 163 174 
255 69 93 
255 125 129 
255 97 136 
255 97 188 
255 185 194 
163 50 109 
255 67 157 
255 128 172 
255 85 255 
255 93 142 
255 78 97 
255 53 173 
255 200 255 
255 165 255 
218 205 255 
93 60 169 
140 68 153 
255 150 255 
104 76 255 
86 86 194 
155 111 251 
160 95 227 
182 91 206 
97 79 179 
192 172 255 
195 106 239 
196 111 255 
255 237 255 
178 100 235 
209 131 255 
68 68 154 
62 43 141 
119 95 255 
200 68 156 
255 122 255 
131 90 204 
160 130 255 
107 72 163 
154 82 255 
255 255 255 
255 255 255 
144 144 255 
120 74 167 
145 139 255 
115 101 229 
174 110 255 
142 92 207 
112 112 254 
137 103 255 
148 115 255 
103 94 222 
97 87 206 
255 149 255 
97 79 179 
100 100 226 
187 92 229 
108 74 255 
255 127 255 
173 126 255 
158 116 255 
255 127 255 
106 106 241 
255 255 255 
204 204 255 
109 102 255 
133 133 255 
214 116 255 
148 115 255 
242 188 255 
255 255 255 
153 121 255 
104 95 255 
87 87 234 
241 241 255 
255 138 255 
101 101 255 
100 100 226 
106 106 241 
156 146 255 
255 85 255 
255 179 255 
255 255 255 
255 255 255 
255 226 227 
146 146 187 
255 255 255 
255 176 176 
255 238 238 
178 178 178 
255 255 255 
255 141 255 
255 251 255 
255 168 204 
255 255 255 
204 179 255 
255 255 255 
255 246 255 
255 255 255 
255 211 255 
255 255 255 
255 206 217 
255 255 255 
255 255 255 
255 159 255 
255 205 205 
255 212 255 
255 255 255 
255 255 255 
204 167 204 
255 255 255 
255 255 255 
255 255 255 
255 255 255 
255 255 255 
255 255 255 
255 180 255 
255 255 255 
169 141 255 
255 186 255 
255 255 255 
196 157 253 
248 181 255 
255 169 255 
255 255 255 
255 255 255 
255 255 255 
255 208 211 
255 240 240 
255 255 255 
205 205 255 
255 255 255 
255 255 255 
255 255 255 
255 254 255 
255 138 155 
255 255 255 
255 132 224 
255 115 159 
255 162 255 
255 156 186 
255 115 193 
193 85 85 
255 167 255 
255 156 185 
255 113 129 
255 154 161 
255 48 48 
255 67 83 
255 126 255 
255 114 163 
255 88 88 
204 90 109 
255 160 160 
211 93 93 
228 61 61 
255 128 255 
255 110 110 
204 90 109 
255 145 169 
255 110 130 
255 94 115 
255 215 255 
211 93 93 
255 112 193 
248 110 126 
254 112 112 
194 86 86 
255 195 221 
255 129 129 
255 115 130 
255 98 98 
213 75 121 
228 84 126 
194 86 86 
255 110 110 
255 148 148 
251 96 111 
241 106 106 
226 100 100 
198 87 104 
200 68 108 
194 86 86 
165 58 73 
237 105 147 
255 140 255 
146 57 197 
255 118 118 
255 96 120 
211 93 93 
234 73 117 
154 68 68 
255 75 75 
247 101 109 
251 86 88 
158 70 90 
255 93 255 
154 68 68 
133 59 82 
255 255 255 
201 89 118 
147 59 86 
255 94 255 
179 79 97 
217 96 255 
178 73 255 
198 87 104 
128 56 56 
204 90 130 
79 35 185 
153 21 67 
182 75 222 
255 71 200 
159 57 203 
255 113 152 
105 105 255 
46 46 150 
54 28 134 
177 47 153 
255 191 255 
255 123 255 
129 69 245 
126 68 219 
110 107 255 
255 133 255 
50 47 174 
191 104 255 
189 184 255 
75 40 255 
255 43 255 
255 125 255 
81 42 255 
60 60 194 
237 89 255 
80 73 255 
65 61 236 
255 255 255 
76 30 255 
84 62 255 
94 85 255 
62 31 163 
121 53 190 
147 55 176 
90 86 255 
47 47 151 
175 52 255 
255 67 255 
216 67 116 
255 90 94 
255 69 77 
255 82 102 
255 130 186 
255 123 146 
142 35 44 
255 42 235 
255 98 142 
255 29 117 
255 111 194 
255 95 183 
255 89 114 
255 91 159 
255 255 255 
255 59 73 
133 31 120 
255 97 115 
255 77 122 
255 90 113 
204 73 165 
140 68 153 
255 110 255 
133 75 171 
104 87 198 
255 141 255 
232 83 255 
129 117 255 
103 100 234 
115 63 144 
164 125 255 
123 96 217 
219 97 255 
115 101 229 
41 41 93 
128 99 255 
156 109 255 
86 86 194 
97 79 179 
201 194 255 
186 166 255 
90 70 158 
100 100 226 
125 113 255 
255 113 255 
56 56 128 
167 117 255 
147 105 237 
94 94 247 
174 161 255 
191 105 255 
104 87 198 
90 86 203 
237 83 188 
154 93 255 
104 87 198 
131 113 255 
126 123 255 
229 206 255 
150 93 210 
255 184 255 
82 82 255 
160 129 255 
180 148 255 
255 93 233 
126 113 255 
131 119 255 
147 137 255 
137 137 255 
121 114 255 
255 255 255 
90 90 255 
255 131 255 
135 124 255 
86 86 194 
148 115 255 
122 122 255 
200 115 255 
183 98 255 
133 110 255 
101 101 255 
255 159 255 
107 107 255 
110 93 255 
255 111 255 
113 113 255 
208 111 255 
255 255 255 
182 146 255 
107 93 243 
255 153 255 
255 110 255 
255 255 255 
255 191 191 
255 255 255 
255 255 255 
255 255 255 
255 255 255 
222 190 255 
178 178 178 
255 117 193 
248 145 255 
255 220 255 
255 255 255 
255 198 236 
255 254 254 
255 255 255 
255 255 255 
255 255 255 
255 185 212 
255 255 255 
255 255 255 
255 255 255 
255 255 255 
255 255 255 
255 255 255 
255 181 255 
255 217 245 
142 142 142 
255 255 255 
255 255 255 
255 255 255 
255 202 202 
255 137 157 
118 118 118 
193 193 193 
170 162 170 
255 255 255 
255 205 205 
255 255 255 
255 254 255 
255 178 255 
255 221 249 
255 255 255 
255 255 255 
255 255 255 
255 255 255 
255 174 190 
255 255 255 
255 255 255 
255 189 189 
237 235 255 
255 255 255 
255 212 255 
255 255 255 
255 111 255 
255 131 156 
255 219 222 
255 87 128 
255 151 255 
255 151 207 
255 94 255 
255 179 255 
234 103 120 
255 143 186 
255 155 160 
255 255 255 
255 138 255 
226 100 100 
220 79 79 
207 91 139 
255 107 123 
224 68 69 
175 77 77 
255 93 124 
144 63 90 
255 92 153 
255 106 148 
220 97 115 
255 126 163 
248 95 95 
255 95 255 
144 63 115 
255 111 123 
255 107 214 
228 84 105 
255 69 89 
255 134 148 
255 90 90 
241 106 106 
211 93 93 
255 168 255 
191 78 254 
241 106 106 
255 141 141 
255 113 255 
175 77 77 
255 126 255 
176 61 96 
194 69 86 
179 79 154 
244 93 140 
226 100 100 
255 80 98 
175 77 77 
175 77 77 
175 77 77 
255 136 136 
255 101 101 
139 61 101 
163 72 107 
255 74 74 
154 68 68 
154 68 68 
175 77 77 
194 86 86 
93 41 41 
194 86 86 
255 193 193 
101 45 73 
175 77 77 
149 66 129 
255 108 121 
133 59 82 
157 69 218 
187 82 125 
255 58 178 
179 59 86 
116 16 88 
128 56 56 
192 71 165 
83 36 118 
146 63 245 
101 45 73 
226 184 255 
113 55 255 
255 42 255 
100 68 255 
205 75 241 
116 93 255 
204 89 255 
255 123 255 
89 43 211 
142 96 255 
212 96 255 
255 77 255 
255 170 255 
104 40 255 
77 32 255 
39 35 142 
84 45 246 
255 51 255 
61 60 233 
55 52 189 
66 61 229 
96 48 189 
75 73 255 
37 27 151 
87 83 255 
62 56 200 
63 41 196 
77 51 255 
120 88 255 
54 52 174 
255 52 255 
255 72 96 
255 75 117 
255 57 100 
255 255 255 
126 28 52 
255 56 99 
255 68 255 
255 84 180 
255 91 226 
255 74 156 
255 103 125 
255 120 132 
255 88 88 
181 56 56 
204 22 42 
255 78 106 
255 93 197 
255 109 125 
255 246 255 
243 74 255 
238 71 177 
184 91 207 
209 61 143 
255 71 161 
255 125 255 
255 62 141 
255 87 255 
160 106 239 
126 90 212 
255 73 173 
90 70 158 
255 79 245 
154 79 179 
103 87 197 
115 101 229 
192 78 177 
86 59 147 
255 19 82 
255 255 255 
116 63 144 
117 117 255 
215 109 246 
68 68 154 
190 183 255 
255 93 216 
90 70 158 
243 118 255 
77 77 175 
93 93 211 
131 79 192 
228 160 255 
255 118 255 
100 100 226 
191 109 255 
133 75 171 
143 108 255 
93 93 210 
82 82 255 
131 131 255 
162 134 255 
115 101 229 
208 81 184 
110 53 178 
106 106 241 
218 155 255 
136 136 255 
56 56 128 
97 97 255 
87 87 234 
218 133 255 
154 116 255 
116 116 255 
93 93 211 
111 96 251 
104 104 255 
77 77 175 
183 124 255 
132 132 255 
160 132 255 
60 60 255 
132 132 255 
86 86 194 
255 201 255 
86 86 194 
102 85 255 
221 214 255 
102 80 255 
87 87 234 
89 89 255 
144 144 255 
198 123 255 
137 133 255 
220 136 255 
152 140 255 
255 255 255 
86 86 86 
255 255 255 
255 255 255 
255 198 253 
255 255 255 
255 253 255 
255 255 255 
194 146 181 
255 255 255 
255 65 168 
255 255 255 
255 255 255 
187 146 146 
255 237 252 
255 255 255 
41 41 132 
255 255 255 
255 255 255 
255 255 255 
255 255 255 
255 255 255 
255 200 200 
238 166 214 
255 167 255 
255 255 255 
255 255 255 
181 122 181 
255 255 255 
239 202 202 
255 172 255 
255 174 176 
250 222 222 
255 172 235 
255 245 255 
255 255 255 
255 255 255 
255 255 255 
152 121 135 
255 214 255 
160 160 255 
255 204 204 
255 255 255 
255 255 255 
255 247 247 
255 183 255 
255 255 255 
255 255 255 
255 255 255 
255 255 255 
255 255 255 
255 255 255 
255 146 158 
255 113 148 
255 106 148 
175 77 77 
255 124 255 
255 100 144 
255 88 88 
255 100 100 
255 129 132 
255 83 131 
255 110 126 
255 135 255 
255 134 170 
234 87 87 
255 133 140 
255 130 221 
228 84 105 
255 162 255 
255 125 215 
255 101 255 
255 128 164 
255 112 125 
255 204 212 
255 111 145 
255 158 196 
255 144 144 
209 92 173 
255 123 255 
254 102 125 
167 74 97 
254 112 112 
248 95 95 
255 141 164 
255 118 122 
220 79 79 
255 113 113 
255 107 107 
128 56 56 
128 56 56 
207 72 91 
169 75 176 
255 123 255 
248 95 95 
154 68 68 
194 86 86 
255 147 173 
255 82 103 
175 77 77 
210 93 93 
175 77 77 
255 129 226 
198 87 104 
255 161 161 
175 77 77 
154 68 68 
255 69 76 
215 94 129 
246 100 109 
108 48 94 
187 82 125 
232 42 103 
128 56 56 
93 41 41 
104 37 255 
255 192 192 
255 92 255 
132 57 92 
101 45 73 
79 21 68 
167 74 121 
198 87 104 
255 80 236 
101 45 73 
111 47 224 
255 44 143 
169 70 94 
148 65 128 
93 41 41 
126 54 142 
198 37 171 
255 59 255 
207 96 255 
189 81 255 
58 34 255 
46 41 210 
255 255 255 
142 61 255 
132 78 255 
59 41 255 
255 83 255 
160 79 255 
237 77 255 
132 69 255 
209 194 255 
255 61 255 
60 60 195 
255 231 255 
124 76 255 
99 42 229 
255 57 229 
34 34 110 
145 69 255 
64 58 233 
153 55 255 
255 64 255 
181 88 255 
78 78 255 
78 59 255 
68 42 136 
97 75 255 
255 86 156 
255 182 182 
255 57 255 
238 74 81 
255 93 255 
255 255 255 
255 68 133 
219 68 68 
255 114 175 
255 58 163 
225 53 82 
255 116 255 
255 120 129 
255 86 95 
224 53 64 
255 78 102 
213 64 66 
255 130 130 
255 87 255 
109 59 137 
157 34 247 
97 79 179 
175 72 248 
193 99 225 
140 76 184 
186 170 255 
124 51 129 
86 86 194 
90 70 158 
154 116 255 
199 85 195 
123 53 121 
255 107 250 
81 69 185 
255 140 255 
169 89 255 
90 78 189 
232 117 255 
255 176 255 
56 56 128 
162 99 255 
240 116 255 
151 119 255 
49 42 112 
93 60 169 
41 41 93 
144 123 255 
125 82 187 
123 74 177 
113 33 159 
41 41 93 
177 119 255 
189 104 236 
164 125 255 
140 104 235 
68 68 154 
110 95 214 
190 92 255 
89 78 202 
118 118 255 
106 106 241 
130 55 160 
105 89 237 
195 111 255 
41 41 93 
255 168 255 
128 87 255 
166 157 255 
100 100 226 
155 125 255 
93 93 211 
128 116 255 
93 93 211 
212 103 233 
121 121 255 
138 127 255 
139 91 207 
151 141 255 
151 149 255 
126 124 255 
255 174 255 
123 123 255 
107 107 255 
177 152 255 
100 100 226 
96 96 255 
119 119 255 
255 255 255 
147 105 237 
216 151 255 
77 77 175 
153 153 255 
216 120 255 
255 133 255 
210 136 255 
255 198 255 
255 255 255 
255 244 255 
255 255 255 
255 237 237 
255 255 255 
213 194 213 
255 255 255 
140 140 140 
255 220 255 
255 112 255 
255 255 255 
255 255 255 
255 255 255 
255 224 255 
255 179 255 
255 250 255 
255 255 255 
255 255 255 
255 255 255 
255 206 255 
255 255 255 
255 255 255 
255 248 248 
255 184 184 
255 255 255 
255 171 255 
255 142 175 
255 255 255 
255 255 255 
255 240 255 
255 255 255 
255 255 255 
255 227 255 
255 203 255 
255 255 255 
255 255 255 
255 246 255 
255 255 255 
255 217 217 
255 255 255 
232 232 255 
255 255 255 
255 255 255 
255 255 255 
238 183 208 
181 137 242 
255 255 255 
255 190 197 
255 255 255 
255 255 255 
255 214 235 
255 119 119 
255 76 108 
255 159 255 
255 162 255 
255 136 192 
255 146 255 
255 146 146 
255 126 126 
255 100 212 
211 93 93 
248 109 125 
255 100 255 
255 101 101 
186 59 59 
220 79 79 
240 106 106 
255 212 237 
255 106 106 
255 103 103 
252 86 87 
255 121 121 
255 112 112 
255 96 145 
242 107 150 
194 86 86 
255 93 93 
255 132 161 
198 87 104 
255 113 126 
255 109 166 
175 77 77 
255 255 255 
255 88 92 
255 127 127 
154 68 68 
254 112 112 
204 70 70 
93 41 41 
240 106 106 
255 104 104 
255 106 133 
255 136 136 
194 86 86 
214 95 110 
128 56 56 
255 90 90 
189 83 179 
137 60 255 
244 72 131 
255 80 102 
255 111 154 
255 105 255 
37 7 76 
244 108 210 
139 61 101 
179 79 97 
255 74 74 
154 68 68 
138 56 65 
177 74 123 
229 100 255 
128 56 56 
255 217 255 
255 85 221 
165 68 73 
154 68 68 
56 20 96 
165 68 73 
141 43 62 
200 47 255 
101 45 73 
101 45 73 
128 56 56 
146 46 86 
172 60 117 
255 116 255 
255 112 126 
166 73 170 
197 54 255 
242 59 228 
255 158 255 
255 144 255 
255 121 255 
133 81 255 
83 80 255 
150 144 255 
64 60 255 
116 83 255 
41 41 133 
178 77 255 
57 49 212 
88 30 233 
131 115 255 
151 124 255 
112 60 255 
69 65 239 
27 9 147 
84 59 208 
240 97 255 
38 34 156 
255 109 255 
95 72 255 
255 255 255 
255 255 255 
105 104 255 
79 45 147 
104 72 255 
77 49 255 
255 152 255 
255 78 83 
110 34 34 
255 95 104 
255 67 221 
204 22 42 
255 53 53 
255 64 70 
255 82 177 
255 72 110 
255 79 85 
255 202 255 
255 128 217 
255 60 197 
241 61 93 
255 82 170 
142 35 39 
255 84 124 
255 91 91 
208 187 255 
116 63 144 
131 131 255 
135 84 218 
183 88 255 
116 63 144 
255 68 159 
186 98 222 
153 99 248 
131 90 203 
51 51 248 
132 107 255 
255 246 255 
131 90 204 
166 88 255 
152 93 211 
255 197 255 
77 77 175 
102 102 255 
104 87 198 
68 68 154 
114 81 255 
121 107 255 
168 132 255 
77 77 175 
96 87 218 
101 71 190 
86 86 194 
255 196 255 
107 107 255 
206 110 255 
68 68 154 
144 133 255 
81 69 185 
255 86 255 
100 71 188 
135 97 220 
112 112 253 
77 77 175 
93 93 211 
106 106 241 
153 121 255 
97 79 179 
225 170 255 
121 107 243 
86 86 255 
255 106 255 
90 70 158 
144 144 255 
125 102 255 
89 47 155 
255 189 255 
169 69 156 
148 115 255 
114 96 255 
112 112 254 
97 97 255 
203 203 255 
204 178 255 
107 107 255 
79 79 220 
186 98 222 
190 190 255 
115 107 255 
145 145 255 
77 77 175 
100 100 226 
56 56 128 
129 129 255 
95 95 248 
255 119 255 
101 101 255 
126 110 248 
100 100 226 
117 100 255 
171 126 255 
225 193 255 
223 223 255 
255 184 192 
255 255 255 
255 228 241 
255 247 255 
255 255 255 
229 229 255 
255 198 255 
255 211 255 
255 255 255 
255 255 255 
255 255 255 
255 255 255 
255 255 255 
255 255 255 
255 145 255 
255 255 255 
255 255 255 
255 255 255 
255 231 255 
255 255 255 
249 234 249 
255 210 255 
255 246 255 
255 177 255 
255 255 255 
255 255 255 
178 178 178 
255 255 255 
255 255 255 
255 255 255 
255 255 255 
255 255 255 
255 255 255 
255 241 255 
255 255 255 
255 255 255 
255 255 255 
255 255 255 
214 171 255 
255 127 199 
255 255 255 
255 255 255 
255 217 217 
255 224 255 
255 201 201 
255 255 255 
255 255 255 
255 255 255 
255 255 255 
255 95 95 
186 82 103 
255 104 104 
255 162 255 
255 126 140 
255 116 131 
255 163 255 
255 65 91 
255 102 105 
222 98 143 
255 105 105 
255 32 73 
220 94 175 
255 184 255 
255 81 81 
255 137 255 
255 164 255 
255 108 229 
255 82 82 
250 95 255 
255 120 147 
255 177 255 
241 80 91 
255 212 255 
220 97 135 
194 86 86 
255 142 142 
175 77 77 
255 118 127 
255 144 144 
254 112 112 
248 110 144 
255 81 170 
186 59 59 
179 79 97 
255 90 126 
204 70 70 
194 86 86 
175 77 77 
197 87 103 
254 112 112 
255 113 113 
154 68 68 
228 100 122 
219 79 79 
255 103 105 
255 121 121 
194 86 86 
241 106 106 
175 77 77 
144 63 90 
175 77 77 
255 255 255 
154 68 68 
255 82 82 
133 59 82 
190 61 84 
128 56 56 
255 82 173 
255 131 131 
255 126 255 
222 68 70 
133 59 82 
255 123 255 
133 59 82 
255 255 255 
232 94 103 
204 90 130 
255 94 117 
44 19 63 
255 57 110 
169 60 93 
255 62 255 
123 44 96 
255 91 246 
119 45 78 
240 95 204 
101 45 73 
115 51 110 
61 27 87 
120 51 130 
255 85 255 
202 49 255 
67 58 248 
87 66 213 
197 93 255 
172 78 255 
255 143 255 
65 61 255 
255 63 255 
44 27 87 
255 118 255 
156 100 255 
81 65 255 
73 52 255 
255 89 255 
57 55 255 
255 110 255 
255 98 255 
52 36 255 
75 49 255 
127 38 255 
255 57 255 
110 59 255 
47 21 217 
89 36 255 
48 45 250 
255 255 255 
52 43 200 
166 154 255 
127 77 255 
255 94 105 
255 233 255 
255 71 82 
255 83 90 
220 46 74 
182 56 56 
255 79 191 
255 56 68 
255 60 66 
210 65 106 
255 255 255 
240 75 129 
255 85 91 
255 72 77 
255 36 53 
255 65 255 
255 94 152 
221 72 163 
236 101 229 
255 139 255 
56 56 128 
166 67 152 
140 104 255 
153 41 115 
68 68 154 
128 82 200 
73 45 101 
75 75 255 
140 138 255 
255 91 255 
154 79 179 
118 89 201 
131 90 204 
128 108 252 
195 55 125 
115 63 144 
141 96 222 
115 101 229 
77 77 175 
115 73 192 
90 28 157 
187 85 192 
118 118 255 
120 74 167 
255 57 230 
77 77 175 
255 196 255 
120 107 242 
86 86 194 
74 74 255 
214 208 255 
217 119 255 
97 79 179 
213 93 255 
106 106 241 
100 100 226 
112 112 254 
118 118 255 
68 68 154 
77 77 175 
93 93 211 
95 95 248 
255 117 255 
255 97 255 
226 84 192 
100 100 226 
125 113 255 
137 137 255 
125 82 187 
135 97 255 
171 121 255 
171 106 255 
117 117 255 
128 128 255 
125 125 255 
191 124 255 
255 142 255 
147 105 237 
93 93 211 
110 110 255 
194 115 255 
87 87 234 
103 94 232 
167 167 255 
255 148 255 
255 255 255 
255 104 255 
138 100 255 
246 90 255 
156 156 255 
101 101 255 
101 101 255 
255 248 255 
255 164 255 
106 93 255 
157 100 255 
106 106 228 
242 153 255 
255 255 255 
255 255 255 
226 226 255 
255 255 255 
255 158 255 
218 185 218 
255 255 255 
255 255 255 
255 255 255 
255 255 255 
255 255 255 
255 255 255 
255 167 204 
255 255 255 
255 211 255 
255 255 255 
86 86 86 
255 255 255 
255 255 255 
255 255 255 
255 255 255 
255 255 255 
255 255 255 
255 255 255 
255 255 255 
255 255 255 
193 193 193 
255 202 202 
160 160 160 
255 243 255 
255 146 255 
255 162 255 
193 193 193 
255 255 255 
255 142 245 
255 255 255 
255 255 255 
228 196 196 
255 255 255 
255 255 255 
255 149 149 
255 255 255 
255 255 255 
229 229 255 
255 255 255 
255 125 255 
255 193 241 
255 113 226 
173 56 58 
255 98 201 
255 163 255 
255 255 255 
255 178 193 
255 111 127 
255 78 89 
255 95 101 
255 142 169 
154 68 68 
255 91 123 
220 79 79 
175 77 77 
255 114 114 
255 117 255 
194 86 86 
255 88 88 
220 79 79 
255 136 255 
255 89 89 
255 93 132 
243 107 255 
255 152 192 
254 98 255 
154 68 68 
154 68 68 
204 70 70 
161 71 255 
194 86 86 
255 106 134 
194 86 86 
175 77 77 
181 80 199 
255 137 137 
255 128 255 
255 132 255 
220 79 79 
219 79 79 
255 107 255 
179 79 97 
255 126 126 
255 58 58 
186 59 255 
128 56 56 
175 77 77 
128 56 56 
226 100 100 
194 86 86 
175 77 77 
128 56 56 
154 68 68 
255 63 63 
133 59 82 
148 65 128 
128 56 56 
132 57 92 
255 136 202 
158 70 90 
175 77 77 
199 86 88 
182 79 120 
255 126 126 
128 56 56 
93 41 41 
255 155 200 
189 84 135 
133 59 82 
44 19 63 
133 59 82 
144 63 116 
0 0 0 
115 51 110 
93 41 41 
255 62 255 
115 51 109 
115 48 127 
255 189 255 
138 52 132 
229 61 224 
144 57 183 
255 117 129 
199 92 255 
113 57 255 
129 55 255 
139 110 255 
255 205 255 
123 79 255 
71 71 255 
81 51 163 
169 41 255 
179 57 255 
112 59 191 
255 95 255 
50 37 255 
61 53 207 
54 52 198 
70 38 124 
255 84 255 
144 91 255 
101 75 255 
189 183 255 
50 47 174 
31 26 122 
118 89 255 
186 185 255 
103 90 255 
255 68 255 
255 44 255 
25 25 255 
255 82 255 
255 78 255 
215 32 76 
255 162 255 
255 72 87 
197 61 255 
255 76 76 
255 136 166 
255 73 144 
255 103 104 
220 68 76 
255 99 185 
255 103 255 
255 95 95 
255 60 92 
255 58 100 
255 112 206 
90 70 158 
90 28 89 
138 113 255 
135 67 180 
104 50 130 
163 72 255 
73 45 101 
94 48 108 
255 137 255 
84 41 105 
174 141 255 
255 154 255 
122 94 255 
41 41 93 
255 25 56 
109 94 213 
77 77 175 
255 78 177 
68 68 154 
97 79 179 
181 84 255 
0 0 0 
71 40 255 
192 98 255 
115 63 144 
216 192 255 
110 95 214 
103 94 233 
90 86 203 
255 116 255 
93 93 210 
182 91 206 
137 84 190 
90 70 158 
178 81 255 
77 77 175 
255 78 255 
68 68 154 
93 93 211 
255 151 255 
162 94 213 
82 59 133 
139 104 235 
104 87 198 
150 109 255 
86 86 194 
86 86 194 
81 69 185 
128 65 148 
125 123 255 
230 193 255 
56 56 128 
68 68 154 
112 112 254 
106 106 241 
198 122 255 
77 77 175 
41 41 93 
163 163 255 
77 77 175 
255 246 255 
68 68 154 
255 128 255 
249 147 255 
255 123 255 
255 51 115 
174 98 223 
191 125 255 
116 116 255 
101 101 255 
132 132 255 
139 104 235 
255 154 255 
123 123 255 
134 115 255 
93 93 211 
106 59 183 
179 169 255 
255 161 255 
133 105 255 
255 127 255 
248 248 255 
255 190 190 
255 255 255 
255 255 255 
255 255 255 
255 244 255 
255 244 255 
255 255 255 
255 206 225 
255 255 255 
255 255 255 
255 226 255 
255 255 255 
255 255 255 
255 255 255 
178 178 178 
255 255 255 
255 255 255 
255 255 255 
255 255 255 
255 255 255 
255 227 255 
255 233 255 
255 255 255 
255 255 255 
255 255 255 
255 249 249 
255 255 255 
230 209 255 
255 208 255 
255 255 255 
255 255 255 
193 193 193 
255 210 255 
255 255 255 
255 255 255 
254 254 254 
119 52 169 
142 142 142 
255 219 254 
255 255 255 
252 109 229 
255 255 255 
255 255 255 
255 170 255 
255 126 126 
255 255 255 
255 255 255 
255 240 246 
255 239 255 
255 70 193 
255 134 147 
255 119 119 
255 247 255 
254 94 98 
255 114 143 
255 111 111 
255 118 210 
255 113 153 
255 120 163 
203 90 109 
255 187 255 
242 91 110 
255 110 196 
255 118 118 
255 110 186 
254 112 112 
255 189 255 
194 86 86 
255 126 174 
255 122 159 
255 144 174 
255 63 63 
93 41 41 
255 121 121 
255 91 91 
255 97 101 
255 73 88 
255 98 98 
255 101 104 
241 106 106 
255 113 113 
255 133 178 
179 79 97 
255 73 103 
237 105 147 
255 90 90 
211 93 93 
200 86 255 
255 86 91 
211 93 93 
0 0 0 
204 90 109 
170 58 230 
255 134 205 
241 106 106 
207 91 139 
154 68 68 
175 77 77 
128 56 56 
158 70 90 
255 147 171 
0 0 0 
197 87 103 
199 88 202 
255 115 209 
255 113 238 
179 79 97 
139 61 101 
175 77 77 
0 0 0 
0 0 0 
162 71 193 
124 42 95 
216 96 123 
112 42 49 
139 61 101 
93 41 41 
96 42 255 
255 63 63 
44 19 63 
214 45 144 
153 67 67 
225 49 82 
198 87 255 
61 27 87 
255 45 77 
167 70 255 
107 37 135 
92 40 131 
83 51 255 
46 46 150 
132 48 190 
198 144 255 
150 88 255 
255 198 255 
227 54 255 
86 56 255 
129 68 255 
109 72 255 
217 89 255 
130 55 255 
255 76 255 
154 79 255 
255 55 255 
73 72 255 
57 44 255 
255 65 255 
168 37 255 
79 45 147 
255 48 242 
178 57 255 
114 113 255 
0 0 0 
159 26 168 
255 234 255 
180 69 255 
59 48 155 
107 72 255 
255 99 192 
255 54 85 
255 67 86 
255 126 151 
255 145 153 
255 74 148 
202 63 73 
255 148 216 
255 104 117 
255 43 88 
255 103 109 
237 63 71 
255 79 131 
255 95 110 
255 63 237 
185 35 79 
126 54 136 
255 110 249 
255 80 182 
100 79 189 
155 79 179 
90 70 158 
210 91 255 
115 63 144 
128 65 148 
255 63 142 
118 89 201 
160 57 149 
96 61 176 
98 68 160 
167 74 184 
83 83 255 
137 84 190 
113 81 183 
204 85 192 
97 79 179 
118 89 201 
110 110 250 
125 82 187 
130 90 204 
190 99 243 
255 127 255 
153 153 255 
88 88 255 
119 119 255 
90 70 158 
106 106 241 
73 45 101 
97 79 179 
106 106 241 
68 68 154 
87 87 234 
90 70 158 
106 80 255 
123 93 255 
100 100 255 
104 104 255 
255 199 255 
255 133 255 
86 86 194 
147 137 255 
146 77 254 
194 116 255 
255 255 255 
130 90 204 
154 79 179 
139 103 234 
118 118 255 
93 93 211 
255 100 227 
68 68 154 
155 97 255 
124 124 255 
104 95 255 
68 68 154 
130 130 255 
255 247 255 
149 149 255 
63 63 255 
106 106 241 
121 121 255 
192 112 255 
163 152 255 
151 141 255 
180 114 255 
86 86 194 
101 101 255 
107 107 255 
186 104 255 
120 113 255 
244 146 255 
113 113 255 
255 184 255 
145 137 255 
160 160 255 
149 86 255 
213 118 255 
233 126 255 
255 232 255 
255 120 255 
255 255 255 
255 255 255 
255 157 196 
255 255 255 
161 161 161 
255 255 255 
255 255 255 
255 118 118 
255 171 255 
255 255 255 
255 255 255 
255 255 255 
255 255 255 
118 118 118 
255 255 255 
255 243 255 
255 190 255 
255 255 255 
255 246 246 
255 255 255 
255 243 255 
255 255 255 
255 230 255 
187 165 255 
255 255 255 
255 255 255 
255 255 255 
255 255 255 
232 232 232 
255 255 255 
255 255 255 
255 255 255 
255 255 255 
255 255 255 
255 253 255 
255 255 255 
255 255 255 
190 190 255 
255 255 255 
255 255 255 
207 207 207 
255 174 174 
255 255 255 
255 255 255 
255 255 255 
255 173 195 
255 173 255 
255 255 255 
136 57 92 
175 77 77 
255 115 147 
255 144 146 
255 177 247 
255 72 73 
255 94 94 
255 106 108 
255 117 156 
238 105 180 
255 102 188 
255 255 255 
242 92 111 
200 86 186 
255 133 134 
220 97 115 
144 63 90 
255 104 121 
255 108 255 
255 103 147 
255 105 255 
204 90 109 
255 93 111 
194 86 86 
255 132 255 
154 68 68 
193 85 85 
241 106 106 
213 94 142 
234 103 139 
255 110 206 
255 83 83 
255 100 100 
144 63 90 
255 255 255 
255 75 75 
226 100 100 
255 104 147 
226 100 100 
171 75 133 
128 56 56 
158 70 90 
68 9 30 
255 63 63 
194 86 86 
193 85 85 
93 41 41 
154 68 68 
190 61 84 
255 102 146 
255 101 167 
198 87 104 
218 73 102 
154 68 68 
175 77 77 
220 79 79 
151 57 101 
255 63 63 
54 24 168 
131 58 123 
210 93 93 
97 41 60 
0 0 0 
154 68 68 
93 41 41 
79 15 49 
153 68 140 
154 68 68 
172 70 174 
142 19 202 
79 35 185 
255 144 255 
153 67 67 
108 48 94 
131 56 105 
101 45 73 
0 0 0 
73 32 104 
164 72 233 
0 0 0 
208 193 255 
255 73 255 
112 54 255 
131 86 255 
255 186 255 
74 68 255 
255 159 255 
254 120 255 
34 25 240 
83 60 255 
255 89 255 
255 239 255 
63 54 239 
90 47 235 
52 42 241 
165 32 255 
55 44 218 
50 50 255 
38 38 224 
208 120 255 
33 26 255 
62 44 213 
194 184 255 
202 50 255 
93 88 255 
29 5 191 
73 59 233 
195 184 255 
255 121 131 
255 96 255 
241 48 61 
255 88 194 
255 74 138 
255 62 131 
255 106 119 
255 71 138 
255 75 98 
208 63 148 
255 67 116 
255 65 166 
255 59 97 
255 116 143 
153 47 107 
84 84 255 
255 50 184 
96 20 56 
140 68 153 
255 85 255 
255 87 198 
143 78 183 
255 85 255 
66 57 230 
110 51 115 
255 61 255 
90 70 158 
108 69 172 
135 56 127 
189 104 236 
231 94 255 
255 50 113 
143 78 183 
99 68 157 
93 93 211 
111 86 199 
93 93 211 
133 75 171 
223 89 202 
82 59 133 
77 77 175 
137 84 190 
115 101 229 
100 100 226 
101 84 255 
214 114 255 
93 93 211 
115 63 144 
226 101 255 
182 91 206 
79 79 220 
252 68 210 
56 56 128 
255 96 216 
144 115 255 
255 255 255 
165 146 255 
100 100 226 
124 108 255 
77 77 175 
114 99 255 
125 113 255 
195 156 255 
131 92 242 
136 136 255 
118 69 255 
87 87 234 
255 106 241 
199 88 200 
185 98 221 
104 87 255 
255 200 255 
106 106 241 
156 126 255 
68 68 154 
165 165 255 
100 100 226 
77 77 175 
86 86 194 
90 86 203 
202 164 255 
161 146 255 
87 87 234 
82 82 255 
186 98 222 
208 102 255 
68 68 154 
139 104 235 
152 100 255 
197 146 255 
99 99 255 
118 118 255 
131 122 255 
123 87 197 
185 184 255 
127 117 255 
154 123 255 
255 125 255 
122 96 255 
255 255 255 
255 255 255 
255 255 255 
255 255 255 
214 180 255 
255 217 252 
240 132 132 
255 196 255 
255 255 255 
255 255 255 
206 170 255 
201 201 255 
255 255 255 
255 255 255 
255 255 255 
255 191 202 
255 255 255 
255 255 255 
255 197 197 
255 98 184 
255 255 255 
255 255 255 
255 255 255 
255 255 255 
255 255 255 
255 255 255 
255 212 255 
255 255 255 
255 255 255 
255 255 255 
255 255 255 
250 152 152 
255 255 255 
255 255 255 
227 167 255 
255 255 255 
255 255 255 
255 255 255 
255 255 255 
255 234 255 
255 255 255 
255 255 255 
255 255 255 
255 123 123 
255 255 255 
255 231 255 
255 110 120 
255 255 255 
255 99 124 
255 133 255 
244 100 100 
255 92 92 
255 103 255 
255 207 210 
154 68 68 
255 94 98 
255 102 117 
242 107 205 
175 77 77 
186 59 59 
255 116 166 
255 87 105 
220 79 79 
255 130 165 
255 144 195 
219 79 79 
252 79 115 
255 142 255 
175 77 77 
222 98 143 
178 53 84 
255 118 150 
255 197 205 
255 119 119 
255 148 255 
154 68 68 
154 68 68 
154 68 68 
226 100 100 
255 115 130 
154 68 68 
255 101 129 
203 70 210 
226 100 100 
255 125 139 
194 86 86 
175 77 77 
242 106 212 
154 68 68 
225 82 196 
255 82 125 
255 149 255 
175 77 77 
255 63 63 
128 56 56 
128 56 56 
128 56 56 
226 100 100 
255 149 255 
128 56 56 
137 60 175 
0 0 0 
190 84 137 
158 70 90 
255 73 142 
170 75 130 
199 88 202 
194 86 86 
165 68 88 
93 41 41 
255 95 151 
133 59 82 
128 56 56 
61 27 87 
255 66 255 
144 63 255 
128 56 56 
68 9 30 
144 63 116 
93 41 41 
133 37 154 
73 32 103 
61 27 87 
227 100 255 
255 65 205 
0 0 0 
255 156 255 
123 50 255 
145 40 152 
211 107 255 
92 31 255 
59 55 255 
255 162 255 
255 95 255 
255 158 255 
255 167 255 
58 43 217 
213 199 255 
167 98 255 
79 61 231 
73 73 237 
255 52 255 
209 103 255 
45 29 194 
60 60 194 
52 43 202 
74 50 214 
89 27 143 
78 61 255 
31 26 122 
25 25 80 
49 37 255 
63 49 236 
98 91 255 
90 77 255 
34 34 110 
111 47 218 
133 41 41 
255 103 207 
255 137 170 
234 73 81 
255 104 255 
167 52 52 
237 61 139 
255 80 82 
255 121 130 
255 126 157 
255 48 66 
255 198 255 
255 186 206 
255 87 255 
109 59 137 
255 59 149 
255 70 158 
210 82 198 
94 48 108 
140 103 234 
255 68 154 
255 87 196 
82 69 169 
255 104 235 
142 44 100 
119 64 156 
104 87 198 
124 80 255 
118 36 83 
220 128 255 
125 82 187 
127 101 235 
255 241 255 
86 86 194 
94 60 151 
179 83 189 
255 105 237 
73 45 101 
185 111 255 
142 92 207 
56 56 128 
192 78 177 
86 86 194 
68 68 154 
41 41 93 
56 56 128 
86 86 194 
130 90 204 
81 69 185 
110 95 214 
86 86 194 
106 106 241 
91 72 207 
255 94 213 
56 56 128 
255 171 255 
86 86 194 
98 85 255 
255 93 211 
135 97 220 
112 79 254 
255 255 255 
255 148 255 
90 70 255 
87 87 234 
255 68 154 
79 79 255 
120 74 167 
176 76 255 
41 41 93 
124 94 224 
106 106 240 
45 45 166 
104 87 198 
136 128 255 
86 86 194 
118 118 255 
100 100 226 
86 86 194 
96 96 255 
255 196 255 
98 93 255 
175 140 255 
178 114 255 
86 86 194 
155 102 255 
144 99 255 
137 97 227 
255 212 255 
255 221 255 
114 114 255 
136 136 255 
68 68 154 
77 77 175 
255 86 194 
127 127 255 
122 122 255 
118 101 255 
212 212 255 
255 255 255 
255 255 255 
255 234 238 
255 255 255 
255 170 255 
255 255 255 
255 255 255 
255 239 239 
255 255 255 
255 255 255 
255 255 255 
109 94 162 
255 255 255 
255 190 255 
205 205 255 
255 225 255 
255 118 125 
255 220 223 
255 255 255 
255 255 255 
255 81 102 
255 255 255 
255 144 255 
255 255 255 
255 255 255 
255 229 255 
255 196 196 
255 207 255 
255 255 255 
255 255 255 
255 255 255 
255 255 255 
255 206 255 
255 190 255 
255 160 160 
255 255 255 
255 194 255 
209 184 255 
255 184 255 
255 255 255 
255 217 243 
255 246 255 
255 255 255 
255 208 255 
255 202 255 
255 128 255 
255 255 255 
255 255 255 
255 255 255 
255 79 238 
255 255 255 
255 134 255 
255 120 120 
196 87 123 
255 159 255 
210 93 93 
255 74 74 
255 131 131 
255 89 108 
189 84 135 
255 127 225 
255 70 94 
255 81 134 
255 255 255 
241 80 91 
255 86 255 
255 112 112 
128 56 56 
204 70 70 
194 86 86 
242 107 205 
255 76 255 
252 95 117 
254 112 112 
238 78 79 
255 240 255 
194 86 86 
190 84 118 
193 85 85 
255 95 95 
154 68 68 
154 68 68 
128 56 56 
178 78 133 
128 56 56 
255 81 131 
128 56 255 
187 82 103 
154 68 68 
175 77 77 
175 77 77 
190 61 84 
255 101 101 
255 110 144 
138 56 65 
194 86 86 
255 105 181 
236 104 188 
0 0 0 
128 56 56 
128 56 56 
194 86 86 
154 68 68 
153 67 67 
158 60 90 
255 78 236 
210 93 93 
93 41 41 
93 41 41 
115 51 109 
44 19 63 
226 45 104 
0 0 0 
107 47 152 
44 19 63 
0 0 0 
255 113 255 
130 50 104 
93 41 41 
160 66 131 
121 36 115 
226 96 210 
57 3 36 
111 45 124 
98 41 148 
73 32 103 
44 19 63 
126 56 180 
70 27 112 
255 71 255 
205 97 255 
95 95 255 
255 72 255 
160 120 255 
255 255 255 
223 98 255 
209 190 255 
149 68 255 
144 61 255 
122 81 255 
218 153 255 
35 32 255 
195 90 255 
102 62 255 
217 47 255 
255 79 255 
110 85 255 
255 92 255 
80 63 255 
255 95 255 
104 49 255 
87 46 255 
78 76 255 
93 84 255 
58 44 234 
70 67 255 
81 77 255 
255 80 135 
255 48 48 
255 58 80 
160 42 45 
255 70 108 
255 80 121 
255 75 83 
255 55 255 
255 255 255 
255 110 188 
255 104 255 
255 59 185 
255 90 90 
165 64 154 
94 48 108 
255 74 255 
174 51 146 
161 98 224 
205 65 147 
132 41 92 
101 61 139 
144 80 182 
181 67 151 
120 53 164 
157 137 255 
0 0 0 
41 41 93 
30 9 68 
0 0 0 
73 45 101 
113 63 167 
255 86 205 
82 78 185 
106 87 205 
255 57 255 
156 61 138 
56 56 128 
255 149 255 
63 19 44 
255 63 255 
255 69 255 
103 32 73 
125 82 187 
255 169 255 
90 70 158 
112 112 254 
100 100 226 
255 132 255 
51 51 248 
82 59 133 
77 77 175 
73 45 101 
255 140 255 
255 109 255 
68 68 154 
109 94 213 
190 120 255 
111 107 255 
82 82 255 
93 93 211 
106 106 241 
77 77 175 
86 86 194 
99 70 161 
86 86 194 
83 83 255 
151 115 255 
86 86 194 
101 101 255 
106 106 241 
121 113 255 
95 95 248 
41 41 93 
41 41 93 
135 84 189 
176 118 255 
166 138 255 
234 127 255 
77 77 175 
217 137 255 
255 151 255 
164 164 255 
152 100 255 
61 61 228 
255 179 255 
158 158 255 
93 93 210 
134 120 255 
95 95 248 
197 103 255 
125 102 254 
79 79 220 
180 124 255 
122 122 255 
181 84 255 
117 117 255 
80 80 255 
105 105 255 
139 136 255 
154 114 255 
255 255 255 
255 255 255 
255 251 255 
255 255 255 
255 255 255 
255 255 255 
255 255 255 
255 255 255 
255 255 255 
255 255 255 
255 233 248 
255 255 255 
255 232 255 
255 177 212 
255 220 255 
255 255 255 
255 255 255 
255 255 255 
255 255 255 
255 255 255 
255 255 255 
255 255 255 
255 232 255 
255 255 255 
255 255 255 
255 255 255 
255 208 211 
160 160 160 
255 255 255 
255 234 255 
255 225 255 
255 255 255 
255 255 255 
255 255 255 
255 255 255 
255 255 255 
174 174 245 
255 248 248 
255 255 255 
255 147 208 
255 252 255 
255 193 255 
123 123 171 
187 145 145 
255 183 255 
255 132 167 
255 107 255 
255 101 186 
228 61 61 
255 255 255 
255 109 214 
145 58 126 
255 199 216 
255 101 101 
255 119 131 
255 145 255 
234 61 86 
255 192 255 
157 69 128 
237 89 124 
195 59 65 
255 168 183 
186 49 82 
255 139 223 
255 77 112 
242 92 111 
234 87 87 
186 59 59 
255 255 255 
154 68 68 
194 86 255 
255 65 116 
220 97 115 
255 88 108 
162 68 75 
93 41 41 
255 71 71 
154 68 68 
154 68 68 
167 74 97 
235 89 104 
211 93 93 
255 75 75 
154 68 68 
194 86 86 
115 51 82 
93 41 41 
128 56 56 
154 68 68 
178 78 133 
175 77 77 
255 65 154 
167 74 97 
211 93 93 
255 101 101 
255 96 255 
234 100 236 
255 140 140 
133 59 82 
115 51 109 
128 56 56 
226 100 100 
93 41 41 
154 68 68 
128 56 56 
255 80 135 
175 77 255 
255 56 70 
154 68 68 
202 77 144 
133 59 82 
93 41 41 
44 19 63 
167 59 130 
108 48 94 
134 5 41 
255 67 255 
153 67 67 
255 65 65 
101 45 73 
93 41 41 
93 41 41 
83 37 119 
61 27 87 
135 31 100 
80 33 125 
119 52 169 
224 49 193 
255 115 255 
162 150 255 
156 42 184 
143 138 255 
255 107 255 
78 44 255 
255 115 255 
144 118 255 
98 29 255 
97 61 255 
29 5 191 
19 19 202 
129 46 255 
87 70 255 
255 68 255 
52 43 200 
63 46 255 
64 41 255 
39 35 142 
56 20 255 
50 32 255 
49 47 185 
68 38 255 
157 67 255 
52 52 167 
175 67 255 
255 120 255 
59 57 201 
255 61 179 
255 91 113 
255 72 77 
255 59 120 
255 36 109 
255 61 175 
223 64 66 
255 61 83 
152 47 104 
255 85 87 
255 101 101 
255 118 131 
118 36 83 
112 80 182 
218 111 255 
144 77 175 
255 70 158 
73 45 101 
115 63 144 
0 0 0 
210 74 169 
124 53 121 
245 7 85 
121 107 243 
183 62 142 
255 74 255 
141 46 115 
114 70 161 
173 65 147 
135 83 217 
77 77 175 
176 131 255 
82 59 133 
135 56 127 
108 92 255 
82 59 133 
116 63 144 
113 98 255 
128 102 232 
56 56 128 
56 56 128 
255 93 255 
128 103 255 
56 56 128 
143 132 255 
68 68 154 
82 59 133 
176 117 255 
82 59 133 
73 68 165 
112 112 254 
41 41 93 
41 41 93 
112 112 254 
86 86 194 
255 149 255 
80 80 255 
194 119 255 
150 93 210 
56 56 128 
106 106 240 
56 56 128 
255 64 255 
41 41 93 
79 79 220 
148 148 255 
97 79 179 
165 95 255 
77 77 175 
90 70 158 
77 77 175 
86 86 194 
93 93 210 
77 77 175 
68 68 154 
86 86 194 
100 100 226 
131 131 255 
65 59 195 
148 115 255 
180 119 255 
95 95 248 
183 91 255 
153 97 255 
255 99 255 
93 93 211 
93 93 210 
77 77 175 
93 93 211 
95 95 248 
101 101 255 
118 118 255 
144 75 255 
128 128 255 
110 110 255 
68 64 255 
144 110 248 
98 98 255 
208 103 251 
100 100 255 
223 223 255 
255 225 253 
255 195 232 
255 255 255 
255 235 255 
255 234 234 
255 237 255 
255 255 255 
255 255 255 
207 207 207 
255 255 255 
255 234 255 
255 255 255 
208 208 208 
255 255 255 
255 221 255 
208 208 255 
255 255 255 
255 255 255 
255 255 255 
255 255 255 
255 255 255 
255 255 255 
255 255 255 
255 255 255 
255 255 255 
255 255 255 
255 255 255 
255 97 97 
255 255 255 
255 255 255 
255 255 255 
255 255 255 
255 255 255 
255 255 255 
160 160 160 
255 255 255 
255 255 255 
255 255 255 
255 255 255 
255 255 255 
102 32 102 
255 252 255 
255 255 255 
255 131 131 
255 124 173 
255 148 255 
255 87 95 
255 111 152 
255 86 86 
255 79 101 
255 60 129 
255 119 136 
111 15 49 
255 127 135 
218 93 96 
255 71 71 
255 87 88 
255 118 133 
255 255 255 
255 105 255 
203 90 109 
255 96 155 
255 126 126 
255 43 43 
255 78 89 
255 81 81 
255 90 90 
165 58 73 
255 52 197 
255 78 131 
187 82 103 
255 61 88 
154 68 68 
255 84 90 
246 80 140 
255 83 83 
128 56 56 
255 76 135 
166 45 45 
190 77 84 
93 41 41 
255 115 130 
240 106 106 
229 101 115 
234 87 87 
255 63 63 
128 56 56 
255 57 121 
210 93 93 
255 140 140 
177 61 78 
182 80 255 
255 101 187 
93 41 41 
106 47 255 
154 68 68 
93 41 41 
163 72 107 
255 126 126 
193 85 85 
144 63 115 
144 63 115 
255 53 53 
216 93 98 
112 42 49 
166 45 45 
93 41 41 
174 77 77 
255 94 165 
0 0 0 
61 27 87 
167 74 120 
115 51 109 
158 70 90 
108 48 255 
255 237 243 
73 32 103 
61 27 87 
255 5 18 
101 45 73 
70 27 112 
131 58 215 
56 20 96 
138 61 255 
85 25 169 
97 33 107 
61 27 87 
124 22 195 
255 112 255 
255 70 255 
41 41 133 
255 160 255 
80 72 255 
96 74 255 
173 27 124 
57 53 255 
122 85 255 
77 60 255 
255 255 255 
43 41 255 
216 85 255 
41 41 132 
125 65 226 
72 52 255 
73 64 255 
87 60 239 
58 46 255 
65 60 255 
66 30 99 
34 34 110 
101 56 255 
254 30 213 
86 54 247 
126 41 255 
255 162 255 
255 107 164 
255 69 93 
255 67 106 
255 40 107 
255 43 52 
255 96 231 
255 110 125 
255 94 97 
255 154 255 
255 57 63 
255 119 255 
94 48 108 
110 51 115 
255 38 192 
186 89 204 
94 48 108 
117 70 175 
255 35 104 
255 77 174 
122 63 178 
82 59 133 
96 60 216 
233 78 255 
183 67 163 
41 41 93 
63 19 44 
94 48 108 
255 87 242 
56 56 128 
254 75 170 
176 87 196 
41 41 93 
144 144 255 
41 41 93 
131 71 255 
109 59 137 
255 111 255 
122 82 248 
186 98 255 
86 86 194 
93 93 211 
97 79 179 
167 58 144 
108 93 227 
86 86 194 
119 116 255 
255 118 255 
97 79 179 
91 72 207 
85 85 193 
103 94 233 
86 86 194 
189 104 236 
68 68 154 
100 100 226 
96 87 218 
179 83 255 
255 255 255 
156 117 255 
67 67 153 
56 56 128 
255 139 255 
255 255 255 
93 93 211 
202 96 216 
143 132 255 
191 108 255 
100 100 226 
161 106 255 
97 79 179 
56 56 128 
135 97 219 
95 95 248 
185 96 255 
119 106 255 
108 80 245 
56 56 128 
77 77 175 
123 78 255 
109 106 247 
96 96 255 
126 82 255 
106 106 241 
68 68 154 
93 86 230 
101 101 255 
132 130 255 
118 118 255 
89 89 255 
101 101 255 
187 187 255 
106 106 241 
159 97 255 
116 93 216 
95 95 248 
167 99 225 
114 114 255 
116 116 255 
97 97 255 
87 87 255 
138 134 255 
255 209 225 
255 255 255 
255 255 255 
255 152 255 
255 255 255 
169 161 169 
255 157 157 
255 255 255 
255 255 255 
255 255 255 
255 217 217 
255 241 255 
193 193 193 
255 255 255 
255 255 255 
255 255 255 
255 235 255 
255 255 255 
255 255 255 
255 255 255 
255 173 255 
255 247 247 
255 255 255 
255 255 255 
255 204 255 
255 255 255 
255 255 255 
255 255 255 
255 228 255 
255 255 255 
255 255 255 
255 189 255 
255 255 255 
255 255 255 
255 212 255 
255 255 255 
255 255 255 
161 161 161 
255 194 255 
255 255 255 
255 255 255 
255 255 255 
255 255 255 
255 255 255 
255 135 255 
255 188 218 
255 193 234 
255 97 192 
255 153 164 
210 93 93 
255 141 141 
255 160 255 
255 234 255 
255 174 174 
115 51 82 
212 60 255 
255 123 160 
189 59 196 
0 0 0 
255 88 154 
175 77 77 
238 69 127 
227 79 83 
255 146 225 
255 67 67 
255 83 83 
154 68 68 
154 68 68 
154 68 68 
255 106 106 
226 100 100 
255 105 122 
186 59 59 
212 90 112 
255 93 117 
165 68 73 
154 68 68 
93 41 41 
165 58 73 
149 66 107 
154 68 68 
0 0 0 
154 68 68 
175 77 77 
155 59 192 
128 56 56 
93 41 41 
175 77 77 
175 77 77 
255 124 171 
154 68 68 
246 80 93 
128 56 56 
194 86 86 
154 68 68 
175 77 77 
0 0 0 
133 59 82 
255 112 125 
210 93 93 
133 59 82 
205 80 106 
131 58 123 
133 59 82 
128 56 56 
133 59 82 
93 41 41 
255 72 161 
158 41 70 
255 74 74 
128 56 56 
98 43 162 
255 68 68 
101 45 73 
119 45 78 
101 45 73 
101 45 73 
107 41 53 
74 22 105 
231 57 255 
83 36 118 
44 19 63 
111 15 49 
255 41 255 
204 70 220 
61 27 87 
255 92 223 
73 32 104 
87 59 191 
236 77 255 
104 47 255 
120 87 255 
255 255 255 
131 38 241 
38 38 224 
88 87 255 
45 45 255 
59 57 201 
106 56 255 
89 59 255 
79 45 147 
114 35 255 
41 41 133 
255 60 255 
63 54 255 
44 25 255 
235 235 255 
28 21 219 
255 182 255 
70 38 124 
54 54 255 
86 86 255 
154 154 255 
255 143 255 
79 75 255 
255 255 255 
158 49 68 
255 59 83 
255 74 176 
171 53 148 
255 87 124 
255 84 100 
255 125 174 
255 88 89 
255 77 255 
255 200 255 
146 63 142 
137 37 255 
172 54 142 
222 70 193 
115 63 144 
142 91 206 
200 91 206 
255 94 214 
255 74 167 
234 103 248 
140 103 234 
102 45 106 
0 0 0 
73 45 101 
73 45 101 
198 94 213 
85 85 193 
255 95 251 
148 82 255 
41 41 93 
144 110 248 
80 77 190 
41 41 93 
255 95 216 
97 79 179 
90 70 158 
41 41 93 
41 41 93 
199 91 205 
68 68 154 
115 63 144 
56 56 128 
139 91 207 
82 78 255 
109 51 115 
118 36 83 
97 79 179 
114 100 255 
77 77 175 
77 77 175 
97 79 179 
82 59 133 
82 78 185 
93 93 211 
41 41 93 
223 187 255 
90 90 255 
68 68 154 
70 70 204 
255 161 255 
240 118 255 
137 67 225 
41 41 93 
68 68 154 
87 87 234 
68 68 154 
100 100 226 
93 93 211 
56 56 128 
120 74 167 
118 118 255 
70 70 204 
62 43 141 
131 92 242 
77 77 175 
73 45 101 
100 100 226 
100 100 226 
167 167 255 
109 101 247 
89 78 202 
93 93 211 
118 69 255 
133 94 255 
100 100 226 
104 104 255 
86 86 194 
255 118 255 
136 136 255 
68 68 154 
152 111 255 
56 56 128 
163 126 255 
91 91 255 
69 69 255 
83 83 255 
108 88 255 
82 82 255 
70 70 204 
255 175 255 
87 87 234 
255 255 255 
255 255 255 
240 132 132 
255 255 255 
243 243 243 
255 255 255 
255 227 255 
255 179 255 
255 255 255 
255 255 255 
255 255 255 
255 255 255 
255 255 255 
255 255 255 
255 255 255 
255 255 255 
255 255 255 
255 255 255 
215 215 255 
255 203 250 
255 255 255 
255 255 255 
255 255 255 
255 255 255 
255 255 255 
255 147 147 
187 146 146 
255 100 255 
255 173 173 
255 255 255 
255 255 255 
255 255 255 
255 255 255 
255 255 255 
255 255 255 
255 255 255 
255 255 255 
255 255 255 
255 242 255 
255 255 255 
255 169 169 
255 255 255 
255 70 104 
255 93 225 
255 125 139 
255 136 164 
255 255 255 
255 197 219 
255 100 255 
221 88 140 
175 77 77 
255 82 103 
255 106 172 
255 33 75 
255 160 255 
167 74 97 
178 78 133 
255 93 112 
255 125 173 
255 107 107 
244 93 140 
255 88 149 
255 131 131 
255 100 109 
255 77 202 
255 81 81 
255 96 186 
93 41 41 
128 56 56 
167 74 97 
255 144 144 
255 85 159 
167 74 120 
255 85 85 
255 117 131 
248 110 126 
154 68 68 
242 72 72 
255 132 145 
255 86 118 
128 56 56 
192 85 206 
255 122 134 
255 105 228 
154 68 68 
115 51 109 
154 68 68 
194 86 86 
96 41 116 
194 86 86 
185 69 81 
255 127 138 
154 68 68 
203 86 90 
154 68 68 
211 93 93 
93 41 41 
0 0 0 
144 63 115 
178 78 105 
147 59 86 
147 65 173 
44 19 63 
0 0 0 
0 0 0 
162 45 91 
128 56 56 
211 93 93 
0 0 0 
44 19 63 
158 10 93 
0 0 0 
37 7 76 
255 53 90 
57 3 36 
176 60 154 
0 0 0 
200 78 147 
79 21 68 
111 35 186 
144 54 205 
68 9 30 
107 47 153 
83 36 118 
125 48 255 
255 16 144 
255 144 255 
255 188 255 
111 42 214 
39 39 244 
149 81 255 
151 91 255 
255 176 255 
103 55 255 
188 80 255 
136 87 255 
255 88 255 
84 64 255 
176 89 255 
213 79 255 
0 0 0 
45 42 160 
251 251 255 
255 95 255 
70 70 226 
57 39 255 
64 35 157 
164 58 255 
255 238 255 
154 72 255 
111 58 212 
255 78 255 
183 180 255 
72 68 255 
255 94 100 
255 90 255 
255 83 88 
255 68 78 
255 47 47 
163 50 109 
255 74 209 
255 148 234 
255 183 186 
147 45 79 
255 33 148 
107 72 163 
171 61 142 
255 87 255 
87 27 61 
137 50 255 
95 20 67 
73 45 101 
229 77 255 
105 50 255 
101 61 139 
86 46 146 
82 59 133 
0 0 0 
132 81 186 
99 69 159 
160 71 162 
255 65 233 
255 79 184 
73 45 101 
93 93 210 
73 45 101 
77 77 174 
255 78 192 
0 0 0 
146 77 254 
41 41 93 
56 56 128 
102 71 231 
139 69 163 
255 65 159 
133 75 171 
73 45 101 
93 93 211 
133 133 255 
68 68 154 
84 41 105 
158 60 255 
220 77 255 
77 77 175 
100 100 226 
160 94 213 
73 45 101 
91 91 255 
101 85 228 
73 45 101 
106 106 241 
106 106 240 
41 41 93 
86 86 194 
77 77 175 
90 86 203 
75 69 255 
101 101 255 
136 136 255 
86 86 194 
56 56 128 
201 201 255 
202 98 222 
255 79 179 
68 68 154 
56 56 128 
107 107 255 
85 85 193 
85 85 193 
86 86 194 
68 68 154 
95 95 248 
255 100 227 
68 68 154 
96 87 218 
93 93 211 
136 136 255 
180 114 255 
255 132 255 
89 78 201 
88 86 251 
214 125 255 
86 86 194 
125 82 187 
95 95 248 
101 101 255 
156 126 255 
77 77 255 
153 136 255 
106 106 241 
144 118 255 
139 91 207 
149 149 255 
237 228 255 
255 255 255 
194 141 255 
255 144 255 
255 176 255 
255 255 255 
255 179 200 
160 160 160 
255 210 255 
255 255 255 
255 255 255 
255 255 255 
255 201 201 
255 255 255 
140 140 140 
255 255 255 
132 41 41 
255 255 255 
255 255 255 
255 255 255 
180 178 231 
255 255 255 
255 255 255 
255 255 255 
255 255 255 
255 255 255 
255 247 255 
255 255 255 
235 235 255 
255 232 232 
255 255 255 
255 244 255 
191 5 29 
255 245 255 
255 255 255 
255 255 255 
255 255 255 
255 255 255 
255 255 255 
255 255 255 
255 255 255 
255 208 255 
255 255 255 
255 255 255 
255 145 255 
255 196 255 
255 92 145 
180 55 170 
255 113 214 
255 79 161 
255 253 255 
196 27 27 
175 77 77 
227 100 226 
255 134 185 
189 84 135 
188 60 124 
177 74 100 
255 82 173 
255 68 192 
255 99 186 
255 162 255 
194 86 86 
166 45 45 
144 63 90 
241 88 91 
255 83 255 
255 95 155 
255 63 63 
128 56 56 
93 41 41 
226 100 100 
255 168 168 
128 56 56 
93 41 41 
255 74 74 
166 45 45 
255 92 92 
166 45 45 
255 7 53 
175 77 77 
194 86 86 
175 77 77 
255 78 195 
101 45 73 
255 108 118 
143 19 19 
211 93 93 
187 82 103 
128 56 56 
93 41 41 
255 74 175 
93 41 41 
165 58 73 
93 41 41 
255 80 124 
128 56 56 
255 113 255 
128 56 56 
255 67 255 
133 59 82 
115 51 109 
133 59 82 
255 255 255 
158 70 90 
128 56 56 
93 41 41 
189 83 179 
101 45 73 
73 32 103 
44 19 63 
133 59 82 
0 0 0 
44 19 63 
174 77 77 
44 19 63 
115 51 109 
44 19 63 
174 77 77 
93 41 41 
27 12 255 
147 65 173 
255 190 255 
182 25 80 
44 19 63 
84 29 147 
83 37 119 
115 32 217 
179 68 79 
69 27 179 
255 122 255 
255 148 255 
255 149 255 
103 78 255 
186 79 255 
128 55 255 
55 36 246 
79 72 255 
163 58 227 
104 53 212 
50 47 174 
58 53 207 
65 49 255 
94 57 255 
81 64 255 
84 32 255 
117 111 255 
89 63 255 
240 52 255 
42 27 151 
25 25 80 
160 87 255 
66 66 255 
134 67 255 
150 65 255 
126 96 255 
135 86 255 
246 43 60 
255 86 156 
222 53 69 
255 67 103 
255 88 128 
255 64 95 
255 71 88 
255 80 106 
255 83 162 
63 19 44 
255 96 225 
103 32 73 
164 21 84 
112 80 182 
255 47 200 
97 79 179 
187 65 230 
179 62 171 
68 68 154 
93 60 169 
202 109 255 
142 13 70 
68 68 154 
82 59 133 
122 94 255 
255 72 191 
104 87 198 
123 53 121 
68 68 154 
208 68 154 
56 56 128 
68 68 154 
56 56 128 
87 27 61 
255 70 162 
56 56 128 
86 86 194 
195 86 196 
81 69 185 
103 87 197 
118 52 155 
86 59 147 
0 0 0 
77 77 175 
160 80 205 
56 56 128 
159 159 255 
56 56 128 
107 86 255 
97 79 179 
56 56 128 
56 56 128 
90 69 157 
77 77 175 
87 87 234 
103 32 73 
140 86 195 
125 82 187 
104 87 198 
77 77 175 
41 41 93 
68 68 154 
86 59 147 
68 68 154 
45 45 166 
106 106 241 
115 101 229 
68 68 154 
93 93 211 
106 106 241 
112 112 253 
77 77 175 
93 93 211 
56 56 128 
86 86 194 
86 86 194 
117 117 255 
86 86 194 
255 106 241 
74 74 255 
82 82 255 
117 117 255 
116 65 196 
149 116 255 
75 75 255 
90 63 144 
74 74 255 
100 100 226 
255 144 255 
102 102 255 
79 79 220 
153 132 255 
43 43 255 
204 148 255 
144 144 255 
148 109 255 
255 162 255 
112 112 254 
95 95 248 
189 104 236 
86 86 194 
157 99 255 
77 77 175 
228 106 106 
255 255 255 
255 174 255 
255 255 255 
255 249 255 
255 184 228 
121 121 255 
255 174 174 
255 255 255 
163 135 247 
255 255 255 
255 255 255 
255 215 255 
255 226 255 
255 255 255 
191 141 255 
255 252 255 
230 111 164 
255 255 255 
255 166 255 
255 255 255 
255 180 180 
255 177 253 
255 255 255 
255 255 255 
178 178 178 
255 255 255 
255 255 255 
255 111 111 
255 255 255 
255 255 255 
255 255 255 
255 255 255 
255 255 255 
255 255 255 
118 118 118 
255 196 255 
255 255 255 
255 255 255 
255 255 255 
255 255 255 
255 110 110 
255 112 120 
255 100 117 
255 79 118 
255 61 120 
255 149 227 
255 122 199 
241 98 119 
255 84 104 
222 56 85 
255 74 74 
255 68 213 
214 94 128 
144 63 90 
255 122 247 
215 95 193 
255 91 153 
144 63 90 
255 111 255 
255 87 94 
255 109 228 
233 65 191 
128 56 56 
172 20 106 
255 74 74 
250 110 110 
255 91 152 
167 74 97 
255 88 165 
93 41 41 
211 60 74 
254 88 98 
255 198 249 
175 77 77 
154 68 68 
175 77 77 
170 75 130 
128 56 56 
128 56 56 
128 56 56 
120 53 120 
253 112 255 
93 41 41 
128 56 56 
255 63 63 
154 68 68 
206 87 97 
255 127 138 
162 71 193 
255 97 97 
0 0 0 
162 71 193 
255 121 121 
0 0 0 
170 75 133 
255 65 65 
93 41 41 
234 32 32 
120 41 47 
197 87 103 
154 68 68 
101 45 73 
198 87 255 
255 55 74 
163 67 255 
128 56 56 
44 19 63 
108 48 94 
174 77 77 
44 19 63 
255 53 201 
124 30 97 
92 40 131 
125 55 178 
93 41 41 
133 47 255 
34 15 158 
96 20 101 
112 49 180 
125 38 217 
255 48 124 
233 73 117 
111 41 133 
98 41 148 
79 15 49 
142 129 255 
0 0 0 
108 84 255 
255 182 255 
157 72 255 
134 47 255 
248 72 255 
255 153 255 
52 52 167 
34 34 110 
233 39 255 
255 255 255 
255 135 255 
255 255 255 
55 52 188 
255 255 255 
65 35 255 
70 54 255 
41 41 133 
45 42 160 
93 44 255 
134 56 255 
88 60 255 
59 59 255 
62 57 218 
60 60 194 
124 59 222 
255 98 255 
255 181 184 
255 44 68 
255 89 147 
255 54 103 
80 25 25 
255 107 122 
255 168 181 
119 28 75 
255 78 255 
103 79 197 
120 74 167 
99 31 186 
255 49 121 
245 76 255 
116 63 255 
255 28 118 
123 53 121 
98 41 97 
135 56 127 
41 41 93 
73 45 101 
255 143 255 
73 58 146 
56 56 128 
41 41 93 
197 98 224 
186 58 131 
116 116 255 
41 41 93 
255 65 255 
68 68 154 
56 56 128 
94 60 151 
41 41 93 
68 68 154 
97 79 179 
56 56 128 
165 72 207 
68 68 154 
144 77 175 
120 74 167 
175 139 255 
0 0 0 
68 68 154 
73 45 101 
68 68 154 
123 96 217 
68 68 154 
199 94 213 
77 77 175 
56 56 128 
90 70 158 
41 41 93 
93 93 211 
68 68 154 
255 71 161 
93 74 245 
68 68 154 
82 82 255 
65 65 255 
146 72 244 
100 83 255 
106 106 241 
68 68 154 
68 68 154 
90 70 158 
68 68 154 
77 77 175 
139 91 207 
127 127 255 
106 106 241 
77 77 175 
179 147 255 
183 92 244 
116 116 255 
79 79 220 
254 121 255 
193 72 255 
222 104 255 
101 101 255 
196 196 255 
216 126 255 
100 100 226 
94 83 255 
123 123 255 
125 93 255 
82 82 255 
82 82 255 
41 41 93 
255 119 255 
140 140 255 
77 77 175 
93 93 211 
93 93 211 
107 96 255 
109 95 255 
98 94 234 
255 123 255 
201 165 255 
154 112 255 
90 90 255 
185 98 221 
255 240 255 
255 255 255 
255 255 255 
255 255 255 
255 255 255 
255 255 255 
255 255 255 
255 255 255 
255 255 255 
255 139 139 
255 209 255 
255 255 255 
255 255 255 
255 109 212 
255 255 255 
255 254 255 
142 142 142 
245 178 255 
255 255 255 
255 255 255 
255 255 255 
193 193 193 
255 255 255 
255 255 255 
255 255 255 
255 255 255 
255 228 255 
255 255 255 
232 232 232 
255 166 252 
255 255 255 
255 255 255 
255 255 255 
255 235 251 
255 255 255 
118 118 118 
255 255 255 
255 255 255 
149 142 255 
255 255 255 
255 255 255 
255 233 255 
255 153 154 
255 156 255 
255 179 255 
255 98 255 
255 88 141 
255 114 253 
166 45 45 
236 104 212 
255 106 188 
166 45 45 
255 81 147 
204 63 241 
255 94 112 
255 161 161 
255 146 255 
255 89 255 
255 124 213 
255 68 100 
98 43 118 
194 78 86 
255 98 168 
186 59 59 
255 126 126 
255 163 255 
255 58 58 
128 56 56 
93 41 41 
234 87 87 
204 70 70 
154 68 68 
128 56 56 
255 77 112 
186 59 59 
128 56 56 
187 82 103 
251 86 142 
161 71 157 
0 0 0 
255 63 63 
206 71 129 
133 59 82 
93 41 41 
128 56 56 
155 69 255 
144 63 90 
179 79 97 
0 0 0 
133 59 82 
255 99 224 
93 41 41 
255 58 58 
255 91 181 
154 68 68 
0 0 0 
133 59 82 
112 42 49 
141 43 62 
155 68 128 
128 56 255 
93 41 41 
163 42 255 
189 83 179 
255 48 84 
231 71 102 
255 141 255 
101 45 73 
255 52 52 
61 27 87 
0 0 0 
44 19 63 
93 41 41 
100 44 142 
196 85 111 
73 32 255 
121 53 123 
255 62 201 
0 0 0 
189 73 123 
255 41 134 
61 27 87 
136 46 255 
223 53 255 
101 19 204 
120 43 229 
133 43 255 
255 120 255 
188 72 255 
255 138 255 
170 121 255 
107 104 255 
255 127 255 
120 117 255 
69 64 255 
82 82 255 
45 45 255 
255 54 255 
80 51 202 
76 51 255 
172 62 255 
231 79 255 
227 106 255 
101 93 255 
68 47 255 
58 53 207 
109 44 211 
34 34 110 
83 80 255 
59 45 144 
63 61 213 
110 69 255 
119 119 255 
255 94 95 
255 47 96 
255 78 144 
255 78 78 
255 39 255 
255 97 114 
255 21 162 
150 46 46 
163 46 128 
106 33 182 
78 45 119 
112 88 208 
197 71 161 
63 19 44 
0 0 0 
38 12 198 
103 32 73 
126 112 255 
255 89 237 
73 45 101 
151 30 202 
73 45 101 
60 41 255 
101 61 139 
116 63 144 
0 0 0 
82 59 133 
109 51 115 
107 72 163 
125 82 186 
173 65 147 
78 45 119 
41 41 93 
91 91 255 
41 41 93 
73 45 101 
255 167 255 
41 41 93 
101 61 139 
173 65 147 
0 0 0 
182 91 206 
68 68 154 
104 68 255 
137 84 190 
56 56 128 
85 85 193 
56 56 128 
81 69 185 
255 186 255 
0 0 0 
109 80 212 
68 68 154 
90 70 158 
107 96 255 
158 129 255 
90 70 158 
68 68 154 
77 77 175 
97 79 179 
68 68 154 
196 129 255 
93 93 211 
118 52 155 
68 68 154 
103 94 221 
77 77 175 
255 82 255 
41 41 93 
202 130 255 
107 98 255 
86 86 194 
93 93 211 
118 118 255 
68 68 154 
100 100 226 
115 63 144 
77 77 175 
122 77 250 
56 56 128 
140 92 255 
87 86 252 
90 63 255 
95 95 248 
86 86 194 
100 100 226 
191 149 255 
100 100 226 
110 110 255 
93 93 211 
212 125 255 
119 119 255 
136 136 255 
100 100 226 
255 188 255 
77 77 175 
77 77 175 
168 99 255 
255 210 255 
113 113 255 
90 90 255 
158 147 255 
121 75 213 
107 107 255 
255 218 255 
255 255 255 
255 182 194 
255 255 255 
255 255 255 
255 111 163 
255 255 255 
255 236 242 
255 255 255 
255 193 193 
255 255 255 
255 255 255 
255 255 255 
255 200 218 
255 228 228 
255 255 255 
255 255 255 
220 187 255 
255 255 255 
255 255 255 
255 255 255 
255 255 255 
255 255 255 
255 181 255 
255 255 255 
255 255 255 
255 255 255 
255 255 255 
255 255 255 
179 179 255 
255 255 255 
255 255 255 
227 227 255 
140 140 140 
255 255 255 
255 255 255 
255 255 255 
255 159 255 
255 255 255 
255 255 255 
255 126 141 
255 161 202 
255 134 134 
255 119 122 
255 81 81 
255 107 255 
255 91 193 
255 255 255 
255 91 100 
255 114 117 
255 117 255 
35 15 112 
194 86 86 
115 51 82 
174 77 77 
255 99 117 
156 52 87 
255 98 255 
242 72 72 
128 56 56 
255 57 59 
255 78 78 
210 93 93 
93 41 41 
204 70 255 
249 82 128 
255 75 202 
175 77 77 
148 56 65 
255 68 106 
234 32 32 
255 75 75 
93 41 41 
173 50 255 
255 92 92 
0 0 0 
175 77 77 
144 63 90 
128 56 56 
174 77 77 
255 53 123 
35 15 112 
154 68 68 
137 60 255 
255 57 75 
255 121 121 
219 97 135 
158 59 209 
178 79 97 
211 80 93 
255 51 109 
93 41 41 
255 115 147 
141 43 62 
133 59 82 
255 105 209 
128 56 56 
0 0 0 
251 32 108 
73 32 103 
93 41 41 
128 56 56 
173 77 184 
238 57 141 
93 41 41 
0 0 0 
250 69 81 
170 75 133 
61 27 87 
183 63 113 
0 0 0 
68 9 30 
93 41 41 
255 165 165 
0 0 0 
76 31 255 
149 59 255 
0 0 0 
79 21 68 
107 44 223 
44 19 63 
255 73 255 
255 111 255 
44 19 63 
61 27 87 
155 47 188 
255 255 255 
255 107 255 
137 134 255 
77 71 255 
255 55 255 
111 33 255 
255 112 255 
76 39 127 
51 41 255 
53 48 255 
127 70 255 
91 71 255 
97 52 255 
69 69 255 
255 59 255 
255 119 255 
255 52 255 
255 120 255 
41 41 133 
37 34 128 
82 41 193 
56 56 181 
50 50 245 
130 74 255 
94 53 255 
43 39 240 
255 55 153 
255 87 87 
255 101 167 
255 56 79 
255 255 255 
255 63 65 
255 175 255 
88 42 255 
86 59 147 
255 62 172 
161 40 255 
41 41 93 
225 41 95 
0 0 0 
255 88 199 
210 74 169 
217 69 190 
142 44 100 
94 48 108 
131 55 141 
96 20 56 
41 41 93 
133 75 171 
115 63 144 
82 59 133 
73 45 101 
82 69 169 
103 32 73 
41 41 93 
123 53 255 
153 133 255 
194 187 255 
173 65 147 
62 43 141 
162 72 255 
162 43 98 
56 56 128 
56 56 128 
137 83 189 
56 56 128 
81 69 185 
255 187 255 
68 68 154 
68 68 154 
112 63 180 
56 56 128 
83 83 255 
97 79 179 
56 56 128 
68 68 154 
107 72 163 
68 68 154 
68 68 154 
89 86 255 
97 79 179 
41 41 93 
41 41 93 
68 68 154 
86 86 194 
97 79 179 
93 93 210 
56 56 128 
123 111 255 
255 255 255 
98 98 255 
91 91 255 
128 69 157 
77 77 175 
56 56 128 
132 132 255 
97 79 179 
77 77 174 
255 98 255 
106 106 241 
75 58 230 
77 77 175 
116 116 255 
229 107 255 
87 87 234 
255 112 254 
96 87 218 
135 97 220 
68 68 154 
255 126 255 
95 95 248 
93 93 211 
112 112 253 
85 85 193 
68 68 154 
179 68 228 
138 138 255 
130 115 255 
255 206 255 
146 123 255 
106 106 255 
138 138 255 
67 67 153 
168 76 226 
93 93 210 
77 77 175 
255 114 255 
120 96 241 
255 83 255 
79 79 220 
255 255 255 
255 222 255 
255 255 255 
255 255 255 
255 255 255 
255 255 255 
255 255 255 
255 226 255 
255 228 228 
255 255 255 
255 255 255 
255 216 244 
255 255 255 
255 255 255 
255 255 255 
232 232 232 
255 255 255 
255 255 255 
255 255 255 
255 255 255 
255 255 255 
255 255 255 
255 255 255 
255 178 178 
255 255 255 
255 128 255 
255 255 255 
255 199 255 
255 255 255 
211 152 211 
255 201 255 
255 255 255 
255 255 255 
255 232 232 
255 255 255 
255 245 245 
255 222 255 
255 255 255 
255 255 255 
187 145 145 
200 67 127 
199 67 126 
255 96 96 
255 75 255 
255 84 84 
255 114 255 
255 106 106 
255 84 100 
255 65 127 
255 88 161 
175 77 77 
0 0 0 
255 92 139 
255 75 255 
255 65 65 
255 115 255 
162 71 193 
128 56 56 
207 91 139 
255 93 238 
216 60 96 
255 125 229 
255 62 118 
213 94 199 
255 75 75 
255 74 74 
189 83 179 
255 79 80 
255 77 157 
211 93 93 
196 65 116 
182 80 196 
255 75 75 
73 32 73 
68 9 30 
128 56 56 
210 93 93 
177 61 78 
255 64 255 
120 53 120 
93 41 41 
156 68 116 
93 41 41 
185 59 207 
167 74 97 
73 32 73 
128 56 56 
93 41 41 
174 77 77 
193 85 85 
255 24 52 
128 56 56 
93 41 41 
189 83 179 
154 68 68 
128 56 56 
93 41 41 
255 80 102 
128 56 56 
0 0 0 
255 41 93 
210 93 93 
243 70 152 
73 32 103 
128 56 56 
110 33 156 
0 0 0 
0 0 0 
0 0 0 
0 0 0 
111 41 133 
44 19 63 
255 41 41 
0 0 0 
101 45 73 
247 73 128 
61 27 87 
44 19 63 
157 69 90 
54 24 168 
170 75 133 
255 88 255 
93 41 255 
120 53 171 
174 73 255 
61 27 87 
96 58 255 
162 86 255 
150 58 255 
167 74 255 
255 90 255 
173 66 254 
118 74 255 
255 101 255 
91 72 255 
56 56 182 
81 81 255 
47 37 188 
56 56 181 
41 28 174 
45 41 159 
95 47 231 
58 48 179 
61 53 224 
45 42 160 
44 25 107 
110 35 214 
81 35 203 
49 47 185 
49 37 255 
65 50 183 
85 65 248 
172 53 100 
255 61 255 
255 118 183 
170 53 63 
255 106 255 
255 71 185 
255 59 61 
255 35 81 
184 184 255 
63 19 44 
255 96 222 
94 48 108 
63 19 44 
63 19 44 
94 48 108 
126 24 55 
126 82 187 
162 94 214 
63 19 44 
73 45 101 
38 12 255 
123 53 121 
63 19 44 
0 0 0 
94 48 108 
82 59 133 
56 56 128 
94 48 108 
41 41 93 
68 68 154 
255 81 255 
94 48 108 
255 73 167 
65 63 255 
156 71 172 
63 19 44 
68 68 154 
77 77 175 
41 41 93 
56 56 128 
101 101 255 
77 77 175 
0 0 0 
56 56 128 
93 93 211 
68 21 255 
0 0 0 
106 106 255 
56 56 128 
91 91 255 
77 77 175 
68 68 154 
56 56 128 
100 100 226 
135 84 189 
77 77 175 
115 63 144 
68 68 154 
77 77 175 
86 86 194 
145 145 255 
70 70 204 
161 53 255 
86 86 194 
45 45 166 
110 95 214 
135 85 231 
135 84 189 
41 41 93 
93 93 211 
176 75 169 
123 123 255 
47 47 255 
77 77 175 
255 255 255 
67 67 153 
106 106 241 
86 86 194 
70 70 204 
80 80 255 
93 93 211 
41 41 93 
77 77 175 
255 255 255 
49 42 112 
255 191 255 
95 95 248 
56 56 128 
118 118 255 
122 122 255 
77 77 175 
106 106 241 
49 42 112 
151 59 186 
197 104 255 
87 87 234 
131 76 220 
56 56 128 
101 101 255 
58 56 160 
117 117 255 
224 131 255 
255 255 255 
93 93 210 
255 82 255 
255 255 255 
255 189 189 
255 255 255 
255 255 255 
255 100 157 
255 255 255 
255 181 215 
106 106 171 
255 255 255 
255 120 201 
255 255 255 
255 206 255 
255 255 255 
255 255 255 
255 255 255 
255 255 255 
255 255 255 
226 182 255 
255 210 255 
255 255 255 
255 255 255 
231 175 255 
255 245 255 
255 255 255 
255 255 255 
190 190 255 
255 246 255 
255 255 255 
255 255 255 
255 255 255 
255 255 255 
255 170 255 
255 255 255 
255 235 235 
255 255 255 
255 169 255 
255 255 255 
255 255 255 
254 254 254 
255 255 255 
255 255 255 
255 99 255 
255 63 255 
255 100 188 
255 65 255 
255 100 225 
255 81 191 
255 116 134 
255 67 67 
255 92 92 
255 65 78 
255 61 208 
255 87 184 
255 158 255 
219 79 79 
255 79 93 
255 165 255 
115 51 82 
100 41 255 
128 56 56 
167 74 97 
119 52 169 
255 125 251 
255 58 87 
255 75 75 
144 63 90 
255 140 140 
128 56 56 
133 59 255 
255 71 71 
166 45 45 
185 69 75 
255 83 83 
154 68 68 
167 74 97 
255 67 199 
255 71 255 
93 41 41 
204 70 70 
174 77 77 
115 51 82 
154 68 68 
128 56 56 
0 0 0 
174 77 77 
144 63 90 
144 63 90 
128 56 56 
73 32 103 
184 68 74 
128 56 56 
93 41 41 
133 59 82 
128 56 56 
255 68 141 
132 58 146 
128 56 56 
0 0 0 
73 32 103 
158 70 90 
142 57 62 
83 36 118 
93 41 41 
44 19 63 
174 77 77 
191 67 69 
182 25 80 
143 27 102 
131 52 255 
0 0 0 
83 36 118 
44 19 63 
0 0 0 
61 27 87 
0 0 0 
157 69 90 
92 33 157 
71 19 71 
56 20 96 
44 19 63 
255 156 255 
88 24 78 
182 25 255 
117 21 255 
188 53 255 
255 154 255 
138 53 255 
177 97 255 
255 141 255 
94 59 255 
205 106 255 
203 91 255 
62 56 255 
87 45 255 
85 85 255 
46 34 239 
76 54 253 
255 190 255 
120 66 238 
37 27 151 
43 36 168 
255 144 255 
25 25 80 
81 51 163 
68 62 243 
85 53 255 
145 62 235 
67 42 248 
45 41 159 
74 62 231 
66 66 255 
181 56 56 
255 74 123 
255 55 89 
255 69 105 
255 100 188 
255 59 59 
255 174 255 
0 0 0 
73 45 101 
105 69 255 
165 51 255 
178 109 255 
49 15 79 
135 56 127 
174 29 136 
255 65 255 
87 27 61 
41 41 93 
0 0 0 
217 67 255 
77 45 139 
0 0 0 
97 30 97 
41 41 93 
76 7 37 
56 56 128 
101 61 139 
0 0 0 
119 61 179 
63 19 44 
41 41 93 
41 41 93 
73 45 101 
230 71 255 
128 65 148 
63 19 44 
120 74 167 
41 41 93 
41 41 93 
68 68 154 
90 70 158 
77 77 175 
32 32 234 
68 68 154 
63 19 44 
78 45 119 
208 139 255 
255 78 255 
255 92 229 
77 77 175 
77 77 175 
68 68 154 
90 90 255 
120 74 167 
77 77 175 
73 44 255 
56 56 128 
106 106 241 
77 77 175 
116 68 184 
56 56 128 
116 116 255 
56 56 128 
68 68 154 
41 41 93 
109 107 255 
118 118 255 
73 45 101 
173 65 147 
56 56 128 
79 79 220 
77 77 175 
56 56 128 
182 91 206 
79 79 220 
116 116 255 
77 77 175 
115 101 229 
19 19 143 
100 100 226 
77 77 255 
70 70 204 
140 140 255 
117 112 255 
56 56 128 
255 255 255 
77 77 175 
62 43 141 
101 100 255 
93 93 211 
106 106 241 
110 110 250 
67 62 235 
231 75 190 
86 86 194 
151 151 255 
131 131 255 
93 93 210 
130 77 255 
61 61 228 
165 101 229 
255 106 241 
177 110 255 
79 79 220 
188 104 236 
255 255 255 
255 25 56 
255 255 255 
255 230 230 
255 255 255 
205 128 182 
255 195 246 
255 255 255 
255 255 255 
255 255 255 
255 215 255 
255 255 255 
255 255 255 
255 196 204 
255 255 255 
255 255 255 
255 155 255 
255 255 255 
255 255 255 
255 255 255 
255 255 255 
255 255 255 
255 255 255 
255 255 255 
255 255 255 
255 255 255 
255 255 255 
255 255 255 
140 140 140 
255 255 255 
255 255 255 
255 255 255 
255 255 255 
255 255 255 
255 255 255 
255 119 150 
255 255 255 
255 255 255 
255 255 255 
255 103 103 
166 45 255 
255 74 255 
255 60 60 
255 66 111 
228 61 61 
255 105 214 
255 105 237 
255 119 253 
255 25 25 
255 239 255 
255 109 222 
255 154 255 
196 27 27 
255 72 109 
255 66 111 
240 86 255 
154 68 68 
255 159 255 
0 0 0 
248 51 51 
93 41 41 
147 65 125 
189 83 179 
255 80 80 
227 67 104 
255 77 136 
166 45 45 
128 56 56 
93 41 41 
144 63 90 
186 59 59 
144 63 90 
0 0 0 
115 51 82 
166 45 45 
186 59 59 
105 46 171 
128 56 56 
115 51 109 
153 67 67 
154 68 68 
255 68 71 
128 56 56 
93 41 41 
128 56 56 
0 0 0 
234 32 32 
93 41 41 
144 63 115 
178 53 84 
128 56 56 
93 41 41 
93 41 41 
93 41 41 
255 57 57 
93 41 41 
56 25 255 
16 7 172 
0 0 0 
174 77 77 
157 69 90 
70 31 255 
197 87 103 
0 0 0 
93 41 41 
0 0 0 
157 61 208 
93 41 41 
44 19 63 
103 44 164 
67 20 95 
119 52 169 
0 0 0 
61 27 87 
153 67 67 
255 33 255 
73 32 104 
0 0 0 
44 19 63 
166 73 121 
61 27 87 
81 21 146 
61 27 87 
121 36 255 
255 113 255 
255 87 255 
82 34 255 
196 81 255 
255 255 255 
142 96 255 
255 255 255 
147 90 255 
154 62 255 
111 56 255 
126 79 255 
76 50 161 
192 34 255 
125 122 255 
92 88 255 
182 73 250 
115 112 255 
255 64 255 
96 48 255 
116 115 255 
63 61 212 
89 51 255 
48 42 192 
46 35 175 
0 0 0 
52 52 167 
158 28 92 
255 63 71 
255 64 74 
133 41 41 
255 157 255 
255 188 255 
255 58 255 
158 61 232 
118 36 83 
63 19 44 
104 32 73 
0 0 0 
87 27 61 
78 45 119 
204 53 131 
86 59 147 
228 63 255 
192 39 255 
117 48 113 
84 41 99 
98 41 97 
142 44 100 
94 48 108 
132 41 92 
82 59 133 
73 45 101 
221 92 208 
41 41 93 
154 60 137 
0 0 0 
73 68 165 
41 41 93 
41 41 93 
41 41 93 
143 126 255 
41 41 93 
41 41 93 
73 45 101 
56 56 128 
56 56 128 
56 56 128 
106 106 241 
90 70 158 
0 0 0 
85 85 193 
45 45 166 
73 44 255 
67 67 153 
73 45 101 
41 41 93 
82 82 255 
56 56 128 
182 91 206 
56 56 128 
68 68 154 
68 68 154 
41 41 93 
0 0 0 
255 75 255 
0 0 0 
142 78 192 
56 56 128 
56 56 128 
68 68 154 
86 86 194 
255 100 226 
93 93 210 
56 56 128 
83 83 255 
77 77 175 
68 68 154 
68 68 154 
88 73 255 
136 136 255 
86 86 215 
41 41 93 
68 68 154 
94 94 247 
105 90 255 
56 56 128 
86 86 194 
146 102 255 
41 41 93 
255 93 211 
82 59 255 
90 90 255 
56 56 128 
32 32 234 
106 106 239 
100 98 255 
158 56 136 
69 69 255 
56 56 128 
118 118 255 
255 160 255 
86 86 194 
90 63 144 
56 56 128 
56 56 128 
59 59 186 
132 132 255 
135 115 255 
41 41 93 
93 93 211 
97 97 255 
236 124 255 
255 255 255 
255 255 255 
255 191 202 
255 255 255 
255 255 255 
255 208 227 
255 255 255 
255 255 255 
255 255 255 
255 255 255 
255 255 255 
255 255 255 
255 117 255 
255 255 255 
255 255 255 
255 255 255 
255 255 255 
255 255 255 
255 255 255 
255 255 255 
255 255 255 
255 255 255 
255 255 255 
255 222 255 
255 255 255 
255 215 255 
255 195 226 
255 255 255 
255 255 255 
253 157 196 
255 255 255 
255 214 222 
255 255 255 
255 255 255 
255 112 171 
255 255 255 
255 255 255 
255 255 255 
255 232 234 
255 121 147 
255 74 79 
255 77 169 
255 135 135 
255 255 255 
255 129 255 
255 47 255 
255 235 255 
232 94 199 
146 24 113 
155 68 128 
234 32 32 
112 42 49 
255 16 159 
255 113 207 
183 77 87 
255 61 121 
174 77 77 
157 69 128 
224 85 147 
238 69 255 
255 55 55 
128 56 56 
194 86 86 
203 75 131 
154 68 68 
255 71 87 
128 56 56 
194 86 86 
234 41 47 
0 0 0 
154 68 68 
120 53 120 
255 120 158 
159 61 205 
154 68 255 
0 0 0 
93 41 41 
93 41 41 
128 56 56 
93 41 41 
93 41 41 
128 56 56 
98 43 118 
174 77 77 
93 41 41 
255 53 53 
143 19 19 
154 68 68 
0 0 0 
101 45 73 
133 59 82 
93 41 41 
93 41 41 
115 51 109 
174 77 77 
62 12 88 
128 56 56 
128 56 56 
153 67 67 
154 68 68 
0 0 0 
0 0 0 
93 41 41 
105 46 171 
129 41 70 
188 83 210 
44 19 63 
200 46 255 
147 65 125 
0 0 0 
255 86 255 
0 0 0 
76 33 255 
61 27 87 
89 28 90 
162 71 107 
93 41 41 
0 0 0 
61 27 87 
255 35 255 
73 32 103 
100 44 142 
44 19 63 
68 12 150 
140 4 121 
239 231 255 
224 142 255 
255 147 255 
138 137 255 
185 45 255 
255 69 255 
141 81 255 
127 125 255 
255 118 255 
255 238 255 
128 112 255 
45 41 159 
168 41 255 
255 70 255 
50 47 175 
255 104 255 
88 64 255 
135 57 255 
61 48 255 
62 33 255 
38 38 224 
21 9 97 
127 122 255 
41 37 255 
47 47 151 
44 27 87 
232 43 77 
245 37 68 
255 136 221 
255 82 116 
255 80 97 
0 0 0 
255 60 249 
63 19 44 
255 34 77 
138 43 140 
255 44 101 
81 19 51 
181 67 151 
49 15 111 
142 44 100 
101 31 245 
63 19 44 
82 59 133 
0 0 0 
99 70 161 
207 32 109 
199 80 181 
63 19 44 
82 59 133 
255 66 238 
63 19 44 
115 63 144 
73 45 101 
56 56 128 
63 19 44 
94 48 108 
87 27 61 
73 45 101 
82 59 133 
255 55 125 
41 41 93 
255 77 173 
73 45 101 
106 80 206 
116 116 255 
68 68 154 
85 85 193 
128 65 148 
73 45 101 
68 68 154 
41 41 93 
112 112 254 
55 55 255 
68 68 154 
56 56 128 
41 41 93 
41 41 93 
123 79 255 
176 75 169 
107 72 255 
87 87 234 
187 85 192 
63 19 44 
41 41 93 
41 41 93 
77 77 175 
79 79 220 
121 121 255 
41 41 93 
188 149 255 
68 68 154 
56 56 128 
146 98 223 
179 83 189 
128 100 255 
77 77 175 
87 87 234 
68 68 154 
100 100 226 
107 107 255 
41 41 93 
68 68 154 
182 91 206 
59 59 186 
86 86 194 
56 56 128 
70 70 204 
74 74 255 
100 100 226 
93 93 211 
93 93 211 
77 77 175 
101 101 255 
93 93 211 
89 78 202 
94 94 255 
93 93 211 
255 255 255 
41 41 93 
78 67 255 
114 104 255 
89 89 255 
94 94 247 
126 67 199 
90 63 144 
255 255 255 
103 82 187 
228 200 255 
210 174 255 
255 255 255 
141 113 255 
255 255 255 
255 230 246 
255 255 255 
255 255 255 
255 255 255 
255 255 255 
255 168 226 
255 255 255 
186 165 255 
255 163 255 
255 255 255 
255 255 255 
255 255 255 
255 207 207 
255 255 255 
255 255 255 
174 174 255 
255 255 255 
255 196 255 
255 255 255 
255 255 255 
255 253 255 
255 255 255 
255 248 255 
255 255 255 
255 255 255 
255 255 255 
255 218 222 
255 255 255 
255 244 244 
255 255 255 
255 255 255 
255 255 255 
255 233 255 
255 255 255 
255 255 255 
255 255 255 
255 255 255 
255 54 128 
255 90 137 
255 123 255 
255 130 166 
255 97 255 
236 68 93 
255 46 51 
255 101 255 
131 58 123 
57 25 184 
255 84 122 
176 45 52 
241 91 255 
255 80 102 
255 127 127 
255 85 137 
255 73 227 
253 63 97 
154 68 68 
255 75 76 
128 56 56 
154 68 68 
255 36 36 
93 41 41 
255 60 123 
107 47 187 
93 41 41 
226 100 100 
0 0 0 
255 148 255 
193 85 85 
189 84 135 
154 68 68 
0 0 0 
165 58 65 
154 68 68 
169 46 119 
147 65 140 
187 82 103 
255 74 74 
193 85 85 
93 41 41 
93 41 41 
0 0 0 
93 41 41 
154 68 68 
154 68 68 
128 56 56 
128 56 56 
0 0 0 
234 32 32 
93 41 41 
0 0 0 
0 0 0 
44 19 63 
0 0 0 
0 0 0 
174 77 77 
0 0 0 
134 45 148 
200 47 88 
193 85 255 
206 71 91 
115 51 109 
68 9 30 
101 45 73 
255 98 255 
0 0 0 
0 0 0 
209 92 92 
0 0 0 
255 41 41 
162 71 107 
0 0 0 
118 24 78 
80 32 125 
255 95 255 
44 19 63 
125 55 178 
199 77 255 
92 40 131 
44 19 63 
116 21 113 
107 47 152 
88 24 78 
221 75 255 
255 67 255 
255 142 255 
255 139 255 
255 94 255 
167 158 255 
255 73 255 
135 58 255 
255 150 255 
255 255 255 
121 120 255 
39 35 142 
63 47 172 
0 0 0 
255 49 255 
170 57 202 
72 48 215 
38 38 224 
60 60 194 
117 116 255 
69 67 231 
49 47 255 
81 59 255 
255 119 255 
98 80 255 
60 47 235 
61 48 177 
255 108 230 
255 119 255 
255 100 214 
255 73 255 
255 70 255 
227 66 255 
204 45 198 
87 27 61 
206 57 187 
94 48 108 
73 45 101 
87 27 61 
56 56 128 
172 7 16 
87 27 61 
0 0 0 
109 51 115 
131 40 92 
82 59 133 
222 36 156 
94 48 108 
41 41 93 
56 56 128 
73 45 101 
41 41 93 
116 41 96 
82 59 133 
63 19 44 
78 45 119 
41 41 255 
125 82 186 
0 0 0 
86 46 146 
56 56 128 
56 56 128 
41 41 93 
100 100 226 
41 41 93 
56 56 128 
41 41 93 
255 235 255 
49 15 79 
67 67 153 
128 65 148 
104 68 255 
0 0 0 
142 92 207 
77 77 175 
90 70 158 
71 51 251 
41 41 93 
120 74 167 
136 136 255 
73 45 101 
56 56 128 
70 65 255 
73 45 101 
68 68 154 
68 68 154 
68 68 154 
68 68 154 
77 77 175 
86 86 194 
56 56 128 
56 56 128 
77 77 175 
68 68 154 
68 68 154 
68 68 154 
56 56 128 
56 56 128 
68 68 154 
68 68 154 
53 53 255 
58 58 255 
103 76 255 
56 56 128 
68 68 154 
87 87 234 
255 255 255 
56 56 128 
56 56 128 
255 95 255 
186 99 255 
255 79 179 
86 86 194 
68 68 154 
41 41 93 
128 84 239 
93 93 211 
106 106 255 
56 56 128 
139 104 235 
109 83 255 
255 123 255 
123 123 255 
68 68 154 
45 45 166 
83 78 203 
102 102 255 
78 73 255 
169 122 255 
136 98 255 
84 53 178 
119 71 255 
255 255 255 
171 123 123 
255 255 255 
255 255 255 
255 230 255 
255 255 255 
255 255 255 
255 255 255 
178 178 178 
178 178 178 
255 255 255 
255 255 255 
255 143 185 
255 255 255 
255 255 255 
255 255 255 
255 255 255 
255 255 255 
255 255 255 
255 255 255 
243 151 215 
255 255 255 
255 255 255 
255 255 255 
255 142 175 
255 255 255 
255 255 255 
255 255 255 
255 157 253 
255 255 255 
255 255 255 
255 255 255 
255 255 255 
255 255 255 
255 255 255 
255 255 255 
255 255 255 
255 255 255 
255 255 255 
255 47 196 
255 83 121 
255 80 210 
255 51 63 
255 69 160 
255 71 75 
255 77 255 
193 85 85 
255 87 145 
255 54 84 
255 133 150 
122 54 255 
254 80 80 
255 67 67 
153 67 255 
255 51 82 
0 0 0 
0 0 0 
154 68 68 
175 77 77 
170 47 102 
255 44 73 
197 87 123 
255 255 255 
0 0 0 
255 102 255 
255 116 116 
255 52 52 
57 25 184 
175 77 77 
0 0 0 
93 41 41 
255 193 193 
0 0 0 
218 61 78 
0 0 0 
93 41 41 
154 68 68 
255 57 62 
167 74 97 
93 41 41 
93 41 41 
234 32 32 
133 59 82 
166 45 45 
197 66 91 
73 32 103 
101 19 204 
130 46 111 
255 146 255 
174 77 77 
143 19 19 
93 41 41 
154 68 68 
44 19 63 
93 41 41 
0 0 0 
93 41 41 
93 41 41 
188 83 179 
93 41 41 
255 146 255 
0 0 0 
0 0 0 
44 19 63 
255 108 255 
0 0 0 
84 20 159 
157 69 90 
193 85 85 
139 61 218 
0 0 0 
44 19 63 
34 15 158 
49 1 43 
255 93 171 
156 67 84 
166 73 121 
127 20 255 
89 39 255 
148 42 165 
255 71 229 
0 0 0 
73 32 104 
184 18 186 
61 27 87 
131 128 255 
140 116 255 
255 77 248 
199 55 255 
197 183 255 
35 10 209 
255 216 255 
103 63 255 
146 44 235 
255 52 255 
138 85 255 
78 40 255 
88 45 168 
25 25 80 
98 55 255 
255 53 255 
62 53 255 
84 47 209 
42 18 242 
63 61 212 
47 41 152 
64 59 255 
64 50 255 
166 62 255 
121 61 255 
125 72 255 
255 155 255 
255 63 68 
255 88 119 
255 58 137 
157 41 114 
237 40 93 
158 45 255 
255 90 225 
146 37 88 
73 45 101 
82 59 133 
41 41 93 
0 0 0 
73 45 101 
157 48 138 
228 37 115 
94 48 108 
255 115 255 
68 21 79 
147 58 133 
65 65 255 
87 27 61 
41 41 93 
94 48 108 
56 56 128 
30 9 68 
41 41 93 
109 51 115 
56 56 128 
87 65 255 
0 0 0 
41 41 93 
101 61 139 
41 41 93 
118 45 180 
255 68 154 
218 77 255 
132 41 255 
157 48 170 
77 77 174 
142 92 255 
0 0 0 
56 56 128 
56 56 128 
68 68 154 
41 41 93 
56 56 128 
124 111 252 
56 56 128 
63 19 44 
0 0 0 
41 41 93 
68 68 154 
56 56 128 
154 79 179 
56 56 128 
73 45 101 
68 68 154 
45 45 166 
255 43 255 
255 71 255 
41 41 93 
133 75 171 
68 68 154 
68 68 154 
41 41 93 
32 32 234 
106 84 255 
56 56 128 
41 41 93 
68 68 154 
109 94 213 
56 56 128 
255 255 255 
93 93 211 
100 100 226 
77 77 175 
221 85 255 
86 86 194 
109 51 115 
87 87 234 
97 79 179 
86 86 194 
68 68 154 
56 56 128 
68 68 154 
85 85 193 
201 95 216 
45 45 166 
142 96 255 
107 107 255 
196 102 231 
77 77 175 
56 56 128 
83 83 255 
77 77 174 
255 100 255 
77 77 175 
97 74 167 
56 56 128 
82 82 255 
255 120 255 
41 41 93 
179 134 255 
255 109 255 
86 86 194 
255 255 255 
160 160 160 
255 255 255 
255 177 255 
255 255 255 
255 255 255 
255 254 255 
140 140 140 
255 252 255 
255 255 255 
255 255 255 
255 255 255 
255 255 255 
255 255 255 
255 255 255 
255 255 255 
255 221 255 
255 255 255 
255 134 204 
255 255 255 
255 235 235 
255 255 255 
255 255 255 
243 243 243 
209 208 255 
255 255 255 
255 255 255 
255 252 252 
255 255 255 
255 255 255 
255 255 255 
255 255 255 
255 181 255 
255 255 255 
255 255 255 
255 255 255 
255 145 255 
255 255 255 
255 74 126 
255 86 86 
210 70 80 
255 62 214 
255 57 57 
213 77 94 
0 0 0 
255 105 255 
255 36 36 
190 34 190 
172 71 143 
186 59 59 
255 68 71 
255 88 166 
93 41 41 
255 79 136 
255 75 111 
112 42 49 
193 85 85 
153 67 67 
255 126 222 
255 80 80 
186 59 59 
0 0 0 
128 56 56 
154 68 68 
196 87 196 
255 71 95 
255 87 255 
255 67 67 
255 71 71 
111 15 49 
128 56 56 
197 66 255 
73 32 73 
153 67 67 
174 77 77 
68 9 30 
158 70 90 
193 85 85 
162 71 193 
255 180 255 
101 45 73 
175 77 77 
128 56 56 
129 25 81 
44 19 63 
255 25 25 
128 56 56 
255 113 125 
93 41 41 
255 82 82 
93 41 41 
93 41 41 
93 41 41 
93 41 41 
0 0 0 
143 19 19 
0 0 0 
54 24 168 
83 37 94 
125 46 86 
0 0 0 
170 75 133 
61 27 87 
0 0 0 
216 60 96 
170 75 133 
0 0 0 
0 0 0 
185 81 255 
73 32 103 
255 26 79 
153 67 67 
0 0 0 
83 36 118 
129 25 81 
92 40 131 
255 36 134 
54 24 168 
68 9 30 
94 41 255 
164 41 192 
239 67 216 
89 29 255 
129 35 112 
130 77 249 
255 77 255 
173 67 255 
179 120 255 
255 114 255 
208 96 255 
235 121 255 
139 49 255 
41 41 132 
255 86 255 
147 79 255 
31 26 122 
80 78 255 
77 74 255 
45 42 160 
104 81 255 
80 78 255 
193 52 255 
79 72 255 
50 47 175 
113 40 255 
48 42 255 
123 58 246 
118 53 238 
68 52 255 
79 39 187 
255 80 86 
255 194 255 
255 61 95 
255 87 95 
107 41 101 
103 32 73 
142 44 100 
104 32 73 
0 0 0 
255 255 255 
73 45 101 
84 41 99 
73 45 101 
0 0 0 
63 19 44 
94 60 151 
0 0 0 
80 55 255 
0 0 0 
82 59 133 
76 45 153 
123 53 121 
157 117 255 
168 24 54 
0 0 0 
62 57 142 
255 69 157 
0 0 0 
93 70 168 
90 70 158 
73 45 101 
56 56 128 
56 56 128 
118 36 83 
86 27 255 
41 41 93 
87 27 61 
49 42 112 
73 45 101 
56 56 128 
77 77 175 
158 61 255 
89 78 202 
255 83 190 
41 41 93 
131 131 255 
73 45 101 
68 68 154 
109 51 115 
82 59 133 
68 68 154 
60 57 207 
59 59 186 
93 93 211 
73 45 101 
41 41 93 
109 51 115 
103 32 73 
56 56 128 
56 56 128 
77 77 174 
88 47 200 
187 187 255 
77 77 175 
77 77 175 
59 59 186 
84 79 255 
86 86 194 
36 3 81 
41 41 93 
56 56 128 
77 77 175 
82 82 255 
81 81 255 
255 32 72 
67 67 255 
255 172 255 
41 41 93 
56 56 128 
85 85 193 
82 82 255 
120 107 255 
56 56 128 
255 68 160 
125 125 255 
77 77 175 
56 56 128 
56 56 128 
255 255 255 
45 45 166 
123 58 131 
49 42 112 
232 232 255 
73 68 165 
246 147 255 
77 77 175 
87 86 255 
104 89 255 
114 88 255 
69 69 203 
255 255 255 
89 89 255 
97 88 253 
56 56 128 
255 57 142 
85 85 193 
75 75 255 
255 255 255 
255 255 255 
255 112 255 
255 195 203 
255 233 233 
255 255 255 
255 255 255 
255 255 255 
255 255 255 
255 255 255 
255 255 255 
255 255 255 
255 255 255 
255 255 255 
255 255 255 
255 255 255 
255 255 255 
255 198 255 
255 255 255 
255 217 255 
215 151 255 
255 216 255 
255 234 255 
255 255 255 
255 166 255 
255 252 252 
255 255 255 
255 255 255 
255 255 255 
255 255 255 
255 152 152 
255 255 255 
255 255 255 
255 255 255 
178 178 178 
255 255 255 
255 255 255 
255 255 255 
243 68 76 
255 169 169 
255 255 255 
255 123 123 
255 82 255 
255 255 255 
255 199 255 
255 250 255 
255 81 109 
255 100 160 
255 187 201 
255 84 183 
206 91 139 
255 74 143 
255 79 159 
255 105 135 
190 41 46 
115 51 82 
247 94 94 
93 41 41 
154 68 68 
197 66 91 
186 59 59 
168 45 141 
155 68 103 
112 42 49 
166 45 45 
93 41 41 
255 78 81 
255 78 78 
144 63 90 
137 61 190 
115 51 109 
112 15 35 
154 68 68 
250 110 110 
128 56 56 
164 66 255 
174 77 77 
255 147 255 
93 41 41 
93 41 41 
153 67 67 
133 59 82 
121 53 101 
174 77 77 
154 68 68 
0 0 0 
93 41 41 
93 41 41 
101 45 73 
0 0 0 
93 41 41 
119 52 169 
0 0 0 
108 48 94 
73 32 103 
157 69 90 
44 19 63 
44 19 63 
73 32 103 
0 0 0 
0 0 0 
0 0 0 
101 19 204 
0 0 0 
0 0 0 
255 55 255 
0 0 0 
173 76 255 
153 67 67 
73 32 103 
255 255 255 
255 41 132 
0 0 0 
83 36 118 
255 61 197 
255 86 151 
255 81 255 
61 27 87 
250 37 88 
56 20 96 
73 32 103 
56 20 96 
138 50 255 
132 79 255 
255 85 255 
121 57 183 
34 15 158 
255 241 255 
52 34 169 
255 11 144 
76 56 255 
50 47 174 
178 91 255 
70 70 226 
61 50 255 
25 25 80 
146 23 255 
0 0 0 
255 40 255 
45 42 160 
34 34 110 
255 60 255 
98 53 255 
39 34 255 
255 148 255 
47 44 255 
90 86 255 
102 65 255 
59 37 255 
255 40 70 
239 74 74 
255 57 125 
255 50 203 
208 64 255 
41 41 93 
63 19 44 
146 21 72 
87 27 61 
140 43 153 
255 97 255 
148 112 255 
0 0 0 
0 0 0 
46 41 190 
255 32 232 
92 28 165 
73 45 101 
109 59 137 
255 153 255 
73 45 101 
73 45 101 
63 19 44 
0 0 0 
93 60 169 
0 0 0 
82 59 133 
255 47 106 
169 52 119 
41 41 93 
56 56 128 
63 19 44 
56 56 128 
100 71 173 
41 41 93 
68 68 154 
77 77 175 
56 56 128 
56 56 128 
185 185 255 
82 59 133 
56 56 128 
82 59 133 
41 41 93 
68 68 154 
82 59 133 
73 58 146 
68 68 154 
0 0 0 
41 41 93 
176 80 255 
41 41 93 
86 86 194 
41 41 93 
0 0 0 
56 56 128 
100 100 255 
56 56 128 
120 74 167 
166 79 255 
51 51 248 
68 68 154 
56 56 128 
196 80 182 
128 75 195 
86 86 194 
56 56 128 
77 77 175 
45 45 166 
86 86 194 
207 59 185 
112 35 129 
41 41 93 
86 71 255 
56 56 255 
255 145 255 
68 68 154 
145 98 229 
56 56 128 
86 86 194 
93 93 211 
77 77 175 
77 77 175 
89 78 202 
56 56 128 
63 63 255 
68 68 154 
41 41 93 
101 101 255 
255 120 255 
100 100 226 
85 80 241 
63 63 255 
77 77 175 
68 68 154 
77 77 175 
56 56 128 
56 56 128 
56 56 255 
65 65 255 
77 77 175 
118 43 98 
75 75 255 
56 56 128 
56 56 128 
70 70 204 
142 142 255 
255 212 212 
255 255 255 
255 255 255 
228 106 106 
255 255 255 
255 252 255 
255 255 255 
255 255 255 
255 255 255 
255 255 255 
255 255 255 
255 255 255 
220 220 220 
255 255 255 
255 190 255 
255 255 255 
255 255 255 
255 255 255 
255 172 241 
255 255 255 
255 255 255 
255 253 255 
255 255 255 
255 255 255 
255 106 196 
255 255 255 
255 255 255 
255 255 255 
255 255 255 
255 255 255 
255 255 255 
255 240 240 
255 255 255 
255 255 255 
255 255 255 
255 255 255 
255 255 255 
255 245 255 
255 132 255 
255 117 117 
255 255 255 
255 55 228 
255 121 255 
168 33 97 
255 100 128 
255 74 140 
255 125 255 
112 15 35 
255 128 156 
184 25 57 
0 0 0 
98 43 118 
255 80 129 
184 25 57 
206 91 139 
0 0 0 
255 124 255 
255 255 255 
166 45 45 
98 43 118 
0 0 0 
166 45 45 
93 41 41 
254 35 57 
0 0 0 
0 0 0 
255 47 47 
196 27 27 
255 118 212 
255 47 47 
139 57 134 
234 32 32 
178 79 97 
174 77 77 
141 43 62 
153 67 67 
255 62 167 
255 19 45 
44 19 63 
93 41 41 
93 41 41 
255 91 255 
255 15 140 
128 56 56 
0 0 0 
147 65 173 
153 67 67 
0 0 0 
0 0 0 
0 0 0 
0 0 0 
153 67 67 
0 0 0 
153 67 255 
93 41 41 
128 56 56 
0 0 0 
73 32 103 
73 32 103 
0 0 0 
255 32 105 
93 41 41 
44 19 63 
255 70 96 
152 67 255 
255 69 224 
44 19 63 
255 73 155 
170 68 255 
0 0 0 
61 27 87 
255 54 70 
209 92 92 
180 79 186 
211 34 113 
111 15 49 
0 0 0 
124 30 97 
255 110 255 
61 27 87 
61 27 87 
255 113 255 
255 127 255 
0 0 0 
255 255 255 
112 69 255 
0 0 0 
255 233 255 
193 72 255 
255 147 255 
79 45 255 
255 41 197 
70 25 255 
152 67 255 
57 52 255 
76 74 251 
120 116 255 
139 93 255 
55 26 255 
55 32 243 
50 47 175 
44 25 255 
129 36 243 
72 71 251 
90 60 209 
255 52 255 
41 28 174 
45 42 160 
69 47 165 
255 71 180 
255 150 255 
255 183 184 
153 37 95 
127 28 122 
169 52 119 
142 44 100 
255 233 255 
0 0 0 
186 37 96 
107 21 75 
91 21 99 
208 64 146 
0 0 0 
103 32 73 
141 118 255 
116 29 209 
109 51 115 
104 32 73 
255 65 255 
87 27 61 
49 42 112 
109 51 115 
0 0 0 
41 41 93 
41 41 93 
68 21 79 
49 42 112 
56 56 128 
41 41 93 
0 0 0 
0 0 0 
147 114 255 
94 48 108 
41 41 93 
86 46 146 
78 61 218 
73 45 101 
41 41 93 
68 68 154 
68 68 154 
56 56 128 
110 110 250 
56 56 128 
41 41 93 
88 47 200 
41 41 93 
56 56 128 
68 68 154 
56 56 128 
68 68 154 
56 56 128 
95 45 255 
68 68 154 
56 56 128 
56 56 128 
41 41 93 
68 68 154 
0 0 0 
97 79 179 
49 15 79 
0 0 0 
68 68 154 
45 45 166 
176 75 169 
75 75 255 
85 85 193 
255 60 137 
68 68 154 
135 97 219 
77 77 175 
86 86 194 
68 68 154 
0 0 0 
0 0 0 
77 77 175 
91 91 255 
79 79 220 
116 116 255 
56 56 128 
77 77 175 
41 41 93 
85 85 255 
43 41 136 
59 59 186 
77 77 174 
49 42 255 
41 41 93 
77 77 175 
45 45 166 
77 77 175 
63 63 255 
255 255 255 
122 122 255 
100 100 226 
56 56 128 
109 109 255 
112 109 255 
56 56 128 
86 86 194 
41 41 93 
137 137 255 
124 121 255 
139 91 207 
56 56 128 
93 93 210 
105 36 157 
255 255 255 
255 255 255 
255 255 255 
255 255 255 
255 234 250 
255 255 255 
255 93 223 
255 255 255 
255 255 255 
255 180 180 
255 255 255 
255 160 255 
255 255 255 
255 214 255 
255 192 224 
255 255 255 
255 255 255 
255 255 255 
255 255 255 
255 255 255 
255 255 255 
255 255 255 
255 255 255 
255 255 255 
255 210 210 
255 255 255 
255 255 255 
255 255 255 
255 182 255 
255 202 207 
255 255 255 
255 255 255 
193 193 193 
214 214 255 
255 255 255 
255 243 255 
255 255 255 
255 255 255 
255 182 250 
255 126 222 
255 73 166 
255 255 255 
255 96 205 
255 80 80 
255 82 142 
255 113 255 
255 118 139 
255 153 153 
235 40 134 
93 41 41 
255 69 93 
255 112 224 
255 61 88 
255 101 215 
255 94 100 
143 19 19 
234 87 87 
255 103 180 
0 0 0 
143 19 19 
255 145 255 
68 9 219 
93 41 41 
181 55 121 
255 43 142 
178 53 84 
93 41 41 
93 41 41 
157 37 75 
0 0 0 
0 0 0 
0 0 0 
0 0 0 
167 74 97 
255 108 205 
0 0 0 
0 0 0 
175 77 77 
0 0 0 
128 56 56 
93 41 41 
0 0 0 
153 67 67 
143 19 19 
128 56 56 
0 0 0 
0 0 0 
93 41 41 
166 73 120 
153 67 67 
0 0 0 
0 0 0 
255 53 123 
0 0 0 
111 15 49 
0 0 0 
0 0 0 
0 0 0 
0 0 0 
0 0 0 
170 7 241 
0 0 0 
153 67 67 
0 0 0 
87 12 87 
255 85 255 
255 87 201 
0 0 0 
255 182 255 
255 77 145 
0 0 0 
119 52 169 
141 62 201 
153 67 67 
44 19 63 
73 32 103 
255 83 244 
98 41 148 
0 0 0 
0 0 0 
111 15 49 
131 23 116 
255 58 255 
74 52 199 
46 46 150 
255 190 255 
255 76 255 
143 120 255 
103 53 255 
88 74 245 
255 98 255 
45 38 255 
97 34 255 
144 45 255 
255 192 255 
255 147 255 
255 55 255 
98 18 255 
78 45 255 
79 74 255 
41 41 133 
71 52 255 
90 71 255 
55 44 255 
91 64 221 
31 26 122 
70 35 255 
62 57 255 
85 48 254 
255 40 52 
255 91 118 
191 44 146 
131 40 92 
95 24 255 
63 19 44 
149 46 124 
63 19 44 
227 33 119 
255 41 99 
255 52 236 
0 0 0 
123 53 121 
168 43 109 
255 255 255 
63 19 44 
63 19 44 
63 19 44 
0 0 0 
255 25 56 
255 25 56 
0 0 0 
62 43 141 
41 41 93 
99 22 136 
85 85 193 
104 32 73 
41 41 93 
0 0 0 
0 0 0 
41 41 93 
82 59 133 
41 41 93 
63 19 44 
0 0 0 
41 41 93 
0 0 0 
87 27 61 
41 41 93 
41 41 93 
82 59 133 
110 110 250 
41 41 93 
124 12 61 
67 67 153 
73 45 101 
0 0 0 
115 63 144 
63 19 44 
0 0 0 
56 56 128 
51 51 248 
68 68 154 
0 0 0 
0 0 0 
41 41 93 
56 56 128 
56 56 128 
56 56 128 
68 68 154 
112 112 255 
82 59 133 
56 56 128 
68 68 154 
255 97 220 
0 0 0 
41 41 93 
41 41 93 
56 56 128 
93 93 211 
49 48 232 
56 56 128 
68 68 154 
41 41 93 
77 77 175 
68 68 154 
41 41 93 
85 85 193 
106 68 255 
136 136 255 
68 68 154 
41 41 93 
77 77 175 
77 77 175 
104 104 255 
68 68 154 
255 73 255 
59 59 186 
77 77 175 
41 41 93 
56 56 128 
41 41 93 
108 88 255 
56 56 128 
77 77 175 
0 0 0 
106 106 240 
150 124 255 
142 19 255 
56 56 128 
0 0 0 
100 100 226 
83 83 255 
78 77 199 
74 69 255 
161 92 255 
68 68 154 
255 255 255 
255 255 255 
255 255 255 
255 255 255 
160 160 160 
255 255 255 
255 255 255 
255 255 255 
0 0 0 
255 255 255 
255 194 194 
255 64 138 
255 255 255 
255 183 183 
216 178 181 
153 153 251 
255 255 255 
193 193 193 
255 231 255 
255 255 255 
255 255 255 
255 255 255 
255 255 255 
255 255 255 
255 255 255 
255 255 255 
255 238 255 
255 255 255 
255 255 255 
255 255 255 
255 255 255 
255 163 255 
255 255 255 
255 255 255 
255 255 255 
255 223 255 
255 255 255 
255 176 232 
255 84 138 
255 140 243 
255 123 164 
0 0 0 
100 44 255 
235 35 115 
196 27 27 
255 55 120 
128 56 56 
255 130 132 
255 53 58 
188 83 134 
255 194 255 
200 47 88 
255 65 255 
157 37 75 
0 0 0 
204 53 121 
205 50 71 
213 94 199 
255 41 41 
255 124 255 
203 69 69 
0 0 0 
146 24 113 
255 255 255 
93 41 41 
166 45 45 
128 56 56 
143 19 19 
0 0 0 
0 0 0 
143 19 19 
154 68 68 
203 69 69 
255 74 74 
255 47 80 
221 63 80 
0 0 0 
255 65 124 
0 0 0 
175 77 77 
93 41 41 
255 241 255 
255 15 49 
0 0 0 
0 0 0 
0 0 0 
0 0 0 
93 41 41 
101 45 73 
153 67 67 
0 0 0 
174 41 248 
128 56 56 
53 7 75 
0 0 0 
255 77 77 
0 0 0 
96 33 106 
53 7 75 
153 67 67 
255 92 255 
44 19 63 
101 19 144 
56 20 96 
0 0 0 
0 0 0 
83 36 118 
0 0 0 
255 232 255 
201 76 234 
44 19 63 
153 67 67 
255 88 104 
157 69 90 
145 39 128 
255 86 86 
255 53 247 
162 71 255 
125 55 178 
175 72 130 
148 46 255 
44 19 63 
255 100 255 
255 90 255 
70 61 255 
113 46 255 
69 68 255 
79 54 175 
119 52 169 
66 41 255 
131 108 255 
174 70 255 
41 9 255 
111 57 255 
234 107 255 
35 34 255 
255 162 255 
64 52 245 
58 56 255 
45 42 160 
95 28 255 
50 47 175 
127 126 255 
83 51 185 
236 91 255 
83 76 255 
73 32 103 
45 41 238 
57 53 255 
255 52 87 
133 41 184 
63 19 44 
63 19 44 
177 32 87 
193 29 92 
152 47 107 
63 19 44 
185 65 150 
68 21 79 
0 0 0 
63 19 44 
0 0 0 
63 19 44 
110 110 250 
0 0 0 
148 41 98 
118 36 83 
118 36 83 
73 45 101 
63 19 44 
67 67 153 
62 43 119 
0 0 0 
30 9 68 
0 0 0 
63 19 44 
41 41 93 
0 0 0 
82 59 133 
96 20 56 
140 64 164 
49 15 79 
0 0 0 
56 56 128 
173 65 147 
169 52 119 
82 59 133 
56 56 128 
120 74 167 
73 45 101 
255 52 255 
49 42 112 
0 0 0 
173 65 147 
0 0 0 
41 41 93 
162 43 98 
0 0 0 
0 0 0 
74 74 255 
87 27 61 
126 126 255 
19 19 143 
69 68 255 
56 56 128 
41 41 93 
0 0 0 
106 106 240 
77 77 174 
49 42 112 
77 77 174 
56 56 128 
0 0 0 
121 121 255 
68 68 154 
70 70 204 
190 190 255 
56 56 128 
218 77 255 
0 0 0 
77 77 175 
56 56 128 
0 0 0 
41 41 93 
56 56 128 
56 56 128 
70 70 204 
56 56 128 
68 68 154 
68 68 154 
56 56 128 
68 68 154 
137 112 255 
41 41 93 
73 58 165 
68 68 154 
70 70 204 
99 94 255 
56 56 128 
56 56 128 
97 74 167 
77 77 175 
121 121 255 
114 88 255 
77 77 175 
76 51 255 
152 119 255 
68 68 154 
77 77 175 
255 78 255 
70 70 204 
56 56 128 
68 68 154 
70 50 240 
158 158 255 
58 56 237 
255 255 255 
255 255 255 
255 255 255 
255 255 255 
169 52 119 
255 255 255 
255 255 255 
255 255 255 
255 255 255 
255 196 255 
255 255 255 
255 255 255 
255 228 255 
142 142 142 
255 255 255 
255 255 255 
255 255 255 
255 255 255 
255 255 255 
255 255 255 
255 255 255 
255 255 255 
255 255 255 
142 142 142 
255 207 255 
255 255 255 
255 255 255 
255 255 255 
161 161 161 
255 255 255 
255 255 255 
118 118 118 
255 255 255 
181 181 215 
229 229 255 
255 255 255 
255 255 255 
255 255 255 
255 250 250 
255 80 93 
143 19 19 
255 50 95 
255 29 37 
239 50 98 
255 60 123 
143 19 19 
255 39 59 
93 41 41 
255 66 172 
0 0 0 
255 105 167 
0 0 0 
166 45 45 
255 41 93 
115 51 82 
254 15 15 
255 59 107 
93 41 41 
255 94 255 
196 87 196 
130 51 86 
0 0 0 
147 65 125 
239 41 170 
248 51 51 
0 0 0 
255 63 115 
255 67 67 
93 41 41 
93 41 41 
166 45 45 
255 63 63 
29 5 135 
255 20 102 
216 60 96 
242 44 78 
153 67 67 
255 111 255 
93 41 41 
255 52 52 
184 25 57 
93 41 41 
0 0 0 
0 0 0 
255 113 255 
0 0 0 
143 19 19 
120 53 120 
182 25 80 
34 15 158 
0 0 0 
166 73 120 
0 0 0 
68 9 219 
0 0 0 
255 90 190 
153 67 67 
106 44 230 
101 20 131 
153 67 67 
104 35 112 
250 110 110 
164 68 72 
0 0 0 
83 36 118 
0 0 0 
0 0 0 
61 27 87 
102 6 68 
111 15 49 
137 26 107 
0 0 0 
61 27 87 
83 36 118 
117 44 144 
222 19 255 
195 58 255 
173 34 255 
141 62 201 
255 38 141 
37 7 76 
73 32 255 
160 136 255 
55 55 255 
195 143 255 
200 93 255 
194 83 255 
99 48 255 
255 43 255 
121 57 255 
32 4 46 
255 60 255 
255 255 255 
209 119 255 
255 73 234 
72 70 249 
163 72 255 
255 231 255 
133 50 255 
125 44 255 
56 56 181 
55 52 188 
69 65 239 
255 42 255 
57 49 212 
70 47 255 
167 81 255 
52 43 201 
76 59 255 
255 79 100 
255 193 255 
68 21 79 
119 37 83 
220 56 228 
63 19 44 
97 30 124 
102 48 117 
146 37 88 
255 59 255 
30 9 68 
88 16 116 
63 19 44 
98 41 97 
0 0 0 
97 30 124 
87 27 61 
87 27 61 
255 45 129 
63 19 44 
0 0 0 
41 41 93 
30 9 68 
208 189 255 
56 56 128 
63 19 44 
0 0 0 
73 45 101 
0 0 0 
0 0 0 
0 0 0 
82 59 133 
41 41 93 
49 42 112 
59 5 133 
0 0 0 
41 41 93 
41 41 93 
0 0 0 
41 41 93 
41 41 93 
63 19 44 
0 0 0 
56 56 128 
0 0 0 
63 19 44 
63 19 44 
68 68 154 
30 9 68 
56 56 128 
0 0 0 
41 41 93 
56 56 128 
56 56 128 
56 56 128 
41 41 93 
68 68 154 
90 70 158 
56 56 128 
73 45 101 
103 32 73 
86 86 194 
56 56 128 
56 56 128 
51 51 248 
41 41 93 
125 82 187 
0 0 0 
77 77 175 
41 41 93 
68 68 154 
116 116 255 
68 68 154 
87 87 234 
68 68 154 
73 68 165 
56 56 128 
41 41 93 
68 68 154 
68 68 154 
79 63 254 
125 65 147 
123 79 255 
51 51 248 
68 68 154 
56 56 128 
255 123 255 
180 85 230 
158 127 255 
255 122 255 
68 68 154 
79 79 220 
59 59 186 
56 56 128 
59 59 186 
56 56 128 
103 71 255 
137 83 255 
45 45 166 
92 92 255 
45 45 166 
79 79 220 
77 77 175 
68 68 154 
255 200 255 
135 84 189 
68 68 154 
78 77 255 
255 255 255 
181 122 235 
255 255 255 
255 255 255 
255 154 167 
255 255 255 
255 255 255 
255 255 255 
255 255 255 
255 255 255 
244 244 244 
255 255 255 
252 252 252 
255 178 218 
255 255 255 
255 172 255 
255 255 255 
255 255 255 
255 255 255 
255 255 255 
255 201 232 
255 255 255 
255 246 255 
255 255 255 
255 255 255 
255 255 255 
255 255 255 
255 255 255 
255 255 255 
255 255 255 
255 225 255 
255 255 255 
255 255 255 
255 255 255 
255 255 255 
255 255 255 
255 255 255 
209 174 255 
255 113 255 
255 84 86 
255 194 255 
0 0 0 
255 86 86 
255 120 255 
255 71 124 
255 43 43 
166 45 45 
255 39 39 
255 45 49 
98 43 118 
255 75 75 
188 31 60 
157 37 75 
248 51 51 
146 24 113 
115 51 82 
73 32 73 
128 56 56 
147 65 125 
255 52 52 
57 25 184 
255 112 255 
93 41 41 
255 108 205 
115 51 109 
157 37 75 
0 0 0 
0 0 0 
248 51 51 
0 0 0 
0 0 0 
0 0 0 
255 71 128 
93 41 41 
93 41 41 
93 41 41 
166 45 45 
255 50 255 
73 32 73 
0 0 0 
0 0 0 
143 19 19 
0 0 0 
255 68 169 
0 0 0 
255 111 252 
128 56 56 
209 92 92 
0 0 0 
255 122 122 
73 32 103 
143 19 19 
209 92 92 
32 2 92 
0 0 0 
0 0 0 
255 44 143 
0 0 0 
0 0 0 
97 30 97 
0 0 0 
255 67 216 
44 19 63 
213 41 149 
155 68 169 
153 67 67 
174 77 248 
0 0 0 
70 31 255 
153 67 67 
0 0 0 
53 7 75 
89 32 210 
255 30 255 
253 44 208 
157 69 90 
153 67 67 
73 32 104 
95 40 166 
61 27 87 
44 19 63 
105 41 255 
232 187 255 
94 94 255 
150 137 255 
255 52 255 
34 15 158 
203 106 255 
86 70 246 
120 120 255 
179 85 255 
33 28 255 
255 64 255 
83 49 255 
255 115 255 
34 34 110 
31 26 122 
0 0 0 
43 40 255 
62 53 255 
131 34 255 
69 39 255 
84 47 255 
30 25 255 
172 60 255 
74 74 239 
73 50 234 
255 64 255 
255 52 66 
125 33 255 
157 115 255 
97 30 124 
191 48 120 
63 19 44 
131 40 92 
46 4 32 
68 21 79 
0 0 0 
0 0 0 
199 43 97 
111 21 84 
41 41 93 
49 15 79 
0 0 0 
255 30 180 
255 100 227 
99 31 186 
115 35 190 
63 19 44 
0 0 0 
0 0 0 
68 21 79 
41 41 93 
63 19 44 
0 0 0 
169 52 119 
0 0 0 
56 56 128 
41 41 93 
63 19 44 
0 0 0 
67 67 153 
63 19 44 
82 59 133 
116 116 255 
0 0 0 
0 0 0 
63 19 44 
41 41 93 
115 63 144 
94 48 108 
0 0 0 
0 0 0 
41 41 93 
0 0 0 
77 77 175 
56 56 128 
0 0 0 
0 0 0 
56 56 128 
41 41 93 
41 41 93 
77 77 174 
132 55 126 
56 56 128 
56 56 128 
56 56 128 
41 41 93 
0 0 0 
68 68 154 
41 41 93 
41 41 93 
56 56 128 
115 63 144 
85 85 193 
97 95 255 
68 68 154 
0 0 0 
56 56 128 
56 56 128 
124 80 255 
41 41 93 
77 77 175 
56 56 128 
90 70 158 
255 155 255 
93 93 211 
0 0 0 
41 41 93 
0 0 0 
77 77 175 
77 77 174 
56 56 128 
32 32 234 
53 53 255 
82 51 115 
56 56 128 
86 86 194 
148 115 255 
91 65 255 
118 118 255 
255 189 255 
70 70 204 
68 68 154 
59 59 186 
77 77 175 
41 41 93 
80 79 255 
255 83 255 
138 69 172 
59 59 186 
0 0 0 
255 98 255 
196 196 255 
89 89 255 
73 73 255 
255 203 255 
255 255 255 
255 255 255 
255 255 255 
255 255 255 
255 191 192 
255 255 255 
255 164 187 
255 255 255 
255 157 157 
153 93 93 
255 255 255 
255 196 227 
255 255 255 
255 255 255 
255 255 255 
255 246 255 
255 227 227 
255 255 255 
255 255 255 
255 213 255 
255 255 255 
255 255 255 
255 255 255 
255 255 255 
255 255 255 
255 255 255 
255 255 255 
255 255 255 
255 255 255 
255 255 255 
255 255 255 
255 255 255 
140 140 140 
255 255 255 
255 255 255 
255 255 255 
255 255 255 
153 67 67 
255 151 255 
255 128 255 
255 92 168 
255 47 80 
178 78 118 
115 51 109 
255 125 143 
255 86 98 
255 255 255 
255 117 255 
255 89 199 
255 157 160 
255 31 31 
250 110 110 
143 19 19 
143 19 19 
0 0 0 
0 0 0 
255 56 56 
0 0 0 
0 0 0 
192 63 138 
255 52 255 
0 0 0 
255 87 107 
93 41 41 
93 41 41 
73 32 73 
0 0 0 
120 53 120 
93 41 41 
93 41 41 
250 110 110 
0 0 0 
153 67 67 
0 0 0 
93 41 41 
255 44 44 
73 32 73 
128 56 56 
209 92 92 
255 70 96 
0 0 0 
0 0 0 
255 54 100 
101 45 73 
153 67 67 
153 67 67 
0 0 0 
0 0 0 
0 0 0 
255 141 255 
37 7 76 
194 86 255 
73 32 103 
255 109 144 
44 19 63 
255 87 87 
255 73 120 
153 67 67 
255 80 182 
61 27 87 
209 92 92 
101 45 255 
170 75 133 
125 55 178 
255 118 118 
44 19 63 
83 36 118 
183 25 255 
153 67 67 
44 19 63 
100 44 142 
170 75 133 
56 20 96 
0 0 0 
154 9 255 
0 0 0 
108 42 175 
255 33 128 
217 96 255 
255 51 176 
66 30 99 
48 28 126 
255 171 255 
255 139 255 
255 255 255 
21 9 97 
123 58 255 
63 38 255 
87 78 255 
255 31 255 
255 48 255 
112 111 255 
214 68 255 
185 36 168 
152 67 255 
53 48 195 
41 41 132 
255 7 75 
144 80 255 
190 42 255 
85 85 255 
255 95 255 
102 60 255 
52 52 167 
68 45 173 
46 46 150 
91 56 180 
255 76 143 
181 33 162 
113 35 104 
226 21 79 
94 48 108 
94 13 90 
63 19 44 
63 19 44 
112 35 129 
109 51 115 
198 20 52 
43 1 49 
63 19 44 
0 0 0 
0 0 0 
81 46 255 
0 0 0 
63 19 44 
67 67 153 
63 19 44 
63 19 44 
63 19 44 
41 41 93 
87 27 61 
78 24 88 
255 255 255 
49 15 255 
0 0 0 
0 0 0 
41 41 93 
0 0 0 
56 56 128 
41 41 93 
51 51 248 
0 0 0 
63 19 44 
0 0 0 
0 0 0 
63 19 44 
56 56 128 
0 0 0 
0 0 0 
41 41 93 
63 19 44 
41 41 93 
0 0 0 
56 56 128 
41 41 93 
82 59 133 
73 45 101 
0 0 0 
56 56 128 
56 56 128 
121 121 255 
0 0 0 
255 255 255 
56 56 128 
0 0 0 
73 45 101 
63 19 44 
68 68 154 
0 0 0 
68 68 154 
41 41 93 
41 41 93 
41 41 93 
56 56 128 
45 45 166 
41 41 93 
41 41 93 
19 19 143 
41 41 93 
68 68 154 
68 68 154 
77 77 174 
68 68 154 
77 77 175 
41 41 93 
41 41 93 
82 82 255 
41 41 93 
77 77 175 
77 77 175 
72 72 242 
108 106 255 
74 74 255 
77 77 175 
77 77 175 
68 68 154 
105 84 228 
82 51 115 
77 77 175 
19 19 143 
56 56 128 
56 56 128 
83 82 255 
41 41 93 
106 68 255 
41 41 93 
248 59 216 
70 70 204 
145 67 255 
77 77 175 
120 74 167 
255 70 255 
45 45 166 
56 56 128 
95 95 255 
255 255 255 
255 240 255 
255 255 255 
255 255 255 
255 255 255 
255 255 255 
255 255 255 
255 255 255 
255 255 255 
255 172 255 
255 255 255 
255 255 255 
255 255 255 
255 255 255 
255 227 255 
193 163 193 
255 255 255 
255 255 255 
255 255 255 
255 255 255 
255 255 255 
255 251 255 
255 255 255 
255 255 255 
255 255 255 
255 126 255 
255 255 255 
255 232 248 
255 255 255 
255 255 255 
255 255 255 
255 255 255 
255 255 255 
255 255 255 
255 217 255 
255 255 255 
255 255 255 
255 240 255 
255 206 255 
255 70 72 
255 140 140 
255 114 255 
255 110 255 
153 67 67 
255 114 155 
101 19 144 
242 44 78 
232 67 229 
255 15 34 
185 81 168 
0 0 0 
255 79 87 
255 25 25 
0 0 0 
94 41 213 
255 111 252 
255 15 15 
255 81 255 
193 85 85 
0 0 0 
209 92 92 
166 45 45 
93 41 41 
115 51 82 
0 0 0 
0 0 0 
255 55 55 
255 56 105 
0 0 0 
115 51 109 
0 0 0 
0 0 0 
0 0 0 
153 67 67 
93 41 41 
143 19 19 
0 0 0 
0 0 0 
0 0 0 
0 0 0 
101 45 73 
153 67 67 
255 73 73 
153 67 67 
0 0 0 
73 32 103 
44 19 63 
44 19 63 
0 0 0 
255 96 134 
0 0 0 
0 0 0 
0 0 0 
0 0 0 
92 33 157 
241 107 204 
153 67 67 
0 0 0 
255 70 255 
157 69 90 
0 0 0 
160 71 193 
209 92 92 
153 67 67 
44 19 63 
44 19 63 
224 97 255 
70 31 255 
153 67 67 
157 69 90 
0 0 0 
44 19 63 
160 70 178 
93 12 41 
118 43 138 
157 69 90 
166 73 120 
192 63 255 
215 93 255 
182 25 80 
229 178 255 
107 107 255 
191 187 255 
237 129 255 
158 98 255 
145 114 255 
58 43 217 
25 25 80 
176 63 255 
153 54 232 
60 25 255 
91 90 255 
105 43 255 
176 62 255 
48 45 249 
117 45 255 
144 72 255 
82 47 255 
161 68 255 
119 52 169 
137 41 141 
134 96 255 
81 28 255 
255 35 160 
205 86 255 
54 37 255 
137 53 255 
41 41 133 
255 78 109 
207 46 104 
30 9 68 
96 20 56 
63 19 44 
0 0 0 
63 19 44 
76 7 37 
131 40 92 
112 27 70 
0 0 0 
63 19 44 
76 7 37 
63 19 44 
63 19 44 
63 19 44 
118 64 156 
115 35 190 
63 19 44 
255 45 101 
132 55 126 
87 27 61 
110 110 250 
76 20 53 
56 56 128 
41 41 93 
56 56 128 
0 0 0 
0 0 0 
73 45 101 
90 69 157 
41 41 93 
0 0 0 
0 0 0 
41 41 93 
255 92 208 
56 56 128 
0 0 0 
41 41 93 
73 45 101 
255 100 227 
0 0 0 
0 0 0 
41 41 93 
73 45 101 
41 41 93 
73 45 101 
68 68 154 
68 68 154 
41 41 93 
56 56 128 
103 32 73 
0 0 0 
0 0 0 
56 56 128 
68 68 154 
0 0 0 
68 68 154 
56 56 128 
0 0 0 
109 51 115 
56 56 128 
41 41 93 
56 56 128 
41 41 93 
67 67 153 
63 63 255 
0 0 0 
41 41 93 
68 68 154 
45 45 166 
41 41 93 
104 4 104 
123 60 255 
30 9 68 
45 45 166 
56 56 128 
86 86 194 
0 0 0 
43 43 255 
41 41 93 
90 90 255 
115 63 144 
77 77 175 
59 59 186 
45 42 255 
128 87 255 
45 45 166 
75 75 255 
136 136 255 
48 42 255 
45 45 166 
77 77 175 
32 32 234 
41 41 93 
0 0 0 
102 80 255 
68 68 154 
51 51 248 
255 255 255 
94 80 212 
41 41 93 
106 77 255 
41 41 93 
107 107 255 
106 68 255 
41 41 93 
63 61 255 
255 255 255 
255 255 255 
239 210 210 
255 255 255 
255 255 255 
255 255 255 
139 133 237 
255 162 255 
255 255 255 
255 255 255 
255 255 255 
255 255 255 
255 255 255 
255 145 240 
255 255 255 
255 255 255 
255 255 255 
255 255 255 
255 224 255 
255 255 255 
255 255 255 
255 230 230 
255 240 255 
151 121 151 
255 255 255 
255 255 255 
255 255 255 
118 118 118 
255 255 255 
153 153 251 
247 231 255 
255 251 255 
255 255 255 
255 216 255 
255 255 255 
255 255 255 
255 255 255 
255 255 255 
255 240 255 
255 115 177 
255 97 255 
234 32 32 
255 238 255 
255 94 98 
255 80 141 
0 0 0 
255 33 92 
255 68 154 
174 77 77 
0 0 0 
255 43 43 
174 77 77 
196 87 196 
143 19 19 
154 68 68 
73 32 73 
0 0 0 
255 41 255 
255 60 123 
0 0 0 
186 82 103 
193 85 85 
255 20 42 
120 53 120 
93 41 41 
73 32 73 
176 27 152 
130 25 57 
255 124 255 
153 67 67 
0 0 0 
0 0 0 
153 67 67 
255 255 255 
255 232 232 
202 78 83 
255 67 67 
255 39 86 
0 0 0 
234 32 32 
153 67 67 
255 86 249 
0 0 0 
174 77 77 
0 0 0 
93 41 41 
153 67 67 
0 0 0 
171 68 252 
0 0 0 
0 0 0 
57 25 184 
48 9 255 
153 67 67 
217 93 96 
83 36 118 
0 0 0 
0 0 0 
0 0 0 
0 0 0 
0 0 0 
0 0 0 
255 180 255 
153 67 67 
153 67 67 
101 45 255 
255 67 67 
56 20 96 
83 36 118 
92 40 131 
255 57 91 
70 31 255 
122 54 198 
0 0 0 
155 67 110 
83 36 118 
157 69 90 
111 39 255 
96 40 155 
73 32 103 
227 119 255 
0 0 0 
208 97 255 
248 150 255 
229 27 255 
161 121 255 
255 255 255 
76 74 251 
112 62 255 
255 35 255 
78 41 255 
255 168 255 
38 15 191 
255 44 255 
61 45 248 
102 32 102 
98 33 255 
129 53 255 
113 39 255 
76 76 246 
184 44 255 
122 61 197 
140 121 255 
94 63 255 
69 47 255 
59 43 195 
86 52 255 
195 71 242 
255 109 255 
96 20 56 
184 57 163 
167 47 112 
63 19 44 
255 48 109 
63 19 44 
255 40 255 
142 44 255 
53 53 255 
63 19 44 
241 113 255 
63 19 44 
118 36 83 
116 111 255 
0 0 0 
87 27 61 
32 32 234 
109 51 115 
255 145 255 
0 0 0 
0 0 0 
63 19 44 
0 0 0 
63 19 44 
49 15 111 
96 20 56 
0 0 0 
63 19 44 
63 19 44 
0 0 0 
0 0 0 
41 41 93 
76 7 37 
52 52 255 
63 19 44 
0 0 0 
0 0 0 
0 0 0 
68 68 154 
0 0 0 
0 0 0 
0 0 0 
63 19 44 
41 41 93 
41 41 93 
0 0 0 
62 43 141 
121 121 255 
56 56 128 
121 121 255 
73 58 165 
41 41 93 
56 56 128 
82 59 133 
41 41 93 
73 45 101 
0 0 0 
56 56 128 
45 45 166 
0 0 0 
41 41 93 
68 68 154 
68 68 154 
56 56 128 
77 77 175 
120 73 166 
56 56 128 
41 41 93 
255 189 255 
45 45 166 
41 41 93 
41 41 93 
77 77 175 
59 59 186 
27 12 255 
56 56 128 
93 93 211 
56 56 128 
77 77 175 
41 41 93 
56 56 128 
94 94 247 
63 19 44 
132 132 255 
68 68 154 
109 51 115 
65 58 165 
0 0 0 
59 59 186 
45 45 166 
56 56 128 
63 63 255 
52 52 255 
41 41 93 
56 56 128 
41 41 93 
77 77 175 
45 45 166 
59 59 186 
108 70 217 
65 65 255 
98 47 255 
255 47 202 
49 42 112 
59 59 186 
86 86 255 
48 48 213 
255 255 255 
255 255 255 
232 232 232 
255 167 167 
255 203 255 
255 255 255 
255 218 255 
255 255 255 
255 255 255 
255 255 255 
255 255 255 
255 255 255 
255 255 255 
255 255 255 
255 244 255 
255 255 255 
255 255 255 
255 255 255 
255 255 255 
255 255 255 
255 255 255 
255 232 255 
255 254 255 
255 202 202 
255 255 255 
255 255 255 
255 255 255 
255 255 255 
255 255 255 
255 255 255 
255 255 255 
255 255 255 
255 215 215 
255 255 255 
255 255 255 
255 240 240 
255 245 255 
255 255 255 
255 255 255 
255 218 255 
255 214 235 
255 104 255 
255 241 255 
255 165 255 
255 117 179 
255 93 255 
255 117 255 
255 60 123 
210 93 255 
255 25 25 
143 19 19 
73 32 73 
255 93 105 
255 72 72 
73 32 73 
0 0 0 
255 238 255 
143 19 19 
234 32 32 
255 89 208 
255 110 255 
0 0 0 
119 52 169 
186 82 103 
120 53 120 
0 0 0 
0 0 0 
0 0 0 
0 0 0 
102 20 102 
0 0 0 
0 0 0 
166 45 45 
0 0 0 
93 41 41 
0 0 0 
0 0 0 
0 0 0 
44 19 63 
0 0 0 
44 19 63 
255 104 140 
0 0 0 
0 0 0 
125 55 178 
255 255 255 
153 67 67 
0 0 0 
166 73 120 
0 0 0 
153 67 67 
0 0 0 
0 0 0 
0 0 0 
68 9 30 
153 67 67 
153 67 67 
153 67 67 
0 0 0 
0 0 0 
0 0 0 
193 69 85 
0 0 0 
153 67 67 
153 67 67 
44 19 63 
153 67 67 
153 67 67 
83 36 118 
245 47 121 
132 35 216 
112 46 255 
130 26 143 
108 27 211 
255 69 222 
255 128 163 
0 0 0 
157 69 90 
73 32 103 
127 40 230 
131 74 255 
211 112 255 
148 148 255 
86 44 212 
140 129 255 
255 78 255 
255 67 255 
162 114 255 
108 50 162 
107 85 255 
255 172 255 
93 91 255 
255 60 255 
30 25 138 
25 25 80 
37 27 151 
94 51 255 
39 39 255 
158 141 255 
255 38 255 
61 50 255 
157 71 255 
55 52 188 
58 56 210 
25 25 80 
129 73 255 
48 45 250 
57 39 213 
150 32 85 
59 5 94 
255 13 255 
178 55 125 
104 32 73 
87 27 61 
255 23 61 
46 4 255 
87 27 61 
63 19 44 
255 142 255 
255 141 255 
90 28 89 
0 0 0 
169 52 119 
0 0 0 
63 19 44 
49 15 79 
30 9 68 
63 19 44 
131 40 92 
63 19 44 
103 32 73 
0 0 0 
99 31 186 
0 0 0 
0 0 0 
197 181 255 
182 53 123 
0 0 0 
76 45 194 
41 41 93 
0 0 0 
132 41 255 
63 19 44 
0 0 0 
0 0 0 
58 3 255 
0 0 0 
0 0 0 
255 56 127 
41 41 93 
63 63 255 
255 111 255 
0 0 0 
0 0 0 
41 41 93 
41 41 93 
53 53 255 
41 41 93 
57 25 184 
0 0 0 
56 56 128 
255 32 234 
173 65 147 
0 0 0 
53 53 255 
0 0 0 
0 0 0 
0 0 0 
0 0 0 
56 56 128 
0 0 0 
41 41 93 
41 41 93 
56 56 128 
0 0 0 
115 63 144 
41 41 93 
59 59 186 
41 41 93 
56 56 128 
56 56 128 
56 56 128 
41 41 93 
68 68 154 
59 59 186 
59 59 186 
105 45 194 
41 41 93 
45 45 166 
41 41 93 
56 56 128 
56 56 128 
109 51 115 
45 45 166 
56 56 128 
56 56 128 
126 126 255 
41 41 93 
85 85 193 
70 70 204 
106 106 240 
56 56 128 
202 101 228 
41 41 93 
79 79 219 
0 0 0 
43 41 191 
68 68 154 
133 82 255 
61 61 228 
72 72 242 
255 97 220 
56 56 128 
45 45 166 
113 76 255 
89 86 202 
200 180 200 
255 156 255 
255 255 255 
255 255 255 
255 164 255 
255 255 255 
255 202 255 
255 255 255 
255 255 255 
255 183 255 
255 255 255 
255 211 255 
255 255 255 
255 255 255 
143 44 73 
255 255 255 
255 255 255 
255 255 255 
255 255 255 
255 255 255 
255 124 255 
255 255 255 
204 204 255 
255 255 255 
255 255 255 
255 166 189 
239 210 210 
255 255 255 
255 255 255 
255 255 255 
255 209 255 
255 199 229 
255 255 255 
255 255 255 
255 255 255 
255 255 255 
255 255 255 
255 255 255 
196 196 228 
255 255 255 
0 0 0 
255 75 75 
255 87 88 
255 62 255 
241 4 169 
255 90 255 
157 37 75 
255 143 255 
120 53 120 
255 34 143 
255 86 195 
120 53 120 
255 123 123 
0 0 0 
234 32 32 
0 0 0 
174 77 77 
0 0 0 
255 9 30 
0 0 0 
166 45 45 
211 41 133 
0 0 0 
255 55 55 
0 0 0 
255 51 97 
0 0 0 
153 67 67 
188 31 60 
255 32 38 
0 0 0 
0 0 0 
100 44 142 
35 15 112 
44 19 63 
0 0 0 
153 67 67 
174 77 255 
0 0 0 
0 0 0 
0 0 0 
153 67 67 
153 67 67 
0 0 0 
0 0 0 
0 0 0 
166 73 97 
73 32 103 
153 67 67 
0 0 0 
0 0 0 
35 15 112 
0 0 0 
0 0 0 
153 67 67 
44 19 63 
0 0 0 
170 75 133 
0 0 0 
153 67 67 
153 67 67 
234 32 234 
119 52 169 
255 99 255 
129 25 81 
119 52 169 
157 69 90 
255 25 25 
155 67 79 
255 55 132 
218 96 135 
141 62 201 
160 13 138 
255 111 111 
61 27 87 
44 19 63 
255 45 148 
164 68 72 
205 72 185 
181 87 255 
172 99 255 
52 48 255 
41 28 255 
142 111 255 
255 47 255 
50 47 255 
255 89 255 
46 46 150 
247 90 255 
95 46 255 
111 47 255 
255 59 255 
0 0 0 
48 48 255 
184 100 255 
255 111 255 
67 67 215 
231 39 255 
100 22 255 
255 122 255 
51 22 255 
47 37 188 
65 61 229 
255 195 255 
69 58 255 
59 26 153 
52 21 241 
70 62 255 
162 29 90 
105 7 52 
191 5 29 
63 19 44 
189 37 133 
76 7 37 
87 27 61 
73 45 101 
76 7 37 
207 64 249 
0 0 0 
87 27 61 
49 15 111 
0 0 0 
63 19 44 
0 0 0 
103 32 73 
63 19 44 
0 0 0 
41 41 93 
0 0 0 
41 41 93 
255 32 73 
133 41 211 
87 27 61 
158 15 34 
63 19 44 
63 19 44 
0 0 0 
0 0 0 
32 32 234 
0 0 0 
0 0 0 
0 0 0 
63 19 44 
175 74 255 
147 59 255 
0 0 0 
0 0 0 
0 0 0 
255 32 72 
180 180 255 
41 41 93 
0 0 0 
67 67 153 
0 0 0 
41 41 93 
67 67 153 
41 41 93 
89 69 255 
0 0 0 
0 0 0 
255 41 93 
0 0 0 
158 15 34 
56 56 128 
77 77 175 
0 0 0 
0 0 0 
41 41 93 
86 86 194 
0 0 0 
96 60 216 
0 0 0 
0 0 0 
63 63 255 
41 41 93 
41 41 93 
0 0 0 
41 41 93 
41 41 93 
100 56 255 
56 56 128 
41 41 93 
0 0 0 
41 41 93 
41 41 93 
74 74 255 
146 44 255 
82 82 255 
41 41 93 
0 0 0 
59 59 186 
0 0 0 
56 56 128 
70 70 204 
86 86 194 
56 56 128 
41 41 93 
118 116 255 
41 41 93 
0 0 0 
59 59 186 
41 41 93 
41 41 93 
65 65 255 
41 41 93 
75 7 255 
82 78 185 
109 90 203 
199 199 255 
0 0 0 
49 42 112 
41 41 93 
255 108 255 
97 63 253 
255 115 255 
19 19 143 
255 226 255 
255 255 255 
255 255 255 
255 255 255 
255 255 255 
255 255 255 
255 178 243 
255 255 255 
255 255 255 
255 255 255 
255 255 255 
255 219 255 
255 255 255 
255 255 255 
255 255 255 
255 193 193 
255 255 255 
255 255 255 
255 235 235 
203 196 255 
255 255 255 
255 255 255 
255 255 255 
255 189 189 
255 255 255 
255 255 255 
255 255 255 
255 255 255 
255 255 255 
255 255 255 
251 153 153 
255 209 246 
255 175 255 
255 255 255 
255 255 255 
255 255 255 
255 255 255 
255 255 255 
255 255 255 
233 233 255 
255 94 166 
255 209 209 
255 105 144 
219 97 115 
194 86 255 
255 162 255 
255 244 255 
166 73 97 
153 67 67 
0 0 0 
147 65 125 
0 0 0 
153 67 67 
255 93 95 
255 144 156 
255 44 120 
0 0 0 
255 40 64 
153 67 67 
0 0 0 
255 52 52 
153 67 67 
255 41 93 
255 52 52 
234 32 32 
0 0 0 
255 69 69 
255 15 15 
0 0 0 
0 0 0 
0 0 0 
209 92 92 
0 0 0 
0 0 0 
153 67 67 
0 0 0 
0 0 0 
0 0 0 
0 0 0 
153 67 67 
0 0 0 
120 53 120 
83 37 94 
255 67 217 
119 52 169 
153 67 67 
241 33 42 
0 0 0 
0 0 0 
0 0 0 
0 0 0 
0 0 0 
119 52 169 
209 92 92 
170 73 255 
255 129 158 
153 67 67 
73 32 103 
0 0 0 
234 32 32 
111 15 49 
255 109 143 
154 68 255 
255 74 171 
0 0 0 
129 25 81 
255 52 120 
209 92 92 
0 0 0 
162 71 107 
0 0 0 
44 19 63 
119 52 169 
0 0 0 
56 25 255 
255 90 255 
162 71 107 
92 40 131 
0 0 0 
106 91 255 
116 41 187 
255 238 255 
95 43 139 
81 28 255 
140 62 255 
255 111 255 
81 71 255 
19 19 202 
124 64 208 
141 65 255 
255 112 255 
76 76 255 
132 54 221 
255 114 255 
75 73 255 
0 0 0 
0 0 0 
175 82 255 
99 95 255 
193 43 232 
71 46 255 
117 56 255 
116 112 255 
16 7 243 
255 53 255 
59 42 202 
79 62 255 
59 59 255 
142 32 112 
0 0 0 
143 44 255 
103 32 73 
160 113 255 
30 9 68 
63 19 44 
0 0 0 
63 19 44 
63 19 44 
0 0 0 
63 19 44 
87 27 61 
255 25 56 
63 19 44 
63 19 44 
0 0 0 
49 15 79 
63 19 44 
188 111 251 
87 27 61 
118 36 83 
63 19 44 
211 27 108 
30 9 68 
0 0 0 
191 5 29 
0 0 0 
0 0 0 
111 27 78 
25 3 82 
41 41 93 
63 19 44 
0 0 0 
63 19 44 
169 52 119 
0 0 0 
63 19 44 
0 0 0 
0 0 0 
0 0 0 
0 0 0 
56 56 128 
0 0 0 
63 19 44 
0 0 0 
73 45 101 
0 0 0 
52 52 255 
143 19 143 
0 0 0 
41 41 93 
41 41 93 
0 0 0 
68 68 154 
0 0 0 
41 41 93 
56 56 128 
41 41 93 
41 41 93 
41 41 93 
45 45 166 
0 0 0 
67 67 153 
41 41 93 
0 0 0 
73 73 255 
41 41 93 
0 0 0 
41 41 93 
77 77 175 
125 65 147 
41 41 93 
116 116 255 
255 116 255 
56 56 128 
0 0 0 
41 41 93 
71 71 255 
56 56 128 
0 0 0 
41 41 93 
56 56 128 
0 0 0 
56 56 128 
77 77 175 
41 41 93 
68 68 154 
35 15 112 
98 75 255 
41 41 93 
73 68 165 
56 56 128 
0 0 0 
77 77 175 
56 56 128 
79 70 255 
19 19 143 
45 45 166 
45 45 166 
255 113 255 
85 85 193 
41 41 93 
58 58 255 
255 53 255 
120 73 166 
41 41 93 
176 128 255 
255 255 255 
255 224 231 
255 210 255 
255 156 221 
255 255 255 
255 248 255 
255 255 255 
215 181 181 
255 255 255 
255 251 255 
255 252 252 
248 238 255 
187 146 146 
189 189 255 
255 255 255 
255 255 255 
255 255 255 
255 255 255 
255 255 255 
179 179 179 
255 204 255 
255 187 255 
255 255 255 
255 255 255 
160 160 160 
255 255 255 
255 255 255 
255 255 255 
255 255 255 
255 255 255 
255 255 255 
255 255 255 
255 245 255 
255 255 255 
255 206 255 
179 179 179 
255 255 255 
228 196 196 
255 255 255 
251 246 255 
255 213 255 
255 117 231 
255 126 250 
0 0 0 
255 130 130 
143 19 19 
255 255 255 
203 69 69 
255 72 255 
203 69 69 
255 86 86 
248 95 142 
250 110 110 
209 92 92 
255 118 225 
0 0 0 
57 25 184 
255 76 99 
255 93 200 
0 0 0 
120 53 120 
255 116 140 
0 0 0 
255 77 145 
234 32 32 
234 32 32 
0 0 0 
93 41 41 
120 53 120 
73 32 103 
0 0 0 
0 0 0 
0 0 0 
250 110 110 
0 0 0 
250 110 110 
160 71 193 
252 111 124 
0 0 0 
0 0 0 
0 0 0 
0 0 0 
44 19 63 
153 67 67 
153 67 67 
153 67 67 
153 67 67 
153 67 67 
194 71 102 
166 73 120 
255 12 38 
153 67 67 
0 0 0 
0 0 0 
0 0 0 
255 67 217 
107 47 152 
235 104 188 
229 37 255 
157 69 90 
73 32 103 
48 9 255 
0 0 0 
153 67 67 
255 119 247 
119 52 169 
166 73 120 
181 80 163 
83 36 118 
74 22 137 
0 0 0 
255 183 255 
87 38 255 
255 183 255 
44 19 63 
245 70 96 
55 24 126 
83 37 255 
255 186 255 
255 123 255 
204 128 255 
255 87 255 
255 77 255 
41 28 255 
219 189 255 
204 184 255 
255 255 255 
255 87 255 
128 46 255 
143 136 255 
131 40 255 
255 73 255 
247 78 255 
34 15 158 
255 93 255 
145 143 255 
155 76 255 
136 84 255 
79 53 255 
188 49 255 
190 44 255 
255 59 191 
137 60 255 
215 56 187 
46 43 255 
71 57 255 
56 56 181 
109 54 255 
203 26 80 
63 19 44 
255 58 133 
90 28 89 
76 7 37 
87 27 61 
0 0 0 
76 20 53 
104 32 73 
124 12 61 
87 27 61 
96 20 56 
87 27 61 
0 0 0 
0 0 0 
0 0 0 
63 19 44 
0 0 0 
96 20 56 
63 19 44 
87 27 61 
0 0 0 
0 0 0 
104 32 73 
0 0 0 
0 0 0 
103 32 73 
0 0 0 
0 0 0 
41 41 93 
63 19 44 
0 0 0 
0 0 0 
0 0 0 
63 19 44 
0 0 0 
0 0 0 
63 19 44 
0 0 0 
0 0 0 
0 0 0 
63 19 44 
41 41 93 
0 0 0 
0 0 0 
0 0 0 
0 0 0 
0 0 0 
41 41 93 
73 45 101 
41 41 93 
0 0 0 
0 0 0 
0 0 0 
41 41 93 
58 58 255 
0 0 0 
41 41 93 
77 77 174 
0 0 0 
0 0 0 
0 0 0 
0 0 0 
35 15 112 
0 0 0 
68 68 154 
49 15 111 
41 41 93 
0 0 0 
25 25 255 
56 56 128 
56 56 128 
41 41 93 
41 41 93 
41 41 93 
88 69 255 
45 45 166 
0 0 0 
56 56 128 
0 0 0 
75 75 255 
41 41 93 
45 45 166 
49 15 111 
41 41 93 
41 41 93 
255 255 255 
41 41 93 
41 41 93 
56 56 128 
56 56 255 
0 0 0 
41 41 93 
68 57 180 
32 32 234 
77 77 174 
41 41 93 
63 63 255 
0 0 0 
70 70 204 
41 41 93 
56 56 128 
80 25 182 
119 71 255 
73 32 73 
119 66 205 
41 41 93 
56 56 255 
255 255 255 
255 255 255 
255 255 255 
255 255 255 
255 255 255 
255 255 255 
255 255 255 
255 255 255 
255 255 255 
255 240 255 
255 255 255 
255 255 255 
255 255 255 
255 160 209 
255 255 255 
255 211 255 
239 210 255 
255 255 255 
255 160 160 
241 212 241 
255 255 255 
255 255 255 
255 229 241 
255 193 255 
255 255 255 
255 255 255 
255 255 255 
255 255 255 
255 201 255 
255 255 255 
255 255 255 
255 255 255 
255 255 255 
255 205 205 
255 255 255 
255 204 204 
106 106 228 
255 255 255 
255 212 255 
255 255 255 
241 241 241 
255 113 235 
255 130 195 
255 231 255 
255 58 255 
255 30 64 
255 77 219 
255 52 52 
225 31 82 
213 41 94 
0 0 0 
255 41 93 
195 71 86 
255 114 129 
73 32 73 
255 139 139 
255 70 73 
255 182 255 
250 110 110 
153 67 67 
178 26 185 
153 67 67 
0 0 0 
29 5 135 
129 25 81 
0 0 0 
0 0 0 
0 0 0 
203 69 69 
143 19 19 
153 67 67 
0 0 0 
0 0 0 
0 0 0 
73 32 73 
0 0 0 
0 0 0 
153 67 67 
73 32 73 
166 73 97 
0 0 0 
153 67 67 
0 0 0 
0 0 0 
241 107 204 
153 67 67 
73 32 103 
119 52 169 
143 19 19 
216 93 151 
252 111 124 
0 0 0 
0 0 0 
101 19 204 
255 88 104 
0 0 0 
153 67 67 
0 0 0 
0 0 0 
100 44 142 
44 19 63 
0 0 0 
191 84 187 
34 15 158 
151 5 193 
255 119 255 
168 70 93 
61 27 255 
83 36 118 
201 74 130 
255 30 255 
83 36 118 
200 41 173 
166 73 121 
200 88 203 
184 63 202 
234 94 142 
88 39 192 
168 79 255 
255 58 255 
255 69 255 
255 152 255 
126 57 255 
67 67 255 
255 48 154 
255 95 255 
245 190 255 
255 147 255 
229 112 255 
80 25 255 
255 255 255 
133 53 255 
86 70 255 
59 59 255 
120 25 255 
255 47 164 
233 37 255 
255 41 255 
157 35 194 
112 67 255 
88 88 255 
46 46 150 
255 145 255 
57 53 255 
78 78 255 
89 78 255 
255 75 241 
176 61 255 
87 27 61 
63 19 44 
76 7 37 
137 22 74 
63 19 44 
255 31 70 
112 27 70 
255 36 82 
0 0 0 
126 25 106 
255 25 72 
63 19 44 
96 20 56 
63 19 44 
0 0 0 
68 21 79 
49 15 79 
0 0 0 
63 19 44 
0 0 0 
110 110 250 
87 27 61 
0 0 0 
0 0 0 
0 0 0 
103 32 73 
0 0 0 
87 27 61 
63 19 44 
41 41 93 
63 19 44 
41 41 93 
0 0 0 
0 0 0 
49 42 112 
63 19 44 
0 0 0 
0 0 0 
0 0 0 
0 0 0 
67 67 153 
0 0 0 
101 61 139 
0 0 0 
0 0 0 
0 0 0 
0 0 0 
41 41 93 
0 0 0 
0 0 0 
41 41 93 
65 65 255 
0 0 0 
0 0 0 
41 41 93 
41 41 93 
0 0 0 
56 56 128 
0 0 0 
125 118 255 
0 0 0 
0 0 0 
41 41 93 
0 0 0 
41 41 93 
0 0 0 
56 56 128 
0 0 0 
103 32 73 
80 25 182 
45 45 166 
156 156 255 
93 93 210 
68 68 154 
0 0 0 
0 0 0 
41 41 93 
0 0 0 
56 56 128 
0 0 0 
0 0 0 
255 93 211 
41 41 93 
0 0 0 
45 45 166 
77 77 174 
41 41 93 
41 41 93 
68 68 154 
32 32 234 
67 21 153 
209 117 255 
49 15 111 
41 41 93 
41 41 93 
41 41 93 
121 121 255 
85 85 193 
59 59 186 
41 41 93 
41 41 93 
56 56 128 
84 53 178 
99 77 255 
36 3 81 
255 83 255 
90 63 144 
92 92 209 
255 255 255 
255 255 255 
255 255 255 
109 109 255 
255 250 255 
255 255 255 
255 224 240 
255 254 255 
255 255 255 
255 247 247 
255 255 255 
255 255 255 
197 121 255 
255 255 255 
246 246 255 
255 255 255 
246 76 76 
255 255 255 
160 160 160 
255 255 255 
255 255 255 
255 255 255 
255 255 255 
255 255 255 
255 255 255 
255 255 255 
255 231 236 
255 255 255 
255 202 255 
255 255 255 
255 255 255 
255 252 255 
255 255 255 
255 255 255 
255 255 255 
255 255 255 
255 255 255 
255 255 255 
255 255 255 
255 188 188 
255 255 255 
255 232 255 
255 181 255 
255 107 107 
0 0 0 
255 127 207 
255 255 255 
255 117 255 
119 52 169 
247 94 94 
73 32 103 
163 22 89 
153 67 67 
119 52 169 
130 25 57 
0 0 0 
255 182 182 
0 0 0 
255 9 21 
203 69 69 
218 96 135 
203 69 69 
73 32 73 
0 0 0 
203 69 69 
246 71 199 
255 52 52 
0 0 0 
255 99 99 
255 93 255 
73 32 73 
0 0 0 
181 55 121 
0 0 0 
255 52 52 
211 41 133 
0 0 0 
93 41 255 
0 0 0 
255 109 255 
255 126 126 
234 32 32 
0 0 0 
119 52 169 
255 255 255 
0 0 0 
0 0 0 
153 67 67 
255 97 121 
0 0 0 
44 19 63 
255 255 255 
157 69 90 
0 0 0 
215 95 255 
153 67 67 
224 99 255 
237 104 214 
255 144 255 
255 62 127 
93 41 255 
255 116 255 
153 67 67 
164 68 72 
73 32 103 
73 32 103 
255 104 190 
173 76 255 
157 69 90 
67 5 60 
73 32 103 
217 96 161 
170 75 133 
255 37 121 
96 33 106 
204 64 255 
98 36 135 
156 68 99 
255 255 255 
148 111 255 
255 185 255 
60 47 235 
74 56 255 
39 24 249 
224 63 255 
58 21 216 
255 233 255 
26 26 255 
112 111 255 
255 135 255 
255 93 255 
255 124 255 
73 73 237 
170 94 255 
93 29 255 
63 54 239 
157 70 255 
45 35 178 
65 38 255 
255 150 255 
122 59 255 
157 79 255 
34 34 110 
78 50 182 
25 25 80 
39 35 142 
255 188 255 
35 32 255 
63 19 44 
224 37 121 
0 0 0 
68 21 79 
216 67 255 
255 19 58 
63 19 44 
133 0 23 
133 28 121 
87 27 61 
63 19 44 
87 27 61 
0 0 0 
0 0 0 
63 19 44 
0 0 0 
0 0 0 
0 0 0 
0 0 0 
0 0 0 
0 0 0 
86 27 255 
0 0 0 
41 41 93 
63 19 44 
63 19 44 
0 0 0 
63 19 44 
41 41 93 
41 41 93 
0 0 0 
63 19 44 
41 41 93 
63 19 44 
0 0 0 
0 0 0 
63 19 44 
255 41 93 
19 19 143 
103 32 73 
97 79 178 
0 0 0 
0 0 0 
0 0 0 
255 181 255 
0 0 0 
0 0 0 
110 110 250 
0 0 0 
0 0 0 
255 107 255 
41 41 93 
0 0 0 
41 41 93 
41 41 93 
0 0 0 
0 0 0 
41 41 93 
41 41 93 
0 0 0 
110 110 250 
41 41 93 
41 41 93 
52 52 255 
0 0 0 
0 0 0 
0 0 0 
0 0 0 
0 0 0 
56 56 128 
0 0 0 
45 45 166 
0 0 0 
45 45 166 
0 0 0 
41 41 93 
0 0 0 
41 41 93 
0 0 0 
0 0 0 
63 63 255 
45 45 166 
0 0 0 
0 0 0 
53 53 255 
56 56 128 
19 19 143 
41 41 93 
68 68 154 
96 86 218 
0 0 0 
0 0 0 
0 0 0 
41 41 93 
68 68 154 
48 48 213 
77 77 174 
19 19 143 
41 41 93 
69 69 203 
255 31 255 
170 55 180 
0 0 0 
0 0 0 
27 27 196 
69 68 224 
138 80 221 
35 15 112 
255 255 255 
255 255 255 
255 255 255 
255 255 255 
255 255 255 
255 255 255 
255 173 255 
255 255 255 
255 255 255 
255 255 255 
255 255 255 
255 255 255 
143 133 245 
255 217 220 
228 197 255 
255 255 255 
255 255 255 
255 255 255 
255 255 255 
255 255 255 
255 255 255 
255 195 255 
255 255 255 
255 156 156 
255 255 255 
255 255 255 
255 255 255 
255 178 255 
255 254 255 
255 255 255 
255 255 255 
255 158 255 
255 255 255 
255 255 255 
255 255 255 
255 255 255 
255 255 255 
255 255 255 
255 255 255 
255 255 255 
255 255 255 
255 255 255 
255 208 209 
255 150 255 
255 37 75 
255 19 63 
153 67 67 
255 19 19 
255 110 112 
255 96 96 
255 43 95 
255 255 255 
35 15 112 
160 71 193 
0 0 0 
153 67 67 
35 15 112 
255 136 136 
209 92 92 
0 0 0 
255 87 87 
196 87 196 
255 42 186 
255 12 27 
208 92 239 
0 0 0 
234 32 32 
0 0 0 
0 0 0 
0 0 0 
153 67 67 
0 0 0 
73 32 73 
255 87 198 
209 92 92 
0 0 0 
255 143 255 
73 32 103 
0 0 0 
0 0 0 
153 67 67 
0 0 0 
153 67 67 
0 0 0 
153 67 67 
0 0 0 
143 19 19 
230 90 214 
0 0 0 
255 232 232 
0 0 0 
255 107 110 
166 73 120 
255 180 180 
153 67 67 
153 67 67 
174 68 255 
153 67 67 
89 9 255 
0 0 0 
162 70 255 
255 246 246 
0 0 0 
191 84 187 
153 67 67 
243 107 210 
89 39 255 
106 46 255 
212 94 109 
255 48 255 
250 110 110 
255 73 73 
119 52 169 
255 127 159 
157 69 90 
255 79 209 
255 106 255 
214 141 255 
255 197 255 
58 56 187 
184 114 255 
167 102 255 
74 16 237 
255 255 255 
255 76 255 
125 65 214 
34 15 158 
120 81 255 
255 155 255 
37 33 255 
138 88 255 
31 26 122 
102 73 255 
150 80 255 
57 46 255 
52 47 204 
193 126 255 
157 67 255 
239 40 255 
127 42 174 
39 39 255 
37 25 203 
50 40 255 
93 36 255 
47 42 228 
62 62 255 
95 58 255 
56 48 255 
185 35 79 
118 36 83 
63 19 44 
0 0 0 
63 19 44 
63 19 44 
118 36 83 
63 19 44 
63 19 44 
87 27 61 
0 0 0 
0 0 0 
107 33 97 
97 30 97 
0 0 0 
0 0 0 
0 0 0 
87 27 61 
0 0 0 
63 19 44 
0 0 0 
0 0 0 
0 0 0 
0 0 0 
0 0 0 
255 32 165 
0 0 0 
0 0 0 
158 15 34 
0 0 0 
53 53 255 
0 0 0 
0 0 0 
0 0 0 
0 0 0 
169 52 119 
0 0 0 
0 0 0 
0 0 0 
255 39 255 
0 0 0 
0 0 0 
0 0 0 
44 19 255 
0 0 0 
0 0 0 
73 45 101 
56 56 128 
0 0 0 
0 0 0 
0 0 0 
0 0 0 
0 0 0 
0 0 0 
0 0 0 
65 65 255 
0 0 0 
0 0 0 
0 0 0 
41 41 93 
41 41 93 
0 0 0 
41 41 93 
62 57 142 
0 0 0 
0 0 0 
0 0 0 
0 0 0 
41 41 93 
56 56 128 
56 56 128 
0 0 0 
41 41 93 
0 0 0 
41 41 93 
0 0 0 
19 19 143 
0 0 0 
30 9 68 
41 41 93 
41 41 93 
0 0 0 
41 41 93 
41 41 93 
0 0 0 
46 45 191 
90 63 144 
0 0 0 
255 77 173 
0 0 0 
41 41 93 
125 63 230 
73 32 73 
0 0 0 
41 41 93 
77 77 174 
45 45 166 
41 41 93 
73 65 255 
0 0 0 
24 24 255 
157 77 255 
56 56 128 
59 59 186 
219 9 68 
45 45 166 
126 126 255 
115 17 255 
255 255 255 
255 255 255 
239 210 210 
255 255 255 
255 255 255 
255 251 255 
255 220 220 
255 255 255 
255 137 137 
255 255 255 
255 232 255 
255 255 255 
255 255 255 
255 244 244 
255 186 251 
187 146 146 
255 255 255 
161 161 161 
255 255 255 
255 255 255 
255 255 255 
255 123 146 
255 255 255 
255 255 255 
255 198 255 
255 255 255 
255 255 255 
255 255 255 
255 206 255 
255 255 255 
255 255 255 
255 255 255 
255 255 255 
255 255 255 
255 255 255 
255 255 255 
255 255 255 
255 255 255 
255 255 255 
255 255 255 
255 255 255 
255 255 255 
255 255 255 
255 155 255 
255 40 40 
255 91 159 
255 69 155 
255 77 77 
196 87 196 
184 25 57 
0 0 0 
255 86 86 
255 114 129 
184 25 57 
153 67 67 
0 0 0 
255 60 123 
0 0 0 
0 0 0 
120 53 120 
153 67 67 
255 126 126 
0 0 0 
0 0 0 
0 0 0 
153 67 67 
0 0 0 
166 73 97 
136 31 83 
0 0 0 
153 67 67 
0 0 0 
209 92 92 
0 0 0 
0 0 0 
153 67 67 
0 0 0 
255 255 255 
0 0 0 
0 0 0 
166 73 120 
255 134 255 
0 0 0 
0 0 0 
153 67 67 
0 0 0 
153 67 67 
255 255 255 
153 67 67 
0 0 0 
166 73 120 
111 15 49 
0 0 0 
44 19 63 
0 0 0 
0 0 0 
153 67 67 
182 25 80 
255 24 255 
0 0 0 
153 67 67 
0 0 0 
157 69 90 
173 76 255 
0 0 0 
44 19 63 
212 94 109 
255 230 230 
237 32 193 
153 67 67 
255 97 143 
143 56 191 
83 36 118 
182 25 80 
157 69 90 
162 71 107 
249 50 255 
229 153 255 
255 255 255 
255 255 255 
255 147 255 
219 120 255 
119 72 234 
103 53 255 
38 12 38 
123 110 255 
255 86 255 
129 109 255 
80 52 255 
59 59 255 
200 99 255 
152 36 255 
212 86 255 
79 42 255 
28 21 219 
135 57 255 
94 89 255 
255 71 255 
32 32 255 
255 54 255 
190 69 255 
21 9 97 
74 59 255 
255 232 255 
51 48 255 
64 50 255 
86 56 198 
173 68 255 
255 32 165 
186 72 164 
245 7 85 
103 32 73 
68 21 79 
87 27 61 
255 89 217 
104 32 73 
0 0 0 
0 0 0 
0 0 0 
0 0 0 
49 15 79 
63 19 44 
234 62 180 
63 19 44 
0 0 0 
49 15 79 
63 19 44 
103 32 73 
92 2 32 
123 12 87 
0 0 0 
158 15 34 
0 0 0 
0 0 0 
112 15 35 
0 0 0 
63 19 44 
53 53 255 
25 25 255 
63 19 44 
0 0 0 
0 0 0 
63 19 44 
0 0 0 
0 0 0 
41 41 93 
78 24 118 
0 0 0 
217 67 255 
0 0 0 
0 0 0 
0 0 0 
63 19 44 
0 0 0 
0 0 0 
0 0 0 
0 0 0 
41 41 93 
0 0 0 
0 0 0 
0 0 0 
0 0 0 
0 0 0 
0 0 0 
0 0 0 
0 0 0 
0 0 0 
0 0 0 
41 41 93 
0 0 0 
0 0 0 
0 0 0 
41 41 93 
0 0 0 
0 0 0 
41 41 93 
125 65 147 
0 0 0 
41 41 93 
110 110 250 
41 41 93 
80 25 182 
41 41 93 
0 0 0 
19 19 143 
68 68 154 
56 56 128 
0 0 0 
121 121 255 
89 47 155 
0 0 0 
45 45 166 
0 0 0 
0 0 0 
41 41 93 
0 0 0 
0 0 0 
0 0 0 
0 0 0 
77 77 174 
255 77 173 
68 68 154 
56 56 128 
74 74 255 
78 61 218 
154 68 255 
0 0 0 
61 61 228 
86 71 255 
45 45 166 
67 67 153 
255 151 255 
80 25 182 
77 77 174 
63 63 255 
237 53 255 
255 213 255 
255 255 255 
255 191 255 
255 255 255 
255 255 255 
255 255 255 
255 255 255 
255 255 255 
255 255 255 
255 255 255 
255 196 247 
255 255 255 
255 249 255 
255 255 255 
255 255 255 
255 255 255 
255 183 183 
255 246 255 
255 217 249 
255 255 255 
255 255 255 
255 255 255 
255 255 255 
255 255 255 
255 255 255 
255 255 255 
255 234 255 
255 232 255 
255 255 255 
255 255 255 
255 255 255 
255 255 255 
255 255 255 
255 241 250 
255 162 255 
255 211 255 
255 255 255 
255 242 255 
255 255 255 
255 255 255 
255 237 255 
255 255 255 
255 255 255 
255 123 123 
255 136 255 
255 116 255 
255 107 107 
255 143 255 
0 0 0 
188 83 134 
255 127 184 
255 207 255 
153 67 67 
73 32 73 
0 0 0 
255 111 127 
234 32 32 
241 107 204 
234 32 32 
255 41 41 
229 92 210 
35 15 112 
0 0 0 
255 142 255 
120 53 120 
255 87 87 
172 68 107 
166 73 97 
209 92 92 
136 60 181 
0 0 0 
102 20 102 
0 0 0 
209 92 92 
220 72 122 
255 36 171 
73 32 73 
0 0 0 
153 67 67 
255 183 199 
205 76 130 
153 67 67 
0 0 0 
0 0 0 
255 113 172 
0 0 0 
255 142 142 
0 0 0 
0 0 0 
0 0 0 
255 67 216 
153 67 67 
0 0 0 
0 0 0 
151 66 214 
234 32 32 
153 67 67 
255 60 60 
153 67 67 
209 92 92 
35 15 112 
255 191 211 
255 19 63 
166 73 120 
255 108 121 
0 0 0 
44 19 63 
131 58 186 
153 67 67 
162 71 107 
255 97 139 
44 19 63 
243 107 251 
254 112 125 
79 15 49 
100 44 142 
86 86 86 
255 255 255 
150 100 255 
67 67 215 
255 76 246 
41 41 132 
52 52 255 
68 64 255 
67 67 215 
182 180 255 
103 34 255 
102 60 255 
255 112 255 
165 66 255 
255 130 255 
70 64 255 
255 74 255 
60 60 194 
70 59 255 
79 74 255 
34 34 110 
30 25 138 
25 25 80 
255 117 255 
58 56 255 
128 66 255 
25 25 80 
219 74 255 
58 53 207 
60 60 194 
52 52 167 
114 56 255 
78 24 88 
63 19 44 
87 27 61 
255 36 169 
255 15 79 
0 0 0 
76 7 37 
87 27 61 
63 19 44 
0 0 0 
255 53 121 
0 0 0 
152 47 107 
63 19 44 
63 19 44 
114 60 255 
0 0 0 
0 0 0 
0 0 0 
0 0 0 
0 0 0 
0 0 0 
0 0 0 
0 0 0 
0 0 0 
0 0 0 
0 0 0 
63 19 44 
30 9 68 
142 142 255 
0 0 0 
0 0 0 
0 0 0 
0 0 0 
0 0 0 
0 0 0 
0 0 0 
255 4 32 
0 0 0 
0 0 0 
0 0 0 
0 0 0 
103 32 73 
0 0 0 
0 0 0 
41 41 93 
0 0 0 
41 41 93 
0 0 0 
0 0 0 
0 0 0 
0 0 0 
255 32 72 
0 0 0 
41 41 93 
32 32 234 
0 0 0 
0 0 0 
41 41 93 
0 0 0 
41 41 93 
41 41 93 
0 0 0 
0 0 0 
0 0 0 
56 56 128 
0 0 0 
237 51 248 
0 0 0 
56 56 128 
69 52 255 
110 110 250 
0 0 0 
255 169 255 
0 0 0 
30 9 68 
41 41 93 
41 41 93 
41 41 93 
41 41 93 
0 0 0 
59 59 186 
0 0 0 
53 53 255 
41 41 93 
41 41 93 
52 52 255 
0 0 0 
0 0 0 
0 0 0 
45 45 166 
41 41 93 
56 56 128 
255 88 200 
68 62 255 
45 45 166 
0 0 0 
0 0 0 
41 41 93 
60 60 255 
0 0 0 
145 83 255 
0 0 0 
48 48 213 
41 41 93 
60 31 188 
41 41 93 
40 40 255 
255 210 255 
255 255 255 
255 255 255 
255 255 255 
214 208 214 
255 182 182 
255 255 255 
255 255 255 
255 255 255 
255 255 255 
255 255 255 
255 166 255 
255 255 255 
255 253 255 
255 255 255 
255 255 255 
255 188 255 
255 255 255 
249 249 255 
255 255 255 
255 255 255 
255 228 231 
255 212 255 
255 255 255 
255 255 255 
255 255 255 
255 255 255 
255 244 255 
255 255 255 
255 255 255 
255 255 255 
255 242 255 
255 198 255 
255 255 255 
255 255 255 
255 255 255 
255 255 255 
255 255 255 
255 255 255 
255 255 255 
255 255 255 
255 255 255 
255 255 255 
255 255 255 
255 111 152 
255 106 106 
255 95 95 
255 100 100 
211 68 93 
255 75 75 
252 111 111 
153 67 67 
255 109 150 
153 67 67 
73 32 73 
87 12 87 
255 149 233 
255 118 255 
255 67 153 
0 0 0 
0 0 0 
0 0 0 
153 67 67 
0 0 0 
255 179 179 
255 67 67 
209 92 92 
0 0 0 
0 0 0 
0 0 0 
255 68 68 
0 0 0 
255 155 155 
0 0 0 
0 0 0 
136 60 181 
0 0 0 
0 0 0 
209 92 92 
255 110 255 
0 0 0 
153 67 67 
0 0 0 
0 0 0 
0 0 0 
157 69 255 
234 32 32 
54 24 168 
57 25 184 
0 0 0 
0 0 0 
111 15 49 
0 0 0 
209 92 92 
153 67 67 
209 92 92 
0 0 0 
153 67 67 
170 75 133 
209 92 92 
61 27 87 
44 19 63 
68 9 30 
0 0 0 
53 0 153 
107 47 152 
218 96 135 
49 2 22 
255 107 107 
0 0 0 
255 113 255 
0 0 0 
0 0 0 
203 74 130 
153 67 67 
109 9 255 
126 89 255 
255 242 255 
255 255 255 
255 125 255 
242 148 255 
255 255 255 
48 12 255 
193 193 255 
131 40 255 
177 100 255 
254 40 255 
255 89 255 
255 110 255 
111 72 255 
34 15 158 
32 32 255 
255 114 255 
94 44 255 
255 106 255 
0 0 0 
52 34 255 
170 71 255 
31 26 122 
129 57 255 
49 39 255 
31 26 122 
0 0 0 
93 90 255 
79 79 255 
109 60 255 
54 54 254 
84 47 209 
0 0 0 
0 0 0 
63 19 44 
103 32 73 
255 42 112 
87 27 61 
63 19 44 
63 19 44 
240 36 237 
255 31 255 
115 28 94 
103 32 73 
0 0 0 
0 0 0 
255 34 129 
0 0 0 
0 0 0 
118 36 83 
0 0 0 
0 0 0 
0 0 0 
0 0 0 
0 0 0 
63 19 44 
0 0 0 
0 0 0 
0 0 0 
0 0 0 
0 0 0 
0 0 0 
135 29 132 
0 0 0 
112 27 70 
0 0 0 
0 0 0 
0 0 0 
103 32 73 
63 19 44 
0 0 0 
0 0 0 
0 0 0 
0 0 0 
0 0 0 
0 0 0 
0 0 0 
41 41 93 
0 0 0 
0 0 0 
41 41 93 
0 0 0 
0 0 0 
0 0 0 
41 41 93 
0 0 0 
0 0 0 
0 0 0 
0 0 0 
0 0 0 
0 0 0 
0 0 0 
41 41 93 
0 0 0 
41 41 93 
0 0 0 
0 0 0 
68 68 154 
0 0 0 
0 0 0 
41 41 93 
0 0 0 
41 41 93 
41 41 93 
0 0 0 
62 43 141 
0 0 0 
67 67 153 
0 0 0 
57 25 184 
59 59 186 
67 67 153 
68 68 154 
0 0 0 
41 41 93 
16 7 172 
32 32 234 
103 32 73 
45 45 166 
147 50 255 
75 75 255 
41 41 93 
56 56 128 
232 232 255 
145 145 255 
136 56 255 
45 45 166 
19 19 143 
0 0 0 
52 45 176 
32 32 234 
90 70 255 
0 0 0 
41 41 93 
0 0 0 
0 0 0 
0 0 0 
255 255 255 
41 41 93 
61 61 228 
255 208 255 
255 255 255 
255 207 255 
118 118 118 
255 255 255 
255 255 255 
255 255 255 
255 204 255 
255 255 255 
255 255 255 
255 255 255 
255 255 255 
255 255 255 
210 210 255 
201 201 255 
255 255 255 
255 255 255 
255 255 255 
255 255 255 
255 255 255 
255 255 255 
255 255 255 
255 255 255 
255 255 255 
255 255 255 
255 255 255 
255 255 255 
255 194 255 
255 255 255 
140 140 140 
255 255 255 
214 195 214 
255 255 255 
255 255 255 
255 255 255 
255 255 255 
255 255 255 
255 255 255 
255 240 255 
255 215 255 
255 255 255 
255 255 255 
255 254 255 
255 255 255 
255 255 255 
255 83 87 
255 109 109 
203 69 69 
255 113 255 
255 185 255 
255 199 255 
153 67 67 
230 85 135 
255 88 95 
255 181 181 
255 31 153 
0 0 0 
0 0 0 
120 53 120 
0 0 0 
0 0 0 
153 67 67 
0 0 0 
213 84 141 
0 0 0 
209 92 92 
0 0 0 
0 0 0 
0 0 0 
0 0 0 
0 0 0 
209 92 92 
209 92 92 
0 0 0 
209 92 92 
255 112 255 
73 32 73 
73 32 103 
0 0 0 
0 0 0 
153 67 67 
155 68 128 
252 111 111 
255 99 125 
255 32 32 
129 57 242 
166 73 120 
0 0 0 
136 60 193 
209 92 92 
255 44 143 
119 52 169 
166 73 120 
0 0 0 
44 19 63 
153 67 67 
153 67 67 
153 67 67 
153 67 67 
0 0 0 
0 0 0 
255 134 205 
255 77 145 
157 69 90 
61 27 87 
188 83 179 
252 111 111 
255 255 255 
255 43 255 
213 81 170 
255 85 255 
255 127 140 
247 53 171 
255 89 252 
83 36 118 
255 237 255 
255 255 255 
116 97 255 
169 87 255 
153 123 255 
153 99 193 
255 251 255 
255 126 255 
255 66 255 
255 89 255 
45 42 160 
179 87 255 
45 41 159 
255 83 255 
138 71 255 
255 112 255 
84 49 255 
82 77 255 
0 0 0 
255 147 255 
255 255 255 
49 42 181 
95 41 255 
197 93 255 
87 71 255 
44 19 255 
48 30 255 
93 36 255 
95 82 255 
85 85 255 
99 49 179 
54 42 137 
115 38 255 
164 51 220 
76 7 37 
96 20 56 
0 0 0 
125 33 80 
148 41 98 
0 0 0 
0 0 0 
0 0 0 
63 19 44 
87 27 61 
30 9 68 
118 36 83 
63 19 44 
87 27 61 
103 32 73 
0 0 0 
76 7 37 
103 32 73 
0 0 0 
0 0 0 
154 27 148 
0 0 0 
0 0 0 
0 0 0 
30 9 68 
169 52 119 
0 0 0 
0 0 0 
0 0 0 
46 4 32 
0 0 0 
0 0 0 
0 0 0 
41 41 93 
0 0 0 
0 0 0 
0 0 0 
103 32 73 
63 19 44 
0 0 0 
0 0 0 
0 0 0 
0 0 0 
0 0 0 
0 0 0 
0 0 0 
41 41 93 
0 0 0 
0 0 0 
49 15 111 
0 0 0 
0 0 0 
0 0 0 
0 0 0 
0 0 0 
158 15 34 
0 0 0 
0 0 0 
0 0 0 
0 0 0 
0 0 0 
63 19 44 
0 0 0 
14 4 104 
218 77 255 
41 41 93 
56 56 128 
0 0 0 
31 31 255 
0 0 0 
0 0 0 
0 0 0 
41 41 93 
0 0 0 
52 52 255 
41 41 93 
19 19 143 
0 0 0 
0 0 0 
41 41 93 
255 141 255 
0 0 0 
41 41 93 
123 12 87 
0 0 0 
0 0 0 
41 41 93 
41 41 93 
41 41 93 
32 32 234 
41 41 93 
56 56 128 
41 41 93 
35 15 112 
73 32 73 
96 60 216 
19 19 143 
255 52 255 
77 77 175 
86 86 255 
56 56 128 
0 0 0 
41 41 93 
121 64 255 
0 0 0 
68 68 255 
32 32 234 
251 153 153 
255 255 255 
255 254 255 
255 255 255 
255 255 255 
255 255 255 
255 255 255 
255 227 255 
255 255 255 
255 255 255 
255 255 255 
255 255 255 
255 255 255 
255 255 255 
255 255 255 
255 255 255 
255 255 255 
255 255 255 
255 255 255 
255 255 255 
255 255 255 
255 255 255 
255 255 255 
255 255 255 
255 255 255 
255 255 255 
255 192 192 
255 190 190 
255 255 255 
255 205 205 
255 255 255 
255 255 255 
255 255 255 
244 244 244 
255 222 255 
255 197 255 
255 255 255 
255 255 255 
255 255 255 
165 165 202 
255 255 255 
255 255 255 
255 255 255 
255 255 255 
255 255 255 
255 190 255 
182 25 80 
255 191 255 
255 69 79 
255 146 225 
255 16 71 
209 92 92 
100 44 100 
255 110 110 
255 255 255 
255 68 72 
0 0 0 
0 0 0 
166 69 130 
255 164 164 
153 67 67 
0 0 0 
0 0 0 
153 67 67 
0 0 0 
0 0 0 
0 0 0 
0 0 0 
0 0 0 
153 67 67 
153 67 67 
227 100 132 
255 180 180 
0 0 0 
153 67 67 
73 32 73 
0 0 0 
153 67 67 
73 32 103 
255 99 158 
255 141 141 
0 0 0 
153 67 67 
153 67 67 
255 83 83 
255 137 137 
255 109 207 
255 93 154 
66 5 255 
209 92 92 
0 0 0 
209 92 92 
153 67 67 
164 68 72 
44 19 63 
209 92 92 
255 41 132 
255 120 197 
255 80 134 
242 107 217 
255 91 255 
255 153 162 
209 92 92 
0 0 0 
73 32 103 
153 67 67 
255 115 255 
255 77 225 
255 122 133 
83 36 118 
255 255 255 
37 7 76 
255 211 211 
136 60 193 
73 32 103 
255 255 255 
255 255 255 
122 44 141 
255 255 255 
255 88 255 
212 147 212 
255 182 255 
255 85 85 
255 32 255 
255 255 255 
73 47 255 
133 91 255 
255 185 255 
177 80 255 
55 1 38 
73 67 219 
255 143 255 
66 30 255 
221 85 255 
131 73 255 
19 19 202 
44 41 255 
54 1 54 
69 67 231 
54 54 254 
183 60 255 
194 194 255 
41 41 132 
25 25 80 
38 38 224 
140 63 255 
132 35 255 
180 95 255 
231 57 128 
92 2 32 
0 0 0 
104 32 73 
96 27 67 
0 0 0 
0 0 0 
80 25 182 
0 0 0 
0 0 0 
0 0 0 
78 24 88 
255 31 70 
0 0 0 
87 27 61 
0 0 0 
63 19 44 
0 0 0 
63 19 44 
0 0 0 
0 0 0 
0 0 0 
0 0 0 
63 19 44 
0 0 0 
0 0 0 
0 0 0 
63 19 44 
0 0 0 
0 0 0 
0 0 0 
0 0 0 
110 110 250 
63 19 44 
0 0 0 
0 0 0 
0 0 0 
0 0 0 
87 27 61 
0 0 0 
0 0 0 
0 0 0 
0 0 0 
0 0 0 
0 0 0 
0 0 0 
0 0 0 
0 0 0 
0 0 0 
30 9 68 
0 0 0 
0 0 0 
0 0 0 
0 0 0 
0 0 0 
0 0 0 
0 0 0 
0 0 0 
53 53 255 
0 0 0 
0 0 0 
0 0 0 
0 0 0 
52 52 255 
0 0 0 
32 32 234 
110 110 250 
68 68 255 
41 41 93 
0 0 0 
0 0 0 
110 110 250 
56 56 128 
41 41 93 
0 0 0 
0 0 0 
41 41 93 
19 19 143 
0 0 0 
41 41 93 
0 0 0 
103 32 73 
0 0 0 
0 0 0 
41 41 93 
0 0 0 
49 15 111 
41 41 93 
0 0 0 
56 56 128 
0 0 0 
0 0 0 
45 45 166 
19 19 143 
0 0 0 
0 0 0 
0 0 0 
77 77 174 
0 0 0 
0 0 0 
255 255 255 
101 57 228 
121 55 181 
0 0 0 
41 41 93 
116 65 196 
45 45 166 
255 75 255 
255 255 255 
255 255 255 
255 255 255 
255 255 255 
255 241 255 
255 255 255 
255 255 255 
205 205 255 
86 86 86 
255 255 255 
255 255 255 
255 234 255 
175 175 255 
255 255 255 
255 255 255 
255 240 255 
255 230 255 
255 237 255 
255 255 255 
255 255 255 
255 216 255 
255 255 255 
255 255 255 
255 255 255 
255 255 255 
255 255 255 
255 187 255 
255 255 255 
255 255 255 
255 255 255 
255 255 255 
255 255 255 
255 255 255 
255 255 255 
255 255 255 
255 255 255 
255 255 255 
255 255 255 
255 255 255 
255 255 255 
255 255 255 
255 178 199 
255 185 223 
255 255 255 
255 255 255 
255 148 148 
255 4 74 
255 168 255 
153 67 67 
234 32 32 
73 32 73 
255 139 255 
0 0 0 
253 112 255 
153 67 67 
137 60 137 
255 28 189 
0 0 0 
0 0 0 
0 0 0 
255 93 164 
255 68 88 
0 0 0 
0 0 0 
0 0 0 
166 73 120 
178 26 185 
153 67 67 
180 30 79 
153 67 67 
153 67 67 
153 67 67 
153 67 67 
0 0 0 
255 83 83 
157 69 90 
0 0 0 
0 0 0 
255 107 107 
0 0 0 
0 0 0 
0 0 0 
153 67 67 
160 71 193 
56 25 255 
153 67 67 
255 73 73 
255 127 130 
153 67 67 
0 0 0 
157 69 90 
166 73 120 
218 96 135 
175 73 255 
166 73 120 
212 94 109 
155 68 128 
166 73 120 
61 27 87 
153 67 67 
73 32 103 
157 69 90 
255 114 147 
255 19 63 
255 95 178 
153 67 67 
108 27 211 
153 67 67 
191 33 108 
87 33 142 
157 69 90 
255 120 179 
255 82 174 
255 69 224 
76 76 255 
255 127 255 
255 255 255 
73 32 103 
255 201 255 
255 255 255 
255 255 255 
87 66 255 
227 227 255 
255 41 132 
25 25 80 
198 198 255 
184 184 255 
25 25 255 
199 42 255 
110 91 255 
255 121 255 
255 86 255 
105 39 255 
70 54 255 
209 113 255 
187 104 255 
45 41 159 
51 28 178 
96 44 255 
59 41 155 
67 25 117 
25 25 80 
38 38 224 
25 25 80 
59 52 255 
68 68 255 
25 25 80 
96 48 189 
87 27 61 
0 0 0 
104 32 73 
255 27 61 
0 0 0 
255 48 111 
0 0 0 
0 0 0 
193 60 136 
97 30 97 
44 4 210 
168 24 54 
0 0 0 
87 27 61 
63 19 44 
0 0 0 
30 9 68 
168 24 255 
0 0 0 
0 0 0 
0 0 0 
0 0 0 
63 19 44 
103 32 73 
0 0 0 
0 0 0 
0 0 0 
63 19 44 
0 0 0 
0 0 0 
0 0 0 
0 0 0 
0 0 0 
0 0 0 
0 0 0 
0 0 0 
63 19 44 
0 0 0 
0 0 0 
0 0 0 
0 0 0 
0 0 0 
41 41 93 
63 19 44 
0 0 0 
0 0 0 
0 0 0 
0 0 0 
0 0 0 
0 0 0 
0 0 0 
0 0 0 
41 41 93 
0 0 0 
0 0 0 
110 110 250 
0 0 0 
0 0 0 
0 0 0 
0 0 0 
0 0 0 
0 0 0 
0 0 0 
0 0 0 
41 41 93 
0 0 0 
0 0 0 
0 0 0 
0 0 0 
0 0 0 
41 41 93 
0 0 0 
0 0 0 
0 0 0 
0 0 0 
41 41 93 
0 0 0 
0 0 0 
0 0 0 
32 32 234 
0 0 0 
0 0 0 
89 78 201 
41 41 93 
181 60 255 
41 41 93 
41 41 93 
56 56 128 
0 0 0 
41 41 93 
45 45 166 
49 15 111 
0 0 0 
85 85 255 
45 45 166 
41 41 93 
0 0 0 
49 42 112 
0 0 0 
81 34 208 
121 121 255 
0 0 0 
0 0 0 
219 78 255 
52 52 255 
23 7 171 
167 77 255 
0 0 0 
255 255 255 
255 255 255 
255 255 255 
220 220 220 
255 255 255 
255 255 255 
255 255 255 
255 255 255 
255 255 255 
255 255 255 
255 255 255 
255 255 255 
255 255 255 
179 179 179 
255 254 255 
255 210 255 
255 255 255 
255 255 255 
255 255 255 
163 163 255 
255 202 202 
255 201 255 
255 255 255 
255 255 255 
255 192 196 
255 255 255 
255 255 255 
255 231 255 
255 255 255 
255 255 255 
255 255 255 
255 255 255 
255 119 255 
255 255 255 
171 123 255 
255 255 255 
255 255 255 
255 196 196 
255 255 255 
255 255 255 
255 255 255 
255 255 255 
255 255 255 
255 255 255 
255 171 255 
255 123 123 
255 255 255 
255 142 148 
255 99 226 
255 123 249 
255 89 243 
153 67 67 
255 111 111 
255 159 188 
255 114 129 
255 52 52 
255 144 255 
255 100 255 
120 53 120 
209 92 92 
120 53 120 
153 67 67 
209 92 92 
255 53 120 
153 67 67 
255 41 141 
153 67 67 
235 104 147 
153 67 67 
255 83 255 
255 83 83 
0 0 0 
0 0 0 
153 67 67 
143 19 19 
188 83 134 
196 87 196 
255 71 192 
255 116 148 
255 53 255 
0 0 0 
209 92 92 
255 110 250 
166 73 97 
255 127 127 
255 121 197 
255 86 86 
44 19 63 
255 96 132 
153 67 67 
166 73 120 
0 0 0 
0 0 0 
88 13 206 
0 0 0 
209 92 92 
157 69 90 
209 92 92 
209 92 92 
255 67 217 
156 68 99 
192 85 188 
0 0 0 
255 115 255 
241 47 152 
94 28 255 
218 96 135 
255 31 67 
55 24 126 
153 67 67 
153 67 67 
255 244 255 
198 87 255 
255 255 255 
255 222 255 
255 251 255 
255 255 255 
56 25 255 
255 234 255 
148 84 255 
117 104 255 
215 171 255 
195 195 227 
255 116 225 
255 255 255 
84 72 255 
190 136 255 
255 178 255 
76 33 255 
255 255 255 
152 48 255 
96 79 255 
72 52 255 
122 84 255 
120 36 255 
121 121 255 
255 124 255 
42 41 214 
255 34 255 
93 93 255 
130 32 255 
48 45 249 
63 63 255 
31 26 122 
255 255 255 
169 64 255 
0 0 0 
255 151 255 
67 67 153 
255 87 198 
104 32 73 
0 0 0 
63 19 44 
213 43 98 
87 27 61 
178 55 125 
0 0 0 
87 27 61 
63 19 44 
0 0 0 
63 19 44 
63 19 44 
132 41 255 
0 0 0 
0 0 0 
0 0 0 
63 19 44 
0 0 0 
0 0 0 
63 19 44 
158 15 34 
0 0 0 
63 19 44 
0 0 0 
23 7 171 
30 9 68 
0 0 0 
0 0 0 
0 0 0 
0 0 0 
103 32 73 
0 0 0 
0 0 0 
0 0 0 
0 0 0 
0 0 0 
0 0 0 
0 0 0 
0 0 0 
0 0 0 
0 0 0 
0 0 0 
0 0 0 
0 0 0 
93 41 255 
0 0 0 
63 19 44 
19 19 143 
0 0 0 
41 41 93 
0 0 0 
0 0 0 
255 32 73 
0 0 0 
0 0 0 
0 0 0 
0 0 0 
0 0 0 
0 0 0 
0 0 0 
0 0 0 
0 0 0 
0 0 0 
0 0 0 
19 19 143 
171 60 255 
0 0 0 
80 25 182 
0 0 0 
41 41 93 
41 41 93 
0 0 0 
0 0 0 
0 0 0 
0 0 0 
41 41 93 
49 15 111 
0 0 0 
0 0 0 
32 32 234 
0 0 0 
67 67 153 
143 19 143 
32 32 234 
0 0 0 
41 41 93 
0 0 0 
0 0 0 
132 41 255 
30 9 68 
0 0 0 
0 0 0 
0 0 0 
67 67 153 
0 0 0 
45 45 166 
0 0 0 
115 69 255 
56 56 128 
51 51 248 
126 126 255 
91 91 255 
0 0 0 
0 0 0 
255 142 255 
255 87 235 
255 199 255 
255 255 255 
255 255 255 
255 189 234 
255 215 215 
255 255 255 
255 255 255 
211 211 255 
255 255 255 
255 209 231 
255 240 255 
255 255 255 
255 255 255 
255 255 255 
255 255 255 
255 245 255 
255 255 255 
255 235 255 
255 255 255 
255 255 255 
255 255 255 
255 255 255 
255 255 255 
255 247 255 
255 255 255 
255 208 255 
255 255 255 
255 204 255 
255 255 255 
255 255 255 
255 255 255 
255 221 255 
202 202 255 
255 255 255 
255 255 255 
255 255 255 
255 189 255 
255 255 255 
255 255 255 
255 251 255 
255 255 255 
255 255 255 
255 255 255 
255 207 255 
255 222 255 
255 255 255 
255 93 255 
255 249 255 
247 94 94 
255 76 106 
255 83 83 
255 41 133 
255 111 252 
0 0 0 
255 186 255 
255 117 168 
255 73 76 
188 83 134 
0 0 0 
255 134 134 
255 71 71 
255 92 255 
0 0 0 
153 67 67 
0 0 0 
0 0 0 
120 53 120 
153 67 67 
255 222 222 
180 67 68 
255 146 172 
209 92 92 
219 97 115 
0 0 0 
93 41 255 
166 73 120 
0 0 0 
209 70 139 
255 230 230 
0 0 0 
0 0 0 
153 67 67 
111 15 49 
255 153 255 
153 67 67 
252 111 111 
255 255 255 
252 111 111 
145 39 255 
252 111 111 
217 93 96 
153 67 67 
166 73 120 
83 36 118 
153 67 67 
255 52 235 
153 67 67 
153 67 67 
255 102 148 
153 67 67 
255 181 182 
165 73 255 
255 127 135 
255 83 83 
173 76 214 
83 36 118 
255 99 157 
153 67 67 
255 182 203 
255 115 127 
255 126 255 
255 36 255 
255 93 153 
255 39 255 
96 73 234 
41 41 132 
255 86 194 
169 169 255 
255 255 255 
255 198 255 
255 255 255 
24 2 230 
255 209 255 
157 148 255 
255 211 255 
255 255 255 
112 67 255 
102 32 102 
255 112 255 
170 60 255 
74 26 255 
255 43 199 
255 58 255 
211 93 255 
255 174 255 
214 130 255 
178 73 255 
255 124 255 
185 46 255 
255 52 255 
79 45 147 
105 48 255 
255 236 255 
255 25 255 
72 70 255 
63 47 155 
54 54 254 
62 19 62 
125 33 80 
103 32 73 
97 30 97 
255 24 206 
87 27 61 
131 40 92 
88 16 86 
255 112 255 
87 27 61 
0 0 0 
0 0 0 
0 0 0 
0 0 0 
0 0 0 
0 0 0 
255 114 255 
63 19 44 
0 0 0 
0 0 0 
0 0 0 
0 0 0 
76 7 37 
142 44 100 
0 0 0 
0 0 0 
0 0 0 
0 0 0 
87 27 61 
0 0 0 
255 255 255 
103 32 73 
0 0 0 
0 0 0 
0 0 0 
0 0 0 
0 0 0 
0 0 0 
63 19 44 
0 0 0 
0 0 0 
0 0 0 
0 0 0 
0 0 0 
0 0 0 
0 0 0 
0 0 0 
0 0 0 
0 0 0 
0 0 0 
0 0 0 
0 0 0 
0 0 0 
0 0 0 
0 0 0 
0 0 0 
0 0 0 
0 0 0 
0 0 0 
0 0 0 
0 0 0 
0 0 0 
0 0 0 
56 56 128 
41 41 93 
0 0 0 
0 0 0 
0 0 0 
0 0 0 
45 45 166 
0 0 0 
0 0 0 
41 41 93 
0 0 0 
19 19 143 
0 0 0 
32 32 234 
0 0 0 
0 0 0 
19 19 143 
0 0 0 
67 67 153 
19 19 143 
0 0 0 
41 41 93 
0 0 0 
19 19 143 
35 21 155 
41 41 93 
41 41 93 
51 51 248 
41 41 93 
19 19 143 
56 56 128 
25 20 217 
0 0 0 
0 0 0 
57 25 130 
78 44 242 
51 51 248 
68 68 154 
44 19 255 
255 41 93 
30 9 68 
73 32 73 
0 0 0 
27 27 196 
83 53 255 
57 35 254 
255 255 255 
255 180 180 
255 255 255 
255 255 255 
255 255 255 
255 255 255 
255 255 255 
255 255 255 
255 255 255 
255 255 255 
255 255 255 
255 255 255 
255 244 255 
255 255 255 
255 255 255 
255 255 255 
255 255 255 
255 255 255 
255 255 255 
255 255 255 
255 220 255 
255 252 252 
255 255 255 
255 196 255 
255 255 255 
255 255 255 
255 255 255 
86 86 86 
255 255 255 
255 255 255 
255 255 255 
255 255 255 
255 255 255 
255 255 255 
255 211 255 
255 247 255 
255 255 255 
255 255 255 
255 255 255 
255 255 255 
255 255 255 
255 255 255 
255 255 255 
255 237 255 
255 255 255 
255 147 213 
255 255 255 
140 140 140 
0 0 0 
153 21 67 
255 143 224 
255 132 168 
255 78 255 
255 154 255 
255 110 255 
245 93 255 
255 120 255 
143 19 19 
255 202 255 
255 149 186 
0 0 0 
252 111 111 
255 131 255 
250 110 110 
68 9 219 
255 19 45 
255 126 126 
209 92 92 
255 100 255 
255 83 178 
0 0 0 
255 180 180 
153 67 67 
255 80 162 
153 67 67 
255 75 75 
0 0 0 
255 106 106 
0 0 0 
177 78 154 
153 67 67 
0 0 0 
255 77 77 
218 96 135 
255 190 190 
209 92 92 
0 0 0 
153 67 67 
237 65 209 
153 67 67 
111 15 49 
255 60 171 
255 99 255 
252 111 111 
153 67 67 
153 67 67 
83 36 118 
188 83 179 
255 88 104 
209 92 92 
79 15 255 
214 45 144 
83 36 118 
0 0 0 
255 130 255 
255 96 96 
255 188 255 
255 187 251 
240 72 255 
255 181 255 
255 99 255 
131 79 255 
255 236 255 
255 203 255 
148 24 248 
182 182 255 
255 252 255 
140 140 140 
255 255 255 
255 240 255 
255 255 255 
209 26 152 
174 156 255 
255 167 255 
255 217 255 
206 206 255 
188 188 255 
255 43 255 
0 0 0 
19 19 202 
140 68 255 
88 73 255 
255 183 255 
152 60 193 
82 26 255 
44 44 235 
62 19 62 
37 7 76 
122 54 255 
47 35 231 
255 50 255 
26 11 255 
49 47 255 
41 28 174 
223 87 255 
25 25 80 
118 52 255 
0 0 0 
255 54 255 
119 37 83 
115 35 190 
192 49 255 
0 0 0 
255 46 190 
87 27 61 
63 19 44 
255 32 80 
63 19 44 
63 19 44 
0 0 0 
0 0 0 
76 7 37 
87 27 61 
96 20 56 
0 0 0 
0 0 0 
0 0 0 
0 0 0 
87 12 87 
63 19 44 
118 36 83 
0 0 0 
0 0 0 
0 0 0 
0 0 0 
0 0 0 
0 0 0 
0 0 0 
0 0 0 
81 25 129 
63 19 44 
53 53 255 
63 19 44 
112 15 35 
0 0 0 
0 0 0 
0 0 0 
0 0 0 
0 0 0 
0 0 0 
0 0 0 
120 53 120 
0 0 0 
0 0 0 
0 0 0 
0 0 0 
0 0 0 
0 0 0 
0 0 0 
0 0 0 
0 0 0 
0 0 0 
0 0 0 
19 19 143 
0 0 0 
0 0 0 
0 0 0 
0 0 0 
0 0 0 
0 0 0 
41 41 93 
41 41 93 
0 0 0 
0 0 0 
0 0 0 
0 0 0 
0 0 0 
0 0 0 
0 0 0 
67 67 153 
0 0 0 
0 0 0 
0 0 0 
41 41 93 
0 0 0 
131 131 255 
0 0 0 
0 0 0 
41 41 93 
0 0 0 
0 0 0 
0 0 0 
0 0 0 
0 0 0 
32 32 234 
0 0 0 
0 0 0 
255 19 255 
19 19 143 
56 56 128 
19 19 143 
0 0 0 
30 9 68 
41 41 93 
52 24 176 
23 4 255 
68 67 180 
0 0 0 
0 0 0 
135 135 255 
63 19 255 
0 0 0 
132 111 255 
255 71 255 
67 67 153 
208 208 208 
255 255 255 
255 255 255 
255 255 255 
255 255 255 
255 255 255 
255 255 255 
255 222 228 
255 255 255 
255 255 255 
228 196 196 
255 255 255 
255 225 255 
255 255 255 
255 255 255 
255 255 255 
255 252 252 
255 255 255 
255 255 255 
255 248 250 
255 229 249 
255 192 255 
255 249 255 
255 255 255 
255 255 255 
255 255 255 
255 139 255 
255 255 255 
255 255 255 
228 228 255 
255 255 255 
255 250 250 
255 255 255 
255 249 255 
255 160 160 
255 246 246 
221 221 221 
209 190 255 
255 212 212 
255 212 255 
255 251 255 
255 178 178 
255 243 255 
255 253 253 
86 86 86 
255 157 157 
255 255 255 
255 255 255 
255 158 255 
255 255 255 
255 255 255 
255 82 135 
0 0 0 
255 126 126 
255 146 146 
209 92 92 
0 0 0 
73 32 73 
153 67 67 
255 117 117 
255 126 255 
234 32 32 
255 25 57 
255 74 129 
153 67 67 
188 83 179 
73 32 103 
153 67 67 
255 142 142 
234 32 32 
209 92 92 
255 101 176 
153 67 67 
188 83 134 
153 67 67 
0 0 0 
255 120 255 
153 67 67 
153 67 67 
87 12 87 
252 111 111 
223 93 123 
255 96 96 
209 92 92 
255 127 127 
0 0 0 
164 68 72 
255 154 168 
93 34 141 
255 87 87 
255 165 165 
153 67 67 
153 67 67 
61 27 87 
166 73 120 
166 73 120 
255 128 255 
255 113 230 
226 97 137 
255 35 186 
153 67 67 
56 25 255 
255 122 255 
255 131 255 
255 77 145 
255 106 205 
255 83 255 
153 67 67 
35 2 228 
179 37 188 
255 141 141 
83 36 118 
255 255 255 
255 208 255 
187 64 255 
214 90 255 
255 255 255 
63 39 255 
255 255 255 
184 182 255 
231 209 255 
255 32 103 
255 225 255 
255 251 255 
255 232 255 
250 235 255 
255 255 255 
255 126 126 
255 255 255 
85 80 255 
179 52 255 
255 255 255 
0 0 0 
131 78 255 
34 15 158 
95 71 255 
255 54 255 
255 32 255 
181 21 255 
56 56 255 
68 57 255 
0 0 0 
80 39 255 
112 28 255 
91 90 255 
66 66 255 
50 47 174 
41 28 174 
255 55 255 
