P3
256 256
255
255 159 159 
0 0 0 
0 0 0 
0 0 0 
255 126 126 
0 0 0 
0 0 0 
255 59 59 
0 0 0 
232 22 163 
126 126 255 
0 0 0 
255 62 79 
0 0 0 
0 0 0 
127 127 255 
86 8 86 
255 255 255 
247 77 77 
255 60 60 
0 0 0 
127 127 255 
0 0 0 
206 206 255 
247 77 77 
118 36 118 
255 60 60 
247 77 77 
255 216 216 
0 0 0 
0 0 0 
0 0 0 
0 0 0 
255 36 118 
255 127 127 
0 0 0 
0 0 0 
0 0 0 
0 0 0 
255 160 255 
247 77 77 
0 0 0 
247 77 77 
0 0 0 
247 77 77 
255 255 255 
0 0 0 
255 255 255 
0 0 0 
0 0 0 
0 0 0 
255 255 255 
247 77 77 
0 0 0 
246 76 255 
255 255 255 
92 28 209 
0 0 0 
255 126 126 
255 105 105 
0 0 0 
0 0 0 
255 206 206 
0 0 0 
0 0 0 
255 255 255 
0 0 0 
0 0 0 
247 77 77 
0 0 0 
0 0 0 
247 77 77 
255 255 255 
0 0 0 
0 0 0 
255 255 255 
247 77 77 
255 255 255 
0 0 0 
0 0 0 
255 255 255 
0 0 0 
255 255 255 
0 0 0 
0 0 0 
0 0 0 
0 0 0 
77 77 247 
118 36 118 
127 127 255 
77 77 247 
255 255 255 
255 255 255 
127 127 255 
0 0 0 
255 98 255 
255 255 255 
255 255 255 
247 77 77 
247 77 77 
255 255 255 
0 0 0 
0 0 0 
118 36 118 
255 105 105 
0 0 0 
255 126 126 
255 186 186 
255 99 99 
255 255 255 
0 0 0 
0 0 0 
255 144 255 
0 0 0 
0 0 0 
0 0 0 
0 0 0 
0 0 0 
255 126 126 
0 0 0 
0 0 0 
0 0 0 
0 0 0 
255 126 126 
247 77 77 
255 255 255 
0 0 0 
247 77 77 
0 0 0 
0 0 0 
0 0 0 
255 99 224 
255 255 255 
255 105 105 
127 127 255 
126 126 255 
0 0 0 
77 77 247 
247 77 77 
0 0 0 
0 0 0 
0 0 0 
0 0 0 
255 255 255 
247 77 77 
0 0 0 
0 0 0 
0 0 0 
255 127 127 
77 77 247 
0 0 0 
0 0 0 
255 99 99 
0 0 0 
0 0 0 
126 126 255 
255 255 255 
255 94 153 
0 0 0 
0 0 0 
0 0 0 
255 255 255 
0 0 0 
0 0 0 
255 208 218 
0 0 0 
77 77 247 
0 0 0 
0 0 0 
0 0 0 
0 0 0 
255 255 255 
255 255 255 
255 244 255 
255 206 255 
255 255 255 
0 0 0 
0 0 0 
0 0 0 
0 0 0 
248 77 255 
0 0 0 
0 0 0 
76 76 255 
77 77 247 
0 0 0 
0 0 0 
0 0 0 
0 0 0 
0 0 0 
0 0 0 
0 0 0 
0 0 0 
255 255 255 
0 0 0 
255 81 253 
0 0 0 
77 77 247 
255 224 255 
0 0 0 
0 0 0 
255 255 255 
0 0 0 
0 0 0 
255 13 44 
0 0 0 
255 162 255 
0 0 0 
0 0 0 
0 0 0 
0 0 0 
255 255 255 
255 131 255 
0 0 0 
255 172 255 
255 255 255 
77 77 247 
0 0 0 
255 255 255 
0 0 0 
0 0 0 
0 0 0 
126 126 255 
0 0 0 
0 0 0 
0 0 0 
255 126 126 
255 255 255 
0 0 0 
193 60 193 
255 255 255 
0 0 0 
255 255 255 
255 127 127 
127 127 255 
0 0 0 
247 77 77 
0 0 0 
255 255 255 
247 77 77 
0 0 0 
255 255 255 
144 144 255 
255 255 255 
255 255 255 
164 87 255 
0 0 0 
126 126 255 
255 127 255 
126 126 255 
0 0 0 
0 0 0 
118 36 118 
0 0 0 
0 0 0 
0 0 0 
255 255 255 
255 105 255 
255 255 255 
255 126 126 
247 77 77 
0 0 0 
0 0 0 
255 206 206 
255 255 255 
255 255 255 
207 207 255 
0 0 0 
247 77 77 
255 174 255 
255 255 255 
247 77 77 
0 0 0 
0 0 0 
255 241 255 
255 255 255 
255 105 105 
255 170 255 
0 0 0 
255 127 127 
0 0 0 
247 77 77 
0 0 0 
0 0 0 
255 255 255 
255 98 255 
255 105 255 
0 0 0 
0 0 0 
255 186 186 
0 0 0 
255 255 255 
0 0 0 
0 0 0 
255 255 255 
255 36 82 
255 126 126 
224 224 255 
247 77 77 
127 127 255 
247 77 77 
255 156 255 
127 127 255 
255 255 255 
181 17 56 
247 77 77 
0 0 0 
0 0 0 
247 77 77 
0 0 0 
247 77 77 
0 0 0 
255 255 255 
255 255 255 
0 0 0 
255 156 255 
0 0 0 
0 0 0 
247 77 77 
255 198 198 
0 0 0 
255 255 255 
161 161 161 
0 0 0 
255 198 255 
255 255 255 
255 132 191 
255 126 126 
0 0 0 
252 95 255 
199 82 255 
0 0 0 
255 28 92 
247 77 77 
255 255 255 
255 60 60 
255 95 204 
255 208 255 
247 77 77 
0 0 0 
0 0 0 
0 0 0 
0 0 0 
77 77 247 
255 255 255 
77 77 247 
0 0 0 
254 105 255 
0 0 0 
255 105 105 
77 77 247 
118 36 255 
118 36 118 
255 175 175 
0 0 0 
0 0 0 
0 0 0 
255 76 255 
247 77 77 
0 0 0 
255 255 255 
0 0 0 
0 0 0 
0 0 0 
0 0 0 
0 0 0 
247 77 77 
0 0 0 
0 0 0 
60 60 255 
255 173 255 
0 0 0 
255 170 255 
0 0 0 
0 0 0 
255 255 255 
255 255 255 
255 36 36 
206 206 255 
255 127 255 
255 255 255 
126 126 255 
255 255 255 
0 0 0 
0 0 0 
255 161 161 
0 0 0 
245 170 205 
0 0 0 
77 77 247 
0 0 0 
0 0 0 
0 0 0 
0 0 0 
77 77 247 
0 0 0 
0 0 0 
255 255 255 
255 206 206 
0 0 0 
0 0 0 
0 0 0 
77 77 247 
255 98 98 
0 0 0 
0 0 0 
0 0 0 
77 77 247 
0 0 0 
95 95 255 
0 0 0 
0 0 0 
127 127 255 
0 0 0 
118 36 118 
247 77 77 
255 254 254 
255 126 126 
176 78 255 
0 0 0 
0 0 0 
0 0 0 
255 60 60 
0 0 0 
0 0 0 
127 127 255 
204 95 255 
51 22 255 
0 0 0 
255 255 255 
0 0 0 
0 0 0 
0 0 0 
0 0 0 
0 0 0 
247 77 77 
0 0 0 
255 255 255 
0 0 0 
0 0 0 
0 0 0 
255 126 126 
218 218 255 
255 127 127 
0 0 0 
255 255 255 
255 255 255 
255 99 224 
255 98 255 
0 0 0 
0 0 0 
255 126 126 
255 127 127 
0 0 0 
204 95 255 
255 127 127 
0 0 0 
255 255 255 
255 255 255 
255 255 255 
0 0 0 
0 0 0 
0 0 0 
0 0 0 
0 0 0 
0 0 0 
0 0 0 
0 0 0 
0 0 0 
0 0 0 
247 77 77 
255 255 255 
255 144 255 
0 0 0 
0 0 0 
0 0 0 
0 0 0 
255 126 126 
0 0 0 
118 36 118 
0 0 0 
255 121 255 
255 255 255 
206 206 255 
255 126 126 
0 0 0 
0 0 0 
0 0 0 
0 0 0 
255 126 126 
0 0 0 
0 0 0 
0 0 0 
255 126 126 
144 144 255 
255 65 255 
126 126 255 
255 255 255 
118 36 118 
255 83 255 
0 0 0 
77 77 247 
77 77 247 
0 0 0 
0 0 0 
77 77 247 
255 255 255 
0 0 0 
77 77 247 
0 0 0 
153 110 255 
118 36 118 
255 126 126 
0 0 0 
255 255 255 
0 0 0 
247 77 77 
0 0 0 
247 77 77 
255 216 216 
0 0 0 
0 0 0 
255 105 105 
255 255 255 
255 255 255 
255 255 255 
0 0 0 
247 77 77 
0 0 0 
247 77 77 
255 255 255 
255 255 255 
0 0 0 
255 121 121 
255 126 126 
0 0 0 
255 255 255 
255 128 255 
255 206 206 
0 0 0 
255 255 255 
255 255 255 
0 0 0 
255 126 126 
0 0 0 
0 0 0 
0 0 0 
255 216 255 
0 0 0 
255 255 255 
255 255 255 
0 0 0 
255 255 255 
225 137 255 
118 36 118 
247 77 77 
247 77 77 
0 0 0 
0 0 0 
0 0 0 
255 132 255 
0 0 0 
0 0 0 
255 188 188 
0 0 0 
127 127 255 
0 0 0 
0 0 0 
255 99 99 
0 0 0 
255 126 126 
0 0 0 
255 37 189 
138 8 255 
255 255 255 
0 0 0 
0 0 0 
0 0 0 
255 255 255 
127 127 255 
247 77 77 
255 60 60 
0 0 0 
0 0 0 
255 255 255 
255 255 255 
0 0 0 
127 127 255 
0 0 0 
0 0 0 
0 0 0 
0 0 0 
0 0 0 
255 255 255 
60 60 255 
0 0 0 
255 226 255 
255 255 255 
255 255 255 
0 0 0 
0 0 0 
0 0 0 
0 0 0 
0 0 0 
0 0 0 
0 0 0 
247 77 77 
255 145 255 
247 77 77 
255 126 126 
255 255 255 
255 126 126 
77 77 247 
0 0 0 
255 255 255 
255 60 60 
255 60 60 
255 199 199 
0 0 0 
118 36 255 
127 127 255 
255 255 255 
0 0 0 
126 126 255 
247 77 77 
255 78 157 
0 0 0 
255 162 180 
255 126 126 
247 77 77 
255 127 127 
255 255 255 
255 255 255 
0 0 0 
255 255 255 
0 0 0 
0 0 0 
247 77 77 
199 199 255 
255 255 255 
255 206 206 
0 0 0 
0 0 0 
0 0 0 
254 105 255 
0 0 0 
255 121 255 
0 0 0 
0 0 0 
255 206 206 
0 0 0 
0 0 0 
0 0 0 
0 0 0 
0 0 0 
254 254 255 
0 0 0 
0 0 0 
0 0 0 
0 0 0 
0 0 0 
0 0 0 
0 0 0 
0 0 0 
0 0 0 
0 0 0 
255 255 255 
0 0 0 
255 255 255 
255 255 255 
255 161 255 
77 77 247 
255 255 255 
255 255 255 
0 0 0 
127 127 255 
0 0 0 
255 77 174 
255 255 255 
0 0 0 
255 255 255 
255 255 255 
0 0 0 
0 0 0 
0 0 0 
247 77 77 
255 255 255 
0 0 0 
0 0 0 
0 0 0 
255 255 255 
255 255 255 
255 255 255 
255 255 255 
255 255 255 
77 77 247 
0 0 0 
161 161 161 
255 255 255 
255 255 255 
0 0 0 
0 0 0 
0 0 0 
0 0 0 
255 255 255 
0 0 0 
60 60 255 
0 0 0 
255 255 255 
255 194 255 
0 0 0 
255 255 255 
0 0 0 
0 0 0 
0 0 0 
0 0 0 
118 36 118 
0 0 0 
0 0 0 
0 0 0 
0 0 0 
0 0 0 
255 255 255 
255 216 255 
118 36 118 
255 126 126 
0 0 0 
255 127 127 
255 173 173 
0 0 0 
0 0 0 
255 98 255 
255 255 255 
255 172 255 
255 255 255 
0 0 0 
47 47 255 
0 0 0 
0 0 0 
193 60 193 
255 161 255 
126 126 255 
212 212 255 
255 255 255 
255 255 255 
255 127 127 
255 255 255 
0 0 0 
0 0 0 
0 0 0 
0 0 0 
0 0 0 
127 127 255 
0 0 0 
255 255 255 
0 0 0 
255 255 255 
60 60 255 
255 127 127 
163 22 232 
224 99 255 
255 255 255 
255 255 255 
0 0 0 
77 77 247 
77 77 247 
255 255 255 
253 253 255 
247 77 77 
0 0 0 
255 95 153 
0 0 0 
255 255 255 
255 255 255 
255 162 162 
0 0 0 
255 200 255 
0 0 0 
255 255 255 
255 105 105 
255 99 255 
0 0 0 
204 95 255 
255 136 172 
0 0 0 
0 0 0 
0 0 0 
247 77 77 
255 60 60 
255 195 255 
247 77 77 
255 255 255 
0 0 0 
0 0 0 
0 0 0 
0 0 0 
0 0 0 
0 0 0 
247 77 77 
0 0 0 
255 126 126 
0 0 0 
255 137 180 
0 0 0 
255 255 255 
255 255 255 
0 0 0 
0 0 0 
255 47 151 
255 216 255 
255 255 255 
0 0 0 
0 0 0 
255 255 255 
255 126 126 
0 0 0 
0 0 0 
0 0 0 
126 126 255 
255 255 255 
255 136 224 
77 77 247 
255 65 161 
0 0 0 
255 255 255 
193 60 193 
255 255 255 
255 105 255 
0 0 0 
255 255 255 
0 0 0 
127 127 255 
0 0 0 
206 206 255 
0 0 0 
0 0 0 
0 0 0 
0 0 0 
0 0 0 
255 197 255 
255 127 127 
0 0 0 
194 60 137 
78 78 255 
255 255 255 
0 0 0 
0 0 0 
194 60 137 
0 0 0 
0 0 0 
255 127 127 
0 0 0 
255 255 255 
0 0 0 
0 0 0 
255 127 127 
247 77 77 
0 0 0 
106 47 255 
255 113 255 
255 175 175 
0 0 0 
0 0 0 
255 105 187 
0 0 0 
255 255 255 
0 0 0 
255 199 199 
0 0 0 
255 126 126 
0 0 0 
255 218 255 
255 255 255 
0 0 0 
0 0 0 
0 0 0 
0 0 0 
0 0 0 
0 0 0 
255 162 255 
0 0 0 
0 0 0 
247 77 77 
77 77 247 
247 77 77 
137 60 194 
60 60 255 
255 236 255 
0 0 0 
255 208 255 
0 0 0 
255 255 255 
0 0 0 
255 126 126 
255 88 255 
0 0 0 
0 0 0 
226 138 255 
100 13 142 
247 77 77 
255 255 255 
0 0 0 
255 28 65 
255 255 255 
255 255 255 
193 60 193 
0 0 0 
0 0 0 
0 0 0 
255 255 255 
255 150 255 
0 0 0 
255 105 255 
255 255 255 
0 0 0 
247 77 77 
77 77 247 
0 0 0 
194 60 137 
255 144 255 
0 0 0 
255 137 137 
0 0 0 
255 236 255 
255 255 255 
0 0 0 
255 175 175 
255 255 255 
0 0 0 
0 0 0 
206 95 255 
0 0 0 
0 0 0 
0 0 0 
255 255 255 
0 0 0 
255 127 127 
77 77 247 
0 0 0 
60 60 255 
77 77 247 
0 0 0 
0 0 0 
0 0 0 
255 126 126 
77 77 247 
129 69 255 
255 255 255 
255 255 255 
0 0 0 
0 0 0 
144 144 255 
0 0 0 
255 255 255 
0 0 0 
255 8 138 
255 255 255 
255 127 127 
77 77 247 
255 206 206 
0 0 0 
255 255 255 
255 145 145 
255 255 255 
255 255 255 
0 0 0 
255 162 255 
0 0 0 
77 77 247 
255 127 127 
255 255 255 
0 0 0 
0 0 0 
175 69 222 
255 255 255 
0 0 0 
0 0 0 
206 206 255 
0 0 0 
77 77 247 
255 127 127 
0 0 0 
255 127 127 
255 199 199 
255 255 255 
106 47 255 
0 0 0 
0 0 0 
255 145 255 
247 77 77 
255 46 150 
0 0 0 
0 0 0 
0 0 0 
0 0 0 
0 0 0 
60 60 255 
0 0 0 
0 0 0 
0 0 0 
0 0 0 
0 0 0 
77 77 247 
0 0 0 
247 77 77 
0 0 0 
0 0 0 
255 255 255 
255 255 255 
0 0 0 
247 77 77 
0 0 0 
0 0 0 
145 145 255 
255 136 255 
199 199 255 
0 0 0 
0 0 0 
77 77 247 
224 99 255 
0 0 0 
0 0 0 
77 77 247 
0 0 0 
0 0 0 
0 0 0 
247 77 77 
255 77 77 
255 255 255 
0 0 0 
255 105 105 
0 0 0 
255 126 126 
0 0 0 
255 255 255 
126 126 255 
255 255 255 
0 0 0 
255 255 255 
255 159 255 
255 255 255 
247 77 77 
0 0 0 
247 77 77 
255 255 255 
255 76 246 
255 76 246 
255 255 255 
255 99 224 
255 255 255 
255 206 206 
0 0 0 
255 179 255 
255 76 76 
255 145 145 
255 78 176 
247 77 77 
0 0 0 
0 0 0 
255 255 255 
255 255 255 
0 0 0 
255 255 255 
255 156 252 
255 255 255 
255 99 99 
255 255 255 
255 105 255 
0 0 0 
0 0 0 
255 126 126 
255 126 126 
0 0 0 
0 0 0 
77 77 247 
255 98 98 
0 0 0 
0 0 0 
0 0 0 
255 36 255 
0 0 0 
255 255 255 
255 255 255 
255 255 255 
255 126 126 
255 255 255 
255 176 255 
0 0 0 
0 0 0 
0 0 0 
255 144 255 
255 88 128 
0 0 0 
0 0 0 
255 206 255 
0 0 0 
255 255 255 
0 0 0 
255 255 255 
193 60 193 
255 255 255 
247 77 77 
127 127 255 
0 0 0 
247 77 77 
126 126 255 
0 0 0 
0 0 0 
0 0 0 
127 127 255 
0 0 0 
247 77 77 
247 77 77 
206 206 255 
255 170 255 
255 255 255 
77 77 247 
0 0 0 
0 0 0 
0 0 0 
255 255 255 
0 0 0 
0 0 0 
0 0 0 
255 255 255 
0 0 0 
225 100 225 
255 255 255 
255 105 105 
255 255 255 
255 255 255 
255 126 126 
255 98 98 
0 0 0 
255 255 255 
0 0 0 
207 207 255 
255 83 137 
0 0 0 
255 255 255 
255 255 255 
0 0 0 
247 77 77 
255 180 255 
247 77 77 
0 0 0 
0 0 0 
255 175 175 
161 161 161 
247 77 77 
0 0 0 
255 255 255 
127 127 255 
0 0 0 
255 255 255 
247 77 77 
255 121 121 
193 60 193 
161 161 161 
0 0 0 
161 161 161 
255 255 255 
255 83 255 
0 0 0 
0 0 0 
255 255 255 
0 0 0 
137 60 194 
255 199 255 
255 131 168 
0 0 0 
255 206 206 
255 60 60 
0 0 0 
0 0 0 
255 255 255 
255 155 255 
127 127 255 
0 0 0 
255 131 168 
255 126 126 
255 255 255 
194 60 137 
127 127 255 
247 77 77 
255 106 255 
247 77 77 
255 255 255 
0 0 0 
0 0 0 
207 207 255 
255 255 255 
255 255 255 
255 127 127 
0 0 0 
0 0 0 
0 0 0 
127 127 255 
0 0 0 
0 0 0 
144 144 255 
116 81 255 
0 0 0 
77 77 247 
0 0 0 
207 207 255 
0 0 0 
255 60 60 
0 0 0 
77 77 247 
255 218 255 
255 255 255 
255 127 127 
247 77 77 
77 77 247 
255 173 173 
0 0 0 
160 160 255 
255 206 206 
255 255 255 
0 0 0 
247 77 77 
255 197 255 
0 0 0 
0 0 0 
255 160 160 
0 0 0 
255 81 255 
255 255 255 
0 0 0 
77 77 247 
255 162 255 
0 0 0 
0 0 0 
247 77 77 
0 0 0 
0 0 0 
255 255 255 
0 0 0 
0 0 0 
0 0 0 
193 60 193 
0 0 0 
255 255 255 
0 0 0 
0 0 0 
255 60 60 
255 255 255 
0 0 0 
0 0 0 
0 0 0 
145 145 255 
0 0 0 
255 126 126 
126 126 255 
77 77 247 
255 255 255 
118 36 255 
0 0 0 
0 0 0 
0 0 0 
0 0 0 
0 0 0 
0 0 0 
255 255 255 
60 60 255 
127 127 255 
0 0 0 
255 126 126 
77 77 247 
0 0 0 
255 255 255 
255 126 126 
0 0 0 
199 82 255 
0 0 0 
126 126 255 
206 206 255 
255 206 206 
77 77 247 
0 0 0 
255 105 105 
255 174 255 
0 0 0 
255 60 60 
0 0 0 
0 0 0 
0 0 0 
255 60 60 
247 77 77 
0 0 0 
248 77 255 
255 46 46 
0 0 0 
255 207 207 
0 0 0 
127 127 255 
255 255 255 
255 125 255 
255 126 126 
255 255 255 
255 255 255 
0 0 0 
0 0 0 
0 0 0 
0 0 0 
245 169 255 
0 0 0 
255 83 137 
0 0 0 
255 206 206 
255 81 253 
0 0 0 
0 0 0 
0 0 0 
0 0 0 
255 244 255 
255 126 126 
247 77 77 
77 77 247 
255 126 126 
0 0 0 
255 60 255 
255 255 255 
255 159 159 
255 135 255 
255 255 255 
127 127 255 
0 0 0 
0 0 0 
0 0 0 
0 0 0 
0 0 0 
0 0 0 
255 255 255 
0 0 0 
0 0 0 
220 68 220 
194 60 137 
221 221 255 
0 0 0 
255 255 255 
255 255 255 
255 255 255 
247 77 77 
0 0 0 
255 144 144 
0 0 0 
255 255 255 
145 145 255 
0 0 0 
255 105 255 
0 0 0 
255 154 255 
255 255 255 
255 255 255 
0 0 0 
0 0 0 
0 0 0 
255 255 255 
0 0 0 
255 160 255 
0 0 0 
235 162 168 
145 145 255 
255 83 137 
255 228 228 
247 77 77 
255 137 137 
0 0 0 
127 127 255 
100 13 142 
247 77 77 
0 0 0 
0 0 0 
0 0 0 
0 0 0 
255 225 255 
247 77 77 
255 255 255 
252 95 255 
255 127 127 
255 168 243 
0 0 0 
0 0 0 
0 0 0 
161 161 161 
255 255 255 
255 126 126 
0 0 0 
161 161 161 
0 0 0 
209 28 92 
0 0 0 
255 255 255 
0 0 0 
255 255 255 
0 0 0 
72 22 255 
77 77 247 
77 77 247 
255 255 255 
0 0 0 
0 0 0 
0 0 0 
255 216 255 
0 0 0 
127 127 255 
0 0 0 
0 0 0 
0 0 0 
0 0 0 
255 255 255 
0 0 0 
255 255 255 
255 160 255 
0 0 0 
0 0 0 
0 0 0 
255 255 255 
0 0 0 
0 0 0 
0 0 0 
255 255 255 
77 77 247 
255 255 255 
255 255 255 
0 0 0 
255 175 175 
127 127 255 
255 76 246 
0 0 0 
255 255 255 
255 127 127 
0 0 0 
255 127 127 
0 0 0 
236 236 255 
0 0 0 
255 62 145 
0 0 0 
0 0 0 
118 36 118 
193 60 193 
255 255 255 
0 0 0 
0 0 0 
0 0 0 
0 0 0 
0 0 0 
126 126 255 
0 0 0 
77 77 247 
255 255 255 
255 98 255 
0 0 0 
255 127 127 
0 0 0 
77 77 247 
255 255 255 
161 161 161 
126 126 255 
0 0 0 
255 207 207 
255 175 175 
0 0 0 
127 127 255 
255 218 255 
0 0 0 
126 126 255 
255 145 255 
0 0 0 
255 255 255 
0 0 0 
0 0 0 
247 77 77 
247 77 77 
118 36 118 
0 0 0 
247 77 77 
0 0 0 
0 0 0 
77 77 247 
77 77 247 
255 255 255 
0 0 0 
77 77 247 
0 0 0 
0 0 0 
255 255 255 
255 143 255 
255 255 255 
255 144 255 
0 0 0 
0 0 0 
255 255 255 
99 99 255 
0 0 0 
0 0 0 
0 0 0 
126 126 255 
247 77 77 
255 40 119 
77 77 247 
153 95 255 
255 255 255 
255 255 255 
255 126 126 
0 0 0 
0 0 0 
0 0 0 
201 83 255 
0 0 0 
145 145 255 
77 77 247 
0 0 0 
255 255 255 
98 98 255 
0 0 0 
0 0 0 
255 255 255 
0 0 0 
0 0 0 
206 206 255 
105 105 255 
255 126 126 
193 60 193 
0 0 0 
144 144 255 
0 0 0 
206 206 255 
0 0 0 
0 0 0 
126 126 255 
0 0 0 
137 60 194 
247 77 77 
255 105 105 
255 255 255 
247 77 77 
255 255 255 
255 255 255 
0 0 0 
0 0 0 
0 0 0 
77 77 247 
126 126 255 
0 0 0 
255 255 255 
247 77 77 
255 255 255 
232 22 163 
255 169 204 
255 255 255 
247 77 77 
214 126 255 
0 0 0 
0 0 0 
255 255 255 
255 144 144 
0 0 0 
255 127 255 
0 0 0 
255 255 255 
247 77 77 
77 77 247 
0 0 0 
224 99 255 
247 77 77 
255 206 206 
199 134 255 
255 126 126 
255 144 144 
255 255 255 
255 150 255 
0 0 0 
0 0 0 
0 0 0 
247 77 77 
247 77 77 
255 255 255 
0 0 0 
255 255 255 
77 77 247 
255 137 180 
247 77 77 
255 255 255 
255 105 255 
255 255 255 
255 169 255 
255 255 255 
106 47 255 
255 206 206 
255 126 126 
0 0 0 
255 255 255 
0 0 0 
255 147 255 
0 0 0 
255 77 174 
255 145 255 
255 186 255 
0 0 0 
0 0 0 
255 182 255 
126 126 255 
255 105 105 
247 77 77 
255 255 255 
255 17 56 
255 206 206 
255 255 255 
0 0 0 
255 255 255 
0 0 0 
0 0 0 
0 0 0 
247 77 77 
127 127 255 
255 144 144 
255 255 255 
0 0 0 
0 0 0 
255 198 255 
255 47 106 
255 255 255 
255 98 255 
126 126 255 
255 255 255 
0 0 0 
0 0 0 
255 105 105 
255 255 255 
0 0 0 
255 255 255 
0 0 0 
255 88 128 
247 77 77 
247 77 77 
206 206 255 
255 235 255 
255 255 255 
0 0 0 
255 126 126 
0 0 0 
0 0 0 
206 206 255 
0 0 0 
0 0 0 
0 0 0 
0 0 0 
0 0 0 
0 0 0 
0 0 0 
0 0 0 
255 218 255 
102 79 255 
206 206 255 
255 126 126 
126 126 255 
77 77 247 
0 0 0 
106 47 255 
0 0 0 
255 221 221 
255 255 255 
0 0 0 
187 105 255 
0 0 0 
161 161 161 
255 255 255 
0 0 0 
0 0 0 
255 126 126 
0 0 0 
255 99 99 
0 0 0 
255 255 255 
255 175 175 
255 255 255 
0 0 0 
247 77 77 
0 0 0 
0 0 0 
0 0 0 
0 0 0 
255 255 255 
255 255 255 
127 127 255 
0 0 0 
0 0 0 
255 255 255 
0 0 0 
0 0 0 
255 255 255 
255 46 46 
247 77 77 
0 0 0 
255 255 255 
0 0 0 
255 255 255 
255 255 255 
0 0 0 
0 0 0 
0 0 0 
255 127 127 
255 127 127 
127 127 255 
0 0 0 
255 28 92 
0 0 0 
77 77 247 
0 0 0 
77 77 247 
255 74 255 
0 0 0 
161 161 161 
98 98 255 
255 199 255 
255 255 255 
77 77 247 
137 60 194 
0 0 0 
0 0 0 
255 47 255 
0 0 0 
0 0 0 
255 98 255 
0 0 0 
0 0 0 
255 160 255 
255 255 255 
127 127 255 
0 0 0 
255 198 198 
0 0 0 
255 127 127 
0 0 0 
255 255 255 
0 0 0 
247 77 77 
0 0 0 
0 0 0 
0 0 0 
255 127 127 
0 0 0 
0 0 0 
247 77 77 
0 0 0 
0 0 0 
0 0 0 
0 0 0 
0 0 0 
255 127 127 
0 0 0 
163 22 232 
0 0 0 
255 206 255 
154 154 255 
126 126 255 
60 60 255 
0 0 0 
247 77 77 
0 0 0 
0 0 0 
0 0 0 
0 0 0 
0 0 0 
145 145 255 
255 175 255 
0 0 0 
77 77 247 
0 0 0 
255 255 255 
255 255 255 
255 176 255 
181 105 255 
247 77 77 
0 0 0 
0 0 0 
255 127 127 
0 0 0 
0 0 0 
0 0 0 
255 126 126 
0 0 0 
127 127 255 
255 132 255 
0 0 0 
0 0 0 
255 255 255 
98 98 255 
255 255 255 
255 255 255 
118 36 118 
247 77 77 
0 0 0 
247 77 77 
0 0 0 
0 0 0 
0 0 0 
255 255 255 
0 0 0 
0 0 0 
0 0 0 
255 214 255 
247 77 77 
255 255 255 
255 255 255 
0 0 0 
0 0 0 
0 0 0 
255 255 255 
255 137 137 
0 0 0 
255 255 255 
255 255 255 
255 105 105 
0 0 0 
0 0 0 
255 206 206 
255 126 126 
127 127 255 
0 0 0 
247 77 77 
255 255 255 
255 28 65 
0 0 0 
255 99 224 
0 0 0 
255 60 60 
247 77 77 
255 255 255 
255 144 144 
0 0 0 
247 77 77 
0 0 0 
255 255 255 
255 126 255 
255 255 255 
255 255 255 
255 127 127 
255 255 255 
255 255 255 
0 0 0 
255 196 255 
255 255 255 
0 0 0 
0 0 0 
255 209 227 
206 206 255 
106 47 255 
0 0 0 
255 200 200 
247 77 77 
247 77 77 
255 126 126 
0 0 0 
247 77 77 
255 156 255 
0 0 0 
255 255 255 
193 60 193 
127 127 255 
255 174 255 
161 161 161 
255 255 255 
255 255 255 
255 255 255 
255 162 168 
0 0 0 
161 161 161 
0 0 0 
255 10 255 
255 126 126 
247 77 77 
255 162 173 
126 126 255 
0 0 0 
0 0 0 
0 0 0 
0 0 0 
0 0 0 
118 36 118 
0 0 0 
225 100 225 
127 127 255 
127 127 255 
0 0 0 
255 77 92 
255 98 98 
255 255 255 
0 0 0 
0 0 0 
0 0 0 
255 144 255 
247 77 77 
0 0 0 
0 0 0 
161 161 161 
0 0 0 
255 210 255 
161 161 161 
0 0 0 
255 126 255 
255 77 174 
0 0 0 
0 0 0 
255 255 255 
255 235 235 
255 255 255 
0 0 0 
193 60 193 
0 0 0 
0 0 0 
255 255 255 
247 77 77 
255 255 255 
0 0 0 
255 77 248 
0 0 0 
255 255 255 
0 0 0 
255 255 255 
255 231 231 
255 127 127 
255 99 255 
255 255 255 
255 77 255 
255 255 255 
0 0 0 
0 0 0 
0 0 0 
216 216 255 
161 161 161 
0 0 0 
255 255 255 
0 0 0 
255 98 98 
0 0 0 
255 184 255 
0 0 0 
247 77 77 
255 206 255 
255 255 255 
255 255 255 
118 36 118 
126 126 255 
0 0 0 
0 0 0 
255 255 255 
255 126 126 
193 60 193 
207 207 255 
255 207 207 
0 0 0 
255 173 255 
0 0 0 
0 0 0 
255 255 255 
161 161 161 
0 0 0 
98 98 255 
0 0 0 
0 0 0 
255 255 255 
77 77 247 
0 0 0 
247 77 77 
118 36 118 
77 77 247 
255 255 255 
255 255 255 
137 60 194 
0 0 0 
255 255 255 
255 137 225 
255 155 255 
255 255 255 
0 0 0 
255 255 255 
0 0 0 
255 100 255 
0 0 0 
255 255 255 
255 255 255 
0 0 0 
118 36 255 
77 77 247 
255 206 206 
0 0 0 
0 0 0 
255 28 64 
0 0 0 
0 0 0 
0 0 0 
0 0 0 
255 255 255 
0 0 0 
255 143 255 
127 127 255 
77 77 247 
255 126 126 
0 0 0 
255 144 144 
255 255 255 
0 0 0 
0 0 0 
255 127 127 
255 255 255 
0 0 0 
0 0 0 
181 17 56 
255 255 255 
0 0 0 
149 104 255 
0 0 0 
0 0 0 
0 0 0 
255 255 255 
255 207 207 
206 206 255 
255 173 173 
0 0 0 
0 0 0 
255 127 127 
255 255 255 
255 144 255 
0 0 0 
0 0 0 
255 255 255 
0 0 0 
255 162 255 
255 255 255 
0 0 0 
0 0 0 
0 0 0 
0 0 0 
255 255 255 
255 163 255 
0 0 0 
0 0 0 
0 0 0 
0 0 0 
255 255 255 
0 0 0 
253 42 253 
77 77 247 
255 98 222 
255 79 178 
0 0 0 
77 77 247 
255 255 255 
255 17 127 
0 0 0 
247 77 77 
255 60 60 
255 252 255 
255 140 255 
0 0 0 
0 0 0 
0 0 0 
0 0 0 
77 77 247 
247 77 77 
0 0 0 
0 0 0 
255 255 255 
255 127 127 
0 0 0 
0 0 0 
0 0 0 
0 0 0 
0 0 0 
0 0 0 
247 77 77 
0 0 0 
247 77 77 
247 77 77 
0 0 0 
255 181 255 
105 105 255 
44 13 255 
118 36 118 
0 0 0 
247 77 77 
255 255 255 
151 47 255 
255 255 255 
0 0 0 
0 0 0 
0 0 0 
0 0 0 
255 255 255 
255 98 255 
255 112 255 
0 0 0 
194 60 137 
0 0 0 
255 255 255 
255 137 180 
127 127 255 
0 0 0 
0 0 0 
0 0 0 
255 255 255 
247 77 77 
77 77 247 
255 78 176 
255 175 255 
247 77 77 
0 0 0 
0 0 0 
0 0 0 
161 161 161 
0 0 0 
255 175 255 
0 0 0 
247 77 77 
255 105 105 
255 255 255 
0 0 0 
0 0 0 
247 77 77 
0 0 0 
255 255 255 
0 0 0 
0 0 0 
144 144 255 
247 77 77 
255 126 126 
0 0 0 
161 161 161 
255 255 255 
161 161 161 
0 0 0 
0 0 0 
255 105 255 
193 60 193 
255 236 236 
255 214 255 
161 161 161 
0 0 0 
0 0 0 
255 255 255 
255 255 255 
255 255 255 
247 77 77 
247 77 77 
255 184 255 
194 164 194 
0 0 0 
255 255 255 
247 77 77 
0 0 0 
0 0 0 
0 0 0 
0 0 0 
0 0 0 
255 255 255 
126 126 255 
255 105 255 
255 255 255 
255 60 60 
161 161 161 
255 163 255 
255 88 255 
247 77 77 
255 255 255 
221 221 221 
137 83 255 
0 0 0 
0 0 0 
0 0 0 
255 255 255 
225 137 255 
0 0 0 
0 0 0 
0 0 0 
0 0 0 
0 0 0 
161 161 161 
255 105 255 
0 0 0 
255 255 255 
255 255 255 
126 126 255 
255 199 199 
0 0 0 
247 77 77 
255 160 160 
0 0 0 
0 0 0 
0 0 0 
255 156 156 
255 255 255 
255 255 255 
255 255 255 
0 0 0 
255 255 255 
255 255 255 
161 161 161 
255 255 255 
194 60 137 
255 255 255 
161 161 161 
118 36 118 
255 255 255 
0 0 0 
0 0 0 
0 0 0 
161 161 161 
221 221 221 
161 161 161 
255 255 255 
0 0 0 
255 132 255 
0 0 0 
255 255 255 
255 255 255 
193 60 193 
255 255 255 
255 255 255 
161 161 161 
255 255 255 
255 255 255 
247 77 77 
255 255 255 
0 0 0 
255 98 255 
255 60 60 
174 77 255 
255 255 255 
0 0 0 
0 0 0 
0 0 0 
0 0 0 
255 105 255 
247 77 77 
0 0 0 
255 78 157 
255 60 60 
0 0 0 
77 77 247 
255 127 255 
0 0 0 
247 77 77 
77 77 247 
206 206 255 
0 0 0 
0 0 0 
255 255 255 
0 0 0 
60 60 255 
0 0 0 
77 77 247 
0 0 0 
77 77 247 
255 127 127 
247 77 77 
0 0 0 
255 127 127 
255 127 127 
0 0 0 
105 105 255 
255 255 255 
0 0 0 
0 0 0 
0 0 0 
145 145 255 
0 0 0 
194 60 137 
255 105 105 
255 127 127 
60 60 255 
0 0 0 
255 255 255 
0 0 0 
0 0 0 
0 0 0 
247 77 77 
0 0 0 
255 255 255 
255 112 212 
206 206 255 
255 154 255 
255 255 255 
137 83 255 
0 0 0 
0 0 0 
105 105 255 
0 0 0 
0 0 0 
255 255 255 
126 126 255 
0 0 0 
0 0 0 
247 77 77 
77 77 247 
0 0 0 
255 255 255 
0 0 0 
0 0 0 
0 0 0 
127 127 255 
255 255 255 
255 174 174 
0 0 0 
255 255 255 
0 0 0 
255 255 255 
255 216 216 
0 0 0 
255 105 105 
137 60 194 
0 0 0 
0 0 0 
255 47 255 
255 159 159 
255 105 105 
0 0 0 
0 0 0 
255 255 255 
255 255 255 
255 28 65 
0 0 0 
0 0 0 
255 255 255 
255 144 144 
193 60 193 
255 98 98 
0 0 0 
0 0 0 
0 0 0 
255 162 162 
0 0 0 
247 77 77 
255 144 255 
255 255 255 
0 0 0 
255 98 98 
0 0 0 
0 0 0 
255 126 126 
255 127 127 
247 77 77 
255 162 162 
0 0 0 
255 175 255 
0 0 0 
255 255 255 
194 60 137 
0 0 0 
255 255 255 
255 236 255 
255 137 137 
0 0 0 
161 161 161 
255 235 235 
255 126 126 
255 105 105 
0 0 0 
0 0 0 
255 255 255 
247 77 77 
161 161 161 
255 126 126 
255 127 127 
0 0 0 
0 0 0 
255 255 255 
255 105 105 
0 0 0 
255 255 255 
255 255 255 
247 77 77 
255 255 255 
247 77 77 
0 0 0 
255 251 255 
255 255 255 
255 28 65 
255 255 255 
255 255 255 
247 77 77 
77 77 247 
161 161 161 
0 0 0 
0 0 0 
255 249 249 
199 199 255 
255 172 172 
0 0 0 
244 170 244 
255 231 231 
0 0 0 
161 161 161 
161 161 161 
0 0 0 
255 162 162 
255 255 255 
255 210 255 
0 0 0 
0 0 0 
127 127 255 
161 161 161 
255 255 255 
255 255 255 
221 221 221 
255 220 255 
0 0 0 
161 161 161 
255 255 255 
247 77 77 
0 0 0 
161 161 161 
255 126 255 
247 77 77 
0 0 0 
255 173 173 
221 221 221 
0 0 0 
0 0 0 
0 0 0 
0 0 0 
161 161 161 
255 255 255 
255 137 180 
255 98 255 
0 0 0 
0 0 0 
255 255 255 
0 0 0 
255 36 83 
255 255 255 
0 0 0 
255 22 51 
0 0 0 
255 88 88 
0 0 0 
0 0 0 
77 77 247 
255 238 255 
255 255 255 
255 206 206 
255 255 255 
0 0 0 
0 0 0 
0 0 0 
0 0 0 
0 0 0 
247 77 77 
255 126 126 
0 0 0 
0 0 0 
221 221 221 
0 0 0 
0 0 0 
175 175 255 
0 0 0 
161 161 161 
0 0 0 
247 77 77 
255 255 255 
0 0 0 
0 0 0 
0 0 0 
255 255 255 
247 77 77 
0 0 0 
255 249 255 
255 255 255 
221 221 221 
0 0 0 
127 127 255 
0 0 0 
255 206 255 
247 77 77 
0 0 0 
0 0 0 
255 184 255 
247 77 77 
0 0 0 
0 0 0 
207 207 255 
255 98 255 
236 236 255 
255 98 98 
0 0 0 
255 255 255 
255 175 175 
0 0 0 
255 175 175 
0 0 0 
255 235 255 
0 0 0 
0 0 0 
0 0 0 
76 76 255 
255 255 255 
77 77 247 
0 0 0 
255 255 255 
255 255 255 
77 77 247 
0 0 0 
0 0 0 
0 0 0 
0 0 0 
255 255 255 
255 36 118 
0 0 0 
0 0 0 
255 95 253 
255 255 255 
255 255 255 
0 0 0 
255 163 255 
0 0 0 
255 255 255 
161 161 161 
255 255 255 
206 206 255 
255 255 255 
255 206 255 
0 0 0 
255 255 255 
0 0 0 
162 162 255 
153 95 255 
0 0 0 
0 0 0 
0 0 0 
255 255 255 
255 126 126 
255 206 206 
105 105 255 
126 126 255 
77 77 247 
247 77 77 
255 126 126 
0 0 0 
255 162 162 
77 77 247 
255 255 255 
127 127 255 
77 77 247 
0 0 0 
247 77 77 
255 255 255 
193 60 193 
77 77 247 
77 77 247 
206 206 255 
0 0 0 
255 255 255 
77 77 247 
0 0 0 
255 255 255 
122 122 255 
0 0 0 
255 126 126 
255 255 255 
0 0 0 
0 0 0 
0 0 0 
247 77 77 
0 0 0 
255 255 255 
255 60 60 
0 0 0 
0 0 0 
255 129 167 
247 77 77 
0 0 0 
0 0 0 
0 0 0 
255 126 126 
247 77 77 
255 255 255 
255 161 255 
255 255 255 
255 255 255 
220 68 220 
0 0 0 
127 127 255 
0 0 0 
127 127 255 
0 0 0 
255 255 255 
0 0 0 
0 0 0 
255 47 255 
0 0 0 
255 255 255 
255 126 126 
0 0 0 
255 255 255 
255 144 144 
255 255 255 
0 0 0 
247 77 77 
0 0 0 
0 0 0 
0 0 0 
194 164 255 
0 0 0 
0 0 0 
0 0 0 
225 137 255 
0 0 0 
0 0 0 
255 136 224 
225 137 255 
0 0 0 
0 0 0 
0 0 0 
0 0 0 
0 0 0 
0 0 0 
255 255 255 
0 0 0 
0 0 0 
255 126 126 
255 255 255 
0 0 0 
161 161 161 
46 46 255 
0 0 0 
161 161 161 
255 255 255 
255 240 255 
161 161 161 
161 161 161 
171 163 255 
161 161 161 
161 161 161 
255 255 255 
0 0 0 
255 255 255 
255 160 255 
255 227 227 
255 255 255 
247 77 77 
255 195 195 
175 175 255 
161 161 161 
255 255 255 
255 255 255 
255 175 175 
255 255 255 
255 255 255 
255 255 255 
255 255 255 
229 229 255 
161 161 161 
0 0 0 
255 255 255 
255 255 255 
0 0 0 
255 162 222 
255 255 255 
255 255 255 
255 255 255 
255 99 224 
255 105 255 
255 121 255 
255 255 255 
255 126 126 
255 255 255 
221 221 221 
0 0 0 
255 255 255 
255 255 255 
255 175 175 
255 144 144 
255 89 216 
255 255 255 
161 161 161 
255 188 188 
77 77 247 
255 255 255 
0 0 0 
175 175 255 
221 221 221 
255 255 255 
161 161 161 
255 63 255 
255 255 255 
0 0 0 
0 0 0 
0 0 0 
255 255 255 
161 161 161 
247 77 77 
255 255 255 
221 221 221 
249 249 255 
161 161 161 
161 161 161 
161 161 161 
255 255 255 
161 161 161 
77 77 247 
255 255 255 
255 126 126 
221 221 221 
255 255 255 
161 161 161 
255 217 255 
221 221 221 
0 0 0 
255 199 199 
161 161 161 
155 155 255 
221 221 221 
255 255 255 
255 255 255 
255 255 255 
161 161 161 
255 255 255 
175 175 255 
255 255 255 
255 255 255 
255 255 255 
175 175 255 
255 255 255 
0 0 0 
77 77 247 
188 188 255 
255 255 255 
107 65 255 
255 255 255 
255 199 199 
249 249 255 
255 255 255 
221 221 221 
255 222 255 
221 221 255 
161 161 161 
0 0 0 
161 161 161 
255 199 199 
0 0 0 
255 228 228 
221 221 221 
255 255 255 
255 175 175 
105 105 255 
255 255 255 
77 77 247 
255 255 255 
255 255 255 
77 77 247 
0 0 0 
0 0 0 
0 0 0 
0 0 0 
0 0 0 
0 0 0 
0 0 0 
0 0 0 
255 255 255 
255 255 255 
247 77 77 
255 255 255 
255 255 255 
0 0 0 
0 0 0 
137 83 255 
255 127 127 
0 0 0 
255 255 255 
255 255 255 
0 0 0 
0 0 0 
0 0 0 
0 0 0 
0 0 0 
255 255 255 
0 0 0 
255 255 255 
255 255 255 
216 216 255 
118 36 118 
0 0 0 
255 255 255 
255 105 255 
206 206 255 
255 206 206 
0 0 0 
60 60 255 
255 159 255 
0 0 0 
255 81 255 
0 0 0 
0 0 0 
0 0 0 
105 105 255 
0 0 0 
65 28 255 
255 255 255 
255 195 255 
0 0 0 
0 0 0 
255 255 255 
77 77 247 
255 208 255 
255 255 255 
0 0 0 
0 0 0 
127 127 255 
127 127 255 
255 255 255 
77 77 247 
126 126 255 
255 255 255 
255 255 255 
255 255 255 
207 207 255 
255 60 60 
255 170 170 
255 95 153 
255 126 126 
255 126 126 
255 218 241 
0 0 0 
0 0 0 
255 255 255 
0 0 0 
0 0 0 
255 255 255 
255 255 255 
255 255 255 
247 77 77 
127 127 255 
255 255 255 
255 255 255 
0 0 0 
255 255 255 
255 60 60 
0 0 0 
173 173 255 
255 105 105 
255 255 255 
255 255 255 
247 77 77 
255 255 255 
255 122 255 
247 77 77 
255 255 255 
255 82 82 
255 105 105 
247 77 77 
255 126 126 
255 199 255 
0 0 0 
0 0 0 
0 0 0 
0 0 0 
0 0 0 
118 36 118 
255 107 243 
255 255 255 
0 0 0 
0 0 0 
0 0 0 
255 255 255 
247 77 77 
255 105 255 
247 77 77 
255 105 105 
255 255 255 
255 22 71 
0 0 0 
0 0 0 
0 0 0 
0 0 0 
255 175 175 
0 0 0 
0 0 0 
0 0 0 
0 0 0 
0 0 0 
221 221 221 
0 0 0 
255 255 255 
255 255 255 
255 255 255 
255 255 255 
255 255 255 
255 255 255 
255 249 252 
161 161 161 
255 255 255 
0 0 0 
255 255 255 
255 249 249 
255 255 255 
255 255 255 
255 255 255 
255 175 175 
255 255 255 
255 255 255 
255 255 255 
255 255 255 
255 255 255 
255 236 255 
255 255 255 
255 255 255 
255 255 255 
255 255 255 
255 255 255 
255 255 255 
255 255 255 
255 255 255 
255 255 255 
255 255 255 
227 227 255 
255 255 255 
255 255 255 
255 255 255 
255 255 255 
255 255 255 
255 255 255 
255 255 255 
255 255 255 
255 255 255 
255 255 255 
221 221 221 
255 255 255 
221 221 221 
255 255 255 
255 255 255 
255 255 255 
255 231 231 
255 255 255 
255 255 255 
255 255 255 
255 255 255 
255 255 255 
255 255 255 
255 255 255 
255 255 255 
255 255 255 
255 255 255 
255 255 255 
255 255 255 
221 221 221 
161 161 161 
255 255 255 
255 227 255 
255 255 255 
255 255 255 
255 255 255 
255 255 255 
255 255 255 
255 255 255 
255 255 255 
255 255 255 
255 255 255 
255 255 255 
255 255 255 
255 255 255 
255 248 255 
255 255 255 
255 255 255 
255 255 255 
255 255 255 
255 255 255 
77 77 247 
255 255 255 
161 161 161 
255 255 255 
255 255 255 
255 255 255 
255 196 255 
255 255 255 
255 255 255 
255 255 255 
255 255 255 
255 255 255 
255 255 255 
255 255 255 
255 255 255 
255 175 175 
255 255 255 
255 255 255 
255 255 255 
255 255 255 
255 255 255 
255 255 255 
255 255 255 
255 255 255 
255 255 255 
255 255 255 
255 255 255 
255 255 255 
255 255 255 
255 255 255 
255 255 255 
255 255 255 
127 127 255 
255 199 199 
0 0 0 
255 255 255 
161 161 161 
255 105 255 
0 0 0 
255 175 175 
255 255 255 
0 0 0 
255 255 255 
255 255 255 
0 0 0 
0 0 0 
0 0 0 
0 0 0 
144 144 255 
0 0 0 
255 255 255 
65 28 255 
255 172 255 
126 126 255 
255 127 127 
0 0 0 
77 77 247 
0 0 0 
0 0 0 
255 255 255 
255 255 255 
255 255 255 
255 255 255 
167 129 255 
255 127 127 
255 207 255 
0 0 0 
255 127 127 
77 77 247 
161 161 161 
155 155 255 
0 0 0 
77 77 247 
167 129 255 
0 0 0 
0 0 0 
0 0 0 
0 0 0 
0 0 0 
255 95 206 
255 255 255 
255 255 255 
77 77 247 
206 206 255 
255 126 126 
0 0 0 
255 100 255 
0 0 0 
126 126 255 
77 77 247 
0 0 0 
0 0 0 
126 126 255 
255 255 255 
121 121 255 
255 255 255 
247 77 77 
255 127 127 
118 36 118 
77 77 247 
0 0 0 
255 255 255 
255 60 136 
247 77 77 
0 0 0 
0 0 0 
247 77 77 
0 0 0 
0 0 0 
0 0 0 
0 0 0 
0 0 0 
0 0 0 
0 0 0 
255 144 144 
0 0 0 
126 126 255 
255 160 255 
0 0 0 
255 126 126 
255 255 255 
255 255 255 
0 0 0 
255 161 255 
255 129 255 
255 255 255 
255 255 255 
255 177 255 
247 77 77 
255 255 255 
255 255 255 
0 0 0 
247 77 77 
255 127 255 
255 207 207 
255 175 175 
255 126 126 
255 255 255 
0 0 0 
255 13 255 
0 0 0 
247 77 77 
0 0 0 
181 17 56 
255 255 255 
0 0 0 
0 0 0 
0 0 0 
255 255 255 
255 145 255 
0 0 0 
0 0 0 
0 0 0 
255 37 84 
0 0 0 
255 255 255 
255 81 255 
0 0 0 
0 0 0 
77 77 247 
221 221 221 
247 77 77 
0 0 0 
0 0 0 
255 127 127 
0 0 0 
255 255 255 
0 0 0 
255 255 255 
161 161 161 
255 255 255 
255 255 255 
255 255 255 
255 255 255 
255 255 255 
255 255 255 
255 255 255 
255 255 255 
255 255 255 
255 255 255 
255 255 255 
255 255 255 
255 255 255 
255 255 255 
255 255 255 
255 255 255 
255 255 255 
255 255 255 
255 255 255 
255 255 255 
255 255 255 
255 255 255 
255 255 255 
255 255 255 
255 255 255 
255 255 255 
255 255 255 
255 255 255 
255 255 255 
255 255 255 
255 255 255 
255 255 255 
255 255 255 
255 255 255 
255 255 255 
255 255 255 
255 255 255 
255 255 255 
255 255 255 
255 255 255 
255 255 255 
255 255 255 
255 255 255 
255 255 255 
255 255 255 
255 255 255 
255 255 255 
255 255 255 
255 255 255 
255 255 255 
255 255 255 
255 255 255 
255 255 255 
255 255 255 
255 255 255 
255 255 255 
255 255 255 
255 255 255 
255 255 255 
255 255 255 
255 255 255 
255 255 255 
255 255 255 
255 255 255 
255 255 255 
255 255 255 
255 255 255 
255 255 255 
255 255 255 
255 255 255 
255 255 255 
255 255 255 
255 255 255 
255 255 255 
255 255 255 
255 255 255 
255 255 255 
255 255 255 
255 255 255 
255 255 255 
255 255 255 
255 255 255 
255 255 255 
255 255 255 
255 255 255 
255 255 255 
255 255 255 
255 255 255 
255 255 255 
255 255 255 
255 255 255 
255 255 255 
255 255 255 
255 255 255 
255 255 255 
255 255 255 
255 255 255 
255 255 255 
255 255 255 
255 255 255 
255 255 255 
255 255 255 
255 255 255 
255 255 255 
255 255 255 
255 255 255 
255 255 255 
255 255 255 
255 255 255 
255 255 255 
255 255 255 
255 255 255 
255 255 255 
255 255 255 
255 255 255 
255 255 255 
255 255 255 
255 255 255 
255 255 255 
227 227 255 
161 161 161 
225 201 255 
161 161 161 
137 60 194 
247 77 77 
255 126 126 
255 121 255 
255 127 127 
0 0 0 
255 122 255 
255 126 126 
255 255 255 
0 0 0 
255 183 255 
207 207 255 
0 0 0 
0 0 0 
0 0 0 
0 0 0 
77 77 247 
0 0 0 
118 36 118 
77 77 247 
77 77 247 
0 0 0 
255 255 255 
0 0 0 
255 255 255 
0 0 0 
255 255 255 
255 127 127 
0 0 0 
121 121 255 
0 0 0 
126 126 255 
255 255 255 
0 0 0 
255 255 255 
0 0 0 
0 0 0 
77 77 247 
207 207 255 
209 28 92 
255 255 255 
0 0 0 
0 0 0 
255 160 160 
255 255 255 
255 47 106 
0 0 0 
0 0 0 
160 160 255 
137 60 194 
77 77 247 
255 255 255 
0 0 0 
255 47 106 
255 255 255 
137 83 255 
255 127 127 
255 255 255 
60 60 255 
255 255 255 
99 99 255 
255 76 76 
77 77 247 
77 77 247 
77 77 247 
0 0 0 
255 98 255 
118 36 118 
255 206 206 
255 255 255 
0 0 0 
247 77 77 
0 0 0 
255 105 255 
0 0 0 
255 126 126 
247 77 77 
0 0 0 
0 0 0 
0 0 0 
255 255 255 
255 126 126 
247 77 77 
0 0 0 
255 126 255 
255 255 255 
255 155 255 
0 0 0 
247 77 77 
0 0 0 
255 255 255 
0 0 0 
255 255 255 
255 47 107 
255 95 204 
0 0 0 
255 255 255 
0 0 0 
0 0 0 
255 255 255 
255 68 255 
255 174 255 
0 0 0 
0 0 0 
0 0 0 
247 77 77 
255 160 160 
255 95 255 
0 0 0 
255 255 255 
255 255 255 
255 255 255 
247 77 77 
77 77 247 
127 127 255 
255 144 255 
255 206 206 
0 0 0 
255 105 105 
0 0 0 
0 0 0 
0 0 0 
255 255 255 
247 77 77 
0 0 0 
0 0 0 
0 0 0 
255 255 255 
0 0 0 
255 95 204 
161 161 161 
161 161 161 
161 161 161 
255 255 255 
255 255 255 
255 255 255 
255 255 255 
255 255 255 
255 255 255 
255 255 255 
255 255 255 
255 255 255 
255 255 255 
255 255 255 
255 255 255 
255 255 255 
255 255 255 
255 255 255 
255 255 255 
255 255 255 
255 255 255 
255 255 255 
255 255 255 
255 255 255 
255 255 255 
255 255 255 
255 255 255 
255 255 255 
255 255 255 
255 255 255 
255 255 255 
255 255 255 
255 255 255 
255 255 255 
255 255 255 
255 255 255 
255 255 255 
255 255 255 
255 255 255 
255 255 255 
255 255 255 
255 255 255 
255 255 255 
255 255 255 
255 255 255 
255 255 255 
255 255 255 
255 255 255 
255 255 255 
255 255 255 
255 255 255 
255 255 255 
255 255 255 
255 255 255 
255 255 255 
255 255 255 
255 255 255 
255 255 255 
255 255 255 
255 255 255 
255 255 255 
255 255 255 
255 255 255 
255 255 255 
255 255 255 
255 255 255 
255 255 255 
255 255 255 
255 255 255 
255 255 255 
255 255 255 
255 255 255 
255 255 255 
255 255 255 
255 255 255 
255 255 255 
255 255 255 
255 255 255 
255 255 255 
255 255 255 
255 255 255 
255 255 255 
255 255 255 
255 255 255 
255 255 255 
255 255 255 
255 255 255 
255 255 255 
255 255 255 
255 255 255 
255 255 255 
255 255 255 
255 255 255 
255 255 255 
255 255 255 
255 255 255 
255 255 255 
255 255 255 
255 255 255 
255 255 255 
255 255 255 
255 255 255 
255 255 255 
255 255 255 
255 255 255 
255 255 255 
255 255 255 
255 255 255 
255 255 255 
255 255 255 
255 255 255 
255 255 255 
255 255 255 
255 255 255 
255 255 255 
255 255 255 
255 255 255 
255 255 255 
255 255 255 
255 255 255 
255 255 255 
255 255 255 
221 221 221 
255 255 255 
161 161 161 
0 0 0 
0 0 0 
0 0 0 
255 39 255 
0 0 0 
255 255 255 
255 255 255 
77 77 247 
255 255 255 
159 159 255 
255 255 255 
255 255 255 
0 0 0 
255 5 255 
0 0 0 
0 0 0 
193 60 193 
255 103 255 
255 255 255 
0 0 0 
0 0 0 
0 0 0 
0 0 0 
0 0 0 
255 255 255 
0 0 0 
77 77 247 
0 0 0 
77 77 247 
255 127 127 
0 0 0 
0 0 0 
0 0 0 
255 255 255 
255 255 255 
77 77 247 
174 77 255 
0 0 0 
247 77 77 
160 160 255 
0 0 0 
0 0 0 
0 0 0 
255 145 255 
77 77 247 
0 0 0 
255 58 154 
0 0 0 
0 0 0 
255 127 127 
0 0 0 
247 77 77 
0 0 0 
255 255 255 
255 125 255 
0 0 0 
77 77 247 
77 77 247 
77 77 247 
255 144 255 
77 77 247 
255 28 92 
255 255 255 
255 255 255 
118 36 118 
0 0 0 
255 255 255 
255 255 255 
255 255 255 
255 140 140 
255 255 255 
255 127 127 
0 0 0 
0 0 0 
247 77 77 
247 77 77 
255 60 60 
255 255 255 
0 0 0 
0 0 0 
255 171 255 
255 161 255 
255 105 105 
255 144 144 
247 77 77 
255 255 255 
0 0 0 
0 0 0 
255 98 98 
0 0 0 
255 46 150 
255 144 152 
255 255 255 
255 255 255 
206 206 255 
127 127 255 
247 77 77 
193 60 193 
255 255 255 
255 255 255 
0 0 0 
255 173 255 
255 105 105 
127 127 255 
194 60 137 
255 255 255 
0 0 0 
255 81 117 
247 77 77 
0 0 0 
77 77 247 
255 88 128 
255 145 255 
255 255 255 
247 77 77 
0 0 0 
0 0 0 
0 0 0 
255 255 255 
255 145 145 
0 0 0 
0 0 0 
0 0 0 
255 255 255 
0 0 0 
255 126 126 
247 77 77 
255 98 255 
161 161 161 
0 0 0 
255 255 255 
255 199 199 
161 161 161 
0 0 0 
255 249 249 
255 255 255 
255 255 255 
255 255 255 
255 255 255 
255 255 255 
255 255 255 
255 255 255 
255 255 255 
255 255 255 
255 255 255 
255 255 255 
255 255 255 
255 255 255 
255 255 255 
255 255 255 
255 255 255 
255 255 255 
255 255 255 
255 255 255 
255 255 255 
255 255 255 
255 255 255 
255 255 255 
255 255 255 
255 255 255 
255 255 255 
255 255 255 
255 255 255 
255 255 255 
255 255 255 
255 255 255 
255 255 255 
255 255 255 
255 255 255 
255 255 255 
255 255 255 
255 255 255 
255 255 255 
255 255 255 
255 255 255 
255 255 255 
255 255 255 
255 255 255 
255 255 255 
255 255 255 
255 255 255 
255 255 255 
255 255 255 
255 255 255 
255 255 255 
255 255 255 
255 255 255 
255 255 255 
255 255 255 
255 255 255 
255 255 255 
255 255 255 
255 255 255 
255 255 255 
255 255 255 
255 255 255 
255 255 255 
255 255 255 
255 255 255 
255 255 255 
255 255 255 
255 255 255 
255 255 255 
255 255 255 
255 255 255 
255 255 255 
255 255 255 
255 255 255 
255 255 255 
255 255 255 
255 255 255 
255 255 255 
255 255 255 
255 255 255 
255 255 255 
255 255 255 
255 255 255 
255 255 255 
255 255 255 
255 255 255 
255 255 255 
255 255 255 
255 255 255 
255 255 255 
255 255 255 
255 255 255 
255 255 255 
255 255 255 
255 255 255 
255 255 255 
255 255 255 
255 255 255 
255 255 255 
255 255 255 
255 255 255 
255 255 255 
255 255 255 
255 255 255 
255 255 255 
255 255 255 
255 255 255 
255 255 255 
255 255 255 
255 255 255 
255 255 255 
255 255 255 
255 255 255 
255 255 255 
255 255 255 
255 255 255 
255 255 255 
255 255 255 
255 255 255 
205 170 245 
0 0 0 
0 0 0 
255 255 255 
0 0 0 
0 0 0 
0 0 0 
0 0 0 
255 235 255 
77 77 247 
0 0 0 
0 0 0 
255 60 255 
126 126 255 
0 0 0 
247 77 77 
255 46 150 
224 99 255 
255 255 255 
145 145 255 
77 77 247 
255 145 255 
0 0 0 
255 255 255 
225 100 225 
0 0 0 
0 0 0 
255 135 255 
165 88 255 
255 255 255 
0 0 0 
0 0 0 
255 255 255 
0 0 0 
255 78 255 
255 255 255 
255 162 255 
126 126 255 
0 0 0 
255 255 255 
0 0 0 
77 77 247 
204 95 255 
255 255 255 
77 77 247 
0 0 0 
255 255 255 
255 127 127 
65 28 255 
0 0 0 
255 255 255 
0 0 0 
0 0 0 
0 0 0 
255 145 145 
255 255 255 
255 127 127 
255 200 225 
255 255 255 
0 0 0 
255 255 255 
246 76 255 
77 77 247 
255 145 255 
255 127 127 
193 60 193 
255 255 255 
206 206 255 
255 255 255 
255 255 255 
255 126 126 
255 105 105 
255 255 255 
255 255 255 
0 0 0 
255 255 255 
0 0 0 
255 144 144 
255 98 255 
255 118 118 
255 255 255 
255 206 206 
255 118 215 
255 255 255 
255 83 137 
255 126 255 
255 226 226 
0 0 0 
255 255 255 
194 60 137 
255 65 255 
0 0 0 
255 255 255 
127 127 255 
255 162 255 
0 0 0 
255 255 255 
0 0 0 
255 255 255 
247 77 77 
247 77 77 
0 0 0 
255 255 255 
0 0 0 
255 98 98 
0 0 0 
247 77 77 
255 206 206 
255 76 76 
255 126 126 
255 255 255 
0 0 0 
255 127 127 
0 0 0 
0 0 0 
0 0 0 
0 0 0 
255 255 255 
255 144 255 
0 0 0 
0 0 0 
255 99 224 
255 46 150 
0 0 0 
255 255 255 
0 0 0 
255 127 127 
255 255 255 
161 161 161 
161 161 161 
255 255 255 
161 161 161 
0 0 0 
255 255 255 
247 77 77 
249 249 255 
221 221 221 
255 255 255 
255 255 255 
161 161 161 
255 255 255 
255 255 255 
255 255 255 
255 255 255 
255 255 255 
255 255 255 
255 255 255 
255 255 255 
255 255 255 
255 255 255 
255 255 255 
255 255 255 
255 255 255 
255 255 255 
255 255 255 
255 255 255 
255 255 255 
255 255 255 
255 255 255 
255 255 255 
255 255 255 
255 255 255 
255 255 255 
255 255 255 
255 255 255 
255 255 255 
255 255 255 
255 255 255 
255 255 255 
255 255 255 
255 255 255 
255 255 255 
255 255 255 
255 255 255 
255 255 255 
255 255 255 
255 255 255 
255 255 255 
255 255 255 
255 255 255 
255 255 255 
255 255 255 
255 255 255 
255 255 255 
255 255 255 
255 255 255 
255 255 255 
255 255 255 
255 255 255 
255 255 255 
255 255 255 
255 255 255 
255 255 255 
255 255 255 
255 255 255 
255 255 255 
255 255 255 
255 255 255 
255 255 255 
255 255 255 
255 255 255 
255 255 255 
255 255 255 
255 255 255 
255 255 255 
255 255 255 
255 255 255 
255 255 255 
255 255 255 
255 255 255 
255 255 255 
255 255 255 
255 255 255 
255 255 255 
255 255 255 
255 255 255 
255 255 255 
255 255 255 
255 255 255 
255 255 255 
255 255 255 
255 255 255 
255 255 255 
255 255 255 
255 255 255 
255 255 255 
255 255 255 
255 255 255 
255 255 255 
255 255 255 
255 255 255 
255 255 255 
255 255 255 
255 255 255 
255 255 255 
255 255 255 
255 255 255 
255 255 255 
255 255 255 
255 255 255 
255 255 255 
255 255 255 
255 255 255 
255 255 255 
255 255 255 
255 255 255 
255 255 255 
255 255 255 
255 255 255 
255 255 255 
255 255 255 
255 255 255 
255 255 255 
255 255 255 
255 255 255 
255 255 255 
0 0 0 
0 0 0 
255 255 255 
182 163 255 
255 255 255 
0 0 0 
255 60 60 
161 161 161 
255 255 255 
0 0 0 
0 0 0 
255 60 60 
0 0 0 
99 99 255 
0 0 0 
0 0 0 
0 0 0 
255 127 127 
0 0 0 
0 0 0 
255 255 255 
255 255 255 
255 104 149 
0 0 0 
255 255 255 
0 0 0 
255 255 255 
255 255 255 
77 77 247 
255 255 255 
0 0 0 
255 100 255 
255 36 118 
0 0 0 
255 172 255 
255 29 93 
255 255 255 
0 0 0 
255 255 255 
118 36 118 
255 255 255 
255 255 255 
255 255 255 
0 0 0 
127 127 255 
255 98 255 
255 162 255 
105 105 255 
255 206 206 
0 0 0 
255 255 255 
0 0 0 
77 77 247 
255 255 255 
127 127 255 
255 255 255 
247 77 77 
206 206 255 
0 0 0 
77 77 247 
255 144 255 
0 0 0 
0 0 0 
0 0 0 
126 126 255 
0 0 0 
0 0 0 
0 0 0 
0 0 0 
255 126 126 
0 0 0 
255 255 255 
255 255 255 
0 0 0 
0 0 0 
0 0 0 
0 0 0 
255 60 60 
255 255 255 
118 36 118 
255 206 206 
255 198 255 
127 127 255 
255 236 255 
247 77 77 
255 104 247 
206 95 255 
255 255 255 
247 77 77 
0 0 0 
247 77 77 
247 77 77 
247 77 77 
255 144 144 
255 215 215 
0 0 0 
255 255 255 
255 255 255 
0 0 0 
247 77 77 
255 255 255 
77 77 247 
206 95 255 
247 77 77 
206 206 255 
166 166 255 
255 105 105 
0 0 0 
255 212 212 
255 255 255 
0 0 0 
0 0 0 
255 224 255 
255 126 126 
255 207 207 
127 127 255 
0 0 0 
0 0 0 
0 0 0 
0 0 0 
255 255 255 
247 77 77 
0 0 0 
255 255 255 
77 77 247 
247 77 77 
207 207 255 
255 255 255 
255 255 255 
193 60 193 
0 0 0 
194 60 137 
255 76 246 
255 175 175 
0 0 0 
255 132 255 
255 127 127 
255 225 241 
255 255 255 
255 255 255 
255 255 255 
255 255 255 
255 255 255 
255 255 255 
255 255 255 
255 255 255 
255 255 255 
255 255 255 
255 255 255 
255 255 255 
255 255 255 
255 255 255 
255 255 255 
255 255 255 
255 255 255 
255 255 255 
255 255 255 
255 255 255 
255 255 255 
255 255 255 
255 255 255 
255 255 255 
255 255 255 
255 255 255 
255 255 255 
255 255 255 
255 255 255 
255 255 255 
255 255 255 
255 255 255 
255 255 255 
255 255 255 
255 255 255 
255 255 255 
255 255 255 
255 255 255 
255 255 255 
255 255 255 
255 255 255 
255 255 255 
255 255 255 
255 255 255 
255 255 255 
255 255 255 
255 255 255 
255 255 255 
255 255 255 
255 255 255 
255 255 255 
255 255 255 
255 255 255 
255 255 255 
255 255 255 
255 255 255 
255 255 255 
255 255 255 
255 255 255 
255 255 255 
255 255 255 
255 255 255 
255 255 255 
255 255 255 
255 255 255 
255 255 255 
255 255 255 
255 255 255 
255 255 255 
255 255 255 
255 255 255 
255 255 255 
255 255 255 
255 255 255 
255 255 255 
255 255 255 
255 255 255 
255 255 255 
255 255 255 
255 255 255 
255 255 255 
255 255 255 
255 255 255 
255 255 255 
255 255 255 
255 255 255 
255 255 255 
255 255 255 
255 255 255 
255 255 255 
255 255 255 
255 255 255 
255 255 255 
255 255 255 
255 255 255 
255 255 255 
255 255 255 
255 255 255 
255 255 255 
255 255 255 
255 255 255 
255 255 255 
255 255 255 
255 255 255 
255 255 255 
255 255 255 
255 255 255 
255 255 255 
255 255 255 
255 255 255 
255 255 255 
255 255 255 
255 255 255 
255 255 255 
255 255 255 
255 255 255 
161 161 161 
249 249 255 
221 221 221 
161 161 161 
77 77 247 
255 160 255 
161 161 161 
0 0 0 
0 0 0 
255 60 60 
247 77 77 
255 255 255 
0 0 0 
255 255 255 
255 255 255 
56 17 181 
255 255 255 
255 126 126 
77 77 247 
126 126 255 
116 81 255 
0 0 0 
0 0 0 
0 0 0 
255 255 255 
98 81 255 
0 0 0 
255 159 255 
118 118 255 
0 0 0 
127 127 255 
255 173 173 
0 0 0 
255 127 127 
247 77 77 
255 88 255 
0 0 0 
255 255 255 
255 255 255 
0 0 0 
247 77 77 
0 0 0 
0 0 0 
0 0 0 
118 36 118 
0 0 0 
77 77 247 
0 0 0 
0 0 0 
255 132 255 
247 77 77 
193 60 193 
0 0 0 
255 255 255 
255 255 255 
255 47 47 
0 0 0 
0 0 0 
255 255 255 
0 0 0 
255 173 255 
255 255 255 
255 76 255 
0 0 0 
232 22 163 
255 94 251 
0 0 0 
0 0 0 
255 255 255 
116 22 234 
0 0 0 
255 255 255 
0 0 0 
255 83 137 
247 77 77 
0 0 0 
0 0 0 
255 255 255 
0 0 0 
127 127 255 
255 144 144 
255 126 126 
0 0 0 
247 77 77 
247 77 77 
0 0 0 
255 255 255 
194 60 137 
255 98 98 
255 255 255 
247 77 77 
255 255 255 
0 0 0 
255 59 191 
255 255 255 
255 206 206 
255 255 255 
255 144 144 
0 0 0 
247 77 77 
255 81 255 
255 127 127 
118 36 118 
255 125 255 
0 0 0 
127 127 255 
255 255 255 
0 0 0 
0 0 0 
255 105 105 
255 255 255 
0 0 0 
255 206 206 
193 60 193 
0 0 0 
181 17 56 
0 0 0 
0 0 0 
255 144 144 
0 0 0 
255 255 255 
0 0 0 
255 216 255 
0 0 0 
255 126 126 
0 0 0 
255 105 255 
0 0 0 
255 255 255 
255 195 195 
255 255 255 
247 77 77 
0 0 0 
255 255 255 
255 221 255 
255 255 255 
0 0 0 
255 98 255 
255 255 255 
255 255 255 
151 47 255 
255 255 255 
255 255 255 
255 255 255 
255 255 255 
255 255 255 
255 255 255 
255 255 255 
255 255 255 
255 255 255 
255 255 255 
255 255 255 
255 255 255 
255 255 255 
255 255 255 
255 255 255 
255 255 255 
255 255 255 
255 255 255 
255 255 255 
255 255 255 
255 255 255 
255 255 255 
255 255 255 
255 255 255 
255 255 255 
255 255 255 
255 255 255 
255 255 255 
255 255 255 
255 255 255 
255 255 255 
255 255 255 
255 255 255 
255 255 255 
255 255 255 
255 255 255 
255 255 255 
255 255 255 
255 255 255 
255 255 255 
255 255 255 
255 255 255 
255 255 255 
255 255 255 
255 255 255 
255 255 255 
255 255 255 
255 255 255 
255 255 255 
255 255 255 
255 255 255 
255 255 255 
255 255 255 
255 255 255 
255 255 255 
255 255 255 
255 255 255 
255 255 255 
255 255 255 
255 255 255 
255 255 255 
255 255 255 
255 255 255 
255 255 255 
255 255 255 
255 255 255 
255 255 255 
255 255 255 
255 255 255 
255 255 255 
255 255 255 
255 255 255 
255 255 255 
255 255 255 
255 255 255 
255 255 255 
255 255 255 
255 255 255 
255 255 255 
255 255 255 
255 255 255 
255 255 255 
255 255 255 
255 255 255 
255 255 255 
255 255 255 
255 255 255 
255 255 255 
255 255 255 
255 255 255 
255 255 255 
255 255 255 
255 255 255 
255 255 255 
255 255 255 
255 255 255 
255 255 255 
255 255 255 
255 255 255 
255 255 255 
255 255 255 
255 255 255 
255 255 255 
255 255 255 
255 255 255 
255 255 255 
255 255 255 
255 255 255 
255 255 255 
255 255 255 
255 255 255 
255 255 255 
255 255 255 
255 255 255 
255 255 255 
255 255 255 
255 255 255 
255 255 255 
0 0 0 
0 0 0 
255 255 255 
255 155 255 
0 0 0 
255 156 156 
0 0 0 
0 0 0 
255 206 206 
247 77 77 
0 0 0 
0 0 0 
255 126 255 
216 216 255 
0 0 0 
161 161 161 
255 255 255 
0 0 0 
255 255 255 
255 126 126 
0 0 0 
126 126 255 
255 255 255 
77 77 247 
224 99 255 
255 98 98 
0 0 0 
255 156 255 
0 0 0 
0 0 0 
0 0 0 
0 0 0 
255 255 255 
0 0 0 
255 255 255 
118 36 118 
60 60 255 
255 255 255 
0 0 0 
0 0 0 
126 126 255 
255 255 255 
0 0 0 
77 77 247 
255 255 255 
0 0 0 
77 77 247 
60 60 255 
255 99 255 
0 0 0 
159 159 255 
255 255 255 
255 255 255 
255 255 255 
105 105 255 
98 98 255 
255 255 255 
255 255 255 
255 255 255 
77 77 247 
255 255 255 
255 255 255 
255 99 224 
0 0 0 
255 255 255 
118 36 118 
0 0 0 
244 244 255 
247 77 77 
247 77 77 
255 144 144 
0 0 0 
0 0 0 
0 0 0 
255 144 255 
193 60 193 
247 77 77 
255 104 255 
0 0 0 
255 125 255 
255 127 127 
255 22 71 
247 77 77 
0 0 0 
255 172 172 
255 105 105 
247 77 77 
255 206 206 
0 0 0 
206 206 255 
255 255 255 
247 77 77 
247 77 77 
247 77 77 
255 216 255 
255 156 156 
255 215 255 
247 77 77 
247 77 77 
0 0 0 
126 126 255 
255 255 255 
255 255 255 
0 0 0 
255 255 255 
255 105 255 
247 77 77 
255 105 105 
0 0 0 
246 76 255 
255 173 173 
0 0 0 
247 77 77 
255 104 208 
247 77 77 
255 83 137 
0 0 0 
247 77 77 
0 0 0 
255 255 255 
247 77 77 
0 0 0 
247 77 77 
247 77 77 
255 107 255 
0 0 0 
247 77 77 
247 77 77 
255 126 255 
255 237 237 
0 0 0 
255 154 255 
255 255 255 
255 255 255 
255 255 255 
255 206 206 
255 255 255 
255 98 255 
161 161 161 
255 255 255 
255 255 255 
255 255 255 
255 255 255 
255 255 255 
255 255 255 
255 255 255 
255 255 255 
255 255 255 
255 255 255 
255 255 255 
255 255 255 
255 255 255 
255 255 255 
255 255 255 
255 255 255 
255 255 255 
255 255 255 
255 255 255 
255 255 255 
255 255 255 
255 255 255 
255 255 255 
255 255 255 
255 255 255 
255 255 255 
255 255 255 
255 255 255 
255 255 255 
255 255 255 
255 255 255 
255 255 255 
255 255 255 
255 255 255 
255 255 255 
255 255 255 
255 255 255 
255 255 255 
255 255 255 
255 255 255 
255 255 255 
255 255 255 
255 255 255 
255 255 255 
255 255 255 
255 255 255 
255 255 255 
255 255 255 
255 255 255 
255 255 255 
255 255 255 
255 255 255 
255 255 255 
255 255 255 
255 255 255 
255 255 255 
255 255 255 
255 255 255 
255 255 255 
255 255 255 
255 255 255 
255 255 255 
255 255 255 
255 255 255 
255 255 255 
255 255 255 
255 255 255 
255 255 255 
255 255 255 
255 255 255 
255 255 255 
255 255 255 
255 255 255 
255 255 255 
255 255 255 
255 255 255 
255 255 255 
255 255 255 
255 255 255 
255 255 255 
255 255 255 
255 255 255 
255 255 255 
255 255 255 
255 255 255 
255 255 255 
255 255 255 
255 255 255 
255 255 255 
255 255 255 
255 255 255 
255 255 255 
255 255 255 
255 255 255 
255 255 255 
255 255 255 
255 255 255 
255 255 255 
255 255 255 
255 255 255 
255 255 255 
255 255 255 
255 255 255 
255 255 255 
255 255 255 
255 255 255 
255 255 255 
255 255 255 
255 255 255 
255 255 255 
255 255 255 
255 255 255 
255 255 255 
221 221 221 
255 255 255 
255 255 255 
161 161 161 
0 0 0 
0 0 0 
0 0 0 
77 77 247 
255 10 250 
233 122 255 
255 95 252 
0 0 0 
255 98 255 
153 95 255 
255 255 255 
137 60 194 
0 0 0 
255 255 255 
255 126 126 
255 145 255 
0 0 0 
0 0 0 
60 60 255 
255 255 255 
0 0 0 
77 77 247 
255 126 126 
255 255 255 
0 0 0 
0 0 0 
105 105 255 
255 168 255 
145 145 255 
121 121 255 
95 95 255 
255 255 255 
105 105 255 
255 125 255 
77 77 247 
118 36 118 
140 140 255 
77 77 247 
255 126 126 
255 255 255 
255 255 255 
0 0 0 
105 105 255 
255 255 255 
255 255 255 
218 218 255 
255 79 255 
126 126 255 
255 127 127 
118 36 118 
0 0 0 
0 0 0 
0 0 0 
0 0 0 
144 144 255 
255 255 255 
0 0 0 
0 0 0 
162 162 255 
118 36 118 
255 137 255 
60 60 255 
0 0 0 
144 144 255 
0 0 0 
255 255 255 
193 60 193 
174 77 255 
255 105 105 
0 0 0 
255 255 255 
0 0 0 
0 0 0 
127 127 255 
0 0 0 
255 126 126 
255 255 255 
0 0 0 
255 212 255 
0 0 0 
0 0 0 
255 255 255 
255 95 153 
255 174 255 
255 255 255 
206 206 255 
0 0 0 
77 77 247 
255 185 255 
247 77 77 
0 0 0 
0 0 0 
194 60 137 
255 255 255 
255 224 224 
247 77 77 
255 50 161 
0 0 0 
255 122 122 
247 77 77 
174 174 255 
0 0 0 
255 105 105 
255 255 255 
255 144 144 
255 255 255 
247 77 77 
0 0 0 
255 255 255 
193 60 193 
247 77 77 
255 255 255 
0 0 0 
255 99 99 
0 0 0 
0 0 0 
255 163 255 
255 255 255 
255 226 255 
0 0 0 
0 0 0 
255 145 255 
0 0 0 
255 207 207 
255 127 127 
0 0 0 
255 255 255 
255 255 255 
247 77 77 
127 127 255 
0 0 0 
0 0 0 
0 0 0 
255 255 255 
0 0 0 
255 105 105 
255 222 255 
0 0 0 
255 255 255 
255 255 255 
255 255 255 
255 255 255 
255 255 255 
255 255 255 
255 255 255 
255 255 255 
255 255 255 
255 255 255 
255 255 255 
255 255 255 
255 255 255 
255 255 255 
255 255 255 
255 255 255 
255 255 255 
255 255 255 
255 255 255 
255 255 255 
255 255 255 
255 255 255 
255 255 255 
255 255 255 
255 255 255 
255 255 255 
255 255 255 
255 255 255 
255 255 255 
255 255 255 
255 255 255 
255 255 255 
255 255 255 
255 255 255 
255 255 255 
255 255 255 
255 255 255 
255 255 255 
255 255 255 
255 255 255 
255 255 255 
255 255 255 
255 255 255 
255 255 255 
255 255 255 
255 255 255 
255 255 255 
255 255 255 
255 255 255 
255 255 255 
255 255 255 
255 255 255 
255 255 255 
255 255 255 
255 255 255 
255 255 255 
255 255 255 
255 255 255 
255 255 255 
255 255 255 
255 255 255 
255 255 255 
255 255 255 
255 255 255 
255 255 255 
255 255 255 
255 255 255 
255 255 255 
255 255 255 
255 255 255 
255 255 255 
255 255 255 
255 255 255 
255 255 255 
255 255 255 
255 255 255 
255 255 255 
255 255 255 
255 255 255 
255 255 255 
255 255 255 
255 255 255 
255 255 255 
255 255 255 
255 255 255 
255 255 255 
255 255 255 
255 255 255 
255 255 255 
255 255 255 
255 255 255 
255 255 255 
255 255 255 
255 255 255 
255 255 255 
255 255 255 
255 255 255 
255 255 255 
255 255 255 
255 255 255 
255 255 255 
255 255 255 
255 255 255 
255 255 255 
255 255 255 
255 255 255 
255 255 255 
255 255 255 
255 255 255 
255 255 255 
255 255 255 
255 255 255 
255 255 255 
255 255 255 
255 255 255 
0 0 0 
161 161 161 
161 161 161 
0 0 0 
255 255 255 
0 0 0 
255 95 95 
161 161 161 
0 0 0 
161 161 161 
0 0 0 
231 208 255 
0 0 0 
0 0 0 
0 0 0 
0 0 0 
0 0 0 
255 255 255 
0 0 0 
255 255 255 
0 0 0 
0 0 0 
255 126 126 
77 77 247 
255 255 255 
247 77 77 
255 255 255 
0 0 0 
255 47 106 
127 127 255 
0 0 0 
0 0 0 
255 88 255 
255 145 255 
255 126 126 
216 216 255 
255 113 255 
0 0 0 
0 0 0 
60 60 255 
0 0 0 
0 0 0 
0 0 0 
255 127 127 
77 77 247 
0 0 0 
255 255 255 
105 105 255 
255 199 255 
0 0 0 
255 68 255 
246 76 255 
77 77 247 
0 0 0 
144 144 255 
60 60 255 
77 77 247 
0 0 0 
0 0 0 
0 0 0 
0 0 0 
77 77 247 
0 0 0 
0 0 0 
255 200 255 
235 122 255 
171 48 255 
255 255 255 
77 77 247 
77 77 247 
99 99 255 
0 0 0 
255 255 255 
163 22 232 
0 0 0 
0 0 0 
255 255 255 
247 77 77 
255 154 255 
255 130 255 
0 0 0 
0 0 0 
255 208 208 
247 77 77 
0 0 0 
255 126 126 
247 77 77 
0 0 0 
255 255 255 
255 255 255 
255 255 255 
255 105 105 
255 126 126 
255 60 60 
255 216 216 
255 126 255 
0 0 0 
255 47 106 
255 216 255 
126 126 255 
194 60 137 
247 77 77 
0 0 0 
0 0 0 
255 255 255 
247 77 77 
255 255 255 
255 126 126 
247 77 77 
247 77 77 
0 0 0 
255 60 60 
0 0 0 
255 159 219 
255 255 255 
0 0 0 
255 255 255 
255 255 255 
255 126 126 
255 255 255 
255 121 121 
255 79 135 
255 144 144 
255 88 128 
247 77 77 
255 255 255 
255 214 255 
255 99 255 
247 77 77 
0 0 0 
255 255 255 
255 255 255 
0 0 0 
255 255 255 
0 0 0 
255 255 255 
0 0 0 
247 77 77 
255 47 151 
173 173 255 
161 161 161 
249 249 255 
255 255 255 
255 255 255 
255 255 255 
255 255 255 
255 255 255 
255 255 255 
255 255 255 
255 255 255 
255 255 255 
255 255 255 
255 255 255 
255 255 255 
255 255 255 
255 255 255 
255 255 255 
255 255 255 
255 255 255 
255 255 255 
255 255 255 
255 255 255 
255 255 255 
255 255 255 
255 255 255 
255 255 255 
255 255 255 
255 255 255 
255 255 255 
255 255 255 
255 255 255 
255 255 255 
255 255 255 
255 255 255 
255 255 255 
255 255 255 
255 255 255 
255 255 255 
255 255 255 
255 255 255 
255 255 255 
255 255 255 
255 255 255 
255 255 255 
255 255 255 
255 255 255 
255 255 255 
255 255 255 
255 255 255 
255 255 255 
255 255 255 
255 255 255 
255 255 255 
255 255 255 
255 255 255 
255 255 255 
255 255 255 
255 255 255 
255 255 255 
255 255 255 
255 255 255 
255 255 255 
255 255 255 
255 255 255 
255 255 255 
255 255 255 
255 255 255 
255 255 255 
255 255 255 
255 255 255 
255 255 255 
255 255 255 
255 255 255 
255 255 255 
255 255 255 
255 255 255 
255 255 255 
255 255 255 
255 255 255 
255 255 255 
255 255 255 
255 255 255 
255 255 255 
255 255 255 
255 255 255 
255 255 255 
255 255 255 
255 255 255 
255 255 255 
255 255 255 
255 255 255 
255 255 255 
255 255 255 
255 255 255 
255 255 255 
255 255 255 
255 255 255 
255 255 255 
255 255 255 
255 255 255 
255 255 255 
255 255 255 
255 255 255 
255 255 255 
255 255 255 
255 255 255 
255 255 255 
255 255 255 
255 255 255 
255 255 255 
255 255 255 
255 255 255 
255 255 255 
255 255 255 
255 255 255 
255 255 255 
161 161 161 
255 255 255 
0 0 0 
255 231 231 
255 255 255 
255 255 255 
0 0 0 
77 77 247 
255 209 255 
0 0 0 
0 0 0 
161 161 161 
255 255 255 
255 255 255 
255 255 255 
0 0 0 
77 77 247 
0 0 0 
0 0 0 
0 0 0 
0 0 0 
247 77 77 
0 0 0 
0 0 0 
255 255 255 
255 255 255 
0 0 0 
255 255 255 
0 0 0 
0 0 0 
0 0 0 
255 217 255 
255 83 255 
77 77 247 
255 255 255 
255 255 255 
255 208 255 
0 0 0 
0 0 0 
77 77 247 
0 0 0 
0 0 0 
60 60 255 
246 76 255 
0 0 0 
0 0 0 
255 127 127 
0 0 0 
77 77 247 
0 0 0 
0 0 0 
255 255 255 
247 77 77 
255 144 255 
60 60 255 
0 0 0 
255 160 255 
0 0 0 
0 0 0 
0 0 0 
255 255 255 
0 0 0 
127 127 255 
255 255 255 
0 0 0 
0 0 0 
193 60 193 
0 0 0 
0 0 0 
0 0 0 
0 0 0 
0 0 0 
126 126 255 
174 77 255 
255 255 255 
255 160 160 
0 0 0 
255 255 255 
255 185 255 
255 99 224 
0 0 0 
255 255 255 
247 77 77 
0 0 0 
100 13 142 
247 77 77 
0 0 0 
0 0 0 
247 77 77 
0 0 0 
247 77 77 
255 255 255 
255 162 162 
255 255 255 
0 0 0 
247 77 77 
255 63 237 
0 0 0 
0 0 0 
0 0 0 
0 0 0 
255 162 162 
0 0 0 
0 0 0 
255 144 144 
0 0 0 
255 104 149 
166 88 255 
0 0 0 
255 126 126 
255 105 105 
247 77 77 
0 0 0 
247 77 77 
0 0 0 
255 99 224 
247 77 77 
0 0 0 
255 145 255 
0 0 0 
247 77 77 
255 255 255 
255 255 255 
255 255 255 
255 255 255 
0 0 0 
161 161 161 
0 0 0 
0 0 0 
0 0 0 
0 0 0 
0 0 0 
247 77 77 
255 255 255 
0 0 0 
230 82 255 
0 0 0 
0 0 0 
161 161 161 
0 0 0 
0 0 0 
255 231 255 
161 161 161 
255 255 255 
255 255 255 
255 255 255 
255 255 255 
255 255 255 
255 255 255 
255 255 255 
255 255 255 
255 255 255 
255 255 255 
255 255 255 
255 255 255 
255 255 255 
255 255 255 
255 255 255 
255 255 255 
255 255 255 
255 255 255 
255 255 255 
255 255 255 
255 255 255 
255 255 255 
255 255 255 
255 255 255 
255 255 255 
255 255 255 
255 255 255 
255 255 255 
255 255 255 
255 255 255 
255 255 255 
255 255 255 
255 255 255 
255 255 255 
255 255 255 
255 255 255 
255 255 255 
255 255 255 
255 255 255 
255 255 255 
255 255 255 
255 255 255 
255 255 255 
255 255 255 
255 255 255 
255 255 255 
255 255 255 
255 255 255 
255 255 255 
255 255 255 
255 255 255 
255 255 255 
255 255 255 
255 255 255 
255 255 255 
255 255 255 
255 255 255 
255 255 255 
255 255 255 
255 255 255 
255 255 255 
255 255 255 
255 255 255 
255 255 255 
255 255 255 
255 255 255 
255 255 255 
255 255 255 
255 255 255 
255 255 255 
255 255 255 
255 255 255 
255 255 255 
255 255 255 
255 255 255 
255 255 255 
255 255 255 
255 255 255 
255 255 255 
255 255 255 
255 255 255 
255 255 255 
255 255 255 
255 255 255 
255 255 255 
255 255 255 
255 255 255 
255 255 255 
255 255 255 
255 255 255 
255 255 255 
255 255 255 
255 255 255 
255 255 255 
255 255 255 
255 255 255 
255 255 255 
255 255 255 
255 255 255 
255 255 255 
255 255 255 
255 255 255 
255 255 255 
255 255 255 
255 255 255 
255 255 255 
255 255 255 
255 255 255 
255 255 255 
255 255 255 
255 255 255 
255 255 255 
255 255 255 
161 161 161 
0 0 0 
0 0 0 
0 0 0 
0 0 0 
0 0 0 
0 0 0 
0 0 0 
255 255 255 
137 60 194 
255 255 255 
255 126 126 
127 127 255 
255 175 255 
0 0 0 
255 255 255 
0 0 0 
0 0 0 
255 255 255 
126 126 255 
255 144 255 
0 0 0 
255 207 207 
0 0 0 
0 0 0 
247 77 77 
106 47 255 
255 173 255 
193 60 193 
255 78 250 
76 76 255 
60 60 255 
0 0 0 
255 81 255 
77 77 247 
99 99 255 
160 160 255 
116 81 255 
255 255 255 
0 0 0 
255 255 255 
255 137 255 
0 0 0 
255 22 72 
206 206 255 
0 0 0 
206 206 255 
255 127 127 
255 255 255 
255 255 255 
255 122 255 
144 144 255 
77 77 247 
60 60 255 
0 0 0 
255 255 255 
204 95 255 
126 126 255 
255 105 255 
255 255 255 
98 98 255 
247 77 77 
255 206 206 
105 105 255 
255 170 255 
255 255 255 
0 0 0 
0 0 0 
77 77 247 
126 126 255 
136 136 255 
118 36 118 
255 121 255 
0 0 0 
255 255 255 
255 105 105 
255 255 255 
255 255 255 
0 0 0 
0 0 0 
0 0 0 
0 0 0 
194 60 137 
0 0 0 
0 0 0 
255 126 126 
255 255 255 
255 255 255 
255 144 144 
77 77 247 
255 255 255 
255 206 206 
255 126 126 
0 0 0 
0 0 0 
0 0 0 
0 0 0 
247 77 77 
105 105 255 
255 165 255 
255 255 255 
255 68 255 
247 77 77 
255 105 105 
255 255 255 
255 160 255 
247 77 77 
0 0 0 
255 126 126 
247 77 77 
255 255 255 
0 0 0 
255 255 255 
255 173 173 
255 255 255 
0 0 0 
255 255 255 
255 255 255 
0 0 0 
255 126 126 
255 144 255 
161 161 161 
255 98 98 
145 145 255 
255 255 255 
247 77 77 
118 36 118 
255 60 60 
255 126 126 
0 0 0 
255 122 196 
0 0 0 
255 145 255 
255 255 255 
161 161 161 
255 255 255 
247 77 77 
255 255 255 
255 255 255 
255 194 255 
255 113 255 
0 0 0 
221 221 221 
221 221 221 
255 255 255 
255 255 255 
255 255 255 
255 255 255 
255 255 255 
255 255 255 
255 255 255 
255 255 255 
255 255 255 
255 255 255 
255 255 255 
255 255 255 
255 255 255 
255 255 255 
255 255 255 
255 255 255 
255 255 255 
255 255 255 
255 255 255 
255 255 255 
255 255 255 
255 255 255 
255 255 255 
255 255 255 
255 255 255 
255 255 255 
255 255 255 
255 255 255 
255 255 255 
255 255 255 
255 255 255 
255 255 255 
255 255 255 
255 255 255 
255 255 255 
255 255 255 
255 255 255 
255 255 255 
255 255 255 
255 255 255 
255 255 255 
255 255 255 
255 255 255 
255 255 255 
255 255 255 
255 255 255 
255 255 255 
255 255 255 
255 255 255 
255 255 255 
255 255 255 
255 255 255 
255 255 255 
255 255 255 
255 255 255 
255 255 255 
255 255 255 
255 255 255 
255 255 255 
255 255 255 
255 255 255 
255 255 255 
255 255 255 
255 255 255 
255 255 255 
255 255 255 
255 255 255 
255 255 255 
255 255 255 
255 255 255 
255 255 255 
255 255 255 
255 255 255 
255 255 255 
255 255 255 
255 255 255 
255 255 255 
255 255 255 
255 255 255 
255 255 255 
255 255 255 
255 255 255 
255 255 255 
255 255 255 
255 255 255 
255 255 255 
255 255 255 
255 255 255 
255 255 255 
255 255 255 
255 255 255 
255 255 255 
255 255 255 
255 255 255 
255 255 255 
255 255 255 
255 255 255 
255 255 255 
255 255 255 
255 255 255 
255 255 255 
255 255 255 
255 255 255 
255 255 255 
255 255 255 
255 255 255 
255 255 255 
255 255 255 
255 255 255 
161 161 161 
255 255 255 
161 161 161 
255 163 182 
0 0 0 
255 127 127 
0 0 0 
255 255 255 
0 0 0 
255 162 166 
255 255 255 
255 127 127 
255 8 87 
255 255 255 
0 0 0 
255 255 255 
60 60 255 
255 255 255 
255 255 255 
247 77 77 
0 0 0 
106 47 255 
0 0 0 
0 0 0 
255 235 255 
255 255 255 
77 77 247 
0 0 0 
255 255 255 
255 161 255 
255 255 255 
255 99 99 
255 126 126 
77 77 247 
0 0 0 
77 77 247 
106 47 255 
0 0 0 
255 144 255 
255 255 255 
255 255 255 
0 0 0 
77 77 247 
255 255 255 
255 255 255 
207 207 255 
126 126 255 
255 10 55 
255 126 255 
255 121 255 
0 0 0 
105 105 255 
255 255 255 
60 60 255 
105 105 255 
255 177 255 
222 222 255 
175 175 255 
210 151 255 
0 0 0 
226 226 255 
0 0 0 
0 0 0 
255 145 255 
255 255 255 
0 0 0 
151 47 255 
92 28 255 
77 77 247 
255 255 255 
126 126 255 
193 60 193 
0 0 0 
0 0 0 
255 126 126 
235 235 255 
145 145 255 
0 0 0 
255 83 83 
255 255 255 
255 99 99 
0 0 0 
255 215 255 
247 77 77 
247 77 77 
0 0 0 
255 255 255 
255 93 143 
247 77 77 
194 60 137 
0 0 0 
255 126 126 
0 0 0 
0 0 0 
255 255 255 
0 0 0 
248 77 255 
255 255 255 
255 126 126 
255 144 144 
127 127 255 
0 0 0 
255 60 60 
255 255 255 
0 0 0 
255 95 95 
255 255 255 
0 0 0 
0 0 0 
255 88 128 
247 77 77 
255 126 126 
255 255 255 
247 77 77 
255 255 255 
255 200 255 
255 255 255 
255 174 255 
0 0 0 
255 255 255 
0 0 0 
255 125 125 
250 10 110 
0 0 0 
255 128 138 
255 206 206 
0 0 0 
255 255 255 
255 255 255 
255 216 255 
255 255 255 
0 0 0 
255 145 255 
0 0 0 
255 255 255 
0 0 0 
255 255 255 
255 145 145 
255 255 255 
255 145 145 
255 95 204 
255 255 255 
255 144 144 
161 161 161 
255 255 255 
0 0 0 
255 255 255 
255 255 255 
255 255 255 
255 255 255 
255 255 255 
255 255 255 
255 255 255 
255 255 255 
255 255 255 
255 255 255 
255 255 255 
255 255 255 
255 255 255 
255 255 255 
255 255 255 
255 255 255 
255 255 255 
255 255 255 
255 255 255 
255 255 255 
255 255 255 
255 255 255 
255 255 255 
255 255 255 
255 255 255 
255 255 255 
255 255 255 
255 255 255 
255 255 255 
255 255 255 
255 255 255 
255 255 255 
255 255 255 
255 255 255 
255 255 255 
255 255 255 
255 255 255 
255 255 255 
255 255 255 
255 255 255 
255 255 255 
255 255 255 
255 255 255 
255 255 255 
255 255 255 
255 255 255 
255 255 255 
255 255 255 
255 255 255 
255 255 255 
255 255 255 
255 255 255 
255 255 255 
255 255 255 
255 255 255 
255 255 255 
255 255 255 
255 255 255 
255 255 255 
255 255 255 
255 255 255 
255 255 255 
255 255 255 
255 255 255 
255 255 255 
255 255 255 
255 255 255 
255 255 255 
255 255 255 
255 255 255 
255 255 255 
255 255 255 
255 255 255 
255 255 255 
255 255 255 
255 255 255 
255 255 255 
255 255 255 
255 255 255 
255 255 255 
255 255 255 
255 255 255 
255 255 255 
255 255 255 
255 255 255 
255 255 255 
255 255 255 
255 255 255 
255 255 255 
255 255 255 
255 255 255 
255 255 255 
255 255 255 
255 255 255 
255 255 255 
255 255 255 
255 255 255 
255 255 255 
255 255 255 
255 255 255 
255 255 255 
255 255 255 
255 255 255 
255 255 255 
255 255 255 
255 255 255 
255 255 255 
255 255 255 
255 255 255 
255 255 255 
255 255 255 
0 0 0 
255 255 255 
255 255 255 
0 0 0 
105 105 255 
0 0 0 
247 77 77 
0 0 0 
255 255 255 
71 22 255 
255 255 255 
161 161 161 
0 0 0 
0 0 0 
255 255 255 
255 127 127 
0 0 0 
0 0 0 
0 0 0 
0 0 0 
0 0 0 
255 255 255 
77 77 247 
77 77 247 
105 105 255 
0 0 0 
105 105 255 
255 208 255 
255 255 255 
0 0 0 
255 105 255 
126 126 255 
77 77 247 
0 0 0 
255 255 255 
0 0 0 
0 0 0 
77 77 247 
0 0 0 
255 255 255 
0 0 0 
255 81 253 
255 255 255 
126 126 255 
95 95 255 
255 255 255 
255 127 127 
126 126 255 
255 255 255 
0 0 0 
255 255 255 
92 28 255 
0 0 0 
206 206 255 
77 77 247 
255 126 126 
0 0 0 
250 155 255 
77 77 247 
0 0 0 
255 188 255 
77 77 247 
255 127 127 
0 0 0 
60 60 255 
247 77 77 
255 255 255 
255 255 255 
0 0 0 
255 206 206 
0 0 0 
0 0 0 
0 0 0 
0 0 0 
0 0 0 
0 0 0 
255 60 60 
0 0 0 
255 255 255 
0 0 0 
255 255 255 
127 127 255 
0 0 0 
0 0 0 
127 127 255 
127 127 255 
255 255 255 
255 255 255 
255 255 255 
0 0 0 
0 0 0 
247 77 77 
255 255 255 
255 99 99 
0 0 0 
247 77 77 
255 98 255 
255 255 255 
247 77 77 
0 0 0 
0 0 0 
255 126 126 
0 0 0 
255 212 255 
255 145 255 
255 255 255 
0 0 0 
247 77 77 
255 255 255 
255 255 255 
255 255 255 
255 255 255 
0 0 0 
255 255 255 
77 77 247 
0 0 0 
255 28 92 
0 0 0 
255 144 255 
0 0 0 
0 0 0 
255 255 255 
255 74 238 
0 0 0 
255 113 255 
126 126 255 
0 0 0 
255 46 150 
247 77 77 
0 0 0 
255 255 255 
0 0 0 
255 255 255 
255 126 126 
255 255 255 
161 161 161 
0 0 0 
247 77 77 
77 77 247 
255 57 185 
0 0 0 
0 0 0 
255 207 207 
161 161 161 
255 255 255 
255 255 255 
161 161 161 
255 255 255 
255 255 255 
255 255 255 
255 255 255 
255 255 255 
255 255 255 
255 255 255 
255 255 255 
255 255 255 
255 255 255 
255 255 255 
255 255 255 
255 255 255 
255 255 255 
255 255 255 
255 255 255 
255 255 255 
255 255 255 
255 255 255 
255 255 255 
255 255 255 
255 255 255 
255 255 255 
255 255 255 
255 255 255 
255 255 255 
255 255 255 
255 255 255 
255 255 255 
255 255 255 
255 255 255 
255 255 255 
255 255 255 
255 255 255 
255 255 255 
255 255 255 
255 255 255 
255 255 255 
255 255 255 
255 255 255 
255 255 255 
255 255 255 
255 255 255 
255 255 255 
255 255 255 
255 255 255 
255 255 255 
255 255 255 
255 255 255 
255 255 255 
255 255 255 
255 255 255 
255 255 255 
255 255 255 
255 255 255 
255 255 255 
255 255 255 
255 255 255 
255 255 255 
255 255 255 
255 255 255 
255 255 255 
255 255 255 
255 255 255 
255 255 255 
255 255 255 
255 255 255 
255 255 255 
255 255 255 
255 255 255 
255 255 255 
255 255 255 
255 255 255 
255 255 255 
255 255 255 
255 255 255 
255 255 255 
255 255 255 
255 255 255 
255 255 255 
255 255 255 
255 255 255 
255 255 255 
255 255 255 
255 255 255 
255 255 255 
255 255 255 
255 255 255 
255 255 255 
255 255 255 
255 255 255 
255 255 255 
255 255 255 
255 255 255 
255 255 255 
255 255 255 
255 255 255 
255 255 255 
255 255 255 
255 255 255 
255 255 255 
255 255 255 
255 255 255 
255 255 255 
255 255 255 
255 255 255 
255 255 255 
161 161 161 
255 255 255 
255 255 255 
194 164 194 
0 0 0 
255 255 255 
255 255 255 
255 255 255 
0 0 0 
255 255 255 
161 161 161 
100 13 142 
77 77 247 
255 223 255 
0 0 0 
255 68 255 
0 0 0 
255 199 255 
0 0 0 
0 0 0 
255 127 127 
0 0 0 
255 173 173 
255 105 255 
255 255 255 
255 98 255 
255 105 255 
255 255 255 
77 77 247 
0 0 0 
105 105 255 
0 0 0 
255 255 255 
0 0 0 
255 255 255 
255 255 255 
255 255 255 
255 173 255 
255 255 255 
206 206 255 
137 83 255 
77 77 247 
60 60 255 
255 160 255 
255 255 255 
255 126 126 
126 126 255 
216 216 255 
255 127 127 
77 77 247 
118 36 118 
0 0 0 
0 0 0 
255 255 255 
255 212 255 
0 0 0 
127 127 255 
255 60 60 
255 136 255 
0 0 0 
160 160 255 
0 0 0 
255 255 255 
0 0 0 
255 98 255 
221 207 255 
0 0 0 
126 126 255 
255 255 255 
0 0 0 
137 60 194 
0 0 0 
0 0 0 
0 0 0 
77 77 247 
0 0 0 
255 24 255 
0 0 0 
0 0 0 
0 0 0 
255 126 126 
0 0 0 
0 0 0 
255 186 255 
0 0 0 
255 255 255 
255 129 139 
0 0 0 
0 0 0 
0 0 0 
0 0 0 
0 0 0 
0 0 0 
0 0 0 
255 255 255 
255 255 255 
0 0 0 
77 77 247 
255 255 255 
255 207 207 
255 255 255 
255 255 255 
255 145 255 
0 0 0 
0 0 0 
255 255 255 
247 77 77 
255 255 255 
0 0 0 
255 255 255 
255 77 77 
255 255 255 
173 173 255 
255 255 255 
255 126 126 
0 0 0 
255 153 255 
255 60 60 
255 255 255 
255 255 255 
0 0 0 
193 133 255 
0 0 0 
0 0 0 
0 0 0 
0 0 0 
0 0 0 
0 0 0 
0 0 0 
255 126 126 
0 0 0 
255 160 255 
255 216 216 
0 0 0 
247 77 77 
255 255 255 
0 0 0 
0 0 0 
0 0 0 
0 0 0 
150 46 255 
161 161 161 
255 255 255 
255 206 255 
255 255 255 
255 127 127 
247 77 77 
255 255 255 
161 161 161 
255 83 83 
255 237 255 
255 255 255 
255 255 255 
255 255 255 
255 255 255 
255 255 255 
255 255 255 
255 255 255 
255 255 255 
255 255 255 
255 255 255 
255 255 255 
255 255 255 
255 255 255 
255 255 255 
255 255 255 
255 255 255 
255 255 255 
255 255 255 
255 255 255 
255 255 255 
255 255 255 
255 255 255 
255 255 255 
255 255 255 
255 255 255 
255 255 255 
255 255 255 
255 255 255 
255 255 255 
255 255 255 
255 255 255 
255 255 255 
255 255 255 
255 255 255 
255 255 255 
255 255 255 
255 255 255 
255 255 255 
255 255 255 
255 255 255 
255 255 255 
255 255 255 
255 255 255 
255 255 255 
255 255 255 
255 255 255 
255 255 255 
255 255 255 
255 255 255 
255 255 255 
255 255 255 
255 255 255 
255 255 255 
255 255 255 
255 255 255 
255 255 255 
255 255 255 
255 255 255 
255 255 255 
255 255 255 
255 255 255 
255 255 255 
255 255 255 
255 255 255 
255 255 255 
255 255 255 
255 255 255 
255 255 255 
255 255 255 
255 255 255 
255 255 255 
255 255 255 
255 255 255 
255 255 255 
255 255 255 
255 255 255 
255 255 255 
255 255 255 
255 255 255 
255 255 255 
255 255 255 
255 255 255 
255 255 255 
255 255 255 
255 255 255 
255 255 255 
255 255 255 
255 255 255 
255 255 255 
255 255 255 
255 255 255 
255 255 255 
255 255 255 
255 255 255 
255 255 255 
255 255 255 
255 255 255 
255 255 255 
255 255 255 
255 255 255 
255 255 255 
255 255 255 
255 255 255 
255 255 255 
255 255 255 
221 221 221 
255 255 255 
175 175 255 
0 0 0 
255 255 255 
255 156 156 
255 255 255 
161 161 161 
255 255 255 
127 127 255 
255 255 255 
161 161 161 
255 255 255 
0 0 0 
0 0 0 
255 255 255 
255 127 127 
0 0 0 
0 0 0 
0 0 0 
0 0 0 
77 77 247 
0 0 0 
0 0 0 
77 77 247 
77 77 247 
255 255 255 
255 163 163 
77 77 247 
255 98 255 
232 22 163 
255 255 255 
0 0 0 
255 255 255 
255 255 255 
0 0 0 
0 0 0 
0 0 0 
255 255 255 
255 206 206 
0 0 0 
98 98 255 
255 121 255 
153 110 255 
0 0 0 
160 160 255 
0 0 0 
124 38 255 
0 0 0 
0 0 0 
0 0 0 
255 105 105 
0 0 0 
255 162 255 
193 60 193 
167 129 255 
255 255 255 
255 255 255 
127 127 255 
255 60 255 
247 77 77 
255 255 255 
255 255 255 
0 0 0 
255 255 255 
247 77 77 
255 255 255 
0 0 0 
255 255 255 
255 206 255 
255 255 255 
255 143 255 
0 0 0 
0 0 0 
0 0 0 
255 61 90 
0 0 0 
255 60 60 
151 47 47 
255 255 255 
0 0 0 
255 255 255 
255 126 126 
247 77 77 
255 255 255 
255 60 60 
255 255 255 
247 77 77 
127 127 255 
255 255 255 
255 255 255 
247 77 77 
255 46 150 
255 173 255 
255 82 199 
255 121 121 
255 255 255 
255 255 255 
0 0 0 
126 126 255 
92 28 255 
255 122 233 
126 126 255 
255 226 226 
0 0 0 
255 216 216 
0 0 0 
0 0 0 
0 0 0 
0 0 0 
247 77 77 
255 140 242 
0 0 0 
255 60 60 
0 0 0 
0 0 0 
255 28 92 
255 206 206 
0 0 0 
247 77 77 
255 255 255 
0 0 0 
0 0 0 
255 126 126 
161 161 161 
0 0 0 
255 209 255 
0 0 0 
255 170 255 
255 255 255 
255 17 127 
255 255 255 
255 255 255 
0 0 0 
255 255 255 
0 0 0 
255 255 255 
0 0 0 
247 77 77 
0 0 0 
255 255 255 
0 0 0 
247 77 77 
255 255 255 
255 99 99 
255 175 175 
255 255 255 
255 255 255 
247 77 77 
161 161 161 
255 255 255 
255 255 255 
255 255 255 
255 255 255 
255 255 255 
255 255 255 
255 255 255 
255 255 255 
255 255 255 
255 255 255 
255 255 255 
255 255 255 
255 255 255 
255 255 255 
255 255 255 
255 255 255 
255 255 255 
255 255 255 
255 255 255 
255 255 255 
255 255 255 
255 255 255 
255 255 255 
255 255 255 
255 255 255 
255 255 255 
255 255 255 
255 255 255 
255 255 255 
255 255 255 
255 255 255 
255 255 255 
255 255 255 
255 255 255 
255 255 255 
255 255 255 
255 255 255 
255 255 255 
255 255 255 
255 255 255 
255 255 255 
255 255 255 
255 255 255 
255 255 255 
255 255 255 
255 255 255 
255 255 255 
255 255 255 
255 255 255 
255 255 255 
255 255 255 
255 255 255 
255 255 255 
255 255 255 
255 255 255 
255 255 255 
255 255 255 
255 255 255 
255 255 255 
255 255 255 
255 255 255 
255 255 255 
255 255 255 
255 255 255 
255 255 255 
255 255 255 
255 255 255 
255 255 255 
255 255 255 
255 255 255 
255 255 255 
255 255 255 
255 255 255 
255 255 255 
255 255 255 
255 255 255 
255 255 255 
255 255 255 
255 255 255 
255 255 255 
255 255 255 
255 255 255 
255 255 255 
255 255 255 
255 255 255 
255 255 255 
255 255 255 
255 255 255 
255 255 255 
255 255 255 
255 255 255 
255 255 255 
255 255 255 
255 255 255 
255 255 255 
255 255 255 
255 255 255 
255 255 255 
255 255 255 
255 255 255 
255 255 255 
255 255 255 
255 255 255 
255 255 255 
255 255 255 
175 175 255 
228 223 255 
161 161 161 
255 175 175 
161 161 161 
206 206 255 
0 0 0 
0 0 0 
255 255 255 
137 60 194 
0 0 0 
0 0 0 
255 163 182 
216 216 255 
255 255 255 
0 0 0 
255 255 255 
159 159 255 
247 77 77 
105 105 255 
255 255 255 
77 77 247 
255 206 206 
255 255 255 
0 0 0 
255 127 127 
247 77 77 
77 77 247 
0 0 0 
0 0 0 
141 13 141 
77 77 247 
255 222 255 
255 255 255 
77 77 247 
255 208 255 
194 60 137 
77 77 247 
0 0 0 
0 0 0 
0 0 0 
255 98 255 
247 77 77 
0 0 0 
255 97 255 
137 83 255 
0 0 0 
77 77 247 
0 0 0 
255 208 231 
0 0 0 
255 144 255 
255 207 207 
0 0 0 
255 255 255 
255 255 255 
105 105 255 
71 22 255 
216 216 255 
255 255 255 
77 77 247 
118 118 255 
0 0 0 
255 255 255 
255 174 255 
77 77 247 
0 0 0 
255 255 255 
255 255 255 
0 0 0 
77 77 247 
0 0 0 
0 0 0 
255 255 255 
118 36 118 
255 28 92 
255 81 136 
255 63 197 
255 36 36 
255 103 125 
0 0 0 
255 160 160 
255 255 255 
0 0 0 
255 255 255 
255 145 255 
0 0 0 
255 245 255 
255 170 255 
0 0 0 
0 0 0 
255 185 185 
255 255 255 
0 0 0 
0 0 0 
247 77 77 
0 0 0 
0 0 0 
255 206 206 
255 88 165 
0 0 0 
0 0 0 
206 206 255 
255 130 147 
255 122 122 
255 255 255 
0 0 0 
255 255 255 
255 164 164 
255 127 255 
255 255 255 
0 0 0 
255 255 255 
127 127 255 
255 255 255 
255 255 255 
255 105 105 
255 255 255 
0 0 0 
0 0 0 
255 126 126 
247 77 77 
255 255 255 
255 255 255 
255 255 255 
255 60 60 
127 127 255 
0 0 0 
0 0 0 
247 77 77 
0 0 0 
255 255 255 
255 113 255 
247 77 77 
255 206 206 
255 255 255 
255 187 255 
0 0 0 
247 77 77 
255 206 206 
0 0 0 
255 170 170 
255 83 137 
255 174 255 
255 255 255 
0 0 0 
0 0 0 
255 255 255 
255 255 255 
255 236 255 
127 127 255 
255 255 255 
255 255 255 
255 255 255 
255 255 255 
255 255 255 
255 255 255 
255 255 255 
255 255 255 
255 255 255 
255 255 255 
255 255 255 
255 255 255 
255 255 255 
255 255 255 
255 255 255 
255 255 255 
255 255 255 
255 255 255 
255 255 255 
255 255 255 
255 255 255 
255 255 255 
255 255 255 
255 255 255 
255 255 255 
255 255 255 
255 255 255 
255 255 255 
255 255 255 
255 255 255 
255 255 255 
255 255 255 
255 255 255 
255 255 255 
255 255 255 
255 255 255 
255 255 255 
255 255 255 
255 255 255 
255 255 255 
255 255 255 
255 255 255 
255 255 255 
255 255 255 
255 255 255 
255 255 255 
255 255 255 
255 255 255 
255 255 255 
255 255 255 
255 255 255 
255 255 255 
255 255 255 
255 255 255 
255 255 255 
255 255 255 
255 255 255 
255 255 255 
255 255 255 
255 255 255 
255 255 255 
255 255 255 
255 255 255 
255 255 255 
255 255 255 
255 255 255 
255 255 255 
255 255 255 
255 255 255 
255 255 255 
255 255 255 
255 255 255 
255 255 255 
255 255 255 
255 255 255 
255 255 255 
255 255 255 
255 255 255 
255 255 255 
255 255 255 
255 255 255 
255 255 255 
255 255 255 
255 255 255 
255 255 255 
255 255 255 
255 255 255 
255 255 255 
255 255 255 
255 255 255 
255 255 255 
255 255 255 
255 255 255 
255 255 255 
255 255 255 
255 255 255 
255 255 255 
255 255 255 
255 255 255 
255 255 255 
255 255 255 
255 255 255 
255 255 255 
255 255 255 
255 255 255 
255 255 255 
161 161 161 
255 255 255 
161 161 161 
0 0 0 
77 77 247 
0 0 0 
0 0 0 
255 255 255 
193 60 193 
255 255 255 
255 255 255 
255 129 255 
0 0 0 
255 255 255 
255 255 255 
0 0 0 
0 0 0 
194 60 137 
0 0 0 
255 255 255 
255 255 255 
255 255 255 
77 77 247 
0 0 0 
255 255 255 
77 77 247 
0 0 0 
206 95 255 
255 255 255 
255 255 255 
255 255 255 
255 255 255 
0 0 0 
0 0 0 
0 0 0 
0 0 0 
255 145 255 
0 0 0 
77 77 247 
0 0 0 
105 105 255 
0 0 0 
255 255 255 
77 77 247 
77 77 247 
77 77 247 
106 47 255 
255 105 105 
118 36 118 
255 255 255 
0 0 0 
0 0 0 
159 159 255 
77 77 247 
255 255 255 
0 0 0 
255 255 255 
77 77 247 
224 136 255 
255 178 255 
255 79 255 
105 105 255 
0 0 0 
206 206 255 
255 110 153 
137 83 255 
144 144 255 
206 206 255 
0 0 0 
0 0 0 
243 86 255 
0 0 0 
0 0 0 
197 42 197 
77 77 247 
0 0 0 
0 0 0 
255 149 174 
163 22 232 
255 95 204 
255 36 36 
255 82 255 
0 0 0 
0 0 0 
255 206 206 
0 0 0 
255 144 255 
0 0 0 
255 255 255 
0 0 0 
255 255 255 
255 68 129 
255 255 255 
0 0 0 
0 0 0 
255 206 206 
255 36 255 
0 0 0 
0 0 0 
255 191 255 
255 255 255 
247 77 77 
0 0 0 
0 0 0 
247 77 77 
0 0 0 
0 0 0 
0 0 0 
127 127 255 
255 255 255 
194 60 137 
0 0 0 
255 146 255 
255 255 255 
0 0 0 
126 126 255 
0 0 0 
255 98 255 
247 77 77 
255 228 228 
247 77 77 
247 77 77 
247 77 77 
255 255 255 
255 255 255 
0 0 0 
0 0 0 
247 77 77 
255 206 206 
0 0 0 
77 77 247 
0 0 0 
255 77 77 
255 255 255 
255 255 255 
0 0 0 
255 126 126 
255 255 255 
0 0 0 
0 0 0 
247 77 77 
0 0 0 
255 255 255 
247 77 77 
255 255 255 
0 0 0 
255 98 255 
0 0 0 
247 77 77 
127 127 255 
221 221 221 
0 0 0 
255 255 255 
255 255 255 
255 255 255 
255 255 255 
255 255 255 
255 255 255 
255 255 255 
255 255 255 
255 255 255 
255 255 255 
255 255 255 
255 255 255 
255 255 255 
255 255 255 
255 255 255 
255 255 255 
255 255 255 
255 255 255 
255 255 255 
255 255 255 
255 255 255 
255 255 255 
255 255 255 
255 255 255 
255 255 255 
255 255 255 
255 255 255 
255 255 255 
255 255 255 
255 255 255 
255 255 255 
255 255 255 
255 255 255 
255 255 255 
255 255 255 
255 255 255 
255 255 255 
255 255 255 
255 255 255 
255 255 255 
255 255 255 
255 255 255 
255 255 255 
255 255 255 
255 255 255 
255 255 255 
255 255 255 
255 255 255 
255 255 255 
255 255 255 
255 255 255 
255 255 255 
255 255 255 
255 255 255 
255 255 255 
255 255 255 
255 255 255 
255 255 255 
255 255 255 
255 255 255 
255 255 255 
255 255 255 
255 255 255 
255 255 255 
255 255 255 
255 255 255 
255 255 255 
255 255 255 
255 255 255 
255 255 255 
255 255 255 
255 255 255 
255 255 255 
255 255 255 
255 255 255 
255 255 255 
255 255 255 
255 255 255 
255 255 255 
255 255 255 
255 255 255 
255 255 255 
255 255 255 
255 255 255 
255 255 255 
255 255 255 
255 255 255 
255 255 255 
255 255 255 
255 255 255 
255 255 255 
255 255 255 
255 255 255 
255 255 255 
255 255 255 
255 255 255 
255 255 255 
255 255 255 
255 255 255 
255 255 255 
255 255 255 
255 255 255 
255 255 255 
255 255 255 
255 255 255 
105 105 255 
0 0 0 
255 160 255 
0 0 0 
145 145 255 
77 77 247 
255 207 207 
255 255 255 
0 0 0 
0 0 0 
77 77 247 
0 0 0 
255 255 255 
255 255 255 
0 0 0 
0 0 0 
0 0 0 
255 255 255 
0 0 0 
247 77 77 
255 95 204 
126 126 255 
255 105 255 
127 127 255 
255 255 255 
255 136 255 
255 255 255 
0 0 0 
126 126 255 
224 99 255 
77 77 247 
255 255 255 
255 255 255 
255 255 255 
0 0 0 
255 255 255 
0 0 0 
255 255 255 
255 212 255 
0 0 0 
77 77 247 
0 0 0 
255 8 138 
0 0 0 
255 91 255 
0 0 0 
255 28 65 
255 199 255 
127 127 255 
0 0 0 
0 0 0 
77 77 247 
77 77 247 
77 77 247 
0 0 0 
0 0 0 
247 77 77 
143 143 255 
255 255 255 
77 77 247 
0 0 0 
98 98 255 
140 50 255 
36 36 255 
255 131 168 
255 255 255 
255 216 255 
255 255 255 
255 255 255 
137 60 194 
0 0 0 
0 0 0 
255 119 255 
126 126 255 
255 203 255 
0 0 0 
0 0 0 
255 60 60 
0 0 0 
255 87 87 
0 0 0 
0 0 0 
255 206 206 
255 255 255 
255 204 204 
255 82 82 
253 81 255 
126 126 255 
0 0 0 
207 207 255 
247 77 77 
0 0 0 
255 255 255 
255 60 60 
0 0 0 
255 99 224 
255 77 248 
255 255 255 
0 0 0 
0 0 0 
0 0 0 
247 77 77 
0 0 0 
255 105 105 
255 255 255 
0 0 0 
0 0 0 
195 60 255 
0 0 0 
0 0 0 
255 144 144 
255 237 255 
255 126 126 
255 127 255 
0 0 0 
127 17 255 
77 77 247 
255 224 255 
0 0 0 
77 77 247 
247 77 77 
0 0 0 
255 255 255 
255 173 255 
255 144 255 
193 60 193 
247 77 77 
255 206 206 
0 0 0 
255 175 175 
255 255 255 
255 126 126 
255 127 127 
255 255 255 
247 77 77 
0 0 0 
255 145 255 
247 77 77 
0 0 0 
0 0 0 
99 99 255 
0 0 0 
0 0 0 
255 173 173 
0 0 0 
0 0 0 
0 0 0 
255 255 255 
77 77 247 
0 0 0 
255 255 255 
0 0 0 
255 255 255 
255 255 255 
255 255 255 
255 255 255 
255 255 255 
255 255 255 
255 255 255 
255 255 255 
255 255 255 
255 255 255 
255 255 255 
255 255 255 
255 255 255 
255 255 255 
255 255 255 
255 255 255 
255 255 255 
255 255 255 
255 255 255 
255 255 255 
255 255 255 
255 255 255 
255 255 255 
255 255 255 
255 255 255 
255 255 255 
255 255 255 
255 255 255 
255 255 255 
255 255 255 
255 255 255 
255 255 255 
255 255 255 
255 255 255 
255 255 255 
255 255 255 
255 255 255 
255 255 255 
255 255 255 
255 255 255 
255 255 255 
255 255 255 
255 255 255 
255 255 255 
255 255 255 
255 255 255 
255 255 255 
255 255 255 
255 255 255 
255 255 255 
255 255 255 
255 255 255 
255 255 255 
255 255 255 
255 255 255 
255 255 255 
255 255 255 
255 255 255 
255 255 255 
255 255 255 
255 255 255 
255 255 255 
255 255 255 
255 255 255 
255 255 255 
255 255 255 
255 255 255 
255 255 255 
255 255 255 
255 255 255 
255 255 255 
255 255 255 
255 255 255 
255 255 255 
255 255 255 
255 255 255 
255 255 255 
255 255 255 
255 255 255 
255 255 255 
255 255 255 
255 255 255 
255 255 255 
255 255 255 
255 255 255 
255 255 255 
255 255 255 
255 255 255 
255 255 255 
255 255 255 
255 255 255 
255 255 255 
255 255 255 
255 255 255 
255 255 255 
255 255 255 
255 255 255 
255 255 255 
255 255 255 
255 255 255 
199 199 255 
0 0 0 
255 255 255 
95 95 255 
221 221 221 
0 0 0 
0 0 0 
255 207 207 
255 98 255 
127 127 255 
233 122 255 
255 121 255 
255 255 255 
255 129 255 
77 77 247 
0 0 0 
0 0 0 
0 0 0 
0 0 0 
255 255 255 
0 0 0 
0 0 0 
206 206 255 
224 99 255 
255 207 255 
0 0 0 
193 60 193 
0 0 0 
0 0 0 
137 137 255 
77 77 247 
126 126 255 
118 36 118 
0 0 0 
255 255 255 
255 253 255 
77 77 247 
0 0 0 
77 77 247 
255 255 255 
0 0 0 
77 77 247 
206 206 255 
0 0 0 
255 88 255 
77 77 247 
0 0 0 
255 145 255 
255 255 255 
255 255 255 
127 127 255 
77 77 247 
255 170 255 
0 0 0 
255 113 255 
174 149 255 
92 28 255 
246 76 255 
255 222 255 
255 174 255 
255 88 255 
0 0 0 
255 255 255 
77 77 247 
0 0 0 
0 0 0 
0 0 0 
255 255 255 
0 0 0 
137 60 194 
77 77 247 
255 28 92 
255 83 255 
0 0 0 
126 126 255 
0 0 0 
36 36 255 
65 39 255 
255 82 82 
0 0 0 
176 48 147 
255 103 103 
255 101 207 
255 126 126 
255 81 81 
255 98 98 
255 98 255 
0 0 0 
255 255 255 
247 77 77 
137 83 255 
255 155 155 
126 126 255 
0 0 0 
0 0 0 
0 0 0 
255 76 76 
0 0 0 
0 0 0 
0 0 0 
255 255 255 
0 0 0 
247 77 77 
0 0 0 
255 255 255 
255 170 205 
255 206 206 
127 127 255 
145 45 235 
255 162 162 
255 144 209 
0 0 0 
255 255 255 
0 0 0 
0 0 0 
255 185 185 
255 126 126 
255 47 106 
0 0 0 
255 144 144 
255 255 255 
255 255 255 
255 159 159 
255 126 126 
255 255 255 
0 0 0 
255 59 191 
0 0 0 
0 0 0 
255 144 144 
255 155 255 
0 0 0 
0 0 0 
255 127 255 
247 77 77 
0 0 0 
255 207 207 
0 0 0 
255 255 255 
255 255 255 
0 0 0 
255 244 255 
255 28 92 
255 255 255 
0 0 0 
255 255 255 
0 0 0 
255 255 255 
0 0 0 
206 206 255 
0 0 0 
255 255 255 
0 0 0 
77 77 247 
0 0 0 
0 0 0 
247 77 77 
0 0 0 
255 132 160 
161 161 161 
247 77 77 
0 0 0 
255 255 255 
255 184 184 
126 126 255 
0 0 0 
255 255 255 
255 255 255 
255 255 255 
0 0 0 
255 255 255 
161 161 161 
255 175 175 
255 163 171 
255 255 255 
255 255 255 
255 173 173 
223 162 255 
0 0 0 
255 255 255 
255 126 126 
145 145 255 
255 169 255 
0 0 0 
199 199 255 
255 210 210 
0 0 0 
255 255 255 
77 77 247 
255 255 255 
255 255 255 
0 0 0 
0 0 0 
255 163 182 
247 77 77 
0 0 0 
0 0 0 
0 0 0 
255 255 255 
0 0 0 
161 161 161 
247 77 77 
199 199 255 
255 126 255 
255 255 255 
161 161 161 
255 255 255 
255 255 255 
0 0 0 
77 77 247 
255 95 255 
127 127 255 
255 255 255 
161 161 161 
0 0 0 
255 255 255 
255 215 255 
255 184 255 
175 175 255 
118 36 118 
255 255 255 
255 255 255 
255 255 255 
0 0 0 
255 199 199 
0 0 0 
175 175 255 
161 161 161 
255 98 255 
161 161 161 
0 0 0 
223 223 255 
0 0 0 
0 0 0 
0 0 0 
255 255 255 
161 161 161 
188 188 255 
255 255 255 
137 60 194 
0 0 0 
77 77 247 
0 0 0 
255 201 255 
255 255 255 
255 255 255 
255 255 255 
255 126 126 
255 255 255 
255 28 92 
0 0 0 
126 126 255 
255 255 255 
255 81 255 
255 255 255 
255 255 255 
0 0 0 
255 173 255 
255 234 255 
161 161 161 
255 255 255 
255 28 65 
0 0 0 
0 0 0 
255 236 236 
0 0 0 
255 255 255 
126 126 255 
0 0 0 
255 255 255 
255 255 255 
255 255 255 
255 145 255 
255 255 255 
255 255 255 
255 255 255 
255 255 255 
255 255 255 
255 255 255 
255 255 255 
255 255 255 
255 147 255 
0 0 0 
255 164 255 
255 255 255 
98 98 255 
225 137 255 
255 255 255 
255 98 98 
105 105 255 
255 255 255 
255 255 255 
255 255 255 
255 255 255 
255 131 168 
127 127 255 
247 77 77 
0 0 0 
77 77 247 
60 60 255 
255 208 255 
0 0 0 
77 77 247 
255 145 255 
0 0 0 
77 77 247 
255 144 255 
255 255 255 
255 199 255 
127 127 255 
255 125 255 
0 0 0 
95 95 255 
77 77 247 
255 255 255 
0 0 0 
255 106 255 
77 77 247 
0 0 0 
117 36 255 
255 156 255 
255 222 255 
255 255 255 
0 0 0 
160 160 255 
0 0 0 
47 47 255 
99 30 99 
56 17 128 
0 0 0 
52 52 255 
0 0 0 
47 47 151 
0 0 0 
255 81 81 
255 255 255 
255 36 36 
255 88 88 
247 77 77 
255 154 212 
255 36 36 
151 47 47 
0 0 0 
255 35 76 
0 0 0 
0 0 0 
0 0 0 
247 77 77 
255 127 127 
255 88 250 
247 77 77 
255 255 255 
255 255 255 
247 77 77 
255 143 255 
255 159 159 
255 144 144 
255 255 255 
127 127 255 
0 0 0 
247 77 77 
255 78 101 
255 255 255 
255 255 255 
255 255 255 
255 126 126 
247 77 77 
77 77 247 
0 0 0 
255 98 98 
255 255 255 
0 0 0 
247 77 77 
255 126 255 
207 207 255 
247 77 77 
255 126 126 
0 0 0 
255 143 143 
255 102 230 
255 253 253 
77 77 247 
247 77 77 
0 0 0 
194 60 137 
194 60 137 
255 126 126 
0 0 0 
0 0 0 
255 255 255 
255 255 255 
77 77 247 
0 0 0 
255 126 126 
255 79 102 
255 103 149 
0 0 0 
255 255 255 
0 0 0 
255 99 255 
255 160 160 
247 77 77 
0 0 0 
0 0 0 
247 77 77 
255 255 255 
255 255 255 
0 0 0 
161 161 161 
0 0 0 
0 0 0 
0 0 0 
255 28 65 
0 0 0 
255 218 255 
255 255 255 
255 255 255 
0 0 0 
255 161 172 
255 255 255 
193 60 193 
161 161 161 
255 255 255 
170 170 255 
161 161 161 
255 255 255 
255 255 255 
161 161 161 
0 0 0 
255 126 126 
255 255 255 
255 255 255 
255 255 255 
255 195 255 
255 255 255 
255 245 245 
0 0 0 
224 99 255 
255 13 99 
127 127 255 
255 159 255 
0 0 0 
193 60 193 
255 255 255 
0 0 0 
255 255 255 
255 206 206 
255 156 251 
255 255 255 
0 0 0 
0 0 0 
161 161 161 
161 161 161 
255 255 255 
0 0 0 
127 127 255 
0 0 0 
0 0 0 
0 0 0 
255 255 255 
0 0 0 
255 255 255 
255 127 127 
0 0 0 
255 255 255 
188 166 255 
0 0 0 
0 0 0 
161 161 161 
255 255 255 
255 255 255 
255 255 255 
247 77 77 
255 255 255 
255 47 151 
0 0 0 
255 255 255 
255 255 255 
0 0 0 
105 105 255 
255 255 255 
199 199 255 
255 255 255 
194 60 137 
0 0 0 
0 0 0 
255 255 255 
255 254 254 
0 0 0 
0 0 0 
0 0 0 
0 0 0 
77 77 247 
255 255 255 
77 77 247 
0 0 0 
0 0 0 
0 0 0 
77 77 247 
255 255 255 
77 77 247 
255 170 255 
255 173 173 
255 255 255 
255 170 255 
193 60 193 
0 0 0 
255 95 255 
77 77 247 
0 0 0 
255 237 255 
255 255 255 
255 126 126 
255 255 255 
255 127 127 
255 255 255 
255 255 255 
77 77 247 
0 0 0 
0 0 0 
255 255 255 
77 77 247 
255 255 255 
105 105 255 
255 255 255 
255 255 255 
255 255 255 
77 77 247 
255 255 255 
255 255 255 
255 255 255 
77 77 247 
0 0 0 
255 255 255 
255 255 255 
255 214 242 
22 22 255 
255 255 255 
247 77 77 
77 77 247 
0 0 0 
144 144 255 
255 255 255 
255 98 255 
0 0 0 
0 0 0 
255 255 255 
255 255 255 
77 77 247 
255 156 255 
255 255 255 
0 0 0 
255 255 255 
204 95 255 
255 127 127 
255 126 255 
105 105 255 
0 0 0 
255 255 255 
255 255 255 
168 131 255 
255 255 255 
0 0 0 
0 0 0 
0 0 0 
150 46 255 
255 255 255 
77 77 247 
255 255 255 
126 126 255 
0 0 0 
118 36 118 
0 0 0 
255 47 255 
0 0 0 
46 46 255 
0 0 0 
0 0 0 
126 126 255 
255 206 206 
98 98 255 
181 17 56 
255 180 255 
0 0 0 
36 36 255 
47 47 151 
77 77 247 
0 0 0 
0 0 0 
255 36 118 
118 36 118 
255 58 58 
255 109 239 
255 60 193 
255 154 255 
151 47 47 
0 0 0 
0 0 0 
72 22 72 
255 83 83 
0 0 0 
255 255 255 
0 0 0 
0 0 0 
0 0 0 
255 155 155 
247 77 77 
0 0 0 
0 0 0 
255 255 255 
0 0 0 
255 255 255 
247 77 77 
255 255 255 
0 0 0 
255 255 255 
0 0 0 
255 126 255 
255 143 255 
0 0 0 
247 77 77 
247 77 77 
0 0 0 
0 0 0 
255 255 255 
0 0 0 
255 255 255 
255 28 92 
255 160 160 
255 95 95 
255 255 255 
255 255 255 
255 162 162 
0 0 0 
0 0 0 
255 126 126 
255 255 255 
0 0 0 
255 255 255 
255 255 255 
255 255 255 
255 255 255 
255 255 255 
0 0 0 
255 198 255 
0 0 0 
255 255 255 
255 216 216 
126 126 255 
0 0 0 
247 77 77 
255 255 255 
255 144 144 
86 8 86 
0 0 0 
0 0 0 
255 144 255 
0 0 0 
255 155 155 
0 0 0 
255 255 255 
255 255 255 
255 145 255 
0 0 0 
255 255 255 
0 0 0 
255 255 255 
255 95 95 
255 255 255 
255 212 212 
0 0 0 
0 0 0 
163 22 232 
255 199 255 
255 255 255 
255 98 255 
127 127 255 
255 126 126 
255 255 255 
255 255 255 
247 77 77 
255 255 255 
0 0 0 
0 0 0 
207 207 255 
77 77 247 
255 255 255 
255 255 255 
0 0 0 
255 255 255 
0 0 0 
0 0 0 
255 126 126 
255 255 255 
0 0 0 
0 0 0 
255 185 255 
255 255 255 
255 255 255 
255 255 255 
247 77 77 
247 77 77 
255 255 255 
0 0 0 
161 161 161 
255 165 255 
255 244 255 
255 230 255 
255 255 255 
255 144 255 
0 0 0 
0 0 0 
255 255 255 
0 0 0 
244 170 244 
0 0 0 
0 0 0 
255 255 255 
255 127 127 
255 255 255 
247 77 77 
255 255 255 
255 255 255 
255 255 255 
255 255 255 
255 126 126 
126 126 255 
0 0 0 
0 0 0 
0 0 0 
255 99 255 
77 77 247 
255 255 255 
255 255 255 
77 77 247 
0 0 0 
0 0 0 
0 0 0 
255 126 126 
0 0 0 
255 255 255 
0 0 0 
255 255 255 
0 0 0 
255 206 206 
255 255 255 
0 0 0 
255 127 127 
0 0 0 
252 95 255 
255 255 255 
145 145 255 
255 255 255 
77 77 247 
77 77 247 
255 28 65 
207 207 255 
0 0 0 
77 77 247 
255 98 255 
255 105 255 
0 0 0 
255 255 255 
255 255 255 
0 0 0 
0 0 0 
255 207 207 
247 77 77 
105 105 255 
255 144 255 
118 36 118 
255 255 255 
206 206 255 
77 77 247 
255 127 255 
255 98 98 
255 156 156 
0 0 0 
255 206 206 
199 199 255 
0 0 0 
0 0 0 
255 132 255 
255 255 255 
255 236 255 
255 107 255 
0 0 0 
247 77 77 
0 0 0 
193 60 193 
92 28 255 
255 255 255 
126 126 255 
77 77 247 
100 13 142 
77 77 247 
255 76 246 
77 77 247 
255 98 255 
126 126 255 
0 0 0 
255 255 255 
255 127 127 
255 255 255 
0 0 0 
126 126 255 
255 255 255 
0 0 0 
77 77 247 
242 140 255 
255 98 255 
255 237 255 
255 127 127 
255 77 255 
0 0 0 
224 99 255 
255 206 206 
255 121 255 
77 77 247 
255 206 206 
255 132 255 
0 0 0 
0 0 0 
0 0 0 
118 36 118 
255 216 255 
0 0 0 
129 68 255 
0 0 0 
0 0 0 
0 0 0 
0 0 0 
0 0 0 
0 0 0 
126 126 255 
77 77 247 
126 126 255 
0 0 0 
0 0 0 
255 126 255 
195 68 255 
255 46 150 
185 49 159 
77 77 247 
0 0 0 
137 60 194 
255 126 126 
255 60 60 
0 0 0 
86 8 86 
255 46 46 
255 255 255 
255 96 245 
247 77 77 
0 0 0 
255 57 57 
0 0 0 
0 0 0 
0 0 0 
0 0 0 
0 0 0 
255 98 98 
0 0 0 
0 0 0 
0 0 0 
0 0 0 
255 185 255 
0 0 0 
255 255 255 
255 122 122 
127 127 255 
255 126 126 
255 207 207 
255 170 170 
77 77 247 
247 77 77 
0 0 0 
255 77 77 
0 0 0 
255 170 255 
255 255 255 
255 127 127 
0 0 0 
0 0 0 
0 0 0 
247 77 77 
0 0 0 
0 0 0 
255 255 255 
0 0 0 
255 255 255 
0 0 0 
255 255 255 
255 159 159 
247 77 77 
255 28 28 
255 206 255 
0 0 0 
255 255 255 
255 154 154 
255 60 60 
0 0 0 
255 175 175 
0 0 0 
0 0 0 
255 255 255 
77 77 247 
255 255 255 
255 255 255 
0 0 0 
255 143 255 
255 255 255 
255 255 255 
0 0 0 
0 0 0 
255 99 224 
255 137 255 
255 136 224 
255 255 255 
255 255 255 
255 255 255 
255 255 255 
0 0 0 
0 0 0 
255 255 255 
255 127 255 
255 105 255 
255 163 255 
0 0 0 
255 253 255 
255 199 199 
206 95 255 
255 255 255 
255 255 255 
255 255 255 
255 105 255 
247 77 77 
255 255 255 
255 162 162 
150 46 255 
255 255 255 
0 0 0 
0 0 0 
255 255 255 
0 0 0 
0 0 0 
255 83 137 
255 255 255 
0 0 0 
126 126 255 
255 163 255 
247 77 77 
118 36 118 
0 0 0 
255 82 201 
0 0 0 
255 255 255 
255 255 255 
0 0 0 
255 255 255 
0 0 0 
255 244 255 
0 0 0 
255 255 255 
0 0 0 
255 255 255 
255 255 255 
255 255 255 
255 255 255 
255 255 255 
255 255 255 
0 0 0 
137 60 194 
255 160 160 
0 0 0 
0 0 0 
247 77 77 
255 255 255 
0 0 0 
255 255 255 
255 199 255 
255 255 255 
247 77 77 
255 255 255 
0 0 0 
193 60 255 
0 0 0 
0 0 0 
0 0 0 
255 145 145 
255 255 255 
77 77 247 
255 210 255 
255 255 255 
0 0 0 
0 0 0 
0 0 0 
161 161 161 
255 255 255 
0 0 0 
0 0 0 
161 161 161 
255 149 255 
255 162 162 
255 255 255 
0 0 0 
255 255 255 
255 160 160 
255 255 255 
0 0 0 
206 206 255 
60 60 255 
0 0 0 
255 255 255 
248 77 255 
255 255 255 
255 255 255 
161 161 161 
126 126 255 
255 255 255 
255 255 255 
0 0 0 
255 145 145 
0 0 0 
0 0 0 
197 142 255 
0 0 0 
51 22 255 
250 155 255 
255 255 255 
255 255 255 
0 0 0 
255 127 127 
255 255 255 
0 0 0 
0 0 0 
193 60 193 
0 0 0 
0 0 0 
105 105 255 
137 60 194 
233 210 255 
255 255 255 
247 77 77 
0 0 0 
255 105 255 
255 160 255 
126 126 255 
0 0 0 
0 0 0 
255 161 255 
255 255 255 
0 0 0 
255 255 255 
255 255 255 
60 60 255 
255 255 255 
255 145 255 
0 0 0 
0 0 0 
77 77 247 
137 83 255 
0 0 0 
255 255 255 
144 144 255 
0 0 0 
255 255 255 
60 60 255 
0 0 0 
255 255 255 
126 126 255 
255 254 255 
255 255 255 
0 0 0 
77 77 247 
255 126 126 
255 255 255 
255 98 255 
255 185 255 
0 0 0 
77 77 247 
255 194 255 
77 77 247 
126 126 255 
0 0 0 
206 206 255 
255 105 255 
0 0 0 
255 255 255 
0 0 0 
0 0 0 
0 0 0 
79 42 255 
0 0 0 
0 0 0 
77 77 247 
84 51 164 
64 64 207 
47 47 151 
72 22 72 
72 22 72 
216 216 255 
151 47 47 
255 47 151 
151 47 47 
118 36 118 
0 0 0 
255 50 122 
0 0 0 
181 17 56 
255 17 17 
255 37 37 
0 0 0 
255 36 117 
255 125 125 
151 47 47 
255 255 255 
0 0 0 
0 0 0 
255 255 255 
0 0 0 
247 77 77 
0 0 0 
255 126 126 
0 0 0 
255 255 255 
255 95 152 
0 0 0 
255 145 255 
255 255 255 
127 127 255 
0 0 0 
255 155 255 
255 206 206 
0 0 0 
0 0 0 
255 255 255 
255 60 60 
255 156 166 
127 127 255 
255 208 208 
255 255 255 
255 255 255 
0 0 0 
255 160 255 
255 255 255 
127 127 255 
0 0 0 
0 0 0 
255 126 126 
255 255 255 
0 0 0 
0 0 0 
255 83 137 
255 255 255 
247 77 77 
255 255 255 
0 0 0 
255 126 126 
255 255 255 
0 0 0 
0 0 0 
255 255 255 
255 255 255 
0 0 0 
255 255 255 
255 255 255 
0 0 0 
255 105 105 
255 126 126 
255 156 255 
207 207 255 
255 255 255 
255 127 255 
0 0 0 
255 175 255 
247 77 77 
255 126 126 
127 127 255 
255 255 255 
255 255 255 
255 255 255 
0 0 0 
247 77 77 
255 255 255 
224 99 255 
0 0 0 
247 77 77 
0 0 0 
0 0 0 
0 0 0 
255 255 255 
255 126 126 
255 255 255 
0 0 0 
0 0 0 
255 255 255 
255 255 255 
0 0 0 
255 144 255 
255 255 255 
255 255 255 
77 77 247 
247 77 77 
255 255 255 
255 126 126 
0 0 0 
0 0 0 
0 0 0 
255 255 255 
255 172 255 
255 255 255 
255 255 255 
255 126 255 
255 255 255 
255 255 255 
127 127 255 
0 0 0 
0 0 0 
118 36 118 
0 0 0 
0 0 0 
255 255 255 
65 28 255 
247 77 77 
255 255 255 
0 0 0 
0 0 0 
255 255 255 
0 0 0 
255 255 255 
77 77 247 
255 254 255 
255 255 255 
255 53 255 
255 255 255 
255 74 239 
255 78 250 
255 126 255 
0 0 0 
255 46 150 
0 0 0 
147 29 255 
0 0 0 
0 0 0 
255 255 255 
0 0 0 
255 255 255 
98 98 255 
77 77 247 
0 0 0 
255 255 255 
255 255 255 
255 255 255 
0 0 0 
255 255 255 
255 255 255 
99 99 255 
77 77 247 
0 0 0 
255 88 255 
247 77 77 
255 74 255 
255 144 255 
255 145 255 
255 144 144 
255 127 255 
255 255 255 
193 60 193 
0 0 0 
255 255 255 
0 0 0 
0 0 0 
126 126 255 
255 255 255 
77 77 247 
0 0 0 
0 0 0 
0 0 0 
255 255 255 
255 199 255 
255 255 255 
255 105 255 
255 255 255 
255 255 255 
255 255 255 
0 0 0 
0 0 0 
247 77 77 
255 206 255 
224 99 255 
255 255 255 
127 127 255 
255 145 255 
0 0 0 
0 0 0 
255 255 255 
127 127 255 
0 0 0 
0 0 0 
255 60 255 
255 219 255 
255 126 126 
177 177 255 
255 255 255 
86 78 255 
77 77 247 
60 60 255 
144 144 255 
255 226 255 
77 77 247 
255 255 255 
255 255 255 
255 255 255 
255 255 255 
255 175 255 
127 127 255 
0 0 0 
0 0 0 
126 126 255 
255 255 255 
77 77 247 
0 0 0 
77 77 247 
255 255 255 
255 255 255 
77 77 247 
255 255 255 
77 77 247 
0 0 0 
105 105 255 
255 255 255 
77 77 247 
0 0 0 
0 0 0 
137 60 194 
0 0 0 
255 255 255 
0 0 0 
255 255 255 
0 0 0 
255 255 255 
76 76 255 
185 127 255 
0 0 0 
65 28 255 
0 0 0 
36 36 255 
92 28 255 
36 36 255 
0 0 0 
0 0 0 
141 127 255 
77 77 247 
0 0 0 
47 47 151 
47 47 151 
47 47 151 
255 95 95 
247 77 77 
52 5 52 
0 0 0 
0 0 0 
0 0 0 
255 206 255 
0 0 0 
32 0 46 
255 54 86 
255 81 146 
0 0 0 
255 93 231 
255 255 255 
0 0 0 
247 77 77 
0 0 0 
247 77 77 
0 0 0 
0 0 0 
0 0 0 
255 199 255 
255 161 255 
0 0 0 
255 255 255 
107 47 255 
255 77 255 
0 0 0 
255 191 255 
0 0 0 
255 47 150 
0 0 0 
255 255 255 
0 0 0 
0 0 0 
255 255 255 
0 0 0 
0 0 0 
255 88 165 
255 126 126 
255 10 34 
126 126 255 
255 255 255 
92 28 255 
126 126 255 
255 255 255 
0 0 0 
247 77 77 
0 0 0 
255 127 127 
255 255 255 
0 0 0 
255 255 255 
255 168 168 
0 0 0 
247 77 77 
247 77 77 
255 126 126 
255 255 255 
255 255 255 
255 255 255 
255 112 112 
255 255 255 
255 255 255 
161 161 161 
0 0 0 
0 0 0 
0 0 0 
0 0 0 
0 0 0 
0 0 0 
255 98 255 
255 126 126 
255 255 255 
255 255 255 
255 255 255 
193 60 193 
0 0 0 
255 206 206 
255 255 255 
0 0 0 
0 0 0 
255 255 255 
255 60 60 
255 103 255 
247 77 77 
127 127 255 
255 174 255 
255 127 127 
0 0 0 
0 0 0 
255 126 126 
118 36 118 
255 255 255 
255 113 255 
255 144 255 
247 77 77 
255 255 255 
255 255 255 
255 255 255 
255 144 144 
255 145 145 
247 77 77 
255 255 255 
224 136 255 
207 207 255 
0 0 0 
255 207 255 
255 255 255 
0 0 0 
255 255 255 
255 255 255 
141 13 141 
0 0 0 
0 0 0 
0 0 0 
0 0 0 
194 60 137 
0 0 0 
0 0 0 
255 170 255 
153 47 243 
77 77 247 
206 206 255 
0 0 0 
255 255 255 
194 60 137 
255 128 255 
255 255 255 
255 255 255 
255 28 92 
255 255 255 
247 77 77 
0 0 0 
0 0 0 
0 0 0 
255 255 255 
77 77 247 
255 255 255 
193 60 193 
255 47 255 
255 255 255 
77 77 247 
0 0 0 
0 0 0 
255 255 255 
255 131 255 
255 255 255 
255 255 255 
77 77 247 
255 255 255 
255 88 255 
255 255 255 
0 0 0 
0 0 0 
255 255 255 
255 255 255 
255 255 255 
0 0 0 
255 255 255 
255 196 255 
255 255 255 
255 105 255 
127 127 255 
255 255 255 
255 255 255 
77 77 247 
0 0 0 
160 160 255 
126 126 255 
255 255 255 
0 0 0 
255 255 255 
255 255 255 
255 255 255 
0 0 0 
255 255 255 
105 105 255 
193 60 255 
0 0 0 
255 105 105 
255 255 255 
247 77 77 
77 77 247 
0 0 0 
77 77 247 
255 255 255 
0 0 0 
255 255 255 
0 0 0 
255 127 127 
0 0 0 
255 255 255 
173 104 255 
0 0 0 
255 255 255 
77 77 247 
0 0 0 
255 255 255 
255 255 255 
127 127 255 
0 0 0 
255 255 255 
60 60 255 
0 0 0 
247 77 77 
77 77 247 
0 0 0 
255 255 255 
98 98 255 
233 122 255 
255 121 255 
255 255 255 
255 255 255 
255 255 255 
255 152 255 
255 255 255 
160 132 255 
255 255 255 
255 255 255 
255 255 255 
255 255 255 
224 99 255 
0 0 0 
77 77 247 
255 255 255 
247 77 77 
0 0 0 
249 152 255 
255 255 255 
255 127 255 
77 77 247 
0 0 0 
0 0 0 
77 77 247 
255 255 255 
0 0 0 
0 0 0 
77 77 247 
255 255 255 
255 255 255 
255 121 255 
184 173 255 
77 77 247 
77 77 247 
216 216 255 
0 0 0 
169 47 255 
171 151 255 
28 28 255 
110 90 255 
0 0 0 
0 0 0 
47 47 151 
68 68 255 
113 113 255 
255 106 255 
255 88 251 
255 35 76 
255 88 88 
255 28 65 
0 0 0 
151 47 47 
255 184 194 
255 160 255 
0 0 0 
0 0 0 
151 47 47 
255 128 188 
255 46 46 
211 65 244 
0 0 0 
0 0 0 
255 255 255 
0 0 0 
255 255 255 
0 0 0 
255 98 255 
0 0 0 
127 127 255 
255 145 145 
255 155 155 
255 78 158 
255 152 255 
255 255 255 
0 0 0 
0 0 0 
0 0 0 
255 211 255 
126 126 255 
255 144 144 
0 0 0 
255 255 255 
255 126 126 
247 77 77 
0 0 0 
150 46 255 
255 255 255 
0 0 0 
255 98 255 
0 0 0 
255 255 255 
255 255 255 
255 126 126 
255 160 255 
255 255 255 
255 172 172 
255 146 255 
255 95 95 
255 218 218 
0 0 0 
247 77 77 
0 0 0 
255 255 255 
0 0 0 
255 207 207 
0 0 0 
255 173 255 
0 0 0 
255 255 255 
77 77 247 
0 0 0 
194 60 137 
255 160 160 
255 255 255 
255 255 255 
247 77 77 
255 255 255 
255 255 255 
77 77 247 
0 0 0 
127 127 255 
168 131 255 
255 255 255 
247 77 77 
0 0 0 
255 255 255 
255 170 205 
255 83 137 
0 0 0 
0 0 0 
0 0 0 
0 0 0 
255 255 255 
255 236 236 
255 255 255 
255 206 206 
0 0 0 
255 255 255 
247 77 77 
203 175 255 
137 60 194 
247 77 77 
126 126 255 
0 0 0 
247 77 77 
247 77 77 
255 105 105 
255 94 255 
99 99 255 
255 126 126 
255 255 255 
0 0 0 
160 160 255 
0 0 0 
0 0 0 
255 206 216 
255 174 174 
0 0 0 
255 126 126 
127 127 255 
255 255 255 
247 77 77 
0 0 0 
255 255 255 
255 255 255 
0 0 0 
255 255 255 
255 255 255 
255 76 246 
0 0 0 
0 0 0 
255 126 126 
0 0 0 
255 255 255 
255 255 255 
0 0 0 
255 255 255 
255 60 60 
255 81 255 
255 255 255 
0 0 0 
0 0 0 
255 255 255 
0 0 0 
255 255 255 
0 0 0 
255 207 207 
255 78 78 
0 0 0 
0 0 0 
0 0 0 
255 144 255 
255 255 255 
255 255 255 
255 129 239 
0 0 0 
247 77 77 
77 77 247 
126 126 255 
255 255 255 
0 0 0 
225 100 225 
0 0 0 
0 0 0 
77 77 247 
0 0 0 
0 0 0 
52 5 255 
247 77 77 
255 105 255 
255 255 255 
0 0 0 
77 77 247 
255 255 255 
77 77 247 
0 0 0 
0 0 0 
255 184 255 
255 255 255 
255 216 255 
126 126 255 
255 255 255 
224 99 255 
0 0 0 
255 77 248 
255 143 255 
0 0 0 
255 255 255 
255 255 255 
0 0 0 
0 0 0 
255 212 255 
0 0 0 
0 0 0 
255 255 255 
0 0 0 
98 98 255 
255 255 255 
255 255 255 
255 255 255 
0 0 0 
255 187 255 
0 0 0 
118 36 118 
118 36 118 
255 255 255 
0 0 0 
255 255 255 
0 0 0 
255 255 255 
255 255 255 
218 218 255 
0 0 0 
0 0 0 
255 127 127 
0 0 0 
255 36 117 
0 0 0 
255 255 255 
0 0 0 
77 77 247 
77 77 247 
0 0 0 
247 77 77 
172 172 255 
0 0 0 
0 0 0 
0 0 0 
255 255 255 
207 207 255 
243 47 153 
255 255 255 
255 28 255 
0 0 0 
77 77 247 
0 0 0 
137 83 255 
255 77 248 
255 224 224 
77 77 247 
0 0 0 
255 255 255 
126 126 255 
0 0 0 
255 255 255 
0 0 0 
0 0 0 
0 0 0 
37 37 255 
0 0 0 
255 45 255 
255 130 255 
137 60 194 
47 47 151 
128 17 56 
47 47 151 
77 77 247 
118 36 118 
255 77 255 
100 69 255 
47 47 151 
216 6 67 
255 67 67 
0 0 0 
255 160 160 
255 88 88 
255 93 93 
0 0 0 
255 77 174 
194 60 137 
255 35 94 
255 138 138 
0 0 0 
0 0 0 
234 22 116 
0 0 0 
255 95 95 
0 0 0 
0 0 0 
0 0 0 
255 255 255 
255 255 255 
255 173 255 
255 255 255 
0 0 0 
255 255 255 
255 178 255 
0 0 0 
0 0 0 
118 36 118 
255 216 216 
0 0 0 
255 95 95 
255 224 255 
0 0 0 
193 60 193 
255 255 255 
118 36 118 
255 169 255 
0 0 0 
247 77 77 
0 0 0 
0 0 0 
255 255 255 
0 0 0 
255 217 255 
0 0 0 
255 174 255 
77 77 247 
255 105 105 
255 238 255 
0 0 0 
247 77 77 
0 0 0 
255 255 255 
255 255 255 
193 60 193 
255 126 126 
0 0 0 
255 255 255 
0 0 0 
255 77 255 
247 77 77 
0 0 0 
0 0 0 
0 0 0 
255 98 98 
247 77 77 
0 0 0 
255 255 255 
0 0 0 
235 235 255 
0 0 0 
255 255 255 
127 127 255 
255 88 250 
255 60 60 
255 226 255 
255 22 71 
0 0 0 
255 127 127 
118 36 118 
255 255 255 
255 126 126 
0 0 0 
0 0 0 
0 0 0 
255 210 210 
0 0 0 
255 255 255 
255 255 255 
0 0 0 
255 255 255 
255 206 206 
247 77 77 
118 36 118 
255 126 126 
77 77 247 
0 0 0 
255 255 255 
255 255 255 
247 77 77 
0 0 0 
0 0 0 
0 0 0 
0 0 0 
0 0 0 
255 95 204 
193 60 193 
0 0 0 
255 255 255 
255 173 173 
127 127 255 
255 28 65 
255 255 255 
0 0 0 
0 0 0 
255 255 255 
0 0 0 
206 206 255 
247 77 77 
0 0 0 
255 255 255 
0 0 0 
0 0 0 
255 255 255 
209 28 92 
255 255 255 
255 255 255 
255 99 224 
255 156 255 
0 0 0 
255 206 206 
0 0 0 
0 0 0 
255 255 255 
255 255 255 
255 255 255 
255 255 255 
255 204 255 
255 255 255 
255 127 127 
0 0 0 
255 255 255 
247 77 77 
255 255 255 
214 214 255 
152 129 255 
193 60 193 
255 255 255 
247 77 77 
77 77 247 
255 98 255 
255 144 144 
255 127 127 
0 0 0 
255 255 255 
0 0 0 
0 0 0 
255 255 255 
255 255 255 
224 99 255 
0 0 0 
77 77 247 
255 255 255 
255 255 255 
212 212 255 
0 0 0 
255 255 255 
206 206 255 
0 0 0 
255 255 255 
255 112 255 
255 237 255 
255 255 255 
0 0 0 
255 22 255 
255 255 255 
255 127 185 
0 0 0 
255 255 255 
0 0 0 
255 255 255 
0 0 0 
0 0 0 
0 0 0 
0 0 0 
255 255 255 
255 126 126 
0 0 0 
0 0 0 
0 0 0 
0 0 0 
0 0 0 
255 255 255 
255 255 255 
255 255 255 
0 0 0 
160 160 255 
77 77 247 
0 0 0 
255 255 255 
255 126 126 
118 36 118 
255 255 255 
255 255 255 
77 77 247 
255 161 255 
255 255 255 
255 255 255 
0 0 0 
0 0 0 
255 255 255 
0 0 0 
255 214 255 
0 0 0 
255 255 255 
255 206 255 
255 105 105 
173 173 255 
165 88 255 
255 126 126 
255 255 255 
0 0 0 
255 60 60 
0 0 0 
0 0 0 
255 255 255 
0 0 0 
255 255 255 
255 156 255 
255 255 255 
255 254 254 
255 218 255 
0 0 0 
255 255 255 
255 255 255 
0 0 0 
0 0 0 
255 255 255 
0 0 0 
170 58 255 
0 0 0 
60 60 255 
181 17 56 
47 47 151 
102 79 255 
0 0 0 
126 126 255 
255 229 255 
0 0 0 
0 0 0 
37 37 255 
125 58 186 
255 53 255 
255 121 255 
120 57 255 
247 77 77 
0 0 0 
255 28 92 
255 88 88 
255 64 64 
0 0 0 
255 48 88 
255 63 203 
255 98 255 
181 17 56 
255 60 60 
255 37 48 
0 0 0 
255 28 92 
118 36 118 
0 0 0 
255 19 255 
0 0 0 
255 62 188 
255 79 255 
255 121 121 
153 47 243 
255 155 155 
247 77 77 
255 255 255 
0 0 0 
255 255 255 
0 0 0 
0 0 0 
255 125 125 
247 77 77 
0 0 0 
255 255 255 
106 47 255 
0 0 0 
255 173 255 
255 255 255 
0 0 0 
255 255 255 
0 0 0 
255 144 144 
255 177 255 
0 0 0 
255 206 206 
0 0 0 
0 0 0 
0 0 0 
255 255 255 
255 255 255 
255 255 255 
255 255 255 
0 0 0 
255 148 255 
0 0 0 
179 113 255 
118 36 118 
255 255 255 
255 255 255 
255 255 255 
0 0 0 
0 0 0 
255 132 255 
0 0 0 
127 127 255 
255 105 105 
255 255 255 
255 255 255 
255 255 255 
255 255 255 
255 255 255 
255 95 204 
255 88 182 
255 144 144 
151 47 255 
0 0 0 
255 198 255 
0 0 0 
255 105 105 
255 255 255 
0 0 0 
255 22 255 
255 237 237 
255 255 255 
255 77 248 
255 255 255 
0 0 0 
0 0 0 
247 77 77 
0 0 0 
255 255 255 
255 126 126 
0 0 0 
255 255 255 
0 0 0 
255 255 255 
0 0 0 
255 255 255 
127 127 255 
255 60 60 
255 76 76 
127 127 255 
255 206 206 
255 255 255 
255 206 206 
255 255 255 
255 255 255 
255 172 172 
0 0 0 
0 0 0 
0 0 0 
0 0 0 
255 126 126 
255 255 255 
206 95 255 
255 255 255 
0 0 0 
255 105 255 
127 127 255 
255 255 255 
255 255 255 
255 121 255 
255 255 255 
255 255 255 
255 255 255 
255 162 162 
0 0 0 
0 0 0 
255 255 255 
0 0 0 
0 0 0 
0 0 0 
255 145 145 
0 0 0 
0 0 0 
207 207 255 
255 125 255 
255 255 255 
0 0 0 
255 255 255 
0 0 0 
216 216 255 
0 0 0 
255 255 255 
255 255 255 
255 255 255 
206 206 255 
255 255 255 
255 127 127 
255 255 255 
92 28 255 
0 0 0 
255 255 255 
65 28 255 
255 144 144 
0 0 0 
0 0 0 
255 255 255 
255 207 207 
207 207 255 
255 255 255 
255 255 255 
255 255 255 
255 255 255 
255 60 60 
77 77 247 
255 126 126 
0 0 0 
0 0 0 
255 255 255 
0 0 0 
255 255 255 
60 60 255 
255 119 255 
0 0 0 
255 233 255 
0 0 0 
255 126 126 
0 0 0 
255 255 255 
255 36 36 
56 17 181 
0 0 0 
0 0 0 
255 255 255 
0 0 0 
255 255 255 
0 0 0 
255 131 168 
0 0 0 
255 207 207 
255 255 255 
255 88 255 
0 0 0 
126 126 255 
185 185 255 
0 0 0 
255 255 255 
0 0 0 
0 0 0 
255 255 255 
0 0 0 
0 0 0 
255 255 255 
0 0 0 
206 206 255 
255 255 255 
0 0 0 
255 246 255 
255 255 255 
255 255 255 
0 0 0 
255 255 255 
255 255 255 
0 0 0 
0 0 0 
255 146 255 
0 0 0 
0 0 0 
255 145 255 
0 0 0 
255 255 255 
255 255 255 
118 36 118 
0 0 0 
0 0 0 
193 60 193 
122 78 255 
77 77 247 
255 255 255 
0 0 0 
227 114 255 
224 99 255 
0 0 0 
255 255 255 
255 255 255 
0 0 0 
255 255 255 
72 22 72 
37 5 255 
47 47 151 
36 36 255 
0 0 0 
255 255 255 
0 0 0 
143 93 255 
115 61 197 
118 36 118 
255 255 255 
0 0 0 
255 48 255 
47 47 151 
84 51 164 
172 136 255 
77 77 247 
201 85 255 
77 77 247 
217 30 106 
151 47 47 
255 83 83 
255 129 129 
151 47 47 
255 39 65 
255 132 132 
255 76 76 
0 0 0 
252 78 193 
151 47 47 
255 121 255 
255 130 147 
255 28 92 
0 0 0 
0 0 0 
118 36 118 
0 0 0 
0 0 0 
0 0 0 
255 45 255 
255 255 255 
0 0 0 
255 136 255 
0 0 0 
255 255 255 
0 0 0 
246 76 255 
137 60 194 
255 255 255 
255 255 255 
255 126 126 
247 77 77 
255 126 126 
0 0 0 
0 0 0 
255 255 255 
0 0 0 
0 0 0 
247 77 77 
255 244 244 
255 107 255 
255 255 255 
255 255 255 
0 0 0 
255 185 255 
247 77 77 
0 0 0 
247 77 77 
0 0 0 
255 255 255 
77 77 247 
0 0 0 
255 127 127 
255 255 255 
255 255 255 
255 255 255 
0 0 0 
0 0 0 
0 0 0 
255 255 255 
255 255 255 
255 105 255 
0 0 0 
255 255 255 
0 0 0 
255 255 255 
247 77 77 
255 255 255 
255 255 255 
255 216 255 
247 77 77 
207 207 255 
255 255 255 
247 77 77 
0 0 0 
247 77 77 
255 255 255 
255 81 255 
0 0 0 
255 134 255 
255 255 255 
0 0 0 
255 255 255 
255 255 255 
0 0 0 
255 255 255 
255 255 255 
255 204 255 
0 0 0 
0 0 0 
255 126 126 
0 0 0 
127 127 255 
255 216 255 
255 255 255 
0 0 0 
0 0 0 
77 77 247 
247 77 77 
162 50 162 
0 0 0 
255 255 255 
0 0 0 
0 0 0 
255 255 255 
255 127 127 
255 255 255 
255 147 255 
255 173 173 
0 0 0 
255 28 28 
255 255 255 
255 255 255 
255 127 127 
255 255 255 
246 76 255 
0 0 0 
0 0 0 
255 255 255 
255 173 255 
247 77 77 
255 255 255 
0 0 0 
255 95 204 
255 127 127 
0 0 0 
255 184 255 
255 127 127 
127 127 255 
0 0 0 
137 83 255 
0 0 0 
255 255 255 
118 36 118 
255 255 255 
0 0 0 
255 255 255 
255 255 255 
255 127 127 
255 255 255 
0 0 0 
206 206 255 
206 206 255 
193 60 193 
255 255 255 
118 36 118 
255 255 255 
0 0 0 
118 36 118 
0 0 0 
72 22 255 
255 255 255 
255 255 255 
118 36 118 
255 218 218 
77 77 247 
0 0 0 
255 255 255 
255 98 98 
255 255 255 
255 60 60 
193 60 193 
255 254 254 
0 0 0 
250 155 255 
255 255 255 
255 95 255 
255 126 126 
255 77 174 
105 105 255 
0 0 0 
255 255 255 
145 145 255 
255 46 150 
255 255 255 
172 172 255 
255 127 127 
0 0 0 
77 77 247 
126 126 255 
255 255 255 
0 0 0 
77 77 247 
255 255 255 
206 206 255 
255 255 255 
77 77 247 
247 77 77 
98 98 255 
255 255 255 
255 218 218 
105 105 255 
126 126 255 
255 255 255 
255 255 255 
181 17 56 
255 255 255 
144 144 255 
255 255 255 
0 0 0 
255 127 127 
105 105 255 
255 255 255 
0 0 0 
255 255 255 
255 255 255 
255 255 255 
255 255 255 
77 77 247 
0 0 0 
0 0 0 
255 255 255 
255 127 255 
255 121 255 
255 255 255 
98 98 255 
255 255 255 
0 0 0 
0 0 0 
127 127 255 
0 0 0 
160 160 255 
255 104 255 
0 0 0 
144 144 255 
0 0 0 
255 255 255 
77 77 247 
0 0 0 
243 168 255 
206 206 255 
0 0 0 
0 0 0 
77 77 255 
255 255 255 
126 126 255 
206 146 255 
137 60 194 
77 77 247 
140 50 162 
255 130 255 
0 0 0 
0 0 0 
47 47 151 
169 52 235 
83 66 255 
88 88 255 
77 77 247 
255 109 255 
222 98 255 
84 51 164 
0 0 0 
47 47 151 
83 83 255 
77 77 247 
255 86 107 
255 51 83 
255 109 126 
255 81 116 
255 46 55 
0 0 0 
247 77 77 
151 47 47 
255 83 137 
0 0 0 
119 37 83 
255 211 235 
255 206 208 
151 47 47 
0 0 0 
0 0 0 
255 255 255 
255 83 83 
0 0 0 
0 0 0 
255 126 255 
255 155 155 
255 255 255 
255 156 255 
255 255 255 
0 0 0 
247 77 77 
0 0 0 
0 0 0 
0 0 0 
255 255 255 
0 0 0 
255 173 173 
0 0 0 
0 0 0 
0 0 0 
0 0 0 
126 126 255 
0 0 0 
255 255 255 
255 95 95 
255 255 255 
255 12 99 
255 255 255 
247 77 77 
255 255 255 
255 255 255 
0 0 0 
255 121 255 
255 162 255 
255 95 206 
247 77 77 
0 0 0 
255 60 60 
0 0 0 
247 77 77 
255 126 126 
255 255 255 
0 0 0 
255 255 255 
247 77 77 
255 127 127 
255 255 255 
0 0 0 
255 65 201 
225 137 255 
255 127 127 
255 126 126 
247 77 77 
255 126 126 
0 0 0 
255 255 255 
255 173 255 
0 0 0 
247 77 77 
255 255 255 
255 255 255 
255 255 255 
0 0 0 
255 162 162 
255 255 255 
255 255 255 
247 77 77 
255 255 255 
0 0 0 
150 46 255 
0 0 0 
0 0 0 
255 255 255 
255 255 255 
255 255 255 
255 255 255 
0 0 0 
247 77 77 
255 126 126 
255 255 255 
0 0 0 
0 0 0 
0 0 0 
0 0 0 
77 77 247 
0 0 0 
255 95 252 
255 255 255 
255 145 145 
255 162 255 
255 255 255 
255 255 255 
255 255 255 
255 255 255 
0 0 0 
255 255 255 
255 127 127 
0 0 0 
255 28 92 
255 255 255 
255 105 255 
0 0 0 
255 255 255 
255 255 255 
255 255 255 
255 173 255 
247 77 77 
255 127 127 
0 0 0 
0 0 0 
255 216 216 
247 77 77 
255 255 255 
255 255 255 
255 255 255 
0 0 0 
255 255 255 
255 88 255 
0 0 0 
0 0 0 
247 77 77 
0 0 0 
255 255 255 
255 127 127 
255 255 255 
255 255 255 
255 255 255 
0 0 0 
255 255 255 
255 255 255 
137 60 194 
0 0 0 
0 0 0 
0 0 0 
255 255 255 
0 0 0 
255 126 126 
0 0 0 
255 130 167 
65 28 255 
77 77 247 
255 255 255 
255 255 255 
0 0 0 
0 0 0 
255 47 255 
0 0 0 
255 244 255 
255 255 255 
255 255 255 
255 144 144 
255 255 255 
255 126 126 
255 235 255 
255 255 255 
255 145 255 
255 255 255 
126 126 255 
255 162 255 
0 0 0 
0 0 0 
77 77 247 
255 255 255 
0 0 0 
255 98 255 
255 255 255 
77 77 247 
255 105 255 
255 255 255 
0 0 0 
122 122 255 
255 156 255 
0 0 0 
255 206 206 
0 0 0 
0 0 0 
255 127 127 
255 195 255 
255 105 105 
126 126 255 
233 122 255 
247 77 77 
0 0 0 
77 77 247 
255 255 255 
160 160 255 
0 0 0 
255 206 255 
247 77 77 
126 126 255 
255 95 252 
255 255 255 
255 126 126 
0 0 0 
255 255 255 
255 255 255 
0 0 0 
255 255 255 
255 255 255 
0 0 0 
126 126 255 
0 0 0 
0 0 0 
0 0 0 
209 145 255 
0 0 0 
105 105 255 
255 127 127 
0 0 0 
255 127 127 
153 95 255 
255 157 232 
126 126 255 
255 255 255 
77 77 247 
122 122 255 
255 255 255 
99 99 255 
0 0 0 
193 81 255 
0 0 0 
0 0 0 
146 81 255 
0 0 0 
0 0 0 
195 40 129 
0 0 0 
91 63 255 
126 126 255 
72 22 72 
0 0 0 
47 47 151 
255 255 255 
0 0 0 
151 63 255 
0 0 0 
47 47 151 
255 103 255 
206 206 255 
0 0 0 
186 58 125 
255 22 79 
255 71 206 
255 115 115 
255 88 88 
0 0 0 
255 60 137 
255 136 224 
255 60 60 
255 58 58 
151 47 47 
255 66 83 
164 51 84 
0 0 0 
164 51 84 
0 0 0 
255 211 255 
247 77 77 
255 77 77 
255 208 208 
0 0 0 
0 0 0 
255 255 255 
255 255 255 
255 255 255 
0 0 0 
255 255 255 
92 28 255 
255 60 60 
255 99 224 
255 126 126 
247 77 77 
0 0 0 
255 76 76 
247 77 77 
255 255 255 
255 255 255 
0 0 0 
255 212 212 
255 255 255 
0 0 0 
194 60 137 
127 127 255 
0 0 0 
225 137 255 
255 206 255 
255 209 209 
255 144 255 
255 255 255 
0 0 0 
255 255 255 
255 126 126 
255 126 126 
255 255 255 
0 0 0 
255 206 206 
255 88 128 
255 255 255 
255 105 105 
255 83 137 
0 0 0 
255 255 255 
255 255 255 
255 255 255 
194 60 137 
0 0 0 
0 0 0 
255 255 255 
255 255 255 
255 235 255 
255 255 255 
247 77 77 
255 255 255 
255 255 255 
255 88 255 
0 0 0 
255 255 255 
255 255 255 
255 122 255 
255 255 255 
0 0 0 
0 0 0 
118 36 118 
255 255 255 
255 255 255 
255 144 144 
0 0 0 
255 225 255 
255 255 255 
255 255 255 
0 0 0 
255 98 98 
255 60 60 
0 0 0 
125 125 255 
0 0 0 
0 0 0 
255 255 255 
0 0 0 
255 255 255 
255 77 248 
255 255 255 
255 255 255 
0 0 0 
0 0 0 
121 108 255 
0 0 0 
0 0 0 
0 0 0 
255 60 255 
255 255 255 
77 77 247 
77 77 247 
255 255 255 
126 126 255 
207 207 255 
255 103 149 
255 255 255 
0 0 0 
0 0 0 
0 0 0 
255 207 207 
0 0 0 
255 255 255 
0 0 0 
194 60 137 
255 60 136 
255 255 255 
255 255 255 
255 255 255 
0 0 0 
255 255 255 
0 0 0 
255 255 255 
255 255 255 
0 0 0 
0 0 0 
255 77 255 
255 255 255 
160 160 255 
0 0 0 
255 127 127 
255 255 255 
255 255 255 
125 125 255 
255 255 255 
255 255 255 
0 0 0 
209 28 92 
0 0 0 
60 60 255 
0 0 0 
255 255 255 
255 255 255 
255 255 255 
255 136 255 
0 0 0 
255 255 255 
77 77 247 
0 0 0 
255 160 255 
60 60 255 
255 164 255 
0 0 0 
0 0 0 
247 77 77 
255 127 127 
255 255 255 
77 77 247 
255 255 255 
0 0 0 
255 255 255 
0 0 0 
0 0 0 
255 127 127 
255 146 230 
0 0 0 
255 255 255 
159 159 255 
0 0 0 
0 0 0 
255 255 255 
255 255 255 
255 255 255 
0 0 0 
255 255 255 
0 0 0 
0 0 0 
255 121 255 
255 60 60 
77 77 247 
255 255 255 
77 77 247 
0 0 0 
255 255 255 
0 0 0 
219 206 255 
0 0 0 
0 0 0 
0 0 0 
0 0 0 
255 255 255 
168 74 255 
0 0 0 
0 0 0 
0 0 0 
255 147 255 
51 22 255 
255 255 255 
255 199 255 
255 255 255 
0 0 0 
255 155 255 
151 47 255 
255 255 255 
255 255 255 
255 255 255 
0 0 0 
255 212 255 
0 0 0 
77 77 247 
0 0 0 
194 60 137 
206 206 255 
255 172 255 
223 223 255 
255 255 255 
193 60 193 
255 188 255 
98 98 255 
105 105 255 
255 255 255 
0 0 0 
247 77 77 
36 36 255 
255 60 195 
0 0 0 
0 0 0 
0 0 0 
88 88 255 
87 76 255 
84 51 164 
131 72 233 
77 77 247 
209 209 255 
132 132 255 
0 0 0 
56 17 128 
88 88 255 
77 77 249 
58 58 255 
92 69 255 
156 77 247 
141 13 141 
252 69 255 
179 102 255 
255 166 166 
249 77 77 
255 28 92 
0 0 0 
255 74 74 
255 97 97 
255 77 121 
255 98 98 
255 74 74 
255 106 106 
255 138 255 
255 65 255 
151 47 47 
255 157 179 
255 81 81 
0 0 0 
0 0 0 
151 47 47 
186 58 125 
0 0 0 
255 126 126 
255 63 91 
255 36 36 
0 0 0 
255 255 255 
0 0 0 
255 255 255 
255 255 255 
255 206 255 
255 172 172 
0 0 0 
0 0 0 
255 255 255 
255 126 162 
255 255 255 
0 0 0 
0 0 0 
255 255 255 
255 255 255 
255 98 98 
255 47 106 
0 0 0 
255 255 255 
0 0 0 
255 255 255 
255 129 167 
255 207 207 
247 77 77 
255 185 255 
0 0 0 
255 105 105 
0 0 0 
255 255 255 
255 144 255 
255 255 255 
255 144 255 
255 255 255 
255 255 255 
0 0 0 
255 255 255 
194 60 137 
255 255 255 
255 255 255 
0 0 0 
255 78 176 
255 87 127 
255 255 255 
247 77 77 
0 0 0 
255 126 126 
255 255 255 
0 0 0 
255 99 224 
0 0 0 
152 129 255 
255 207 207 
255 255 255 
160 132 255 
0 0 0 
255 255 255 
255 255 255 
0 0 0 
255 154 255 
0 0 0 
0 0 0 
0 0 0 
0 0 0 
255 172 255 
255 255 255 
255 47 107 
255 162 162 
255 255 255 
0 0 0 
255 255 255 
255 255 255 
255 127 127 
0 0 0 
0 0 0 
0 0 0 
255 173 173 
232 22 163 
0 0 0 
255 206 206 
0 0 0 
0 0 0 
255 126 126 
255 255 255 
0 0 0 
126 126 255 
98 98 255 
255 65 255 
0 0 0 
0 0 0 
255 255 255 
0 0 0 
0 0 0 
247 77 77 
118 36 118 
0 0 0 
255 255 255 
126 126 255 
0 0 0 
255 255 255 
0 0 0 
0 0 0 
0 0 0 
255 255 255 
0 0 0 
255 198 255 
255 140 255 
224 99 255 
0 0 0 
255 255 255 
255 99 224 
255 98 255 
255 144 255 
255 111 255 
255 95 204 
255 206 206 
255 255 255 
0 0 0 
255 145 145 
255 255 255 
255 60 60 
255 255 255 
126 126 255 
255 255 255 
255 255 255 
0 0 0 
255 78 255 
255 173 173 
255 255 255 
255 255 255 
255 255 255 
0 0 0 
0 0 0 
0 0 0 
0 0 0 
255 255 255 
255 255 255 
255 255 255 
0 0 0 
255 255 255 
0 0 0 
255 134 255 
255 255 255 
255 127 151 
255 155 250 
0 0 0 
0 0 0 
160 160 255 
255 255 255 
255 255 255 
207 207 255 
255 255 255 
0 0 0 
255 255 255 
255 173 255 
255 255 255 
247 77 77 
0 0 0 
0 0 0 
136 136 255 
77 77 247 
0 0 0 
0 0 0 
255 255 255 
255 69 208 
127 127 255 
0 0 0 
0 0 0 
0 0 0 
0 0 0 
160 160 255 
255 255 255 
0 0 0 
255 88 255 
0 0 0 
255 126 255 
255 255 255 
255 255 255 
165 88 255 
255 77 77 
77 77 247 
255 255 255 
247 77 77 
0 0 0 
92 28 255 
132 132 255 
0 0 0 
255 255 255 
255 89 255 
0 0 0 
0 0 0 
105 105 255 
137 60 194 
255 230 255 
137 83 255 
255 255 255 
233 122 255 
0 0 0 
0 0 0 
0 0 0 
0 0 0 
0 0 0 
255 156 251 
0 0 0 
77 77 247 
0 0 0 
0 0 0 
137 137 255 
60 60 255 
0 0 0 
224 99 255 
255 76 246 
82 77 255 
255 46 150 
172 172 255 
83 37 119 
172 136 255 
0 0 0 
0 0 0 
37 37 255 
143 60 255 
102 60 255 
0 0 0 
255 132 255 
136 136 255 
60 60 255 
0 0 0 
126 126 255 
93 79 255 
255 106 255 
0 0 0 
0 0 0 
255 255 255 
255 62 79 
0 0 0 
72 22 72 
255 98 98 
255 126 129 
0 0 0 
151 47 47 
0 0 0 
255 143 255 
255 83 255 
255 54 214 
255 67 169 
255 57 255 
255 109 255 
255 79 102 
0 0 0 
0 0 0 
255 39 183 
255 253 253 
0 0 0 
151 47 47 
255 60 60 
0 0 0 
247 77 77 
255 126 135 
255 136 136 
0 0 0 
0 0 0 
0 0 0 
0 0 0 
0 0 0 
255 255 255 
0 0 0 
0 0 0 
0 0 0 
255 60 60 
0 0 0 
0 0 0 
255 255 255 
0 0 0 
0 0 0 
255 255 255 
247 77 77 
247 77 77 
0 0 0 
0 0 0 
255 255 255 
194 60 137 
255 87 255 
255 255 255 
0 0 0 
0 0 0 
255 255 255 
255 255 255 
194 60 137 
0 0 0 
255 126 126 
0 0 0 
255 126 126 
255 255 255 
255 234 255 
255 60 60 
255 168 168 
118 36 118 
255 255 255 
0 0 0 
255 245 255 
255 127 255 
255 255 255 
255 255 255 
0 0 0 
194 60 137 
255 255 255 
255 255 255 
0 0 0 
0 0 0 
126 126 255 
247 77 77 
255 255 255 
255 129 167 
255 208 232 
0 0 0 
255 255 255 
255 207 207 
255 255 255 
255 255 255 
0 0 0 
0 0 0 
255 255 255 
77 77 247 
255 145 145 
255 255 255 
247 77 77 
0 0 0 
137 60 194 
255 255 255 
255 255 255 
0 0 0 
255 255 255 
255 99 99 
0 0 0 
255 255 255 
255 160 255 
255 255 255 
0 0 0 
0 0 0 
255 126 126 
0 0 0 
247 77 77 
255 255 255 
118 36 118 
0 0 0 
255 255 255 
255 255 255 
0 0 0 
0 0 0 
255 47 255 
255 255 255 
255 216 255 
255 255 255 
255 206 206 
255 255 255 
255 255 255 
255 255 255 
0 0 0 
0 0 0 
0 0 0 
255 82 255 
246 76 255 
255 45 234 
255 88 255 
0 0 0 
77 77 247 
255 160 255 
255 255 255 
255 255 255 
255 255 255 
255 255 255 
126 126 255 
255 255 255 
255 255 255 
255 255 255 
127 127 255 
0 0 0 
255 144 255 
255 255 255 
0 0 0 
0 0 0 
195 8 255 
255 255 255 
255 255 255 
0 0 0 
255 255 255 
255 161 255 
255 255 255 
255 226 255 
255 255 255 
255 255 255 
0 0 0 
255 255 255 
255 65 255 
255 126 255 
0 0 0 
0 0 0 
255 120 255 
0 0 0 
255 255 255 
247 77 77 
0 0 0 
0 0 0 
77 77 247 
255 163 255 
126 126 255 
60 60 255 
0 0 0 
174 77 255 
255 255 255 
0 0 0 
0 0 0 
255 127 255 
255 54 251 
137 60 194 
255 255 255 
255 105 105 
118 36 118 
0 0 0 
255 144 255 
255 255 255 
255 211 255 
77 77 247 
255 159 255 
0 0 0 
255 163 255 
0 0 0 
255 255 255 
106 95 255 
127 127 255 
255 145 211 
0 0 0 
0 0 0 
255 126 126 
255 255 255 
0 0 0 
0 0 0 
0 0 0 
0 0 0 
255 255 255 
193 60 193 
138 128 255 
77 77 247 
255 207 207 
0 0 0 
92 28 255 
0 0 0 
255 255 255 
255 155 255 
127 127 255 
0 0 0 
255 255 255 
255 145 255 
0 0 0 
0 0 0 
255 255 255 
255 145 255 
0 0 0 
255 255 255 
0 0 0 
255 255 255 
0 0 0 
0 0 0 
0 0 0 
200 173 255 
37 37 255 
0 0 0 
0 0 0 
255 255 255 
64 64 207 
129 68 255 
36 36 255 
72 22 72 
231 208 255 
0 0 0 
214 65 255 
92 28 209 
127 17 255 
255 54 255 
77 77 247 
0 0 0 
0 0 0 
47 47 151 
58 58 255 
118 36 118 
133 93 255 
64 64 207 
88 88 255 
36 36 255 
255 132 132 
0 0 0 
0 0 0 
255 60 60 
255 58 186 
255 47 255 
255 160 255 
247 77 77 
255 82 251 
255 114 114 
255 50 136 
255 93 143 
151 47 47 
255 78 255 
255 98 98 
255 83 83 
255 54 54 
0 0 0 
0 0 0 
0 0 0 
0 0 0 
255 60 155 
0 0 0 
0 0 0 
0 0 0 
72 22 72 
255 255 255 
0 0 0 
0 0 0 
206 206 255 
255 126 126 
0 0 0 
0 0 0 
255 255 255 
255 255 255 
255 255 255 
0 0 0 
255 255 255 
0 0 0 
247 77 77 
247 77 77 
0 0 0 
255 50 161 
118 36 118 
0 0 0 
255 17 179 
255 255 255 
0 0 0 
255 255 255 
255 255 255 
255 126 255 
0 0 0 
0 0 0 
255 255 255 
77 77 247 
255 255 255 
247 77 77 
0 0 0 
0 0 0 
255 255 255 
0 0 0 
255 255 255 
0 0 0 
255 255 255 
255 126 126 
0 0 0 
0 0 0 
255 76 76 
255 255 255 
126 126 255 
255 95 204 
255 155 255 
255 255 255 
0 0 0 
255 255 255 
255 210 255 
255 126 126 
255 255 255 
255 255 255 
255 126 126 
0 0 0 
255 255 255 
255 255 255 
0 0 0 
255 98 98 
0 0 0 
0 0 0 
247 77 77 
255 255 255 
127 127 255 
127 127 255 
255 132 132 
255 255 255 
255 255 255 
0 0 0 
255 212 255 
255 255 255 
255 255 255 
255 110 255 
0 0 0 
255 140 255 
255 255 255 
255 255 255 
255 126 126 
0 0 0 
255 255 255 
255 255 255 
255 255 255 
255 255 255 
126 126 255 
255 200 255 
255 255 255 
255 255 255 
255 76 246 
255 255 255 
218 218 255 
255 255 255 
0 0 0 
255 98 98 
0 0 0 
0 0 0 
0 0 0 
255 99 224 
255 47 106 
0 0 0 
255 105 105 
0 0 0 
255 255 255 
255 255 255 
255 255 255 
0 0 0 
255 255 255 
255 255 255 
255 255 255 
159 159 255 
127 127 255 
255 255 255 
255 60 60 
255 255 255 
255 95 204 
255 255 255 
255 255 255 
0 0 0 
255 255 255 
0 0 0 
255 209 255 
255 206 206 
255 255 255 
255 136 136 
255 255 255 
255 255 255 
255 28 92 
0 0 0 
0 0 0 
255 255 255 
0 0 0 
0 0 0 
0 0 0 
77 77 247 
145 145 255 
145 145 255 
255 255 255 
255 255 255 
0 0 0 
247 77 77 
255 255 255 
255 255 255 
255 126 126 
255 255 255 
255 255 255 
255 127 127 
224 99 255 
255 255 255 
255 255 255 
255 255 255 
0 0 0 
255 255 255 
255 255 255 
0 0 0 
92 28 255 
0 0 0 
255 209 255 
118 36 118 
126 126 255 
0 0 0 
0 0 0 
255 255 255 
255 160 255 
255 255 255 
0 0 0 
255 126 255 
247 77 77 
255 255 255 
0 0 0 
0 0 0 
0 0 0 
255 255 255 
255 255 255 
0 0 0 
255 255 255 
255 47 151 
0 0 0 
255 255 255 
127 127 255 
162 162 255 
137 60 194 
255 218 255 
255 29 255 
0 0 0 
0 0 0 
0 0 0 
255 77 248 
255 255 255 
0 0 0 
0 0 0 
255 17 255 
0 0 0 
224 136 255 
0 0 0 
0 0 0 
127 127 255 
206 206 255 
255 255 255 
255 58 186 
255 127 255 
0 0 0 
0 0 0 
255 255 255 
255 68 220 
255 255 255 
138 128 255 
126 126 255 
185 185 255 
0 0 0 
0 0 0 
92 28 209 
72 22 72 
0 0 0 
56 17 181 
125 57 255 
47 47 151 
0 0 0 
77 77 247 
255 88 255 
36 36 255 
0 0 0 
206 206 255 
199 81 255 
47 47 151 
47 47 151 
36 36 255 
72 22 72 
125 58 186 
88 88 255 
87 8 61 
64 64 207 
255 95 153 
255 95 95 
255 227 227 
0 0 0 
255 88 88 
255 95 95 
207 64 64 
151 47 47 
255 79 79 
255 98 255 
249 50 77 
0 0 0 
0 0 0 
0 0 0 
255 42 79 
0 0 0 
164 51 84 
255 54 169 
72 22 72 
255 211 239 
0 0 0 
255 47 106 
255 47 47 
255 121 255 
247 77 77 
0 0 0 
255 160 160 
255 126 126 
255 153 153 
0 0 0 
255 255 255 
0 0 0 
255 255 255 
255 255 255 
255 170 255 
255 255 255 
255 255 255 
0 0 0 
0 0 0 
255 255 255 
247 77 77 
0 0 0 
255 255 255 
255 255 255 
255 255 255 
255 255 255 
0 0 0 
255 255 255 
255 83 137 
118 36 118 
255 255 255 
255 162 255 
255 255 255 
255 255 255 
0 0 0 
0 0 0 
255 98 98 
0 0 0 
255 36 118 
255 206 206 
0 0 0 
255 255 255 
255 98 98 
0 0 0 
255 255 255 
0 0 0 
255 255 255 
0 0 0 
255 255 255 
126 126 255 
255 255 255 
255 126 126 
255 255 255 
255 255 255 
255 255 255 
255 255 255 
255 255 255 
0 0 0 
255 126 126 
255 123 237 
0 0 0 
247 77 77 
0 0 0 
255 144 255 
98 98 255 
0 0 0 
0 0 0 
255 214 255 
255 160 160 
255 255 255 
255 255 255 
255 22 72 
255 126 126 
255 126 126 
0 0 0 
0 0 0 
255 255 255 
247 77 77 
0 0 0 
0 0 0 
255 255 255 
118 36 118 
255 98 255 
77 77 247 
0 0 0 
0 0 0 
255 255 255 
255 255 255 
255 255 255 
0 0 0 
247 77 77 
255 255 255 
255 255 255 
255 255 255 
0 0 0 
0 0 0 
0 0 0 
0 0 0 
255 255 255 
0 0 0 
255 161 255 
255 255 255 
0 0 0 
255 255 255 
255 255 255 
0 0 0 
0 0 0 
255 255 255 
255 137 225 
0 0 0 
0 0 0 
0 0 0 
255 245 255 
255 185 185 
0 0 0 
255 126 126 
255 255 255 
255 255 255 
255 136 224 
0 0 0 
255 255 255 
0 0 0 
0 0 0 
255 255 255 
0 0 0 
193 60 193 
0 0 0 
237 102 255 
255 255 255 
0 0 0 
77 77 247 
255 255 255 
0 0 0 
255 255 255 
255 255 255 
255 255 255 
255 255 255 
255 255 255 
255 187 255 
0 0 0 
255 255 255 
255 255 255 
118 36 118 
255 222 255 
255 255 255 
0 0 0 
255 255 255 
0 0 0 
255 255 255 
105 105 255 
77 77 247 
255 134 255 
0 0 0 
255 127 255 
255 99 99 
255 255 255 
255 146 255 
255 255 255 
0 0 0 
77 77 247 
193 60 193 
247 104 255 
255 255 255 
255 255 255 
255 255 255 
255 255 255 
255 50 162 
0 0 0 
77 77 247 
0 0 0 
0 0 0 
0 0 0 
0 0 0 
255 255 255 
71 22 255 
255 122 255 
255 28 255 
255 107 255 
255 125 255 
144 144 255 
255 180 255 
255 255 255 
255 255 255 
255 255 255 
247 77 77 
255 47 151 
255 227 255 
77 77 247 
98 98 255 
0 0 0 
126 126 255 
255 255 255 
0 0 0 
255 79 255 
0 0 0 
255 255 255 
77 77 247 
255 98 255 
78 10 255 
255 255 255 
255 255 255 
213 213 255 
255 255 255 
255 206 206 
0 0 0 
0 0 0 
224 136 255 
224 99 255 
0 0 0 
0 0 0 
191 132 255 
0 0 0 
0 0 0 
120 45 255 
56 17 181 
37 37 255 
255 255 255 
118 93 255 
0 0 0 
72 22 72 
95 95 255 
47 47 151 
0 0 0 
141 61 196 
88 88 255 
255 255 255 
0 0 0 
255 255 255 
0 0 0 
255 131 255 
187 63 255 
151 85 255 
205 65 255 
47 47 151 
47 47 151 
97 97 255 
255 54 54 
255 88 88 
255 113 113 
0 0 0 
225 70 115 
151 47 47 
0 0 0 
255 137 137 
247 77 77 
249 77 77 
255 60 60 
0 0 0 
255 81 98 
255 77 110 
151 47 47 
207 64 64 
255 98 255 
255 132 132 
72 22 72 
255 58 58 
0 0 0 
0 0 0 
194 60 137 
0 0 0 
247 77 77 
110 10 255 
247 77 77 
247 77 77 
255 255 255 
0 0 0 
0 0 0 
255 255 255 
0 0 0 
255 255 255 
255 255 255 
224 99 255 
255 76 76 
255 105 255 
255 255 255 
247 77 77 
0 0 0 
0 0 0 
255 105 253 
255 173 255 
247 77 77 
255 255 255 
255 255 255 
255 255 255 
255 113 255 
60 60 255 
255 255 255 
255 126 126 
0 0 0 
255 216 255 
102 79 255 
255 126 126 
255 170 255 
255 28 92 
0 0 0 
255 255 255 
0 0 0 
60 60 255 
255 132 160 
0 0 0 
255 126 126 
255 119 168 
0 0 0 
0 0 0 
255 255 255 
0 0 0 
137 83 255 
60 60 255 
0 0 0 
0 0 0 
98 98 255 
255 206 206 
255 255 255 
255 255 255 
0 0 0 
207 207 255 
0 0 0 
255 255 255 
0 0 0 
255 255 255 
255 255 255 
255 255 255 
255 255 255 
0 0 0 
255 60 60 
0 0 0 
0 0 0 
255 76 246 
255 255 255 
255 145 255 
0 0 0 
0 0 0 
255 255 255 
255 126 126 
255 126 126 
255 255 255 
255 126 126 
247 77 77 
247 77 77 
0 0 0 
255 255 255 
255 255 255 
255 255 255 
0 0 0 
255 255 255 
0 0 0 
255 255 255 
255 255 255 
255 255 255 
0 0 0 
0 0 0 
255 255 255 
255 255 255 
255 255 255 
255 255 255 
0 0 0 
0 0 0 
0 0 0 
255 255 255 
255 126 126 
255 160 160 
0 0 0 
0 0 0 
255 255 255 
255 255 255 
255 255 255 
255 255 255 
0 0 0 
246 76 255 
0 0 0 
255 126 126 
46 46 255 
0 0 0 
65 28 255 
255 255 255 
255 60 60 
247 77 77 
255 255 255 
255 255 255 
193 60 193 
0 0 0 
255 127 127 
0 0 0 
255 210 233 
255 172 172 
255 255 255 
255 255 255 
255 255 255 
255 255 255 
0 0 0 
255 255 255 
255 255 255 
255 255 255 
200 82 255 
255 144 255 
255 255 255 
0 0 0 
0 0 0 
255 238 255 
0 0 0 
255 94 255 
144 144 255 
77 77 247 
255 255 255 
255 255 255 
0 0 0 
77 77 247 
0 0 0 
255 126 126 
0 0 0 
255 255 255 
198 198 255 
0 0 0 
255 255 255 
255 99 245 
255 59 191 
255 255 255 
0 0 0 
0 0 0 
127 127 255 
0 0 0 
255 113 255 
0 0 0 
77 77 247 
255 180 255 
77 77 247 
255 145 255 
255 255 255 
0 0 0 
255 77 174 
0 0 0 
255 255 255 
255 99 99 
255 255 255 
0 0 0 
0 0 0 
0 0 0 
0 0 0 
105 105 255 
255 88 255 
255 255 255 
255 162 255 
0 0 0 
194 60 137 
255 255 255 
0 0 0 
0 0 0 
126 126 255 
162 162 255 
0 0 0 
255 28 92 
28 28 255 
0 0 0 
255 255 255 
255 255 255 
0 0 0 
0 0 0 
77 77 247 
0 0 0 
126 126 255 
224 99 255 
36 36 255 
255 211 255 
126 126 255 
255 54 255 
221 207 255 
193 60 193 
72 22 72 
77 77 247 
216 216 255 
255 137 255 
83 37 119 
224 99 255 
0 0 0 
0 0 0 
0 0 0 
209 65 255 
72 72 255 
0 0 0 
249 87 255 
171 79 255 
255 255 255 
0 0 0 
88 88 255 
255 223 255 
0 0 0 
255 255 255 
0 0 0 
140 66 213 
71 49 229 
119 69 255 
58 58 255 
151 47 47 
255 47 106 
255 60 60 
255 114 114 
255 86 86 
247 77 77 
255 255 255 
0 0 0 
151 47 47 
207 64 64 
255 58 58 
255 132 132 
255 81 81 
255 255 255 
255 49 49 
151 47 47 
182 48 56 
151 47 47 
255 132 190 
159 1 34 
255 61 90 
164 51 84 
72 22 72 
0 0 0 
0 0 0 
255 83 137 
0 0 0 
0 0 0 
0 0 0 
255 126 126 
0 0 0 
0 0 0 
0 0 0 
0 0 0 
255 216 255 
0 0 0 
255 255 255 
150 46 255 
0 0 0 
247 77 77 
247 77 77 
126 126 255 
0 0 0 
255 174 255 
247 77 77 
255 255 255 
255 60 60 
0 0 0 
127 127 255 
0 0 0 
0 0 0 
255 129 255 
0 0 0 
194 60 137 
255 93 143 
255 28 28 
255 255 255 
255 255 255 
0 0 0 
255 144 255 
255 255 255 
255 255 255 
127 127 255 
255 105 105 
255 255 255 
255 74 159 
247 77 77 
0 0 0 
0 0 0 
0 0 0 
255 76 76 
255 255 255 
255 255 255 
255 255 255 
255 255 255 
255 255 255 
0 0 0 
255 255 255 
255 206 206 
255 255 255 
255 255 255 
255 235 255 
255 255 255 
0 0 0 
0 0 0 
255 216 216 
0 0 0 
255 99 99 
255 255 255 
255 207 207 
255 255 255 
255 216 216 
255 255 255 
255 28 65 
255 255 255 
255 127 127 
0 0 0 
0 0 0 
0 0 0 
255 255 255 
255 126 126 
255 255 255 
255 136 255 
255 255 255 
0 0 0 
255 255 255 
77 77 247 
255 126 255 
255 255 255 
0 0 0 
255 255 255 
255 126 255 
255 255 255 
255 255 255 
255 255 255 
255 207 207 
0 0 0 
0 0 0 
77 77 247 
255 255 255 
0 0 0 
255 255 255 
255 255 255 
255 126 255 
255 255 255 
255 255 255 
0 0 0 
0 0 0 
255 255 255 
0 0 0 
255 255 255 
230 22 230 
0 0 0 
255 216 216 
255 255 255 
255 98 255 
255 46 150 
255 255 255 
255 255 255 
0 0 0 
0 0 0 
255 255 255 
255 255 255 
255 255 255 
255 77 77 
255 126 126 
255 255 255 
255 255 255 
255 212 255 
255 255 255 
255 159 255 
100 13 142 
77 77 247 
0 0 0 
0 0 0 
65 28 255 
255 255 255 
255 255 255 
0 0 0 
0 0 0 
0 0 0 
255 255 255 
92 28 255 
255 255 255 
255 160 255 
255 206 206 
0 0 0 
0 0 0 
248 77 255 
255 255 255 
255 255 255 
105 105 255 
255 126 126 
255 125 255 
255 255 255 
0 0 0 
255 255 255 
255 255 255 
255 255 255 
255 255 255 
173 173 255 
0 0 0 
0 0 0 
126 126 255 
0 0 0 
255 162 255 
255 255 255 
0 0 0 
0 0 0 
255 98 255 
255 156 255 
255 255 255 
255 126 126 
255 255 255 
255 127 127 
255 155 255 
77 77 247 
255 206 206 
0 0 0 
255 241 255 
247 77 77 
255 255 255 
255 255 255 
144 144 255 
255 227 255 
255 255 255 
247 77 77 
255 255 255 
255 255 255 
77 77 247 
160 160 255 
0 0 0 
164 125 255 
255 255 255 
0 0 0 
255 127 127 
0 0 0 
255 255 255 
127 127 255 
0 0 0 
0 0 0 
255 255 255 
255 255 255 
0 0 0 
255 255 255 
0 0 0 
193 60 193 
255 121 255 
0 0 0 
107 96 255 
58 58 255 
203 63 203 
255 86 255 
181 17 255 
92 28 255 
88 88 255 
206 206 255 
129 126 255 
0 0 0 
34 10 110 
204 95 255 
0 0 0 
0 0 0 
58 58 255 
64 64 207 
126 126 255 
129 129 255 
37 37 255 
142 74 239 
255 77 249 
0 0 0 
64 64 207 
255 133 255 
0 0 0 
255 64 207 
47 47 151 
255 36 36 
255 175 255 
0 0 0 
207 64 64 
86 8 86 
247 77 77 
151 47 47 
118 36 118 
151 47 47 
0 0 0 
151 47 47 
255 88 88 
255 209 209 
0 0 0 
255 98 98 
207 64 64 
255 58 58 
61 8 87 
255 180 255 
255 36 36 
207 64 64 
255 88 88 
0 0 0 
255 126 126 
255 129 129 
255 136 136 
255 126 126 
0 0 0 
255 168 168 
255 161 255 
255 255 255 
255 126 126 
126 126 255 
0 0 0 
255 206 206 
193 60 193 
255 255 255 
0 0 0 
255 255 255 
0 0 0 
255 206 206 
255 99 224 
118 36 118 
0 0 0 
255 255 255 
0 0 0 
255 206 206 
255 255 255 
255 126 126 
255 95 95 
247 77 77 
194 60 137 
247 77 77 
247 77 77 
255 126 126 
255 255 255 
0 0 0 
255 255 255 
0 0 0 
0 0 0 
255 255 255 
0 0 0 
255 255 255 
255 99 99 
0 0 0 
255 255 255 
255 159 255 
255 135 240 
255 170 255 
0 0 0 
0 0 0 
255 126 126 
255 255 255 
0 0 0 
255 255 255 
0 0 0 
255 77 174 
255 255 255 
247 77 77 
255 255 255 
0 0 0 
255 126 126 
0 0 0 
255 255 255 
247 77 77 
126 126 255 
255 255 255 
0 0 0 
127 127 255 
255 255 255 
0 0 0 
0 0 0 
0 0 0 
255 255 255 
0 0 0 
0 0 0 
255 214 255 
247 77 77 
0 0 0 
0 0 0 
193 60 193 
255 255 255 
255 121 121 
255 255 255 
0 0 0 
255 255 255 
255 255 255 
255 218 255 
255 255 255 
255 255 255 
0 0 0 
255 255 255 
0 0 0 
255 255 255 
150 46 255 
255 255 255 
255 255 255 
255 255 255 
255 255 255 
255 255 255 
0 0 0 
255 28 65 
145 145 255 
118 36 118 
255 255 255 
255 255 255 
0 0 0 
255 255 255 
126 126 255 
255 255 255 
255 255 255 
247 77 77 
255 255 255 
255 127 127 
0 0 0 
0 0 0 
255 255 255 
0 0 0 
0 0 0 
126 126 255 
255 255 255 
0 0 0 
206 206 255 
144 144 255 
255 255 255 
255 207 207 
0 0 0 
127 127 255 
255 206 206 
0 0 0 
255 206 206 
247 77 77 
255 88 166 
0 0 0 
78 10 255 
255 255 255 
126 126 255 
255 255 255 
0 0 0 
255 255 255 
255 255 255 
0 0 0 
0 0 0 
255 255 255 
0 0 0 
255 255 255 
255 255 255 
255 126 126 
255 255 255 
247 77 77 
0 0 0 
255 255 255 
255 206 206 
255 255 255 
255 255 255 
0 0 0 
255 255 255 
60 60 255 
118 36 118 
0 0 0 
0 0 0 
255 255 255 
255 255 255 
0 0 0 
255 255 255 
255 255 255 
0 0 0 
0 0 0 
255 255 255 
255 255 255 
255 255 255 
255 255 255 
193 60 193 
0 0 0 
0 0 0 
0 0 0 
0 0 0 
255 255 255 
255 255 255 
255 255 255 
0 0 0 
0 0 0 
255 8 61 
255 255 255 
255 158 255 
0 0 0 
255 255 255 
255 255 255 
255 255 255 
0 0 0 
105 105 255 
127 127 255 
0 0 0 
255 60 255 
255 255 255 
0 0 0 
0 0 0 
0 0 0 
0 0 0 
255 255 255 
255 255 255 
255 255 255 
255 255 255 
255 22 72 
0 0 0 
141 127 255 
255 255 255 
252 93 255 
0 0 0 
0 0 0 
0 0 0 
200 45 255 
47 47 151 
28 28 255 
0 0 0 
92 28 255 
92 78 255 
0 0 0 
72 22 72 
77 77 247 
77 77 247 
60 60 255 
47 47 151 
144 144 255 
71 65 230 
47 47 151 
97 97 255 
255 159 255 
0 0 0 
93 58 255 
141 73 255 
168 94 255 
194 117 255 
0 0 0 
223 86 255 
255 115 255 
207 64 64 
255 83 137 
207 64 64 
151 47 47 
255 58 58 
128 24 78 
0 0 0 
255 88 88 
255 105 105 
151 47 47 
0 0 0 
118 36 118 
194 60 137 
151 47 47 
0 0 0 
247 77 77 
255 85 164 
0 0 0 
255 98 222 
255 76 255 
151 47 47 
255 60 60 
255 83 137 
255 28 92 
255 132 132 
151 47 47 
255 129 167 
255 77 77 
0 0 0 
247 77 77 
0 0 0 
255 40 132 
255 127 127 
0 0 0 
0 0 0 
247 77 77 
247 77 77 
247 77 77 
255 255 255 
0 0 0 
0 0 0 
255 255 255 
255 255 255 
255 144 255 
247 77 77 
255 160 255 
255 145 255 
0 0 0 
0 0 0 
255 255 255 
60 60 255 
255 255 255 
255 255 255 
255 126 126 
0 0 0 
255 255 255 
0 0 0 
0 0 0 
0 0 0 
255 255 255 
0 0 0 
255 156 251 
255 255 255 
0 0 0 
255 255 255 
255 255 255 
0 0 0 
255 255 255 
0 0 0 
255 144 144 
0 0 0 
137 83 255 
255 126 126 
255 206 206 
247 77 77 
0 0 0 
255 98 98 
255 255 255 
0 0 0 
247 77 77 
255 255 255 
207 207 255 
255 61 188 
255 255 255 
0 0 0 
255 47 107 
255 36 117 
255 98 98 
255 244 255 
127 127 255 
0 0 0 
255 127 127 
255 255 255 
255 212 255 
0 0 0 
0 0 0 
255 255 255 
255 104 255 
194 60 137 
255 255 255 
255 255 255 
0 0 0 
255 17 179 
255 154 255 
255 255 255 
0 0 0 
255 225 255 
255 255 255 
0 0 0 
255 255 255 
255 255 255 
0 0 0 
255 126 126 
0 0 0 
255 255 255 
0 0 0 
255 255 255 
255 255 255 
255 28 28 
0 0 0 
255 255 255 
255 206 206 
255 206 206 
255 255 255 
255 255 255 
255 255 255 
255 255 255 
255 255 255 
0 0 0 
0 0 0 
0 0 0 
247 77 77 
255 255 255 
0 0 0 
255 144 255 
255 127 255 
99 99 255 
206 206 255 
255 255 255 
211 206 255 
255 209 227 
0 0 0 
0 0 0 
0 0 0 
206 206 255 
255 255 255 
255 173 173 
0 0 0 
0 0 0 
0 0 0 
255 255 255 
255 133 255 
255 255 255 
0 0 0 
255 255 255 
255 255 255 
0 0 0 
255 255 255 
255 200 255 
0 0 0 
255 255 255 
0 0 0 
255 255 255 
255 255 255 
255 184 255 
105 105 255 
255 255 255 
105 105 255 
255 255 255 
255 255 255 
255 255 255 
0 0 0 
0 0 0 
255 255 255 
255 255 255 
224 136 255 
77 77 247 
0 0 0 
0 0 0 
77 77 247 
255 255 255 
255 222 255 
255 255 255 
118 36 118 
193 60 193 
0 0 0 
255 255 255 
0 0 0 
0 0 0 
255 255 255 
60 60 255 
209 144 255 
0 0 0 
118 36 118 
255 127 255 
0 0 0 
255 255 255 
255 255 255 
255 255 255 
0 0 0 
0 0 0 
255 162 255 
255 126 253 
0 0 0 
77 77 247 
0 0 0 
255 28 255 
255 255 255 
255 255 255 
255 255 255 
0 0 0 
0 0 0 
0 0 0 
0 0 0 
92 28 209 
255 255 255 
118 36 118 
255 209 255 
193 60 193 
0 0 0 
255 236 255 
179 136 255 
0 0 0 
0 0 0 
193 60 193 
0 0 0 
255 255 255 
255 163 255 
118 36 118 
0 0 0 
255 133 255 
119 100 255 
126 126 255 
47 47 151 
99 13 255 
149 149 255 
0 0 0 
77 77 247 
74 74 255 
100 100 255 
0 0 0 
71 49 229 
88 88 255 
233 51 255 
64 64 207 
0 0 0 
255 80 255 
79 42 255 
44 13 255 
255 77 249 
125 58 186 
77 77 247 
0 0 0 
118 36 118 
170 105 255 
74 74 255 
204 63 151 
207 64 64 
255 88 88 
207 64 64 
151 47 47 
0 0 0 
207 64 64 
255 60 60 
151 47 47 
61 8 87 
207 64 64 
255 143 255 
255 132 132 
255 83 83 
0 0 0 
255 132 132 
247 77 77 
207 64 64 
255 188 255 
0 0 0 
255 36 36 
255 186 255 
0 0 0 
0 0 0 
255 17 17 
255 126 126 
130 37 142 
151 47 47 
0 0 0 
255 127 200 
255 36 36 
84 5 171 
142 37 130 
255 125 125 
118 36 118 
255 136 224 
255 255 255 
255 100 118 
255 255 255 
255 255 255 
207 207 255 
77 77 247 
0 0 0 
255 76 246 
0 0 0 
0 0 0 
0 0 0 
0 0 0 
0 0 0 
255 255 255 
255 98 98 
0 0 0 
255 255 255 
0 0 0 
126 126 255 
255 60 255 
255 126 126 
181 17 56 
0 0 0 
255 255 255 
255 255 255 
255 255 255 
193 60 193 
255 60 60 
255 128 255 
0 0 0 
255 255 255 
194 60 137 
255 255 255 
255 255 255 
247 77 77 
255 206 255 
0 0 0 
255 255 255 
255 218 255 
247 77 77 
255 255 255 
255 154 255 
255 255 255 
255 255 255 
255 99 224 
255 255 255 
255 255 255 
0 0 0 
255 174 255 
0 0 0 
0 0 0 
255 255 255 
255 255 255 
255 126 126 
174 77 255 
255 206 255 
255 57 255 
255 255 255 
0 0 0 
0 0 0 
0 0 0 
0 0 0 
255 255 255 
255 255 255 
193 60 193 
0 0 0 
255 255 255 
255 170 255 
255 160 160 
255 255 255 
255 255 255 
255 255 255 
255 253 255 
255 255 255 
255 255 255 
193 60 193 
255 207 207 
255 127 127 
255 255 255 
255 255 255 
247 77 77 
0 0 0 
255 255 255 
194 60 137 
255 255 255 
0 0 0 
0 0 0 
255 255 255 
0 0 0 
0 0 0 
255 255 255 
255 255 255 
255 255 255 
0 0 0 
127 127 255 
255 162 255 
0 0 0 
77 77 247 
255 255 255 
255 95 153 
77 77 247 
255 255 255 
127 127 255 
255 255 255 
255 127 127 
77 77 247 
0 0 0 
255 144 255 
0 0 0 
247 77 77 
0 0 0 
255 255 255 
0 0 0 
0 0 0 
247 77 77 
255 162 255 
0 0 0 
255 255 255 
255 131 168 
255 255 255 
255 126 126 
255 255 255 
255 255 255 
0 0 0 
255 160 255 
255 255 255 
0 0 0 
255 255 255 
0 0 0 
255 255 255 
255 255 255 
0 0 0 
0 0 0 
255 255 255 
0 0 0 
98 98 255 
0 0 0 
0 0 0 
255 206 206 
255 255 255 
255 255 255 
0 0 0 
255 255 255 
0 0 0 
255 155 255 
0 0 0 
255 126 126 
255 206 206 
152 128 255 
255 255 255 
235 235 255 
126 126 255 
77 77 247 
255 160 255 
0 0 0 
77 77 247 
126 126 255 
0 0 0 
255 255 255 
0 0 0 
0 0 0 
255 207 207 
0 0 0 
255 255 255 
0 0 0 
0 0 0 
0 0 0 
0 0 0 
255 255 255 
0 0 0 
60 60 255 
0 0 0 
0 0 0 
255 60 255 
0 0 0 
0 0 0 
98 98 255 
0 0 0 
255 98 255 
255 173 255 
118 36 118 
118 36 118 
0 0 0 
0 0 0 
0 0 0 
126 126 255 
255 255 255 
255 255 255 
0 0 0 
0 0 0 
68 68 255 
130 113 255 
0 0 0 
105 105 255 
255 255 255 
107 47 255 
0 0 0 
60 60 255 
255 183 255 
77 77 247 
241 134 255 
56 17 181 
0 0 0 
58 58 255 
47 47 151 
76 76 255 
56 17 128 
47 47 151 
47 47 151 
0 0 0 
93 93 255 
108 48 201 
47 47 151 
0 0 0 
0 0 0 
47 47 151 
65 28 255 
47 47 151 
238 74 255 
255 87 255 
255 255 255 
0 0 0 
151 47 47 
255 105 105 
255 209 209 
0 0 0 
151 47 47 
187 58 93 
249 77 77 
0 0 0 
151 47 47 
0 0 0 
0 0 0 
255 28 92 
255 77 174 
255 36 36 
255 93 93 
233 64 178 
255 102 148 
255 129 129 
0 0 0 
255 61 150 
255 126 126 
255 255 255 
255 144 255 
255 60 60 
0 0 0 
255 47 47 
151 47 47 
72 22 72 
0 0 0 
0 0 0 
193 60 193 
194 60 137 
255 206 206 
0 0 0 
118 36 118 
255 126 126 
255 210 255 
0 0 0 
255 98 98 
255 255 255 
255 255 255 
255 255 255 
255 121 121 
255 255 255 
247 77 77 
0 0 0 
0 0 0 
0 0 0 
255 255 255 
255 126 126 
0 0 0 
0 0 0 
255 47 47 
255 255 255 
84 37 255 
0 0 0 
193 60 193 
255 28 92 
0 0 0 
141 13 141 
0 0 0 
0 0 0 
0 0 0 
247 77 77 
0 0 0 
255 212 240 
255 255 255 
255 126 126 
0 0 0 
255 69 129 
0 0 0 
247 77 77 
255 255 255 
255 255 255 
0 0 0 
255 255 255 
0 0 0 
255 127 127 
0 0 0 
255 127 127 
255 13 255 
255 255 255 
255 255 255 
247 77 77 
247 77 77 
255 255 255 
0 0 0 
0 0 0 
255 255 255 
255 255 255 
255 255 255 
255 255 255 
255 255 255 
255 126 126 
0 0 0 
0 0 0 
255 216 255 
255 207 207 
0 0 0 
255 255 255 
0 0 0 
255 255 255 
0 0 0 
255 255 255 
255 255 255 
255 206 206 
255 255 255 
255 255 255 
255 255 255 
255 255 255 
168 131 255 
151 47 255 
255 208 255 
0 0 0 
0 0 0 
77 77 247 
0 0 0 
255 255 255 
77 77 247 
255 255 255 
255 216 255 
255 207 207 
255 206 206 
247 77 77 
0 0 0 
255 255 255 
255 255 255 
255 79 255 
126 126 255 
0 0 0 
206 206 255 
0 0 0 
0 0 0 
255 255 255 
255 255 255 
255 255 255 
255 255 255 
255 255 255 
255 255 255 
255 126 126 
255 255 255 
0 0 0 
60 60 255 
77 77 247 
0 0 0 
255 98 98 
255 255 255 
255 255 255 
255 101 255 
255 255 255 
255 255 255 
255 255 255 
215 95 255 
255 255 255 
255 255 255 
247 77 77 
255 121 255 
255 255 255 
0 0 0 
0 0 0 
255 255 255 
255 255 255 
255 255 255 
193 60 193 
247 77 77 
0 0 0 
126 126 255 
255 255 255 
255 218 255 
0 0 0 
0 0 0 
204 95 255 
0 0 0 
255 255 255 
255 98 98 
255 255 255 
255 255 255 
77 77 247 
137 83 255 
255 255 255 
255 255 255 
77 77 247 
255 255 255 
0 0 0 
77 77 247 
255 175 255 
247 77 77 
255 255 255 
0 0 0 
0 0 0 
77 77 247 
118 36 118 
255 28 208 
0 0 0 
255 255 255 
0 0 0 
77 77 247 
0 0 0 
126 126 255 
0 0 0 
0 0 0 
255 255 255 
0 0 0 
77 77 247 
193 60 193 
77 77 247 
222 98 255 
0 0 0 
77 77 247 
255 162 255 
0 0 0 
255 160 255 
0 0 0 
0 0 0 
255 126 126 
0 0 0 
0 0 0 
126 126 255 
92 78 255 
0 0 0 
0 0 0 
0 0 0 
0 0 0 
0 0 0 
129 129 255 
0 0 0 
128 39 210 
255 28 92 
47 47 151 
0 0 0 
88 88 255 
132 132 255 
26 8 255 
0 0 0 
255 13 44 
101 53 255 
47 47 151 
47 47 151 
56 48 182 
47 47 151 
193 60 193 
47 47 151 
160 151 255 
36 36 255 
47 47 151 
47 47 151 
64 64 207 
64 64 207 
81 78 255 
103 103 255 
64 64 207 
0 0 0 
132 132 255 
144 144 255 
247 77 77 
0 0 0 
216 67 94 
207 64 64 
151 47 47 
151 47 47 
255 88 88 
249 77 77 
247 77 77 
255 105 105 
186 58 125 
0 0 0 
255 94 255 
0 0 0 
151 47 47 
255 64 64 
255 140 255 
255 216 243 
151 47 47 
191 27 89 
0 0 0 
255 121 121 
255 76 76 
255 36 36 
0 0 0 
255 77 103 
118 36 118 
247 77 77 
0 0 0 
255 95 95 
255 60 60 
0 0 0 
255 107 124 
255 28 28 
181 17 56 
0 0 0 
255 255 255 
255 206 206 
255 255 255 
0 0 0 
255 126 126 
255 255 255 
0 0 0 
255 255 255 
255 17 56 
0 0 0 
0 0 0 
255 255 255 
247 77 77 
0 0 0 
255 255 255 
255 255 255 
0 0 0 
255 126 126 
255 255 255 
0 0 0 
255 255 255 
255 255 255 
0 0 0 
255 255 255 
0 0 0 
0 0 0 
0 0 0 
255 126 126 
0 0 0 
255 126 126 
0 0 0 
255 255 255 
255 79 135 
255 255 255 
255 255 255 
65 28 255 
0 0 0 
0 0 0 
255 255 255 
0 0 0 
255 255 255 
255 98 255 
255 206 206 
255 129 167 
247 77 77 
255 126 126 
255 255 255 
0 0 0 
255 255 255 
255 255 255 
255 255 255 
0 0 0 
0 0 0 
255 127 127 
77 77 247 
255 255 255 
0 0 0 
255 255 255 
0 0 0 
0 0 0 
255 255 255 
255 255 255 
255 177 222 
255 255 255 
247 77 77 
255 126 126 
255 255 255 
0 0 0 
126 126 255 
255 255 255 
255 143 255 
255 88 88 
0 0 0 
255 255 255 
255 255 255 
255 255 255 
255 255 255 
0 0 0 
0 0 0 
0 0 0 
255 255 255 
0 0 0 
0 0 0 
255 255 255 
0 0 0 
255 255 255 
0 0 0 
0 0 0 
255 255 255 
255 140 255 
118 36 118 
255 255 255 
0 0 0 
255 255 255 
0 0 0 
255 255 255 
255 255 255 
255 255 255 
0 0 0 
255 255 255 
0 0 0 
126 126 255 
0 0 0 
255 255 255 
255 255 255 
255 226 226 
0 0 0 
0 0 0 
0 0 0 
0 0 0 
255 255 255 
126 126 255 
255 255 255 
0 0 0 
0 0 0 
224 99 255 
255 255 255 
137 60 194 
0 0 0 
0 0 0 
255 175 255 
0 0 0 
255 255 255 
0 0 0 
0 0 0 
77 77 247 
0 0 0 
0 0 0 
255 206 206 
255 218 255 
255 255 255 
255 77 248 
255 255 255 
255 255 255 
250 78 255 
255 255 255 
255 255 255 
255 255 255 
0 0 0 
255 77 86 
255 173 255 
255 99 224 
255 255 255 
77 77 247 
255 255 255 
255 255 255 
0 0 0 
0 0 0 
255 255 255 
255 206 255 
255 255 255 
247 77 77 
0 0 0 
255 255 255 
77 77 247 
255 255 255 
255 255 255 
209 28 92 
247 77 77 
207 207 255 
0 0 0 
255 60 255 
255 143 255 
255 237 237 
77 77 247 
0 0 0 
255 255 255 
255 59 255 
0 0 0 
0 0 0 
255 255 255 
0 0 0 
126 126 255 
0 0 0 
255 255 255 
255 255 255 
47 6 217 
77 77 247 
128 88 255 
0 0 0 
0 0 0 
255 113 212 
0 0 0 
0 0 0 
0 0 0 
100 13 142 
45 45 255 
0 0 0 
0 0 0 
125 51 255 
118 36 118 
0 0 0 
47 47 151 
36 36 255 
0 0 0 
77 77 255 
113 113 255 
0 0 0 
0 0 0 
79 42 255 
106 106 255 
0 0 0 
47 47 151 
0 0 0 
64 64 207 
47 47 151 
47 47 151 
255 103 255 
109 109 255 
0 0 0 
47 47 151 
47 47 151 
255 180 255 
74 74 255 
0 0 0 
0 0 0 
64 64 207 
106 106 255 
74 74 255 
47 47 151 
186 58 125 
0 0 0 
207 64 64 
151 47 47 
255 122 233 
164 51 84 
151 47 47 
0 0 0 
249 77 77 
255 102 102 
255 98 98 
255 60 60 
247 77 77 
151 47 47 
255 255 255 
186 58 125 
187 58 93 
0 0 0 
255 132 132 
0 0 0 
151 47 47 
0 0 0 
255 255 255 
128 24 78 
255 128 238 
0 0 0 
255 155 155 
0 0 0 
255 49 71 
0 0 0 
0 0 0 
118 36 118 
0 0 0 
255 212 212 
255 99 224 
0 0 0 
0 0 0 
255 255 255 
127 127 255 
126 126 255 
99 99 255 
0 0 0 
0 0 0 
0 0 0 
0 0 0 
255 255 255 
0 0 0 
255 255 255 
0 0 0 
0 0 0 
255 255 255 
0 0 0 
255 255 255 
255 112 255 
255 126 126 
255 255 255 
0 0 0 
255 255 255 
0 0 0 
255 126 126 
255 126 126 
255 97 255 
127 127 255 
0 0 0 
0 0 0 
255 127 127 
206 206 255 
255 250 255 
255 255 255 
0 0 0 
255 95 204 
255 126 126 
0 0 0 
0 0 0 
0 0 0 
193 60 193 
255 82 255 
255 255 255 
0 0 0 
0 0 0 
255 172 172 
255 255 255 
247 77 77 
255 255 255 
255 255 255 
255 255 255 
255 255 255 
255 172 255 
255 255 255 
127 127 255 
255 255 255 
0 0 0 
255 127 127 
255 255 255 
0 0 0 
0 0 0 
255 255 255 
255 22 71 
0 0 0 
255 126 126 
125 125 255 
0 0 0 
206 206 255 
255 255 255 
255 255 255 
255 105 255 
0 0 0 
0 0 0 
255 255 255 
255 37 255 
255 255 255 
0 0 0 
255 255 255 
0 0 0 
255 255 255 
174 174 255 
0 0 0 
255 255 255 
0 0 0 
0 0 0 
255 155 255 
0 0 0 
247 77 77 
255 155 255 
255 255 255 
255 126 126 
0 0 0 
0 0 0 
118 36 118 
255 255 255 
255 255 255 
255 255 255 
118 36 255 
0 0 0 
224 99 255 
255 255 255 
255 126 126 
247 77 77 
255 255 255 
255 217 255 
0 0 0 
98 98 255 
0 0 0 
77 77 247 
255 255 255 
0 0 0 
0 0 0 
206 206 255 
255 255 255 
255 255 255 
0 0 0 
255 174 255 
247 77 77 
255 255 255 
255 255 255 
255 174 255 
0 0 0 
255 255 255 
0 0 0 
0 0 0 
255 145 255 
255 255 255 
255 255 255 
0 0 0 
0 0 0 
255 255 255 
255 145 255 
255 255 255 
126 126 255 
0 0 0 
0 0 0 
0 0 0 
255 121 255 
255 255 255 
255 255 255 
255 98 98 
255 172 172 
255 133 191 
255 98 255 
206 206 255 
0 0 0 
255 255 255 
255 255 255 
0 0 0 
255 235 255 
255 255 255 
77 77 247 
77 77 247 
126 126 255 
255 255 255 
255 172 255 
206 206 255 
0 0 0 
255 76 76 
255 255 255 
255 255 255 
0 0 0 
255 155 255 
255 47 151 
77 77 247 
255 255 255 
0 0 0 
247 77 77 
0 0 0 
0 0 0 
126 126 255 
255 255 255 
255 255 255 
0 0 0 
255 255 255 
255 98 98 
255 206 206 
255 162 255 
0 0 0 
255 206 206 
0 0 0 
98 98 255 
0 0 0 
255 235 255 
0 0 0 
0 0 0 
123 22 99 
34 10 110 
0 0 0 
255 207 255 
0 0 0 
167 129 255 
72 22 72 
204 95 255 
72 22 72 
77 77 247 
92 28 255 
47 47 151 
0 0 0 
83 83 255 
60 60 255 
132 132 255 
94 67 255 
206 76 246 
47 47 151 
77 77 247 
0 0 0 
0 0 0 
118 36 118 
255 74 255 
47 47 151 
36 36 255 
77 77 247 
168 168 255 
126 126 255 
222 222 255 
0 0 0 
47 47 151 
88 88 255 
47 47 151 
97 97 255 
0 0 0 
0 0 0 
255 209 209 
255 78 95 
151 47 47 
255 36 255 
247 77 77 
255 107 107 
181 17 56 
255 97 97 
151 47 47 
151 47 47 
255 142 184 
0 0 0 
255 28 92 
255 102 102 
207 64 64 
249 77 77 
255 255 255 
255 84 137 
255 165 165 
187 58 93 
207 64 64 
0 0 0 
151 47 47 
255 166 255 
0 0 0 
255 88 88 
151 47 47 
255 107 124 
118 36 118 
255 91 111 
255 28 28 
255 128 255 
255 46 150 
0 0 0 
255 144 144 
255 126 126 
77 77 247 
255 255 255 
255 98 255 
0 0 0 
0 0 0 
0 0 0 
208 28 255 
255 255 255 
0 0 0 
0 0 0 
0 0 0 
247 77 77 
0 0 0 
255 255 255 
206 206 255 
0 0 0 
0 0 0 
255 95 204 
247 77 77 
255 255 255 
255 255 255 
255 162 162 
255 218 255 
255 255 255 
255 255 255 
0 0 0 
255 59 191 
0 0 0 
255 126 126 
255 255 255 
0 0 0 
255 255 255 
255 105 255 
255 126 126 
255 255 255 
0 0 0 
255 255 255 
255 255 255 
255 255 255 
255 255 255 
0 0 0 
255 144 255 
255 168 255 
255 255 255 
0 0 0 
0 0 0 
0 0 0 
0 0 0 
92 28 255 
255 255 255 
255 255 255 
255 255 255 
0 0 0 
0 0 0 
255 126 126 
0 0 0 
255 126 126 
255 255 255 
0 0 0 
255 137 225 
255 105 105 
0 0 0 
255 255 255 
0 0 0 
0 0 0 
0 0 0 
0 0 0 
0 0 0 
255 255 255 
0 0 0 
255 255 255 
255 255 255 
255 171 255 
255 255 255 
126 126 255 
0 0 0 
0 0 0 
255 255 255 
247 77 77 
0 0 0 
255 255 255 
255 235 235 
0 0 0 
0 0 0 
255 207 207 
0 0 0 
255 224 255 
255 255 255 
0 0 0 
255 255 255 
255 255 255 
0 0 0 
0 0 0 
0 0 0 
255 255 255 
255 255 255 
255 255 255 
255 126 126 
0 0 0 
255 235 255 
255 255 255 
255 255 255 
0 0 0 
0 0 0 
255 127 127 
255 154 255 
255 172 172 
0 0 0 
255 255 255 
255 255 255 
0 0 0 
0 0 0 
255 235 235 
0 0 0 
0 0 0 
0 0 0 
0 0 0 
0 0 0 
0 0 0 
255 255 255 
255 255 255 
0 0 0 
207 207 255 
255 255 255 
206 206 255 
0 0 0 
255 255 255 
0 0 0 
0 0 0 
255 214 241 
77 77 247 
0 0 0 
60 60 255 
255 255 255 
0 0 0 
0 0 0 
0 0 0 
0 0 0 
193 60 193 
98 98 255 
207 207 255 
0 0 0 
255 206 206 
255 155 255 
247 77 77 
0 0 0 
137 60 194 
255 255 255 
255 255 255 
255 255 255 
0 0 0 
126 126 255 
0 0 0 
239 74 255 
255 255 255 
255 255 255 
255 207 207 
137 60 194 
77 77 247 
255 255 255 
255 98 255 
77 77 247 
0 0 0 
255 126 126 
0 0 0 
98 98 255 
0 0 0 
255 255 255 
206 206 255 
255 127 127 
255 255 255 
255 252 255 
165 88 255 
224 99 255 
255 255 255 
0 0 0 
0 0 0 
0 0 0 
126 126 255 
0 0 0 
28 28 255 
135 42 135 
195 8 255 
56 17 181 
255 144 255 
148 126 255 
0 0 0 
136 136 255 
117 117 255 
231 217 255 
0 0 0 
0 0 0 
166 88 255 
137 60 194 
191 59 255 
0 0 0 
0 0 0 
125 125 255 
77 77 247 
255 189 255 
255 101 255 
0 0 0 
255 53 250 
255 111 255 
141 61 196 
174 54 174 
84 51 164 
143 93 255 
0 0 0 
88 88 255 
135 42 135 
97 97 255 
96 47 160 
148 106 255 
88 88 255 
74 74 255 
77 77 247 
36 36 255 
255 47 255 
151 47 47 
255 88 88 
209 47 80 
255 83 136 
255 144 144 
207 64 64 
151 47 47 
255 64 114 
151 47 47 
255 255 255 
151 47 47 
151 47 47 
255 128 128 
0 0 0 
255 97 97 
0 0 0 
118 36 118 
0 0 0 
255 13 44 
118 36 118 
151 47 47 
247 77 77 
229 49 71 
0 0 0 
255 163 197 
255 77 174 
255 105 105 
0 0 0 
247 77 77 
255 144 144 
255 83 83 
255 255 255 
255 255 255 
0 0 0 
0 0 0 
255 71 96 
0 0 0 
0 0 0 
0 0 0 
0 0 0 
126 126 255 
0 0 0 
0 0 0 
0 0 0 
255 255 255 
0 0 0 
0 0 0 
255 98 98 
206 206 255 
0 0 0 
0 0 0 
247 77 77 
193 60 193 
0 0 0 
0 0 0 
252 95 255 
255 206 211 
0 0 0 
0 0 0 
0 0 0 
0 0 0 
0 0 0 
0 0 0 
255 255 255 
247 77 77 
255 255 255 
247 77 77 
0 0 0 
0 0 0 
255 255 255 
206 206 255 
127 127 255 
0 0 0 
0 0 0 
255 255 255 
255 255 255 
0 0 0 
255 98 255 
255 77 255 
0 0 0 
0 0 0 
0 0 0 
255 255 255 
0 0 0 
255 255 255 
247 77 77 
255 255 255 
0 0 0 
0 0 0 
247 77 77 
247 77 77 
0 0 0 
255 29 29 
247 77 77 
0 0 0 
118 36 118 
0 0 0 
255 255 255 
0 0 0 
127 127 255 
0 0 0 
0 0 0 
0 0 0 
255 160 160 
255 255 255 
0 0 0 
0 0 0 
0 0 0 
255 77 174 
255 255 255 
0 0 0 
255 255 255 
255 206 206 
0 0 0 
255 133 255 
255 255 255 
255 216 216 
0 0 0 
126 126 255 
255 255 255 
255 255 255 
126 126 255 
0 0 0 
255 255 255 
0 0 0 
99 99 255 
255 255 255 
0 0 0 
126 126 255 
255 28 65 
0 0 0 
0 0 0 
0 0 0 
255 206 255 
0 0 0 
255 255 255 
255 255 255 
0 0 0 
206 206 255 
255 126 126 
255 255 255 
255 255 255 
167 129 255 
0 0 0 
0 0 0 
174 77 255 
0 0 0 
0 0 0 
0 0 0 
0 0 0 
0 0 0 
0 0 0 
255 206 206 
255 60 60 
127 127 255 
0 0 0 
77 77 247 
247 77 77 
255 255 255 
153 95 255 
194 60 137 
0 0 0 
0 0 0 
247 77 77 
0 0 0 
77 77 247 
224 99 255 
0 0 0 
0 0 0 
255 255 255 
77 77 247 
77 77 247 
247 77 77 
172 172 255 
0 0 0 
0 0 0 
174 174 255 
255 233 255 
255 121 255 
255 99 224 
0 0 0 
0 0 0 
255 255 255 
255 144 144 
0 0 0 
255 223 255 
0 0 0 
0 0 0 
247 77 77 
255 94 255 
77 77 247 
255 245 255 
0 0 0 
255 198 255 
77 77 247 
0 0 0 
0 0 0 
255 246 255 
0 0 0 
255 219 255 
0 0 0 
0 0 0 
0 0 0 
183 95 255 
232 22 163 
0 0 0 
77 77 247 
255 255 255 
255 236 255 
126 126 255 
0 0 0 
0 0 0 
0 0 0 
0 0 0 
224 99 255 
255 255 255 
0 0 0 
0 0 0 
0 0 0 
255 19 61 
255 28 92 
99 30 99 
113 35 255 
0 0 0 
126 126 255 
255 47 151 
255 255 255 
246 76 255 
216 216 255 
47 47 151 
0 0 0 
0 0 0 
47 47 151 
56 17 181 
0 0 0 
0 0 0 
255 147 255 
72 22 72 
0 0 0 
126 126 255 
0 0 0 
0 0 0 
126 126 255 
193 60 193 
65 39 255 
72 22 72 
64 64 207 
77 77 247 
47 47 151 
0 0 0 
36 36 255 
215 74 255 
82 77 255 
64 64 207 
108 88 255 
255 88 88 
207 64 64 
255 72 72 
255 114 229 
255 120 120 
255 127 255 
255 98 255 
0 0 0 
255 58 58 
255 58 99 
255 206 206 
255 98 110 
218 35 114 
255 58 58 
255 50 121 
255 95 95 
0 0 0 
255 93 93 
247 77 77 
151 47 47 
0 0 0 
255 39 81 
0 0 0 
176 54 107 
0 0 0 
0 0 0 
247 77 77 
247 77 77 
255 255 255 
247 77 77 
255 78 101 
247 77 77 
0 0 0 
247 77 77 
0 0 0 
255 255 255 
255 238 238 
255 95 95 
0 0 0 
255 98 255 
0 0 0 
255 255 255 
255 255 255 
255 255 255 
0 0 0 
255 255 255 
247 77 77 
0 0 0 
118 36 118 
0 0 0 
247 77 77 
0 0 0 
255 255 255 
207 207 255 
126 126 255 
0 0 0 
0 0 0 
0 0 0 
0 0 0 
0 0 0 
255 255 255 
0 0 0 
0 0 0 
0 0 0 
0 0 0 
255 105 105 
0 0 0 
247 77 77 
0 0 0 
255 144 255 
255 255 255 
0 0 0 
255 98 98 
255 255 255 
255 162 255 
255 60 60 
0 0 0 
206 206 255 
0 0 0 
0 0 0 
255 59 191 
255 255 255 
0 0 0 
0 0 0 
0 0 0 
255 255 255 
0 0 0 
255 47 47 
255 36 118 
0 0 0 
255 255 255 
77 77 247 
0 0 0 
193 60 193 
0 0 0 
161 161 161 
255 99 99 
0 0 0 
247 77 77 
255 126 126 
255 99 224 
255 255 255 
0 0 0 
0 0 0 
0 0 0 
255 255 255 
255 162 255 
206 206 255 
247 77 77 
255 255 255 
255 127 127 
255 255 255 
255 255 255 
0 0 0 
247 77 77 
0 0 0 
0 0 0 
255 255 255 
0 0 0 
0 0 0 
0 0 0 
0 0 0 
255 255 255 
255 255 255 
0 0 0 
0 0 0 
0 0 0 
0 0 0 
0 0 0 
255 156 255 
255 207 207 
255 206 206 
255 98 255 
0 0 0 
255 255 255 
0 0 0 
255 255 255 
0 0 0 
0 0 0 
255 255 255 
255 255 255 
0 0 0 
255 98 98 
255 131 168 
77 77 247 
255 126 126 
255 255 255 
255 255 255 
255 255 255 
78 78 255 
77 77 247 
255 255 255 
0 0 0 
255 255 255 
0 0 0 
255 207 207 
77 77 247 
155 155 255 
255 206 206 
255 255 255 
255 76 255 
126 126 255 
0 0 0 
0 0 0 
255 255 255 
255 197 255 
0 0 0 
255 255 255 
0 0 0 
118 36 118 
0 0 0 
207 207 255 
255 216 255 
255 255 255 
255 97 255 
98 98 255 
137 137 255 
237 74 255 
255 126 126 
255 98 255 
0 0 0 
0 0 0 
184 184 255 
255 255 255 
255 255 255 
0 0 0 
0 0 0 
255 105 255 
255 255 255 
255 126 126 
255 255 255 
255 255 255 
0 0 0 
255 36 255 
255 255 255 
255 217 217 
0 0 0 
122 122 255 
0 0 0 
255 255 255 
0 0 0 
255 255 255 
0 0 0 
255 255 255 
0 0 0 
0 0 0 
0 0 0 
255 255 255 
77 77 247 
0 0 0 
255 255 255 
0 0 0 
255 98 98 
194 164 255 
0 0 0 
0 0 0 
0 0 0 
0 0 0 
0 0 0 
0 0 0 
0 0 0 
77 77 247 
255 172 255 
0 0 0 
128 17 56 
127 17 255 
170 97 255 
255 66 255 
193 60 193 
241 79 255 
0 0 0 
58 58 255 
77 77 247 
0 0 0 
126 126 255 
181 17 56 
48 37 255 
47 47 151 
128 58 211 
98 65 255 
88 88 255 
47 47 151 
64 64 207 
64 64 207 
47 47 151 
111 90 255 
206 206 255 
86 86 255 
47 47 151 
97 97 255 
201 85 255 
116 97 255 
118 36 118 
64 64 207 
64 64 207 
77 77 249 
255 216 243 
255 144 144 
207 64 64 
255 88 88 
207 64 64 
230 65 71 
207 64 64 
255 36 36 
255 126 126 
255 88 88 
151 47 47 
255 154 178 
255 90 181 
255 108 128 
255 88 88 
255 126 126 
255 36 36 
255 169 255 
207 64 64 
255 58 58 
255 74 74 
0 0 0 
0 0 0 
0 0 0 
255 40 183 
186 58 125 
255 161 255 
119 37 83 
0 0 0 
255 103 146 
255 39 65 
255 42 79 
0 0 0 
193 60 193 
255 255 255 
0 0 0 
0 0 0 
255 60 60 
0 0 0 
0 0 0 
0 0 0 
0 0 0 
255 255 255 
255 255 255 
0 0 0 
0 0 0 
0 0 0 
0 0 0 
0 0 0 
255 255 255 
255 255 255 
255 255 255 
0 0 0 
127 127 255 
207 207 255 
255 126 126 
0 0 0 
0 0 0 
255 255 255 
255 99 99 
247 77 77 
0 0 0 
247 77 77 
255 255 255 
255 126 126 
255 255 255 
0 0 0 
0 0 0 
255 95 95 
255 59 191 
255 126 126 
255 230 230 
255 63 255 
0 0 0 
150 46 255 
255 255 255 
255 99 224 
255 255 255 
0 0 0 
255 155 255 
255 255 255 
161 161 161 
255 255 255 
255 255 255 
255 28 92 
247 77 77 
0 0 0 
0 0 0 
0 0 0 
0 0 0 
0 0 0 
0 0 0 
0 0 0 
255 255 255 
126 126 255 
255 98 255 
0 0 0 
143 35 255 
0 0 0 
0 0 0 
255 60 60 
206 206 255 
0 0 0 
98 98 255 
255 126 126 
255 206 206 
246 76 255 
255 255 255 
0 0 0 
0 0 0 
255 255 255 
255 255 255 
0 0 0 
255 255 255 
255 136 255 
217 217 255 
255 255 255 
255 255 255 
65 28 255 
0 0 0 
161 161 161 
0 0 0 
0 0 0 
174 77 255 
255 126 126 
0 0 0 
0 0 0 
255 28 92 
0 0 0 
127 127 255 
255 237 255 
0 0 0 
77 77 247 
0 0 0 
0 0 0 
255 255 255 
206 206 255 
118 36 118 
161 161 161 
255 255 255 
175 175 255 
255 206 206 
247 77 77 
255 47 241 
255 255 255 
255 145 255 
255 255 255 
0 0 0 
0 0 0 
255 6 216 
255 82 146 
255 22 231 
255 255 255 
0 0 0 
255 145 255 
0 0 0 
255 255 255 
0 0 0 
255 95 255 
255 255 255 
255 174 255 
0 0 0 
255 255 255 
137 60 194 
0 0 0 
77 77 247 
173 173 255 
77 77 247 
255 126 126 
255 255 255 
255 255 255 
193 60 193 
0 0 0 
0 0 0 
0 0 0 
207 207 255 
255 255 255 
0 0 0 
60 60 255 
255 255 255 
0 0 0 
0 0 0 
255 255 255 
255 82 255 
0 0 0 
0 0 0 
247 77 77 
0 0 0 
244 170 244 
255 126 255 
255 235 235 
0 0 0 
0 0 0 
161 161 161 
0 0 0 
0 0 0 
255 82 255 
255 237 237 
0 0 0 
0 0 0 
255 98 255 
0 0 0 
0 0 0 
255 255 255 
0 0 0 
60 60 255 
206 206 255 
0 0 0 
0 0 0 
0 0 0 
0 0 0 
0 0 0 
255 160 160 
255 224 255 
0 0 0 
160 160 255 
0 0 0 
56 17 181 
0 0 0 
0 0 0 
0 0 0 
255 255 255 
47 47 151 
118 36 118 
92 37 255 
255 255 255 
0 0 0 
99 30 99 
197 74 238 
118 36 118 
185 49 159 
0 0 0 
0 0 0 
74 74 255 
0 0 0 
174 77 255 
170 170 255 
77 77 247 
47 47 151 
164 85 255 
146 127 255 
47 47 151 
255 53 255 
255 255 255 
113 64 255 
0 0 0 
58 58 255 
110 110 255 
77 77 247 
64 64 207 
255 165 255 
255 255 255 
118 99 255 
0 0 0 
64 64 207 
84 51 164 
0 0 0 
255 74 74 
249 77 77 
207 64 64 
160 47 96 
164 51 84 
255 83 83 
255 255 255 
151 47 47 
255 85 255 
151 47 47 
255 86 148 
255 97 97 
164 51 84 
255 172 201 
255 170 255 
0 0 0 
151 47 47 
72 22 72 
72 22 72 
255 88 88 
255 36 36 
118 36 118 
0 0 0 
0 0 0 
255 88 88 
255 47 255 
151 47 47 
164 51 84 
0 0 0 
255 100 118 
255 136 172 
255 76 76 
255 36 36 
0 0 0 
0 0 0 
0 0 0 
0 0 0 
0 0 0 
0 0 0 
255 97 97 
255 126 126 
0 0 0 
255 255 255 
255 94 94 
0 0 0 
77 77 247 
255 255 255 
0 0 0 
255 255 255 
247 77 77 
255 255 255 
255 255 255 
255 255 255 
0 0 0 
0 0 0 
255 255 255 
0 0 0 
0 0 0 
0 0 0 
255 162 162 
255 126 126 
0 0 0 
0 0 0 
0 0 0 
255 126 126 
0 0 0 
118 36 118 
0 0 0 
255 98 98 
255 255 255 
0 0 0 
77 77 247 
0 0 0 
247 77 77 
0 0 0 
0 0 0 
161 161 161 
255 155 255 
0 0 0 
255 255 255 
255 255 255 
0 0 0 
0 0 0 
255 226 255 
255 206 255 
255 255 255 
0 0 0 
193 60 193 
255 255 255 
0 0 0 
161 161 161 
0 0 0 
0 0 0 
255 255 255 
255 255 255 
0 0 0 
255 255 255 
255 255 255 
247 77 77 
0 0 0 
77 77 247 
77 77 247 
255 255 255 
255 227 255 
255 255 255 
255 206 206 
255 105 254 
255 255 255 
255 255 255 
255 207 207 
247 77 77 
255 255 255 
255 255 255 
255 255 255 
255 255 255 
255 255 255 
0 0 0 
0 0 0 
255 126 126 
255 126 126 
255 126 126 
255 255 255 
0 0 0 
0 0 0 
0 0 0 
255 199 199 
255 159 255 
0 0 0 
0 0 0 
255 255 255 
255 255 255 
255 255 255 
0 0 0 
0 0 0 
0 0 0 
255 162 255 
255 255 255 
77 77 247 
255 255 255 
255 255 255 
255 206 206 
255 255 255 
0 0 0 
247 77 77 
255 255 255 
0 0 0 
0 0 0 
255 255 255 
255 255 255 
0 0 0 
255 255 255 
0 0 0 
255 246 255 
0 0 0 
247 77 77 
0 0 0 
255 255 255 
161 161 161 
255 235 255 
255 255 255 
255 255 255 
0 0 0 
161 161 161 
255 255 255 
161 161 161 
255 255 255 
255 255 255 
0 0 0 
199 199 255 
77 77 247 
255 255 255 
161 161 161 
0 0 0 
255 127 255 
0 0 0 
255 255 255 
77 77 247 
161 161 161 
255 255 255 
255 255 255 
255 255 255 
0 0 0 
255 255 255 
126 126 255 
255 247 255 
126 126 255 
255 255 255 
255 237 255 
255 255 255 
0 0 0 
126 126 255 
255 224 255 
255 255 255 
255 235 255 
127 127 255 
244 244 255 
255 77 248 
247 77 77 
0 0 0 
0 0 0 
126 126 255 
181 163 255 
255 255 255 
255 126 126 
0 0 0 
0 0 0 
0 0 0 
255 255 255 
77 77 247 
255 199 199 
0 0 0 
0 0 0 
255 255 255 
255 119 255 
0 0 0 
255 255 255 
95 95 255 
0 0 0 
0 0 0 
0 0 0 
0 0 0 
89 27 191 
71 22 255 
126 126 255 
255 255 255 
96 47 160 
0 0 0 
56 17 181 
0 0 0 
0 0 0 
88 88 255 
0 0 0 
189 37 255 
132 132 255 
209 209 255 
47 47 151 
58 58 255 
0 0 0 
0 0 0 
58 58 255 
230 115 255 
0 0 0 
174 77 255 
47 47 151 
94 67 216 
71 49 229 
47 47 151 
36 36 255 
88 88 255 
187 88 255 
118 36 118 
255 77 250 
137 83 255 
255 51 164 
172 136 255 
255 72 72 
173 54 213 
151 47 47 
207 64 64 
255 178 250 
255 88 88 
216 67 94 
255 206 206 
255 99 118 
255 88 200 
255 185 185 
164 51 84 
0 0 0 
255 51 233 
249 77 77 
255 209 209 
255 77 168 
255 58 93 
255 155 255 
255 82 209 
21 6 255 
248 77 255 
255 22 22 
255 174 255 
255 51 51 
247 77 77 
0 0 0 
255 122 122 
255 255 255 
255 45 255 
255 132 190 
0 0 0 
255 162 162 
72 22 72 
0 0 0 
0 0 0 
0 0 0 
118 36 118 
0 0 0 
161 161 161 
255 98 255 
255 17 181 
0 0 0 
0 0 0 
161 161 161 
255 126 126 
255 255 255 
255 46 150 
193 60 193 
255 255 255 
255 179 255 
0 0 0 
255 255 255 
255 255 255 
0 0 0 
0 0 0 
0 0 0 
0 0 0 
0 0 0 
255 99 224 
255 255 255 
0 0 0 
255 99 99 
255 255 255 
0 0 0 
255 255 255 
255 255 255 
255 255 255 
161 161 161 
0 0 0 
255 208 255 
161 161 161 
255 46 150 
255 212 255 
0 0 0 
255 255 255 
255 126 126 
77 77 247 
255 126 255 
255 223 255 
0 0 0 
255 126 126 
255 207 207 
0 0 0 
255 216 216 
255 163 255 
161 161 161 
255 255 255 
77 77 247 
255 126 126 
255 246 255 
0 0 0 
0 0 0 
0 0 0 
255 255 255 
0 0 0 
255 126 255 
255 255 255 
255 126 126 
255 255 255 
161 161 161 
193 60 193 
247 77 77 
193 60 193 
0 0 0 
0 0 0 
255 255 255 
0 0 0 
255 137 255 
77 77 247 
0 0 0 
161 161 161 
161 161 161 
255 236 255 
0 0 0 
77 77 247 
207 207 255 
161 161 161 
255 106 255 
0 0 0 
255 36 255 
224 99 255 
255 255 255 
0 0 0 
255 47 151 
255 255 255 
0 0 0 
0 0 0 
193 60 193 
255 255 255 
255 207 207 
255 126 126 
255 255 255 
0 0 0 
255 255 255 
77 77 247 
0 0 0 
0 0 0 
255 255 255 
0 0 0 
255 255 255 
161 161 161 
255 255 255 
255 222 255 
255 255 255 
0 0 0 
255 255 255 
161 161 161 
77 77 247 
0 0 0 
255 126 126 
247 77 77 
0 0 0 
0 0 0 
255 255 255 
0 0 0 
0 0 0 
255 255 255 
255 255 255 
95 95 255 
255 235 255 
255 222 255 
255 208 208 
255 255 255 
255 255 255 
255 255 255 
255 255 255 
255 100 255 
255 255 255 
255 255 255 
0 0 0 
255 255 255 
0 0 0 
255 255 255 
0 0 0 
255 255 255 
0 0 0 
255 199 199 
255 74 255 
247 77 77 
0 0 0 
248 77 255 
255 255 255 
255 255 255 
0 0 0 
255 255 255 
243 169 255 
255 207 207 
255 255 255 
77 77 247 
255 255 255 
0 0 0 
98 98 255 
0 0 0 
77 77 247 
0 0 0 
77 77 247 
77 77 247 
0 0 0 
60 60 255 
0 0 0 
255 255 255 
255 255 255 
255 255 255 
161 161 161 
161 161 161 
255 255 255 
0 0 0 
0 0 0 
255 83 255 
0 0 0 
0 0 0 
0 0 0 
255 255 255 
0 0 0 
206 206 255 
0 0 0 
47 47 151 
255 73 255 
65 28 255 
64 64 207 
0 0 0 
0 0 0 
0 0 0 
126 126 255 
0 0 0 
77 77 247 
144 144 255 
98 98 255 
0 0 0 
255 222 255 
105 98 255 
179 89 255 
88 88 255 
58 58 255 
0 0 0 
102 79 255 
47 47 151 
60 60 255 
58 58 255 
36 36 255 
89 74 255 
47 47 151 
128 67 255 
0 0 0 
47 47 151 
255 144 255 
210 81 255 
255 255 255 
255 255 255 
74 74 255 
0 0 0 
88 88 255 
118 36 118 
0 0 0 
83 66 238 
255 88 88 
249 77 77 
151 47 47 
164 51 84 
151 47 47 
255 88 88 
255 140 255 
255 123 238 
255 155 155 
181 17 56 
207 64 64 
255 223 223 
151 47 47 
255 88 88 
207 64 64 
255 154 154 
151 47 47 
229 49 71 
255 37 37 
255 174 255 
255 36 36 
255 132 132 
151 47 47 
255 244 244 
255 28 65 
247 77 77 
255 160 160 
0 0 0 
0 0 0 
255 255 255 
255 17 17 
255 63 96 
151 47 47 
0 0 0 
255 99 224 
0 0 0 
0 0 0 
255 125 125 
239 74 142 
0 0 0 
255 206 206 
0 0 0 
0 0 0 
255 255 255 
0 0 0 
234 22 116 
0 0 0 
0 0 0 
255 255 255 
255 255 255 
0 0 0 
255 255 255 
255 255 255 
255 216 216 
255 255 255 
0 0 0 
0 0 0 
0 0 0 
0 0 0 
255 255 255 
255 255 255 
0 0 0 
255 255 255 
255 255 255 
0 0 0 
255 255 255 
255 255 255 
255 255 255 
255 255 255 
0 0 0 
255 98 98 
255 255 255 
0 0 0 
255 172 255 
255 255 255 
0 0 0 
255 137 137 
60 60 255 
255 255 255 
255 127 255 
0 0 0 
255 255 255 
0 0 0 
247 77 77 
233 122 255 
255 206 206 
118 36 118 
0 0 0 
255 255 255 
255 255 255 
255 255 255 
0 0 0 
255 206 206 
0 0 0 
255 233 255 
0 0 0 
0 0 0 
255 206 206 
0 0 0 
255 255 255 
162 22 255 
0 0 0 
194 60 137 
255 204 255 
255 127 255 
255 255 255 
255 249 249 
255 255 255 
255 255 255 
193 60 193 
255 255 255 
161 161 161 
255 255 255 
161 161 161 
0 0 0 
255 255 255 
0 0 0 
255 255 255 
0 0 0 
0 0 0 
255 255 255 
0 0 0 
247 77 77 
255 255 255 
0 0 0 
255 28 255 
255 255 255 
255 255 255 
161 161 161 
255 255 255 
255 255 255 
0 0 0 
255 255 255 
255 255 255 
0 0 0 
0 0 0 
255 254 254 
255 255 255 
0 0 0 
255 255 255 
255 255 255 
255 255 255 
0 0 0 
0 0 0 
206 206 255 
0 0 0 
255 255 255 
255 98 255 
126 126 255 
126 126 255 
175 175 255 
0 0 0 
0 0 0 
141 13 141 
255 98 255 
0 0 0 
255 255 255 
255 255 255 
0 0 0 
255 127 127 
225 137 255 
247 77 77 
0 0 0 
0 0 0 
77 77 247 
247 77 77 
193 60 193 
0 0 0 
0 0 0 
247 77 77 
0 0 0 
247 77 77 
198 198 255 
126 126 255 
255 207 221 
0 0 0 
144 144 255 
255 255 255 
206 206 255 
0 0 0 
255 255 255 
0 0 0 
0 0 0 
0 0 0 
77 77 247 
0 0 0 
0 0 0 
0 0 0 
0 0 0 
0 0 0 
118 36 118 
0 0 0 
0 0 0 
0 0 0 
181 17 255 
255 122 255 
0 0 0 
77 77 247 
127 127 255 
216 216 255 
255 99 255 
60 60 255 
255 255 255 
126 126 255 
0 0 0 
0 0 0 
0 0 0 
255 255 255 
255 199 255 
0 0 0 
255 255 255 
0 0 0 
227 209 255 
0 0 0 
0 0 0 
0 0 0 
0 0 0 
126 126 255 
161 50 255 
68 68 255 
84 51 164 
118 36 118 
151 47 255 
77 77 247 
138 128 255 
225 62 255 
36 36 255 
88 88 255 
0 0 0 
0 0 0 
255 224 255 
255 155 255 
47 47 151 
0 0 0 
255 53 172 
60 60 255 
47 47 151 
255 48 255 
87 51 255 
230 115 255 
77 77 249 
138 138 255 
255 63 255 
110 90 255 
77 77 247 
64 64 207 
255 139 255 
154 154 255 
156 61 255 
255 166 255 
47 47 151 
125 58 186 
47 47 151 
77 50 249 
97 97 255 
64 64 207 
207 64 64 
255 255 255 
164 51 84 
255 106 234 
255 106 106 
255 36 255 
255 79 79 
151 47 47 
255 17 127 
255 132 169 
0 0 0 
151 47 47 
255 61 90 
255 88 165 
255 72 72 
0 0 0 
92 28 209 
255 60 60 
0 0 0 
193 60 193 
172 53 255 
72 22 72 
255 77 100 
247 77 77 
151 47 47 
0 0 0 
165 22 165 
255 88 88 
255 28 28 
255 149 149 
0 0 0 
247 77 77 
151 47 47 
72 22 72 
255 121 121 
255 36 36 
255 37 37 
181 17 56 
0 0 0 
161 161 161 
255 126 126 
0 0 0 
247 77 77 
193 60 255 
0 0 0 
255 234 255 
255 126 126 
255 199 199 
0 0 0 
255 255 255 
0 0 0 
0 0 0 
0 0 0 
255 255 255 
0 0 0 
255 255 255 
255 126 126 
0 0 0 
231 208 255 
255 255 255 
0 0 0 
255 184 255 
0 0 0 
255 255 255 
255 255 255 
255 255 255 
255 159 159 
150 46 255 
255 255 255 
255 145 145 
255 255 255 
255 155 251 
255 126 126 
255 126 126 
0 0 0 
255 255 255 
0 0 0 
255 255 255 
0 0 0 
255 188 188 
255 126 126 
0 0 0 
255 255 255 
255 255 255 
0 0 0 
0 0 0 
255 255 255 
255 126 126 
255 255 255 
255 184 255 
0 0 0 
161 161 161 
255 227 227 
255 172 255 
0 0 0 
161 161 161 
0 0 0 
0 0 0 
255 255 255 
0 0 0 
247 77 77 
255 255 255 
255 255 255 
0 0 0 
255 199 199 
255 255 255 
0 0 0 
0 0 0 
207 207 255 
255 255 255 
255 255 255 
255 209 255 
255 255 255 
0 0 0 
0 0 0 
206 206 255 
0 0 0 
255 255 255 
255 210 210 
255 255 255 
255 143 143 
255 60 60 
0 0 0 
255 255 255 
254 254 255 
0 0 0 
0 0 0 
255 255 255 
255 255 255 
255 206 206 
0 0 0 
0 0 0 
255 105 255 
0 0 0 
247 77 77 
0 0 0 
0 0 0 
0 0 0 
0 0 0 
255 36 255 
0 0 0 
255 255 255 
255 255 255 
255 255 255 
255 206 255 
126 126 255 
126 126 255 
255 76 246 
0 0 0 
206 206 255 
126 126 255 
255 107 243 
0 0 0 
126 126 255 
255 255 255 
255 255 255 
0 0 0 
0 0 0 
255 255 255 
0 0 0 
255 255 255 
255 126 126 
255 206 206 
0 0 0 
255 105 105 
255 255 255 
126 126 255 
255 255 255 
255 126 126 
0 0 0 
0 0 0 
255 253 255 
255 255 255 
255 237 255 
255 255 255 
161 161 161 
207 207 255 
255 255 255 
255 255 255 
60 60 255 
0 0 0 
77 77 247 
206 95 255 
175 175 255 
0 0 0 
0 0 0 
255 255 255 
161 161 161 
0 0 0 
255 255 255 
0 0 0 
0 0 0 
255 236 255 
0 0 0 
255 145 255 
255 255 255 
255 255 255 
0 0 0 
255 255 255 
255 162 255 
255 28 92 
0 0 0 
255 255 255 
255 60 60 
255 255 255 
0 0 0 
189 37 255 
77 77 247 
175 175 255 
0 0 0 
150 46 255 
234 153 255 
0 0 0 
0 0 0 
161 161 161 
0 0 0 
255 255 255 
0 0 0 
0 0 0 
0 0 0 
0 0 0 
60 60 255 
0 0 0 
47 47 151 
135 42 135 
0 0 0 
92 78 255 
126 126 255 
126 126 255 
255 149 255 
255 122 255 
47 47 151 
67 51 255 
109 73 255 
197 74 238 
47 47 151 
84 51 164 
106 106 255 
47 47 151 
95 95 255 
84 51 164 
227 211 255 
201 85 255 
244 135 255 
77 77 247 
47 47 151 
64 64 207 
56 17 255 
47 47 151 
84 51 164 
64 64 207 
47 47 151 
77 77 249 
77 77 247 
98 53 237 
129 68 255 
255 93 255 
151 47 47 
197 51 185 
255 58 58 
0 0 0 
151 47 47 
255 120 120 
255 132 132 
255 60 60 
255 97 97 
247 77 77 
255 64 64 
255 86 148 
0 0 0 
255 106 106 
255 143 179 
255 94 255 
157 37 121 
255 97 97 
255 48 118 
255 58 255 
255 49 49 
255 64 255 
255 128 151 
0 0 0 
72 22 72 
151 47 47 
255 147 147 
255 121 149 
255 85 200 
255 209 209 
207 64 64 
255 97 116 
255 60 60 
0 0 0 
0 0 0 
151 47 47 
255 101 255 
255 165 255 
255 172 255 
0 0 0 
0 0 0 
255 255 255 
255 98 98 
118 36 118 
193 60 193 
255 28 92 
255 255 255 
255 255 255 
0 0 0 
255 98 98 
0 0 0 
0 0 0 
0 0 0 
150 46 255 
255 255 255 
0 0 0 
255 213 255 
255 206 206 
0 0 0 
0 0 0 
255 255 255 
207 207 255 
247 77 77 
161 161 161 
0 0 0 
194 164 194 
0 0 0 
255 255 255 
255 255 255 
255 255 255 
0 0 0 
255 236 255 
77 77 247 
255 255 255 
255 255 255 
0 0 0 
255 255 255 
255 126 126 
0 0 0 
0 0 0 
255 255 255 
255 255 255 
161 161 161 
0 0 0 
0 0 0 
255 255 255 
161 161 161 
0 0 0 
255 255 255 
255 255 255 
0 0 0 
0 0 0 
247 77 77 
0 0 0 
161 161 161 
255 255 255 
126 126 255 
255 255 255 
0 0 0 
255 255 255 
0 0 0 
0 0 0 
255 97 255 
0 0 0 
255 255 255 
161 161 161 
255 28 64 
0 0 0 
0 0 0 
199 199 255 
0 0 0 
0 0 0 
0 0 0 
255 255 255 
0 0 0 
206 206 255 
0 0 0 
0 0 0 
255 255 255 
161 161 161 
221 221 221 
77 77 247 
255 255 255 
255 255 255 
255 255 255 
247 77 77 
255 255 255 
255 134 255 
0 0 0 
255 156 255 
255 255 255 
0 0 0 
255 175 175 
255 255 255 
0 0 0 
255 255 255 
255 255 255 
255 255 255 
0 0 0 
0 0 0 
161 161 161 
255 255 255 
255 255 255 
255 255 255 
255 212 255 
0 0 0 
0 0 0 
255 255 255 
255 255 255 
255 155 255 
0 0 0 
255 255 255 
0 0 0 
0 0 0 
255 255 255 
255 255 255 
255 125 255 
255 126 126 
0 0 0 
255 60 60 
126 126 255 
92 28 209 
0 0 0 
77 77 247 
255 97 255 
255 235 255 
249 249 255 
255 255 255 
161 161 161 
0 0 0 
0 0 0 
161 161 161 
126 126 255 
0 0 0 
126 126 255 
255 126 126 
222 222 255 
0 0 0 
255 127 201 
126 126 255 
255 255 255 
0 0 0 
255 160 255 
138 128 255 
77 77 247 
255 255 255 
77 77 247 
0 0 0 
147 130 255 
0 0 0 
0 0 0 
255 255 255 
255 255 255 
247 77 77 
77 77 247 
0 0 0 
161 161 161 
0 0 0 
0 0 0 
255 132 255 
255 160 255 
255 255 255 
255 160 255 
255 255 255 
255 255 255 
255 255 255 
255 255 255 
0 0 0 
77 77 247 
0 0 0 
137 60 194 
206 206 255 
255 126 126 
255 206 255 
255 255 255 
246 76 255 
0 0 0 
138 138 255 
118 36 255 
72 22 72 
235 235 255 
209 28 92 
60 60 255 
64 64 207 
47 47 151 
117 36 255 
77 77 247 
126 126 255 
83 83 255 
255 255 255 
77 77 249 
149 149 255 
155 95 255 
105 105 255 
0 0 0 
36 36 255 
97 97 255 
47 47 151 
47 47 151 
77 77 247 
255 114 255 
47 47 151 
153 6 255 
95 95 255 
47 47 151 
77 77 247 
83 51 255 
78 54 253 
64 64 207 
47 47 151 
118 36 118 
22 22 255 
255 138 255 
192 191 255 
171 171 255 
118 36 118 
216 67 94 
255 53 101 
249 77 77 
207 64 64 
255 224 255 
247 77 77 
151 47 47 
255 132 132 
255 91 124 
255 187 192 
255 132 132 
247 77 77 
0 0 0 
151 47 47 
255 76 100 
0 0 0 
255 105 105 
151 47 47 
151 47 47 
164 51 84 
255 255 255 
253 54 78 
255 74 74 
255 74 74 
151 47 47 
255 84 163 
255 126 126 
0 0 0 
0 0 0 
255 83 137 
255 39 89 
255 126 126 
255 126 126 
0 0 0 
255 223 255 
0 0 0 
0 0 0 
0 0 0 
161 161 161 
255 255 255 
247 77 77 
0 0 0 
255 155 255 
0 0 0 
0 0 0 
255 237 237 
0 0 0 
0 0 0 
255 126 126 
0 0 0 
255 136 224 
127 17 255 
255 175 175 
0 0 0 
0 0 0 
247 77 77 
0 0 0 
255 255 255 
161 161 161 
127 127 255 
255 172 255 
255 199 199 
255 255 255 
207 207 255 
0 0 0 
0 0 0 
255 22 71 
0 0 0 
255 255 255 
0 0 0 
255 77 248 
205 170 245 
255 126 126 
255 99 224 
247 77 77 
0 0 0 
255 255 255 
0 0 0 
255 255 255 
255 46 149 
255 46 150 
247 77 77 
247 77 77 
255 255 255 
161 161 161 
255 255 255 
255 255 255 
0 0 0 
255 218 218 
255 255 255 
255 255 255 
255 255 255 
255 88 255 
255 255 255 
247 77 77 
161 161 161 
255 255 255 
255 255 255 
0 0 0 
255 255 255 
0 0 0 
255 164 194 
255 219 219 
118 36 118 
255 255 255 
255 255 255 
255 255 255 
255 77 174 
255 126 126 
161 161 161 
255 255 255 
255 255 255 
255 255 255 
255 255 255 
0 0 0 
255 255 255 
255 127 127 
255 255 255 
161 161 161 
0 0 0 
247 77 77 
255 255 255 
255 255 255 
255 255 255 
0 0 0 
255 255 255 
255 255 255 
0 0 0 
255 255 255 
255 178 205 
255 255 255 
0 0 0 
255 255 255 
255 255 255 
255 59 255 
255 126 126 
255 255 255 
126 126 255 
0 0 0 
255 126 126 
0 0 0 
221 221 221 
161 161 161 
161 161 161 
249 249 255 
255 162 253 
255 210 255 
255 255 255 
255 255 255 
161 161 161 
0 0 0 
0 0 0 
255 255 255 
0 0 0 
0 0 0 
161 161 161 
199 199 255 
194 60 137 
151 47 255 
0 0 0 
247 77 77 
206 206 255 
77 77 247 
255 255 255 
255 255 255 
188 166 255 
161 161 161 
0 0 0 
255 255 255 
0 0 0 
161 161 161 
0 0 0 
175 175 255 
0 0 0 
0 0 0 
0 0 0 
0 0 0 
255 255 255 
118 36 118 
77 77 247 
0 0 0 
175 175 255 
0 0 0 
255 255 255 
255 191 255 
255 217 255 
118 36 118 
255 99 99 
0 0 0 
175 175 255 
0 0 0 
0 0 0 
255 77 248 
255 255 255 
0 0 0 
0 0 0 
255 160 255 
0 0 0 
255 255 255 
175 175 255 
0 0 0 
255 255 255 
255 105 255 
255 255 255 
255 166 188 
255 126 126 
0 0 0 
255 255 255 
0 0 0 
98 98 255 
255 162 207 
0 0 0 
0 0 0 
77 77 247 
77 77 247 
255 204 255 
0 0 0 
118 36 118 
0 0 0 
88 88 255 
0 0 0 
0 0 0 
170 170 255 
0 0 0 
0 0 0 
165 88 255 
145 38 255 
77 77 247 
209 209 255 
89 27 191 
0 0 0 
88 88 255 
0 0 0 
77 77 247 
250 155 255 
58 58 255 
71 57 255 
107 42 135 
88 88 255 
125 58 186 
106 106 255 
136 136 255 
47 47 151 
58 58 255 
84 84 255 
72 72 255 
124 102 255 
64 64 207 
0 0 0 
0 0 0 
148 86 255 
56 17 181 
131 72 233 
137 84 255 
47 47 151 
255 84 84 
255 88 88 
255 95 95 
151 47 47 
249 77 77 
255 84 84 
255 121 121 
255 51 84 
255 225 255 
255 81 98 
255 76 255 
255 88 88 
0 0 0 
209 28 92 
196 61 141 
207 64 64 
255 110 110 
255 114 255 
0 0 0 
0 0 0 
255 206 206 
151 47 47 
255 47 153 
0 0 0 
151 47 47 
0 0 0 
255 132 132 
72 22 72 
255 60 60 
255 78 93 
247 77 77 
0 0 0 
255 105 255 
255 60 60 
255 255 255 
255 98 98 
255 126 126 
255 63 106 
0 0 0 
0 0 0 
255 255 255 
247 77 77 
0 0 0 
194 60 137 
255 206 206 
247 77 77 
0 0 0 
255 255 255 
0 0 0 
255 206 206 
0 0 0 
0 0 0 
255 199 255 
255 255 255 
0 0 0 
255 255 255 
0 0 0 
161 161 161 
255 199 199 
255 255 255 
0 0 0 
255 255 255 
0 0 0 
0 0 0 
221 221 221 
0 0 0 
255 98 98 
255 255 255 
0 0 0 
0 0 0 
255 216 216 
0 0 0 
161 161 161 
255 175 175 
255 255 255 
0 0 0 
255 255 255 
255 255 255 
0 0 0 
0 0 0 
255 255 255 
255 22 72 
255 144 144 
255 255 255 
161 161 161 
255 255 255 
255 206 206 
255 255 255 
0 0 0 
0 0 0 
255 255 255 
0 0 0 
255 60 60 
255 255 255 
0 0 0 
144 144 255 
255 129 152 
255 255 255 
249 249 255 
221 221 221 
0 0 0 
161 161 161 
255 255 255 
161 161 161 
0 0 0 
255 255 255 
255 255 255 
255 255 255 
255 144 144 
255 255 255 
255 226 255 
221 221 221 
255 255 255 
0 0 0 
99 99 255 
255 255 255 
255 255 255 
255 220 255 
247 77 77 
0 0 0 
255 255 255 
255 216 216 
255 255 255 
255 255 255 
150 46 255 
0 0 0 
0 0 0 
77 77 247 
189 37 255 
255 255 255 
161 161 161 
0 0 0 
0 0 0 
255 255 255 
255 255 255 
161 161 161 
0 0 0 
255 211 228 
255 199 255 
175 175 255 
0 0 0 
161 161 161 
0 0 0 
255 255 255 
255 255 255 
255 255 255 
255 255 255 
255 98 255 
255 255 255 
0 0 0 
161 161 161 
255 255 255 
255 255 255 
0 0 0 
255 255 255 
255 74 160 
255 255 255 
255 255 255 
161 161 161 
255 60 60 
255 210 255 
161 161 161 
255 255 255 
161 161 161 
255 98 255 
0 0 0 
255 255 255 
155 155 255 
175 175 255 
255 255 255 
255 76 76 
255 57 185 
255 144 255 
0 0 0 
231 208 255 
255 255 255 
126 126 255 
255 172 172 
255 255 255 
0 0 0 
77 77 247 
255 204 255 
255 255 255 
126 126 255 
255 206 206 
255 175 255 
255 126 255 
247 77 77 
0 0 0 
0 0 0 
0 0 0 
137 60 194 
0 0 0 
209 209 255 
255 255 255 
0 0 0 
0 0 0 
60 60 255 
0 0 0 
0 0 0 
255 255 255 
255 175 175 
255 255 255 
60 60 255 
63 1 63 
0 0 0 
0 0 0 
224 224 255 
77 77 247 
0 0 0 
255 60 60 
0 0 0 
161 161 161 
161 161 161 
0 0 0 
225 137 255 
194 164 194 
125 58 186 
0 0 0 
84 51 164 
36 36 255 
36 36 255 
61 8 87 
215 206 255 
0 0 0 
47 47 151 
197 74 238 
0 0 0 
190 68 255 
255 121 255 
77 77 247 
76 35 255 
255 169 255 
76 76 255 
255 255 255 
224 99 255 
65 28 255 
94 67 216 
255 151 255 
223 91 255 
132 132 255 
60 60 255 
64 64 207 
0 0 0 
77 77 247 
113 113 255 
77 77 249 
64 64 207 
130 100 255 
152 136 255 
255 255 255 
84 51 164 
47 47 151 
64 64 207 
72 72 255 
255 162 255 
249 77 77 
255 108 255 
151 47 47 
255 255 255 
255 88 255 
255 65 139 
216 67 94 
207 64 64 
255 114 255 
207 64 64 
255 128 236 
255 255 255 
255 100 255 
118 36 118 
255 64 64 
207 64 64 
151 47 47 
151 47 47 
0 0 0 
207 64 64 
255 36 36 
255 88 88 
255 255 255 
255 109 125 
151 47 47 
151 47 47 
186 58 125 
0 0 0 
255 165 165 
0 0 0 
247 77 77 
72 22 72 
92 28 255 
151 47 47 
255 79 90 
255 160 160 
0 0 0 
0 0 0 
72 22 72 
255 166 255 
0 0 0 
0 0 0 
255 255 255 
255 126 126 
246 76 255 
255 184 255 
118 36 118 
206 206 255 
56 17 255 
0 0 0 
77 77 247 
255 206 206 
161 161 161 
255 255 255 
255 126 128 
207 207 255 
255 60 60 
0 0 0 
0 0 0 
255 170 170 
0 0 0 
161 161 161 
0 0 0 
255 255 255 
0 0 0 
255 255 255 
255 83 137 
247 77 77 
0 0 0 
0 0 0 
0 0 0 
255 255 255 
255 255 255 
255 255 255 
161 161 161 
0 0 0 
0 0 0 
161 161 161 
0 0 0 
255 255 255 
0 0 0 
231 231 255 
127 127 255 
255 255 255 
126 126 255 
255 144 144 
255 108 255 
255 255 255 
255 175 175 
221 221 221 
0 0 0 
221 221 221 
255 126 126 
255 255 255 
161 161 161 
255 255 255 
77 77 247 
255 255 255 
255 255 255 
255 255 255 
255 248 248 
255 255 255 
0 0 0 
161 161 161 
255 255 255 
0 0 0 
118 36 118 
161 161 161 
0 0 0 
255 188 255 
255 255 255 
247 77 77 
247 77 77 
161 161 161 
0 0 0 
0 0 0 
255 255 255 
161 161 161 
161 161 161 
0 0 0 
221 221 221 
0 0 0 
255 255 255 
206 206 255 
255 255 255 
255 255 255 
255 255 255 
0 0 0 
161 161 161 
255 255 255 
255 255 255 
255 238 255 
255 255 255 
0 0 0 
0 0 0 
247 77 77 
255 255 255 
255 184 255 
224 179 255 
126 126 255 
247 77 77 
0 0 0 
118 36 118 
77 77 247 
0 0 0 
249 249 255 
77 77 247 
0 0 0 
255 160 255 
0 0 0 
255 227 255 
255 255 255 
255 121 255 
255 255 255 
0 0 0 
193 60 193 
161 161 161 
255 255 255 
221 221 221 
221 221 221 
255 207 207 
255 255 255 
0 0 0 
255 230 255 
247 77 77 
0 0 0 
255 222 222 
0 0 0 
0 0 0 
255 175 255 
0 0 0 
255 255 255 
255 255 255 
255 255 255 
0 0 0 
126 126 255 
255 255 255 
0 0 0 
0 0 0 
255 129 255 
77 77 247 
199 199 255 
144 144 255 
161 161 161 
255 255 255 
255 199 199 
221 221 221 
99 99 255 
170 170 255 
255 255 255 
0 0 0 
0 0 0 
0 0 0 
255 255 255 
255 198 255 
0 0 0 
0 0 0 
255 126 126 
0 0 0 
161 161 161 
0 0 0 
255 174 255 
255 255 255 
255 98 255 
168 162 235 
254 254 255 
161 161 161 
233 210 255 
0 0 0 
255 255 255 
255 255 255 
0 0 0 
255 255 255 
206 206 255 
0 0 0 
126 126 255 
0 0 0 
0 0 0 
255 121 255 
77 77 247 
126 126 255 
0 0 0 
60 60 255 
255 36 255 
112 112 255 
47 47 151 
255 74 255 
155 155 255 
0 0 0 
132 132 255 
110 90 255 
120 120 255 
47 47 151 
255 100 255 
77 77 247 
242 46 255 
255 36 255 
0 0 0 
97 45 255 
81 64 212 
0 0 0 
255 109 255 
255 114 255 
47 47 151 
133 76 255 
77 77 249 
193 60 193 
47 47 151 
254 105 255 
255 47 255 
47 47 151 
255 106 255 
47 47 151 
255 78 255 
255 255 255 
255 138 255 
255 124 164 
255 102 102 
255 88 93 
255 79 151 
207 64 64 
151 47 47 
255 79 85 
151 47 47 
0 0 0 
72 22 72 
207 64 64 
255 125 125 
255 228 255 
255 88 88 
151 47 47 
255 88 88 
255 126 126 
151 47 47 
0 0 0 
255 54 138 
207 64 64 
255 93 255 
255 146 146 
118 36 118 
255 97 97 
0 0 0 
207 64 255 
255 126 255 
255 97 97 
255 97 97 
0 0 0 
216 67 94 
255 74 142 
255 28 65 
255 36 36 
255 8 26 
186 58 125 
255 168 255 
255 98 255 
0 0 0 
255 59 59 
77 77 247 
0 0 0 
255 255 255 
255 126 126 
0 0 0 
0 0 0 
255 209 255 
0 0 0 
255 28 92 
0 0 0 
255 255 255 
255 126 126 
255 163 163 
0 0 0 
0 0 0 
161 161 161 
255 216 216 
255 175 175 
255 255 255 
247 77 77 
255 255 255 
255 255 255 
0 0 0 
0 0 0 
255 255 255 
255 255 255 
255 126 126 
161 161 161 
255 60 130 
255 255 255 
255 255 255 
0 0 0 
255 170 255 
255 255 255 
255 206 206 
255 22 51 
255 255 255 
255 144 144 
0 0 0 
0 0 0 
255 127 127 
255 255 255 
255 255 255 
255 255 255 
255 255 255 
161 161 161 
0 0 0 
255 255 255 
255 159 255 
0 0 0 
246 76 255 
255 255 255 
255 51 125 
255 255 255 
0 0 0 
255 255 255 
255 255 255 
255 238 238 
0 0 0 
255 255 255 
255 99 224 
193 60 193 
161 161 161 
161 161 161 
255 255 255 
161 161 161 
255 184 255 
199 199 255 
255 126 126 
0 0 0 
255 105 105 
255 255 255 
255 255 255 
255 200 255 
255 162 162 
255 126 126 
0 0 0 
255 255 255 
0 0 0 
0 0 0 
255 255 255 
255 255 255 
255 216 255 
255 255 255 
255 255 255 
255 255 255 
255 255 255 
255 255 255 
0 0 0 
161 161 161 
0 0 0 
161 161 161 
221 221 221 
0 0 0 
255 255 255 
255 162 255 
0 0 0 
0 0 0 
205 178 255 
255 175 175 
0 0 0 
255 255 255 
255 255 255 
255 255 255 
247 77 77 
255 255 255 
161 161 161 
255 170 170 
0 0 0 
255 255 255 
161 161 161 
255 255 255 
255 255 255 
0 0 0 
161 161 161 
161 161 161 
255 255 255 
255 255 255 
77 77 247 
0 0 0 
0 0 0 
0 0 0 
0 0 0 
183 183 255 
161 161 161 
0 0 0 
0 0 0 
255 255 255 
161 161 161 
255 255 255 
77 77 247 
247 77 77 
98 98 255 
255 255 255 
255 255 255 
0 0 0 
255 255 255 
255 172 255 
0 0 0 
255 255 255 
0 0 0 
0 0 0 
161 161 161 
254 254 255 
255 235 235 
0 0 0 
127 127 255 
247 77 77 
206 206 255 
0 0 0 
0 0 0 
127 127 255 
0 0 0 
0 0 0 
0 0 0 
255 255 255 
255 174 255 
0 0 0 
0 0 0 
255 244 255 
0 0 0 
255 10 110 
255 255 255 
255 255 255 
255 255 255 
255 163 255 
0 0 0 
0 0 0 
0 0 0 
0 0 0 
77 77 247 
255 163 182 
179 162 255 
247 77 77 
255 255 255 
0 0 0 
142 74 239 
0 0 0 
47 47 151 
0 0 0 
172 136 255 
255 146 255 
47 47 151 
0 0 0 
57 57 255 
47 47 151 
88 88 255 
56 48 182 
36 36 255 
36 36 255 
47 47 151 
207 76 255 
40 17 182 
0 0 0 
81 81 255 
0 0 0 
0 0 0 
140 104 255 
90 61 255 
84 51 164 
58 58 255 
185 49 159 
47 47 151 
195 40 129 
77 77 247 
64 64 207 
141 61 196 
126 126 255 
110 90 255 
114 114 255 
125 78 255 
47 47 151 
216 216 255 
89 27 191 
255 255 255 
255 54 85 
255 121 121 
151 47 47 
151 47 47 
0 0 0 
249 77 77 
255 72 72 
255 60 60 
151 47 47 
0 0 0 
255 249 255 
207 64 64 
0 0 0 
255 103 107 
255 13 44 
118 36 118 
151 47 47 
255 45 98 
0 0 0 
151 47 47 
255 255 255 
255 173 208 
0 0 0 
0 0 0 
207 64 64 
193 60 193 
0 0 0 
255 210 242 
72 22 72 
255 88 88 
164 51 255 
0 0 0 
151 47 47 
255 255 255 
151 47 47 
118 36 118 
255 127 127 
255 59 191 
255 60 60 
0 0 0 
255 210 255 
255 255 255 
0 0 0 
0 0 0 
77 77 247 
255 149 255 
255 126 126 
0 0 0 
255 223 223 
0 0 0 
127 127 255 
92 28 255 
255 255 255 
255 128 151 
255 206 206 
255 255 255 
255 76 246 
0 0 0 
255 206 206 
0 0 0 
161 161 161 
255 206 206 
255 199 199 
255 163 255 
255 255 255 
161 161 161 
255 173 173 
71 1 206 
255 172 255 
255 255 255 
255 200 255 
0 0 0 
161 161 161 
244 170 244 
0 0 0 
0 0 0 
255 126 126 
0 0 0 
161 161 161 
0 0 0 
255 172 255 
244 170 255 
77 77 247 
255 255 255 
0 0 0 
255 206 206 
118 36 118 
161 161 161 
255 255 255 
161 161 161 
255 184 255 
0 0 0 
255 183 183 
221 221 221 
0 0 0 
161 161 161 
161 161 161 
255 88 128 
77 77 247 
255 255 255 
255 254 254 
161 161 161 
255 126 126 
255 222 255 
255 255 255 
247 77 77 
255 255 255 
161 161 161 
194 60 137 
0 0 0 
199 199 255 
0 0 0 
188 188 255 
0 0 0 
255 255 255 
0 0 0 
161 161 161 
0 0 0 
161 161 161 
255 255 255 
0 0 0 
255 255 255 
255 126 126 
161 161 161 
255 255 255 
199 199 255 
255 199 199 
0 0 0 
255 205 255 
255 255 255 
199 199 255 
255 255 255 
0 0 0 
221 221 221 
0 0 0 
0 0 0 
161 161 161 
0 0 0 
255 255 255 
0 0 0 
161 161 161 
255 214 255 
255 112 212 
255 255 255 
255 255 255 
255 99 99 
255 255 255 
255 255 255 
161 161 161 
0 0 0 
255 255 255 
255 255 255 
255 175 175 
145 145 255 
255 255 255 
175 175 255 
255 162 255 
255 255 255 
255 255 255 
255 243 255 
255 255 255 
161 161 161 
118 36 118 
77 77 247 
0 0 0 
0 0 0 
186 186 255 
255 144 255 
0 0 0 
199 199 255 
255 255 255 
77 77 247 
206 206 255 
255 255 255 
255 255 255 
255 255 255 
247 77 77 
161 161 161 
161 161 161 
255 255 255 
255 255 255 
255 184 255 
0 0 0 
233 61 212 
255 255 255 
0 0 0 
161 161 161 
0 0 0 
255 255 255 
255 255 255 
255 255 255 
0 0 0 
0 0 0 
0 0 0 
255 255 255 
255 134 255 
175 175 255 
206 206 255 
0 0 0 
0 0 0 
0 0 0 
0 0 0 
0 0 0 
175 175 255 
255 162 255 
255 255 255 
0 0 0 
0 0 0 
0 0 0 
255 174 255 
255 255 255 
0 0 0 
255 255 255 
255 255 255 
126 126 255 
0 0 0 
0 0 0 
255 76 255 
209 209 255 
0 0 0 
0 0 0 
0 0 0 
155 155 255 
125 58 186 
120 120 255 
36 36 255 
0 0 0 
191 191 255 
62 48 255 
91 63 255 
47 47 151 
111 58 255 
227 101 255 
65 28 255 
84 51 164 
106 106 255 
64 64 207 
96 78 255 
197 74 238 
160 131 255 
99 77 255 
64 64 207 
0 0 0 
127 127 255 
86 86 255 
47 47 151 
255 105 255 
0 0 0 
255 98 255 
209 28 92 
97 97 255 
88 88 255 
127 127 255 
245 124 255 
47 47 151 
94 67 216 
249 77 77 
249 77 77 
0 0 0 
151 47 47 
255 99 224 
249 77 77 
207 64 64 
249 77 77 
249 77 77 
255 37 37 
0 0 0 
239 74 142 
255 169 169 
255 84 84 
255 64 64 
163 22 232 
255 37 37 
0 0 0 
0 0 0 
151 47 47 
255 255 255 
255 43 170 
209 28 92 
247 77 77 
255 112 212 
255 142 143 
255 36 255 
0 0 0 
0 0 0 
255 48 62 
247 77 77 
0 0 0 
0 0 0 
0 0 0 
247 77 77 
247 77 77 
0 0 0 
0 0 0 
255 155 255 
255 143 255 
0 0 0 
255 255 255 
0 0 0 
255 126 255 
255 255 255 
255 255 255 
0 0 0 
255 143 255 
0 0 0 
0 0 0 
0 0 0 
255 255 255 
255 206 206 
0 0 0 
0 0 0 
144 144 255 
161 161 161 
0 0 0 
255 255 255 
255 255 255 
255 255 255 
0 0 0 
194 60 137 
255 160 160 
0 0 0 
0 0 0 
254 227 255 
255 175 175 
255 255 255 
0 0 0 
0 0 0 
255 255 255 
255 255 255 
255 255 255 
255 47 47 
255 160 255 
255 216 216 
255 144 255 
0 0 0 
77 77 247 
255 255 255 
0 0 0 
0 0 0 
255 255 255 
255 255 255 
0 0 0 
77 77 247 
255 255 255 
255 255 255 
161 161 161 
0 0 0 
255 255 255 
255 255 255 
255 255 255 
161 161 161 
255 99 224 
255 255 255 
0 0 0 
255 105 255 
255 60 60 
0 0 0 
0 0 0 
0 0 0 
194 164 194 
247 77 77 
161 161 161 
255 255 255 
206 206 255 
255 156 255 
0 0 0 
0 0 0 
255 184 255 
255 255 255 
255 255 255 
255 255 255 
255 255 255 
255 255 255 
255 160 255 
126 126 255 
161 161 161 
255 210 255 
0 0 0 
161 161 161 
221 221 221 
255 255 255 
0 0 0 
0 0 0 
175 175 255 
255 255 255 
255 47 47 
0 0 0 
116 81 255 
161 161 161 
255 255 255 
255 228 255 
255 249 249 
255 255 255 
255 255 255 
255 255 255 
0 0 0 
0 0 0 
255 231 231 
221 221 221 
255 255 255 
0 0 0 
255 255 255 
255 47 106 
0 0 0 
0 0 0 
255 255 255 
255 255 255 
126 126 255 
199 199 255 
161 161 161 
255 156 156 
161 161 161 
255 255 255 
255 255 255 
255 255 255 
199 199 255 
221 221 221 
0 0 0 
161 161 161 
221 221 221 
255 255 255 
161 161 161 
0 0 0 
161 161 161 
0 0 0 
255 223 255 
161 161 161 
255 255 255 
255 255 255 
255 255 255 
255 216 255 
255 255 255 
0 0 0 
255 199 199 
255 255 255 
255 255 255 
77 77 247 
0 0 0 
255 255 255 
251 180 255 
255 255 255 
255 126 126 
255 205 255 
255 153 255 
231 231 255 
254 254 255 
247 77 77 
0 0 0 
255 222 255 
0 0 0 
0 0 0 
255 60 60 
255 255 255 
0 0 0 
161 161 161 
0 0 0 
255 172 255 
0 0 0 
0 0 0 
143 143 255 
0 0 0 
0 0 0 
52 5 255 
255 255 255 
255 255 255 
126 126 255 
255 255 255 
0 0 0 
244 170 244 
255 209 255 
255 77 255 
255 99 255 
255 199 255 
72 22 72 
71 49 229 
47 47 151 
0 0 0 
78 54 255 
93 78 255 
36 36 255 
110 90 255 
105 105 255 
58 58 255 
0 0 0 
209 209 255 
0 0 0 
84 78 255 
0 0 0 
0 0 0 
97 97 255 
0 0 0 
255 89 255 
88 88 255 
132 132 255 
98 98 255 
0 0 0 
64 64 207 
118 36 118 
64 64 207 
64 64 207 
255 147 255 
0 0 0 
224 94 255 
0 0 0 
255 207 255 
144 144 255 
58 58 255 
132 132 255 
72 22 72 
0 0 0 
47 47 151 
94 67 216 
255 60 60 
249 77 77 
255 144 144 
255 49 133 
0 0 0 
207 64 64 
249 77 77 
255 97 255 
255 223 223 
0 0 0 
247 77 77 
255 98 102 
255 88 88 
255 114 114 
255 80 107 
247 77 77 
255 60 78 
255 93 93 
255 81 81 
0 0 0 
194 60 137 
255 90 110 
0 0 0 
255 125 125 
0 0 0 
151 47 47 
0 0 0 
0 0 0 
0 0 0 
255 179 179 
255 36 36 
255 73 255 
255 255 255 
255 174 174 
164 51 84 
255 46 46 
255 76 255 
0 0 0 
247 77 77 
255 13 44 
254 254 255 
0 0 0 
255 126 126 
0 0 0 
247 77 77 
77 77 247 
255 255 255 
255 254 254 
0 0 0 
255 255 255 
0 0 0 
255 255 255 
255 186 255 
0 0 0 
255 162 255 
77 77 247 
255 255 255 
0 0 0 
255 82 200 
216 216 255 
255 255 255 
255 212 255 
221 221 221 
255 255 255 
255 255 255 
255 59 191 
0 0 0 
0 0 0 
0 0 0 
0 0 0 
255 255 255 
255 255 255 
206 206 255 
0 0 0 
255 121 121 
0 0 0 
255 255 255 
161 161 161 
255 224 255 
0 0 0 
255 255 255 
255 183 216 
221 221 221 
0 0 0 
255 188 255 
244 170 244 
255 135 255 
255 255 255 
0 0 0 
0 0 0 
255 255 255 
255 162 255 
207 207 255 
221 221 221 
255 240 255 
255 133 255 
255 255 255 
255 145 255 
255 162 162 
255 126 126 
255 105 105 
231 231 255 
255 255 255 
255 28 92 
161 161 161 
221 221 221 
255 162 255 
0 0 0 
255 255 255 
161 161 161 
255 238 255 
255 255 255 
255 162 166 
77 77 247 
0 0 0 
255 255 255 
209 28 92 
0 0 0 
255 255 255 
0 0 0 
255 255 255 
221 221 221 
0 0 0 
0 0 0 
161 161 161 
255 233 255 
255 127 255 
175 175 255 
77 77 247 
255 255 255 
255 255 255 
0 0 0 
127 127 255 
255 255 255 
255 255 255 
255 255 255 
0 0 0 
255 184 255 
0 0 0 
161 161 161 
255 255 255 
0 0 0 
161 161 161 
0 0 0 
255 126 126 
249 249 255 
255 255 255 
199 199 255 
255 255 255 
161 161 161 
255 255 255 
126 126 255 
206 206 255 
255 98 255 
161 161 161 
255 255 255 
161 161 161 
255 255 255 
0 0 0 
255 255 255 
0 0 0 
247 77 77 
161 161 161 
161 161 161 
105 105 255 
255 175 175 
221 221 221 
0 0 0 
206 206 255 
65 28 255 
255 255 255 
0 0 0 
56 17 181 
255 199 199 
0 0 0 
247 77 77 
161 161 161 
161 161 161 
190 37 255 
247 77 77 
255 175 175 
0 0 0 
204 95 255 
161 161 161 
126 126 255 
255 126 126 
224 99 255 
255 223 255 
77 77 247 
255 182 255 
0 0 0 
255 255 255 
255 255 255 
255 126 126 
0 0 0 
199 199 255 
255 255 255 
0 0 0 
255 255 255 
255 255 255 
255 206 206 
255 223 255 
0 0 0 
255 207 207 
0 0 0 
76 76 255 
0 0 0 
199 199 255 
0 0 0 
118 36 118 
77 77 247 
255 202 226 
255 255 255 
0 0 0 
0 0 0 
77 77 247 
0 0 0 
0 0 0 
180 99 255 
255 78 250 
255 107 255 
255 206 255 
108 108 255 
88 88 255 
0 0 0 
60 60 255 
0 0 0 
193 60 193 
255 178 255 
88 88 255 
88 88 255 
255 255 255 
77 77 247 
148 144 255 
97 97 255 
0 0 0 
0 0 0 
47 47 151 
126 126 255 
125 108 255 
255 162 255 
47 47 151 
47 47 151 
99 99 255 
47 47 151 
76 65 255 
119 77 255 
0 0 0 
94 67 216 
255 108 255 
172 136 255 
242 104 255 
28 28 255 
137 83 255 
64 64 207 
47 47 151 
255 106 106 
251 54 102 
255 64 64 
207 64 64 
164 51 84 
255 136 192 
119 37 83 
255 78 83 
207 64 64 
151 47 47 
255 132 132 
151 47 47 
255 36 36 
255 120 120 
238 74 197 
255 99 118 
255 132 132 
151 47 47 
141 13 141 
255 64 64 
255 60 60 
247 77 77 
207 64 64 
255 126 126 
255 83 83 
255 72 255 
255 93 143 
255 126 126 
0 0 0 
0 0 0 
118 36 118 
0 0 0 
216 67 94 
255 121 121 
0 0 0 
255 126 126 
255 216 216 
255 241 255 
0 0 0 
0 0 0 
0 0 0 
161 161 161 
255 255 255 
255 255 255 
255 255 255 
255 83 110 
0 0 0 
118 36 118 
0 0 0 
0 0 0 
255 141 255 
247 77 77 
255 137 255 
255 255 255 
255 255 255 
255 255 255 
0 0 0 
141 13 141 
0 0 0 
255 199 199 
255 112 228 
255 255 255 
161 161 161 
255 60 60 
255 199 199 
255 255 255 
255 144 255 
0 0 0 
0 0 0 
255 255 255 
255 196 196 
255 255 255 
255 145 145 
0 0 0 
255 126 255 
255 216 255 
255 255 255 
206 206 255 
255 206 206 
0 0 0 
0 0 0 
255 220 255 
0 0 0 
255 255 255 
255 255 255 
184 184 255 
255 255 255 
0 0 0 
161 161 161 
255 235 255 
255 255 255 
0 0 0 
255 255 255 
247 77 77 
161 161 161 
255 255 255 
0 0 0 
0 0 0 
244 170 244 
126 126 255 
255 255 255 
0 0 0 
161 161 161 
0 0 0 
0 0 0 
255 255 255 
255 255 255 
0 0 0 
161 161 161 
255 255 255 
0 0 0 
255 255 255 
0 0 0 
255 255 255 
224 99 255 
221 221 221 
255 46 46 
0 0 0 
255 188 255 
161 161 161 
255 206 206 
255 255 255 
248 77 255 
0 0 0 
255 255 255 
255 175 175 
255 126 126 
0 0 0 
255 144 255 
0 0 0 
126 126 255 
255 255 255 
255 155 255 
255 255 255 
255 221 221 
0 0 0 
255 255 255 
255 255 255 
255 221 221 
255 255 255 
77 77 247 
255 255 255 
0 0 0 
255 255 255 
118 36 118 
0 0 0 
255 255 255 
255 78 255 
255 255 255 
255 227 255 
255 255 255 
255 255 255 
206 206 255 
77 77 247 
255 237 255 
255 36 255 
206 206 255 
28 28 255 
0 0 0 
0 0 0 
255 255 255 
161 161 161 
255 170 170 
0 0 0 
255 255 255 
255 255 255 
0 0 0 
210 210 255 
126 126 255 
0 0 0 
255 255 255 
0 0 0 
255 255 255 
255 255 255 
161 161 161 
199 199 255 
0 0 0 
255 255 255 
0 0 0 
0 0 0 
255 255 255 
161 161 161 
0 0 0 
255 255 255 
255 162 255 
232 176 255 
161 161 161 
0 0 0 
204 95 255 
194 60 137 
77 77 247 
255 255 255 
126 126 255 
0 0 0 
0 0 0 
0 0 0 
0 0 0 
126 126 255 
255 255 255 
0 0 0 
167 129 255 
255 126 126 
110 10 255 
77 77 247 
77 77 247 
0 0 0 
0 0 0 
255 255 255 
126 126 255 
0 0 0 
255 255 255 
161 161 161 
255 255 255 
0 0 0 
255 206 255 
0 0 0 
255 169 255 
77 77 247 
0 0 0 
36 36 255 
255 48 255 
255 22 72 
255 144 255 
0 0 0 
47 47 151 
255 30 139 
47 47 151 
72 22 72 
255 175 255 
0 0 0 
102 79 255 
83 83 255 
255 28 92 
72 22 72 
97 97 255 
141 133 255 
88 88 255 
47 47 151 
0 0 0 
255 255 255 
0 0 0 
126 126 255 
47 47 151 
0 0 0 
88 88 255 
255 167 255 
47 47 151 
0 0 0 
255 115 255 
47 47 151 
47 47 151 
47 47 151 
98 98 255 
125 58 186 
74 74 255 
126 126 255 
255 57 87 
255 98 98 
255 95 95 
151 47 47 
0 0 0 
0 0 0 
186 58 125 
207 64 64 
151 47 47 
0 0 0 
255 126 126 
255 116 116 
207 64 64 
164 51 84 
151 47 47 
255 93 93 
255 113 113 
0 0 0 
151 47 47 
255 75 99 
0 0 0 
164 51 84 
255 255 255 
0 0 0 
255 36 36 
255 125 255 
151 47 47 
0 0 0 
255 28 65 
255 88 88 
255 102 148 
0 0 0 
151 47 47 
0 0 0 
255 99 110 
135 42 135 
255 126 126 
0 0 0 
255 126 126 
255 206 206 
0 0 0 
0 0 0 
161 161 161 
0 0 0 
0 0 0 
255 175 175 
161 161 161 
0 0 0 
0 0 0 
0 0 0 
255 255 255 
255 76 246 
0 0 0 
247 77 77 
0 0 0 
118 36 118 
255 126 126 
0 0 0 
255 126 126 
255 232 255 
161 161 161 
255 129 167 
255 255 255 
127 127 255 
0 0 0 
127 127 255 
247 77 77 
255 175 175 
255 98 98 
0 0 0 
255 255 255 
255 175 175 
0 0 0 
255 255 255 
221 221 221 
255 255 255 
0 0 0 
0 0 0 
255 121 121 
0 0 0 
161 161 161 
255 255 255 
247 77 77 
255 99 99 
161 161 161 
255 255 255 
255 206 206 
77 77 247 
161 161 161 
255 255 255 
255 255 255 
247 77 77 
247 77 77 
206 206 255 
77 77 247 
255 255 255 
0 0 0 
0 0 0 
0 0 0 
255 199 199 
255 98 98 
161 161 161 
255 255 255 
255 184 255 
221 221 221 
199 199 255 
255 255 255 
206 206 255 
161 161 161 
161 161 161 
255 255 255 
255 255 255 
0 0 0 
161 161 161 
255 206 206 
0 0 0 
77 77 247 
255 216 255 
0 0 0 
255 255 255 
221 221 221 
255 255 255 
247 77 77 
161 161 161 
206 206 255 
255 255 255 
255 255 255 
255 126 126 
77 77 247 
255 110 255 
255 255 255 
255 255 255 
99 99 255 
255 255 255 
161 161 161 
161 161 161 
161 161 161 
255 255 255 
255 255 255 
255 202 232 
255 255 255 
0 0 0 
255 125 255 
118 36 118 
255 200 255 
161 161 161 
0 0 0 
161 161 161 
255 144 144 
0 0 0 
60 60 255 
161 161 161 
0 0 0 
255 199 199 
255 255 255 
255 255 255 
126 126 255 
255 255 255 
0 0 0 
255 255 255 
255 199 199 
161 161 161 
255 209 255 
137 60 194 
0 0 0 
247 77 77 
247 77 77 
255 126 126 
255 98 255 
125 125 255 
77 77 247 
255 255 255 
161 161 161 
0 0 0 
231 231 255 
0 0 0 
77 77 247 
255 255 255 
255 255 255 
0 0 0 
255 255 255 
224 99 255 
255 255 255 
255 255 255 
0 0 0 
247 77 77 
255 40 144 
255 255 255 
255 255 255 
0 0 0 
0 0 0 
77 77 247 
126 126 255 
205 170 245 
161 161 161 
0 0 0 
255 255 255 
221 221 221 
175 175 255 
122 122 255 
77 77 247 
0 0 0 
0 0 0 
0 0 0 
126 126 255 
118 36 118 
126 126 255 
199 199 255 
247 77 77 
0 0 0 
0 0 0 
224 99 255 
255 221 255 
0 0 0 
255 22 71 
0 0 0 
105 105 255 
255 29 210 
77 77 247 
0 0 0 
36 36 255 
255 60 255 
148 58 193 
198 169 255 
77 77 249 
155 25 155 
163 22 232 
255 152 255 
47 47 151 
255 142 255 
255 106 255 
255 199 255 
148 86 255 
0 0 0 
106 47 255 
107 85 255 
134 134 255 
64 64 207 
88 88 255 
230 115 255 
255 138 255 
118 36 118 
102 102 255 
47 47 151 
255 49 229 
77 77 249 
131 72 233 
255 136 255 
136 136 255 
122 82 255 
47 47 151 
157 96 255 
72 72 255 
129 129 255 
233 122 255 
197 74 238 
255 97 97 
255 138 138 
255 58 58 
207 64 64 
207 64 64 
207 64 64 
255 79 102 
255 36 36 
255 255 255 
249 77 77 
207 64 64 
151 47 47 
255 42 255 
0 0 0 
249 77 77 
255 219 227 
0 0 0 
255 87 87 
247 77 77 
151 47 47 
0 0 0 
255 88 88 
255 111 221 
151 47 47 
0 0 0 
255 126 126 
72 22 72 
0 0 0 
0 0 0 
151 47 47 
255 28 65 
0 0 0 
255 48 62 
0 0 0 
255 107 255 
151 47 47 
110 10 250 
0 0 0 
0 0 0 
0 0 0 
0 0 0 
0 0 0 
0 0 0 
194 164 194 
0 0 0 
255 126 126 
0 0 0 
255 155 155 
0 0 0 
255 28 92 
0 0 0 
0 0 0 
247 77 77 
0 0 0 
0 0 0 
161 161 161 
0 0 0 
0 0 0 
255 113 255 
255 255 255 
255 145 255 
0 0 0 
255 255 255 
255 175 175 
207 207 255 
193 60 193 
255 255 255 
0 0 0 
255 126 126 
247 77 77 
206 95 255 
161 161 161 
247 77 77 
118 36 118 
0 0 0 
0 0 0 
255 145 255 
0 0 0 
255 216 216 
0 0 0 
255 188 188 
255 255 255 
255 129 167 
0 0 0 
161 161 161 
255 121 255 
255 210 255 
255 255 255 
247 77 77 
255 144 144 
255 162 255 
255 126 126 
255 255 255 
255 255 255 
255 255 255 
161 161 161 
255 144 255 
161 161 161 
161 161 161 
247 77 77 
0 0 0 
0 0 0 
255 255 255 
0 0 0 
199 199 255 
0 0 0 
255 199 199 
255 255 255 
255 199 199 
161 161 161 
255 255 255 
255 255 255 
0 0 0 
161 161 161 
161 161 161 
255 255 255 
0 0 0 
126 126 255 
161 161 161 
247 77 77 
255 172 201 
0 0 0 
255 255 255 
255 255 255 
161 161 161 
255 255 255 
0 0 0 
0 0 0 
0 0 0 
255 255 255 
0 0 0 
255 255 255 
255 174 174 
0 0 0 
255 255 255 
255 255 255 
126 126 255 
255 255 255 
161 161 161 
255 255 255 
255 222 255 
255 255 255 
255 199 199 
255 127 127 
255 255 255 
255 255 255 
161 161 161 
224 136 255 
255 255 255 
255 255 255 
0 0 0 
255 255 255 
77 77 247 
0 0 0 
0 0 0 
175 175 255 
255 160 255 
255 255 255 
255 255 255 
255 175 175 
255 249 249 
255 255 255 
161 161 161 
0 0 0 
255 222 238 
161 161 161 
161 161 161 
255 255 255 
127 127 255 
255 126 126 
0 0 0 
0 0 0 
255 255 255 
221 221 221 
255 47 106 
255 255 255 
0 0 0 
161 161 161 
126 126 255 
255 255 255 
0 0 0 
0 0 0 
255 255 255 
255 198 255 
255 255 255 
255 144 255 
127 127 255 
255 255 255 
255 255 255 
255 255 255 
255 129 167 
255 255 255 
255 255 255 
255 255 255 
0 0 0 
77 77 247 
161 161 161 
255 255 255 
137 83 255 
255 255 255 
255 255 255 
255 255 255 
247 77 77 
0 0 0 
0 0 0 
77 77 247 
0 0 0 
0 0 0 
161 161 161 
255 255 255 
224 99 255 
0 0 0 
144 144 255 
255 255 255 
255 255 255 
255 255 255 
161 161 161 
47 47 151 
255 255 255 
140 69 255 
36 36 255 
77 77 247 
118 36 118 
255 47 159 
102 79 255 
117 36 255 
47 47 151 
102 102 255 
47 47 151 
255 139 255 
231 148 255 
138 128 255 
47 47 151 
165 165 255 
58 58 255 
84 51 164 
47 47 151 
72 22 72 
118 36 118 
174 106 255 
84 51 164 
64 64 207 
64 64 207 
137 60 194 
110 90 255 
0 0 0 
127 127 255 
0 0 0 
77 77 249 
64 64 207 
0 0 0 
97 97 255 
47 47 151 
255 255 255 
235 51 216 
72 22 72 
151 47 47 
255 173 255 
255 106 106 
216 67 94 
151 47 47 
255 145 181 
255 106 106 
255 94 94 
0 0 0 
255 93 143 
255 109 109 
255 89 102 
255 112 146 
164 51 84 
255 58 58 
255 88 88 
151 47 47 
249 77 77 
255 126 126 
207 64 64 
255 65 107 
247 77 77 
207 64 64 
255 132 132 
255 95 95 
0 0 0 
255 226 226 
255 107 255 
0 0 0 
255 113 255 
255 46 150 
255 95 95 
151 47 47 
0 0 0 
0 0 0 
255 126 126 
191 27 89 
151 47 47 
255 255 255 
0 0 0 
0 0 0 
255 173 255 
0 0 0 
255 158 189 
255 255 255 
255 162 255 
255 13 44 
0 0 0 
161 161 161 
0 0 0 
0 0 0 
199 199 255 
199 199 255 
0 0 0 
255 126 126 
0 0 0 
0 0 0 
0 0 0 
255 255 255 
221 221 221 
0 0 0 
255 216 216 
255 126 126 
0 0 0 
255 255 255 
0 0 0 
255 172 255 
255 199 199 
0 0 0 
247 77 77 
199 199 255 
255 255 255 
255 180 251 
247 77 77 
255 255 255 
161 161 161 
0 0 0 
0 0 0 
0 0 0 
255 144 255 
245 170 205 
221 221 221 
0 0 0 
0 0 0 
255 255 255 
255 255 255 
255 255 255 
255 255 255 
206 206 255 
161 161 161 
161 161 161 
255 255 255 
255 255 255 
204 95 255 
0 0 0 
0 0 0 
0 0 0 
255 255 255 
0 0 0 
0 0 0 
0 0 0 
161 161 161 
255 105 105 
221 221 221 
255 225 255 
255 255 255 
255 218 218 
255 255 255 
0 0 0 
255 255 255 
255 255 255 
221 221 221 
0 0 0 
255 254 254 
118 36 118 
161 161 161 
161 161 161 
255 255 255 
255 253 255 
255 218 255 
255 255 255 
255 255 255 
0 0 0 
0 0 0 
247 77 77 
161 161 161 
255 255 255 
0 0 0 
161 161 161 
0 0 0 
126 126 255 
221 221 221 
0 0 0 
221 221 221 
0 0 0 
221 221 221 
255 255 255 
161 161 161 
255 223 255 
0 0 0 
255 255 255 
0 0 0 
255 255 255 
255 255 255 
255 255 255 
0 0 0 
161 161 161 
255 255 255 
161 161 161 
161 161 161 
255 98 98 
0 0 0 
161 161 161 
0 0 0 
0 0 0 
161 161 161 
255 255 255 
0 0 0 
0 0 0 
126 126 255 
255 255 255 
255 113 255 
221 221 221 
255 255 255 
255 255 255 
0 0 0 
255 255 255 
255 60 60 
255 255 255 
99 99 255 
161 161 161 
126 126 255 
118 36 118 
205 170 245 
0 0 0 
254 254 255 
194 164 194 
255 255 255 
255 255 255 
255 105 255 
255 255 255 
174 77 255 
0 0 0 
255 255 255 
255 126 126 
247 77 77 
161 161 161 
161 161 161 
255 255 255 
0 0 0 
0 0 0 
0 0 0 
247 104 255 
255 199 199 
255 255 255 
255 207 207 
255 255 255 
255 255 255 
0 0 0 
166 166 255 
224 99 255 
255 222 255 
255 218 255 
255 255 255 
218 218 255 
144 144 255 
0 0 0 
161 161 161 
219 180 255 
0 0 0 
0 0 0 
255 255 255 
163 22 232 
199 161 255 
221 221 221 
255 59 191 
0 0 0 
255 255 255 
0 0 0 
255 255 255 
255 105 255 
58 58 255 
0 0 0 
204 95 255 
126 126 255 
69 69 255 
100 13 142 
126 126 255 
47 47 151 
0 0 0 
92 73 255 
0 0 0 
77 77 247 
146 75 241 
77 77 249 
0 0 0 
205 191 255 
64 64 207 
106 106 255 
136 136 255 
47 47 151 
47 47 151 
255 255 255 
47 47 151 
60 60 255 
88 88 255 
84 51 164 
0 0 0 
220 81 255 
64 64 207 
47 47 151 
105 105 255 
77 77 247 
64 64 207 
125 58 186 
154 111 255 
255 88 88 
255 138 138 
151 47 47 
207 64 64 
255 106 106 
151 47 47 
255 48 55 
151 47 47 
151 47 47 
255 84 84 
255 146 146 
151 47 47 
255 98 98 
72 22 72 
255 107 107 
164 51 84 
255 83 83 
151 47 47 
255 81 185 
225 65 153 
255 88 255 
255 28 92 
0 0 0 
255 174 174 
255 138 138 
72 22 72 
0 0 0 
255 97 97 
220 68 220 
0 0 0 
255 47 168 
166 23 96 
255 255 255 
255 148 173 
151 47 47 
0 0 0 
0 0 0 
0 0 0 
255 255 255 
161 161 161 
0 0 0 
255 184 255 
0 0 0 
161 161 161 
161 161 161 
255 255 255 
255 255 255 
255 208 255 
255 255 255 
0 0 0 
0 0 0 
0 0 0 
247 77 77 
161 161 161 
247 77 77 
0 0 0 
255 255 255 
246 76 255 
255 98 255 
255 255 255 
255 147 255 
255 145 255 
255 160 255 
255 205 255 
0 0 0 
0 0 0 
255 160 255 
255 199 199 
255 129 167 
161 161 161 
255 255 255 
0 0 0 
255 237 255 
0 0 0 
255 22 71 
255 99 224 
255 255 255 
221 221 221 
255 199 199 
0 0 0 
255 187 255 
255 255 255 
0 0 0 
0 0 0 
0 0 0 
206 206 255 
255 255 255 
255 255 255 
255 255 255 
161 161 161 
255 255 255 
255 255 255 
255 217 255 
221 221 221 
221 221 221 
255 197 255 
255 255 255 
0 0 0 
255 144 144 
255 183 253 
255 255 255 
255 207 207 
255 144 144 
0 0 0 
0 0 0 
255 199 199 
255 207 207 
161 161 161 
255 255 255 
210 210 255 
255 230 255 
0 0 0 
255 206 206 
161 161 161 
255 255 255 
153 95 255 
255 255 255 
255 255 255 
161 161 161 
255 255 255 
0 0 0 
161 161 161 
254 254 255 
255 255 255 
255 255 255 
255 255 255 
0 0 0 
0 0 0 
255 255 255 
255 255 255 
255 175 175 
255 255 255 
161 161 161 
255 255 255 
255 255 255 
161 161 161 
255 255 255 
255 255 255 
255 255 255 
255 255 255 
235 162 168 
255 255 255 
255 207 207 
255 255 255 
255 255 255 
0 0 0 
255 255 255 
255 209 247 
255 210 255 
255 229 255 
126 126 255 
105 105 255 
255 255 255 
255 255 255 
0 0 0 
0 0 0 
161 161 161 
255 255 255 
221 221 221 
225 137 255 
0 0 0 
255 255 255 
161 161 161 
161 161 161 
255 255 255 
60 60 255 
255 212 212 
0 0 0 
255 255 255 
161 161 161 
0 0 0 
255 255 255 
255 255 255 
255 255 255 
255 255 255 
221 221 221 
255 255 255 
155 155 255 
255 188 255 
247 77 77 
0 0 0 
144 144 255 
221 221 221 
0 0 0 
254 254 255 
221 221 221 
255 255 255 
0 0 0 
255 255 255 
255 207 207 
0 0 0 
255 255 255 
161 161 161 
255 207 207 
255 255 255 
255 255 255 
0 0 0 
161 161 161 
0 0 0 
255 255 255 
255 255 255 
255 98 255 
255 255 255 
0 0 0 
255 255 255 
0 0 0 
255 255 255 
255 255 255 
255 255 255 
255 255 255 
161 161 161 
255 255 255 
203 203 255 
255 127 127 
160 160 255 
127 127 255 
161 161 161 
0 0 0 
164 125 255 
0 0 0 
77 77 247 
0 0 0 
45 45 255 
255 64 208 
255 58 186 
47 47 151 
0 0 0 
0 0 0 
204 95 255 
99 30 99 
142 142 255 
124 107 255 
255 179 255 
255 88 255 
93 89 255 
72 22 72 
47 47 151 
47 47 151 
47 47 151 
64 64 207 
97 97 255 
160 160 255 
255 133 255 
89 69 255 
128 128 255 
72 72 255 
73 27 255 
64 64 207 
255 180 255 
255 171 255 
158 106 255 
255 126 255 
206 206 255 
64 64 207 
58 58 255 
88 88 255 
255 106 149 
255 155 155 
255 127 141 
255 113 113 
255 72 72 
151 47 47 
255 120 120 
255 88 88 
0 0 0 
249 77 77 
255 88 88 
255 157 255 
0 0 0 
207 64 64 
255 255 255 
255 88 88 
164 51 84 
255 214 224 
255 64 157 
255 90 110 
207 64 64 
255 110 137 
151 47 47 
72 22 72 
255 58 58 
255 132 132 
255 206 206 
255 83 255 
255 106 106 
151 47 47 
255 144 146 
151 47 47 
186 58 125 
151 47 47 
255 62 199 
255 74 74 
0 0 0 
0 0 0 
0 0 0 
0 0 0 
255 206 206 
0 0 0 
0 0 0 
161 161 161 
161 161 161 
255 95 204 
161 161 161 
0 0 0 
161 161 161 
0 0 0 
255 184 184 
255 255 255 
255 255 255 
255 255 255 
255 255 255 
255 188 188 
247 77 77 
118 36 118 
255 60 60 
255 206 206 
255 255 255 
0 0 0 
0 0 0 
247 77 77 
255 95 204 
255 162 162 
255 255 255 
255 255 255 
255 255 255 
255 255 255 
161 161 161 
0 0 0 
255 17 181 
127 127 255 
255 126 126 
255 97 255 
255 255 255 
0 0 0 
0 0 0 
0 0 0 
255 255 255 
161 161 161 
60 60 255 
255 178 205 
255 184 255 
255 255 255 
221 221 221 
0 0 0 
255 255 255 
255 255 255 
255 231 255 
255 127 127 
255 255 255 
255 199 199 
255 255 255 
0 0 0 
255 255 255 
0 0 0 
255 255 255 
255 255 255 
255 255 255 
161 161 161 
255 217 255 
255 255 255 
255 125 255 
161 161 161 
255 255 255 
255 238 255 
255 199 199 
86 8 86 
161 161 161 
0 0 0 
126 126 255 
255 255 255 
255 255 255 
255 255 255 
247 77 77 
161 161 161 
255 255 255 
255 175 175 
221 221 221 
0 0 0 
0 0 0 
247 77 77 
255 237 237 
255 199 199 
224 99 255 
141 13 141 
255 255 255 
255 255 255 
0 0 0 
255 159 255 
255 255 255 
255 255 255 
161 161 161 
255 255 255 
0 0 0 
255 255 255 
255 255 255 
255 175 175 
255 254 254 
77 77 247 
255 255 255 
255 255 255 
255 255 255 
0 0 0 
255 255 255 
255 255 255 
77 77 247 
0 0 0 
255 255 255 
161 161 161 
161 161 161 
126 126 255 
161 161 161 
255 232 255 
175 175 255 
181 163 255 
199 199 255 
221 221 221 
255 255 255 
255 255 255 
221 221 221 
255 255 255 
255 255 255 
161 161 161 
193 60 193 
255 172 201 
0 0 0 
255 255 255 
207 207 255 
255 255 255 
0 0 0 
161 161 161 
255 255 255 
255 255 255 
255 235 255 
137 60 194 
255 255 255 
255 255 255 
161 161 161 
161 161 161 
255 255 255 
205 178 255 
255 255 255 
255 255 255 
221 221 221 
255 255 255 
255 255 255 
199 199 255 
255 255 255 
255 255 255 
255 255 255 
0 0 0 
255 255 255 
161 161 161 
0 0 0 
0 0 0 
60 60 255 
0 0 0 
255 210 210 
0 0 0 
0 0 0 
255 255 255 
255 99 255 
77 77 247 
221 221 221 
255 210 255 
255 126 126 
0 0 0 
161 161 161 
161 161 161 
166 166 255 
255 255 255 
255 255 255 
0 0 0 
0 0 0 
209 28 92 
255 165 255 
255 46 150 
155 64 255 
47 47 151 
0 0 0 
255 255 255 
36 36 255 
115 105 255 
0 0 0 
47 47 151 
88 88 255 
0 0 0 
47 47 151 
174 54 174 
94 35 255 
58 58 255 
0 0 0 
78 54 255 
84 51 164 
47 47 151 
47 47 151 
135 93 255 
72 72 255 
169 102 255 
255 133 255 
227 107 255 
126 126 255 
78 64 255 
97 97 255 
37 37 255 
115 95 255 
160 77 255 
60 60 255 
64 64 207 
220 137 255 
64 64 207 
208 103 255 
64 64 207 
255 91 106 
0 0 0 
0 0 0 
255 73 120 
249 77 77 
255 88 88 
255 47 50 
255 48 62 
207 64 64 
255 87 108 
255 48 245 
151 47 47 
164 51 84 
0 0 0 
249 77 77 
56 17 181 
207 64 64 
255 45 97 
255 58 58 
255 216 216 
255 255 255 
255 88 88 
255 126 126 
255 126 126 
255 149 149 
255 60 60 
247 77 77 
255 37 37 
230 65 71 
255 22 51 
151 47 47 
0 0 0 
151 47 47 
0 0 0 
0 0 0 
255 88 88 
255 255 255 
0 0 0 
255 83 83 
0 0 0 
255 255 255 
0 0 0 
221 221 221 
161 161 161 
255 60 60 
255 255 255 
255 154 255 
255 255 255 
161 161 161 
247 77 77 
255 255 255 
255 216 216 
255 255 255 
0 0 0 
255 237 255 
255 144 144 
0 0 0 
161 161 161 
247 77 77 
223 223 255 
161 161 161 
255 210 255 
161 161 161 
255 255 255 
161 161 161 
255 83 137 
161 161 161 
255 255 255 
161 161 161 
0 0 0 
161 161 161 
255 255 255 
0 0 0 
255 162 255 
255 231 231 
0 0 0 
193 60 193 
255 127 127 
255 126 126 
0 0 0 
255 175 175 
255 255 255 
0 0 0 
255 199 199 
255 255 255 
161 161 161 
255 170 170 
255 218 255 
255 170 170 
221 221 221 
255 22 71 
255 255 255 
0 0 0 
255 255 255 
0 0 0 
255 255 255 
255 255 255 
255 207 207 
255 255 255 
247 77 77 
255 199 199 
255 255 255 
0 0 0 
255 255 255 
255 175 175 
255 255 255 
255 255 255 
0 0 0 
255 255 255 
161 161 161 
0 0 0 
255 255 255 
255 255 255 
255 255 255 
255 255 255 
255 255 255 
0 0 0 
221 221 221 
193 60 193 
255 214 255 
255 175 175 
255 255 255 
161 161 161 
255 175 175 
255 255 255 
161 161 161 
255 255 255 
0 0 0 
161 161 161 
0 0 0 
255 126 126 
161 161 161 
255 255 255 
0 0 0 
0 0 0 
161 161 161 
255 145 145 
255 171 255 
255 255 255 
161 161 161 
255 255 255 
255 255 255 
244 170 244 
247 77 77 
0 0 0 
0 0 0 
161 161 161 
255 255 255 
255 207 207 
255 206 206 
0 0 0 
255 255 255 
255 255 255 
77 77 247 
255 255 255 
221 221 221 
161 161 161 
0 0 0 
255 255 255 
255 255 255 
0 0 0 
255 255 255 
255 199 199 
245 170 205 
221 221 221 
77 77 247 
224 99 255 
221 221 221 
255 255 255 
77 77 247 
0 0 0 
255 88 255 
255 255 255 
255 166 255 
0 0 0 
0 0 0 
0 0 0 
77 77 247 
255 253 255 
223 162 255 
255 255 255 
255 184 184 
206 206 255 
255 175 255 
77 77 247 
0 0 0 
242 202 255 
255 156 255 
255 184 255 
255 255 255 
0 0 0 
255 163 255 
0 0 0 
0 0 0 
161 161 161 
249 249 255 
206 206 255 
255 255 255 
77 77 247 
194 164 194 
118 36 118 
0 0 0 
0 0 0 
0 0 0 
161 161 161 
0 0 0 
232 22 163 
255 255 255 
0 0 0 
0 0 0 
160 160 255 
161 161 161 
0 0 0 
255 145 255 
0 0 0 
0 0 0 
150 46 255 
64 60 255 
34 10 110 
112 112 255 
0 0 0 
95 95 255 
215 33 199 
65 28 255 
102 79 255 
191 139 255 
166 3 32 
34 10 110 
251 88 255 
65 65 255 
47 47 151 
255 255 255 
88 88 255 
100 95 255 
0 0 0 
126 126 255 
97 97 255 
34 10 110 
64 64 207 
255 255 255 
64 64 207 
255 126 255 
64 64 207 
132 132 255 
129 75 255 
88 88 255 
106 106 255 
255 255 255 
88 88 255 
47 47 151 
0 0 0 
77 77 249 
192 122 255 
88 88 255 
64 64 207 
90 61 255 
151 47 47 
151 47 47 
255 74 120 
255 103 207 
255 220 220 
176 48 147 
207 64 64 
255 84 137 
207 64 64 
255 97 97 
151 47 47 
255 93 93 
207 64 64 
255 53 101 
0 0 0 
255 92 128 
255 162 162 
249 77 77 
0 0 0 
255 132 132 
255 128 150 
255 58 58 
255 120 120 
207 64 64 
255 36 36 
247 77 77 
207 64 64 
255 36 36 
0 0 0 
230 22 230 
0 0 0 
255 206 211 
233 49 255 
217 6 47 
255 36 36 
0 0 0 
255 88 88 
255 88 88 
255 125 125 
0 0 0 
0 0 0 
255 255 255 
247 77 77 
255 37 157 
255 175 175 
255 184 184 
221 221 221 
255 254 254 
255 184 255 
0 0 0 
161 161 161 
255 255 255 
255 255 255 
255 184 184 
255 255 255 
255 216 255 
255 210 210 
255 98 98 
255 60 60 
247 77 77 
255 126 126 
0 0 0 
0 0 0 
255 206 206 
255 222 222 
255 255 255 
0 0 0 
255 194 255 
255 163 163 
0 0 0 
0 0 0 
255 255 255 
255 249 249 
0 0 0 
255 122 122 
255 255 255 
255 160 160 
255 175 175 
255 255 255 
255 255 255 
0 0 0 
0 0 0 
255 107 133 
161 161 161 
255 255 255 
0 0 0 
255 255 255 
255 227 255 
255 199 199 
161 161 161 
0 0 0 
255 88 255 
77 77 247 
255 255 255 
255 255 255 
255 255 255 
255 227 227 
0 0 0 
161 161 161 
221 221 221 
161 161 161 
255 255 255 
0 0 0 
255 199 199 
161 161 161 
0 0 0 
255 198 255 
0 0 0 
255 255 255 
255 255 255 
255 255 255 
247 77 77 
255 255 255 
127 127 255 
255 199 199 
0 0 0 
0 0 0 
0 0 0 
255 255 255 
255 255 255 
255 255 255 
222 222 255 
0 0 0 
0 0 0 
255 255 255 
194 60 137 
255 183 255 
255 174 174 
0 0 0 
255 255 255 
255 255 255 
255 255 255 
0 0 0 
255 131 168 
127 127 255 
255 126 126 
221 221 221 
0 0 0 
255 255 255 
0 0 0 
255 175 255 
221 221 221 
0 0 0 
161 161 161 
0 0 0 
247 77 77 
161 161 161 
77 77 247 
255 255 255 
255 255 255 
161 161 161 
162 162 255 
255 199 199 
255 255 255 
244 170 244 
255 175 175 
161 161 161 
255 222 255 
221 221 221 
255 255 255 
221 221 221 
255 255 255 
255 230 255 
0 0 0 
0 0 0 
255 126 126 
255 255 255 
255 255 255 
221 221 221 
0 0 0 
240 240 255 
161 161 161 
255 166 188 
126 126 255 
255 255 255 
221 221 221 
255 169 255 
0 0 0 
255 177 255 
0 0 0 
206 206 255 
161 161 161 
132 132 255 
0 0 0 
0 0 0 
77 77 247 
255 255 255 
199 199 255 
0 0 0 
160 160 255 
0 0 0 
0 0 0 
255 255 255 
255 255 255 
0 0 0 
255 255 255 
255 199 255 
149 103 255 
221 221 221 
126 126 255 
206 206 255 
77 77 247 
161 161 161 
161 161 161 
0 0 0 
255 255 255 
255 255 255 
221 221 221 
0 0 0 
161 161 161 
126 126 255 
46 46 255 
255 255 255 
255 255 255 
255 255 255 
255 255 255 
247 77 77 
255 151 255 
151 47 255 
47 47 151 
165 165 255 
92 28 255 
79 42 255 
206 206 255 
206 206 255 
121 77 255 
118 100 255 
0 0 0 
248 77 255 
102 89 255 
255 81 255 
72 22 72 
98 98 255 
225 107 255 
93 93 255 
0 0 0 
88 88 255 
216 216 255 
88 88 255 
0 0 0 
47 47 151 
47 47 151 
64 64 207 
0 0 0 
255 217 255 
148 102 255 
64 64 207 
77 77 249 
64 64 207 
255 47 151 
209 209 255 
0 0 0 
180 114 255 
77 77 249 
162 79 255 
77 77 247 
255 64 255 
255 106 106 
151 47 47 
255 179 179 
255 141 227 
255 95 255 
255 85 85 
255 86 164 
255 97 97 
207 64 64 
151 47 47 
207 64 64 
247 77 77 
0 0 0 
186 58 125 
0 0 0 
255 112 112 
255 36 36 
151 47 47 
151 47 47 
255 129 129 
255 210 210 
0 0 0 
255 83 83 
255 47 47 
255 47 47 
255 99 201 
255 97 97 
151 47 47 
0 0 0 
151 47 47 
255 13 31 
193 60 193 
255 65 68 
255 133 147 
255 42 79 
0 0 0 
255 88 255 
0 0 0 
255 221 221 
0 0 0 
255 255 255 
255 255 255 
255 255 255 
0 0 0 
175 175 255 
255 255 255 
0 0 0 
0 0 0 
221 221 221 
255 253 255 
255 199 199 
255 98 222 
0 0 0 
0 0 0 
0 0 0 
0 0 0 
0 0 0 
255 255 255 
255 215 255 
0 0 0 
255 255 255 
255 255 255 
255 231 255 
255 126 126 
255 201 225 
255 46 150 
255 255 255 
255 255 255 
255 231 231 
161 161 161 
0 0 0 
127 127 255 
255 255 255 
255 255 255 
255 255 255 
255 255 255 
255 255 255 
161 161 161 
255 255 255 
0 0 0 
161 161 161 
255 105 255 
255 255 255 
161 161 161 
255 98 255 
221 221 221 
0 0 0 
0 0 0 
255 229 255 
255 206 206 
161 161 161 
0 0 0 
161 161 161 
0 0 0 
255 255 255 
255 105 255 
255 255 255 
255 255 255 
255 185 185 
255 255 255 
221 221 221 
255 255 255 
0 0 0 
255 175 175 
255 203 255 
175 175 255 
221 221 221 
255 198 255 
255 255 255 
0 0 0 
255 255 255 
221 221 221 
255 255 255 
210 210 255 
161 161 161 
255 255 255 
255 255 255 
255 122 233 
206 206 255 
255 255 255 
255 255 255 
255 175 175 
255 255 255 
126 126 255 
255 255 255 
205 178 255 
255 255 255 
255 255 255 
255 255 255 
175 175 255 
255 210 255 
255 255 255 
0 0 0 
255 199 199 
214 166 255 
221 221 221 
161 161 161 
0 0 0 
255 255 255 
255 126 126 
255 255 255 
255 255 255 
255 153 255 
255 255 255 
184 184 255 
77 77 247 
127 127 255 
161 161 161 
231 231 255 
249 249 255 
184 184 255 
255 249 249 
255 166 215 
0 0 0 
161 161 161 
0 0 0 
255 227 255 
255 255 255 
255 98 255 
255 255 255 
255 255 255 
0 0 0 
255 68 255 
255 255 255 
255 255 255 
0 0 0 
77 77 247 
0 0 0 
175 175 255 
255 255 255 
247 77 77 
255 98 98 
255 255 255 
199 199 255 
255 255 255 
255 255 255 
255 255 255 
126 126 255 
255 255 255 
247 77 77 
161 161 161 
161 161 161 
161 161 161 
255 145 145 
0 0 0 
170 170 255 
194 164 255 
255 255 255 
255 127 127 
194 164 194 
255 255 255 
0 0 0 
206 206 255 
0 0 0 
255 255 255 
255 255 255 
255 255 255 
255 127 127 
255 255 255 
255 235 255 
161 161 161 
0 0 0 
161 161 161 
0 0 0 
206 206 255 
221 221 221 
77 77 247 
161 161 161 
0 0 0 
255 255 255 
255 255 255 
126 126 255 
161 161 161 
161 161 161 
77 77 247 
255 255 255 
0 0 0 
72 22 72 
175 30 240 
0 0 0 
126 126 255 
0 0 0 
255 255 255 
125 58 186 
161 108 255 
137 83 255 
47 47 151 
0 0 0 
255 22 255 
131 131 255 
171 160 255 
47 47 151 
161 134 255 
56 17 128 
47 47 151 
124 92 255 
0 0 0 
0 0 0 
78 78 255 
64 64 207 
88 88 255 
110 90 255 
255 255 255 
255 88 255 
102 79 255 
88 88 255 
47 47 151 
255 98 255 
77 77 249 
47 47 151 
94 67 216 
64 64 207 
228 101 255 
159 69 224 
227 100 255 
151 47 47 
151 47 47 
207 64 64 
255 255 255 
195 47 60 
207 64 64 
0 0 0 
249 77 77 
255 69 255 
151 47 47 
255 97 255 
151 47 47 
207 64 64 
255 88 188 
255 101 156 
0 0 0 
72 22 72 
255 69 89 
0 0 0 
255 84 84 
151 47 47 
255 58 58 
255 108 255 
72 22 72 
255 255 255 
247 77 77 
207 64 64 
151 47 47 
255 100 130 
255 220 255 
255 28 65 
255 77 248 
255 255 255 
0 0 0 
151 47 47 
255 255 255 
255 126 126 
0 0 0 
255 132 132 
255 255 255 
0 0 0 
255 255 255 
255 240 255 
255 104 247 
161 161 161 
255 126 126 
255 255 255 
247 77 77 
255 255 255 
255 255 255 
161 161 161 
255 208 255 
255 255 255 
255 175 175 
247 77 77 
161 161 161 
255 160 255 
255 255 255 
0 0 0 
255 172 172 
255 210 255 
161 161 161 
0 0 0 
255 207 255 
255 231 231 
0 0 0 
161 161 161 
0 0 0 
255 160 160 
255 255 255 
255 175 175 
0 0 0 
255 255 255 
255 188 255 
255 162 162 
0 0 0 
0 0 0 
221 221 221 
77 77 247 
161 161 161 
161 161 161 
0 0 0 
255 198 255 
255 255 255 
255 126 126 
255 127 127 
255 121 255 
161 161 161 
255 255 255 
255 241 255 
0 0 0 
255 175 229 
0 0 0 
161 161 161 
255 175 175 
255 255 255 
161 161 161 
255 255 255 
255 95 95 
255 255 255 
255 186 255 
212 112 255 
255 255 255 
255 184 184 
247 77 77 
255 126 126 
221 221 221 
249 249 255 
255 10 78 
0 0 0 
161 161 161 
0 0 0 
0 0 0 
255 216 216 
0 0 0 
161 161 161 
255 255 255 
221 221 221 
0 0 0 
161 161 161 
0 0 0 
255 166 188 
255 255 255 
255 255 255 
255 255 255 
46 46 255 
255 60 60 
126 126 255 
255 255 255 
255 255 255 
255 255 255 
221 221 221 
255 240 255 
255 199 199 
255 255 255 
199 199 255 
255 255 255 
161 161 161 
255 255 255 
255 175 255 
255 255 255 
161 161 161 
255 255 255 
0 0 0 
255 255 255 
255 255 255 
255 255 255 
255 255 255 
221 221 221 
0 0 0 
255 255 255 
161 161 161 
92 28 209 
0 0 0 
255 255 255 
0 0 0 
0 0 0 
255 255 255 
214 166 255 
255 255 255 
255 255 255 
0 0 0 
199 199 255 
255 255 255 
255 255 255 
0 0 0 
255 144 255 
249 249 255 
0 0 0 
206 206 255 
255 137 137 
224 99 255 
0 0 0 
255 255 255 
199 199 255 
255 184 255 
77 77 247 
175 175 255 
126 126 255 
255 255 255 
221 221 221 
161 161 161 
255 236 236 
221 221 221 
255 188 255 
255 255 255 
60 60 255 
230 22 230 
221 221 221 
255 255 255 
0 0 0 
221 221 221 
0 0 0 
141 13 141 
255 255 255 
255 225 255 
244 170 244 
161 161 161 
255 255 255 
0 0 0 
161 161 161 
168 162 235 
255 255 255 
161 161 161 
255 227 255 
255 255 255 
255 255 255 
235 162 255 
255 255 255 
255 229 255 
0 0 0 
175 175 255 
255 137 255 
126 126 255 
255 122 255 
0 0 0 
0 0 0 
73 45 255 
76 76 255 
100 13 142 
0 0 0 
47 47 151 
88 52 255 
0 0 0 
0 0 0 
67 51 255 
26 8 255 
189 160 255 
76 74 255 
129 129 255 
92 28 255 
118 36 118 
213 54 173 
47 47 151 
255 255 255 
47 47 151 
138 54 255 
58 54 255 
77 77 247 
255 181 255 
99 99 255 
64 64 207 
255 175 255 
47 47 151 
47 47 151 
102 102 255 
132 132 255 
255 146 255 
47 47 151 
255 103 255 
88 88 255 
77 77 247 
0 0 0 
64 64 207 
88 88 255 
162 77 255 
255 95 95 
207 64 64 
255 95 95 
207 64 64 
255 107 125 
255 106 106 
0 0 0 
255 210 255 
255 100 118 
255 120 120 
207 64 64 
207 64 64 
255 104 158 
255 225 255 
255 48 48 
249 77 77 
0 0 0 
255 88 88 
255 119 119 
249 77 77 
255 74 74 
164 51 84 
151 47 47 
255 58 58 
151 47 47 
255 97 97 
0 0 0 
0 0 0 
255 85 85 
255 144 144 
255 83 83 
207 64 64 
0 0 0 
255 223 223 
255 61 255 
255 58 58 
181 17 56 
181 17 56 
255 82 255 
255 77 77 
255 255 255 
255 98 255 
161 161 161 
255 144 144 
255 255 255 
255 184 184 
255 255 255 
255 175 175 
255 249 255 
255 99 224 
255 235 255 
0 0 0 
0 0 0 
0 0 0 
0 0 0 
0 0 0 
162 162 255 
221 221 221 
0 0 0 
255 255 255 
0 0 0 
255 231 231 
255 184 255 
221 221 221 
0 0 0 
0 0 0 
0 0 0 
0 0 0 
247 77 77 
255 137 255 
0 0 0 
255 231 231 
255 136 224 
0 0 0 
255 255 255 
255 175 175 
0 0 0 
161 161 161 
255 255 255 
255 234 255 
0 0 0 
0 0 0 
255 105 105 
255 140 255 
161 161 161 
255 255 255 
255 255 255 
161 161 161 
255 255 255 
0 0 0 
207 207 255 
0 0 0 
161 161 161 
225 100 225 
255 255 255 
161 161 161 
161 161 161 
255 207 207 
0 0 0 
231 231 255 
255 175 175 
255 128 255 
0 0 0 
0 0 0 
255 255 255 
221 221 221 
255 255 255 
255 255 255 
161 161 161 
161 161 161 
199 199 255 
255 170 255 
255 175 175 
255 255 255 
255 255 255 
255 255 255 
255 199 199 
0 0 0 
255 255 255 
161 161 161 
255 175 255 
255 255 255 
255 255 255 
255 255 255 
206 206 255 
255 255 255 
255 255 255 
0 0 0 
255 247 255 
255 255 255 
0 0 0 
255 227 255 
255 255 255 
255 255 255 
255 255 255 
118 36 118 
255 255 255 
255 199 199 
255 255 255 
255 255 255 
161 161 161 
255 255 255 
255 199 199 
255 199 199 
255 136 255 
255 255 255 
0 0 0 
255 255 255 
77 77 247 
255 222 255 
0 0 0 
255 255 255 
255 255 255 
161 161 161 
255 255 255 
161 161 161 
255 249 249 
255 255 255 
255 255 255 
161 161 161 
0 0 0 
0 0 0 
207 207 255 
0 0 0 
0 0 0 
0 0 0 
255 255 255 
210 210 255 
161 161 161 
255 188 255 
255 255 255 
255 255 255 
255 199 199 
255 255 255 
255 217 255 
255 255 255 
255 255 255 
255 255 255 
0 0 0 
255 255 255 
255 245 255 
244 170 244 
255 255 255 
244 170 244 
245 223 245 
0 0 0 
255 255 255 
255 255 255 
247 77 77 
255 255 255 
0 0 0 
0 0 0 
255 105 255 
161 161 161 
166 166 255 
199 199 255 
0 0 0 
0 0 0 
255 255 255 
175 175 255 
255 239 255 
0 0 0 
255 255 255 
255 255 255 
255 255 255 
0 0 0 
0 0 0 
0 0 0 
255 255 255 
255 255 255 
161 161 161 
255 46 150 
255 126 126 
206 206 255 
255 145 255 
0 0 0 
221 221 221 
255 125 255 
142 142 255 
47 47 151 
255 17 181 
135 42 135 
255 17 129 
0 0 0 
0 0 0 
149 149 255 
255 38 255 
101 89 255 
252 97 255 
132 132 255 
255 127 255 
47 47 151 
84 51 164 
0 0 0 
193 153 255 
0 0 0 
47 47 151 
255 255 255 
47 47 151 
0 0 0 
0 0 0 
106 106 255 
47 47 151 
47 47 151 
255 89 255 
77 77 249 
64 64 207 
47 47 151 
88 88 255 
28 28 255 
47 47 151 
138 138 255 
137 137 255 
99 75 255 
64 64 207 
77 77 249 
255 113 113 
255 81 98 
249 77 77 
255 72 72 
151 47 47 
255 102 102 
119 37 83 
255 86 107 
255 88 88 
255 138 138 
255 53 101 
255 85 85 
247 77 77 
255 83 83 
255 135 148 
186 58 125 
164 51 84 
255 215 215 
255 109 126 
255 99 146 
110 10 34 
255 88 88 
151 47 47 
255 48 83 
151 47 47 
255 255 255 
247 77 77 
151 47 47 
255 132 132 
151 47 47 
0 0 0 
0 0 0 
0 0 0 
247 77 77 
0 0 0 
255 90 110 
255 88 88 
151 47 47 
255 92 154 
255 255 255 
193 60 193 
161 161 161 
0 0 0 
0 0 0 
247 77 77 
0 0 0 
221 221 221 
255 255 255 
255 183 254 
255 255 255 
193 60 193 
255 255 255 
255 255 255 
161 161 161 
255 255 255 
0 0 0 
161 161 161 
255 60 60 
255 255 255 
0 0 0 
255 98 98 
0 0 0 
161 161 161 
0 0 0 
0 0 0 
0 0 0 
255 255 255 
247 77 77 
161 161 161 
0 0 0 
255 255 255 
255 175 175 
255 164 194 
0 0 0 
0 0 0 
255 188 188 
235 162 168 
255 255 255 
255 132 255 
255 255 255 
255 255 255 
161 161 161 
255 255 255 
255 175 175 
0 0 0 
255 255 255 
161 161 161 
255 255 255 
255 98 255 
161 161 161 
161 161 161 
161 161 161 
255 255 255 
255 255 255 
161 161 161 
161 161 161 
0 0 0 
255 17 179 
255 249 249 
255 255 255 
255 255 255 
245 223 245 
255 255 255 
255 240 240 
255 255 255 
0 0 0 
255 255 255 
255 98 255 
255 238 255 
255 255 255 
221 221 221 
255 199 199 
161 161 161 
161 161 161 
0 0 0 
161 161 161 
161 161 161 
255 255 255 
255 255 255 
255 255 255 
255 155 255 
255 255 255 
255 170 255 
162 50 162 
0 0 0 
255 77 248 
255 255 255 
161 161 161 
255 145 255 
255 126 126 
221 221 221 
255 74 143 
255 255 255 
0 0 0 
255 255 255 
255 255 255 
255 255 255 
77 77 247 
0 0 0 
221 221 221 
161 161 161 
255 227 255 
199 199 255 
161 161 161 
255 182 255 
0 0 0 
255 127 127 
0 0 0 
118 36 118 
161 161 161 
255 255 255 
0 0 0 
161 161 161 
207 207 255 
255 255 255 
0 0 0 
161 161 161 
194 60 137 
255 255 255 
161 161 161 
0 0 0 
0 0 0 
175 175 255 
170 170 255 
60 60 255 
255 255 255 
221 221 221 
0 0 0 
207 207 255 
0 0 0 
161 161 161 
161 161 161 
255 255 255 
0 0 0 
126 126 255 
161 161 161 
255 255 255 
161 161 161 
136 60 255 
0 0 0 
0 0 0 
255 175 175 
255 255 255 
255 185 255 
0 0 0 
0 0 0 
255 206 255 
161 161 161 
161 161 161 
255 162 255 
0 0 0 
0 0 0 
0 0 0 
255 80 90 
255 255 255 
255 255 255 
255 160 255 
127 127 255 
162 162 255 
255 126 126 
98 98 255 
255 255 255 
105 105 255 
161 161 161 
161 161 161 
0 0 0 
161 161 161 
0 0 0 
76 76 255 
206 206 255 
255 255 255 
255 169 255 
127 127 255 
221 221 221 
0 0 0 
255 255 255 
0 0 0 
162 150 255 
60 60 255 
53 47 255 
0 0 0 
0 0 0 
95 95 255 
88 88 255 
36 36 255 
255 255 255 
72 22 72 
118 36 118 
77 77 247 
65 28 255 
120 45 255 
0 0 0 
47 47 151 
181 147 255 
0 0 0 
56 17 181 
0 0 0 
0 0 0 
119 119 255 
72 22 72 
37 37 255 
64 64 207 
106 106 255 
88 88 255 
88 88 255 
255 47 162 
255 47 152 
88 88 255 
132 132 255 
47 47 151 
77 77 249 
47 47 151 
77 77 249 
88 88 255 
64 64 207 
0 0 0 
255 106 106 
249 77 77 
255 60 60 
255 88 88 
223 69 255 
233 72 102 
0 0 0 
255 106 106 
151 47 47 
255 233 254 
255 162 162 
207 64 64 
255 210 255 
187 58 93 
186 58 125 
207 64 64 
255 163 255 
233 72 102 
255 36 36 
255 39 92 
240 30 175 
0 0 0 
255 113 113 
0 0 0 
255 28 92 
255 58 58 
233 72 131 
151 47 47 
203 63 203 
255 92 203 
151 47 47 
255 121 240 
207 64 64 
255 100 206 
255 212 212 
255 172 172 
255 125 255 
151 47 47 
255 36 36 
0 0 0 
255 199 199 
161 161 161 
247 77 77 
0 0 0 
255 255 255 
255 60 136 
0 0 0 
255 186 186 
255 255 255 
0 0 0 
161 161 161 
161 161 161 
255 255 255 
0 0 0 
0 0 0 
255 255 255 
247 77 77 
255 210 255 
247 77 77 
245 223 245 
161 161 161 
255 255 255 
255 128 255 
255 255 255 
161 161 161 
255 255 255 
161 161 161 
0 0 0 
255 255 255 
255 127 255 
255 95 153 
255 235 235 
255 255 255 
175 175 255 
255 255 255 
0 0 0 
255 255 255 
255 105 255 
255 255 255 
255 255 255 
255 126 126 
0 0 0 
255 255 255 
0 0 0 
255 255 255 
161 161 161 
205 170 245 
255 255 255 
255 175 255 
255 188 255 
255 255 255 
255 175 175 
0 0 0 
255 160 255 
255 255 255 
255 255 255 
255 160 160 
161 161 161 
255 210 255 
161 161 161 
255 221 255 
255 255 255 
255 156 255 
255 255 255 
0 0 0 
255 255 255 
175 175 255 
0 0 0 
255 255 255 
255 255 255 
255 199 199 
0 0 0 
0 0 0 
255 255 255 
0 0 0 
0 0 0 
255 255 255 
255 255 255 
255 255 255 
255 255 255 
231 231 255 
161 161 161 
221 221 221 
255 255 255 
161 161 161 
255 127 127 
221 221 221 
255 255 255 
0 0 0 
255 255 255 
255 255 255 
255 255 255 
255 199 199 
221 221 221 
255 255 255 
161 161 161 
255 255 255 
255 255 255 
255 255 255 
255 255 255 
221 221 221 
255 255 255 
255 255 255 
0 0 0 
255 255 255 
0 0 0 
255 223 255 
255 237 255 
254 233 255 
0 0 0 
255 255 255 
0 0 0 
255 175 175 
0 0 0 
255 199 199 
247 77 77 
0 0 0 
255 98 98 
161 161 161 
255 255 255 
255 104 255 
0 0 0 
221 221 221 
255 144 255 
161 161 161 
126 126 255 
126 126 255 
221 221 221 
223 162 255 
249 249 255 
221 221 221 
161 161 161 
255 255 255 
221 221 221 
161 161 161 
60 60 255 
255 255 255 
255 134 134 
199 199 255 
161 161 161 
161 161 161 
255 211 228 
255 255 255 
255 198 255 
255 194 255 
77 77 247 
0 0 0 
255 255 255 
205 170 245 
221 221 221 
255 98 255 
221 221 221 
255 255 255 
194 164 194 
0 0 0 
161 161 161 
118 36 118 
0 0 0 
255 166 255 
76 76 255 
161 161 161 
255 255 255 
77 77 247 
255 255 255 
150 46 255 
255 255 255 
161 161 161 
255 255 255 
255 163 182 
255 163 181 
247 77 77 
161 161 161 
175 175 255 
161 161 161 
255 255 255 
255 255 255 
60 60 255 
126 126 255 
227 107 255 
193 60 193 
105 105 255 
0 0 0 
88 88 255 
105 105 255 
0 0 0 
255 72 231 
77 77 247 
255 116 255 
132 132 255 
47 47 151 
255 198 255 
47 47 151 
47 47 151 
88 88 255 
106 106 255 
77 77 247 
55 48 255 
85 85 255 
113 113 255 
109 39 255 
77 77 249 
47 47 151 
94 67 216 
255 145 255 
77 77 247 
64 64 207 
126 126 255 
74 74 255 
255 97 255 
64 64 207 
255 13 44 
64 64 207 
74 74 255 
0 0 0 
36 36 255 
147 48 176 
255 149 149 
255 132 132 
255 60 60 
255 122 122 
216 67 94 
211 29 65 
151 47 47 
0 0 0 
255 127 141 
151 47 47 
255 53 101 
255 58 126 
207 64 64 
121 20 131 
0 0 0 
255 255 255 
255 78 112 
186 58 125 
0 0 0 
255 58 58 
0 0 0 
172 53 255 
255 106 106 
151 47 47 
255 88 88 
255 105 105 
0 0 0 
255 47 106 
255 108 255 
255 58 58 
151 47 47 
151 47 47 
255 48 62 
0 0 0 
255 58 111 
0 0 0 
255 126 255 
255 105 105 
255 10 34 
255 255 255 
0 0 0 
255 255 255 
255 186 186 
0 0 0 
255 99 99 
255 184 255 
0 0 0 
0 0 0 
0 0 0 
255 255 255 
0 0 0 
126 126 255 
255 126 126 
161 161 161 
255 231 231 
255 175 175 
0 0 0 
255 159 159 
255 255 255 
92 28 255 
255 196 255 
255 175 255 
0 0 0 
245 170 205 
255 255 255 
255 255 255 
255 105 105 
255 255 255 
255 255 255 
161 161 161 
161 161 161 
244 170 244 
255 255 255 
0 0 0 
0 0 0 
161 161 161 
255 184 184 
161 161 161 
161 161 161 
255 95 204 
0 0 0 
255 255 255 
255 255 255 
255 98 98 
255 255 255 
255 255 255 
221 221 221 
0 0 0 
255 255 255 
0 0 0 
255 217 217 
255 255 255 
255 227 227 
175 175 255 
0 0 0 
255 137 255 
161 161 161 
255 255 255 
255 255 255 
255 255 255 
255 255 255 
247 77 77 
255 255 255 
255 126 126 
255 105 255 
255 255 255 
255 255 255 
255 255 255 
255 255 255 
255 254 255 
161 161 161 
126 126 255 
0 0 0 
0 0 0 
255 255 255 
255 172 172 
175 175 255 
161 161 161 
255 127 127 
255 199 199 
255 162 162 
255 255 255 
255 133 255 
255 126 126 
205 170 245 
255 255 255 
0 0 0 
0 0 0 
0 0 0 
255 255 255 
255 255 255 
255 255 255 
161 161 161 
255 254 254 
255 255 255 
255 255 255 
0 0 0 
255 255 255 
255 255 255 
0 0 0 
255 199 199 
255 255 255 
255 255 255 
221 221 221 
175 175 255 
255 255 255 
255 255 255 
255 255 255 
0 0 0 
0 0 0 
255 255 255 
0 0 0 
255 255 255 
221 221 221 
255 255 255 
255 230 255 
255 255 255 
161 161 161 
153 153 255 
255 253 255 
175 175 255 
0 0 0 
0 0 0 
0 0 0 
77 77 247 
255 255 255 
255 126 126 
161 161 161 
161 161 161 
137 60 194 
247 77 77 
255 255 255 
255 255 255 
255 255 255 
0 0 0 
161 161 161 
255 255 255 
126 126 255 
255 126 126 
255 255 255 
255 255 255 
255 255 255 
0 0 0 
255 98 255 
255 126 126 
255 222 255 
181 163 255 
0 0 0 
144 144 255 
255 255 255 
94 94 255 
0 0 0 
0 0 0 
255 255 255 
126 126 255 
161 161 161 
167 129 255 
92 28 255 
0 0 0 
77 77 247 
255 255 255 
161 161 161 
255 255 255 
255 255 255 
221 221 221 
255 255 255 
77 77 247 
0 0 0 
255 255 255 
161 161 161 
0 0 0 
255 160 255 
161 161 161 
161 161 161 
0 0 0 
255 255 255 
161 161 161 
44 13 255 
47 47 151 
0 0 0 
255 42 255 
255 128 255 
126 126 255 
255 133 255 
255 104 255 
98 98 255 
64 64 207 
0 0 0 
0 0 0 
255 255 255 
77 77 247 
64 64 207 
58 58 255 
174 174 255 
255 143 255 
156 98 255 
126 126 255 
47 47 151 
0 0 0 
47 47 151 
77 77 249 
126 85 255 
118 99 255 
65 28 255 
0 0 0 
106 106 255 
111 90 255 
64 64 207 
132 132 255 
103 80 255 
0 0 0 
47 47 151 
64 64 207 
88 88 255 
209 65 255 
77 77 249 
0 0 0 
255 114 114 
255 97 97 
226 65 116 
255 132 132 
255 74 135 
255 138 255 
0 0 0 
151 47 47 
151 47 47 
255 88 88 
255 97 97 
255 88 88 
207 64 64 
164 51 255 
249 77 77 
255 106 110 
0 0 0 
207 64 64 
255 140 255 
255 67 73 
0 0 0 
255 126 126 
0 0 0 
151 47 47 
255 66 83 
255 255 255 
0 0 0 
255 60 60 
255 105 105 
207 64 64 
255 255 255 
255 72 189 
151 47 47 
0 0 0 
72 22 72 
0 0 0 
151 47 47 
255 76 76 
194 60 137 
0 0 0 
161 161 161 
161 161 161 
221 221 221 
255 218 255 
0 0 0 
255 255 255 
0 0 0 
255 126 126 
255 173 255 
0 0 0 
207 207 255 
255 199 199 
255 255 255 
206 206 255 
255 255 255 
255 127 127 
255 255 255 
161 161 161 
255 255 255 
255 175 175 
255 47 107 
255 255 255 
255 87 255 
0 0 0 
255 255 255 
255 255 255 
255 174 255 
255 199 199 
255 255 255 
255 231 231 
255 255 255 
255 184 255 
255 255 255 
161 161 161 
0 0 0 
255 36 118 
255 255 255 
255 184 255 
255 175 175 
255 199 250 
255 47 47 
0 0 0 
214 166 255 
221 221 221 
161 161 161 
0 0 0 
0 0 0 
161 161 161 
255 255 255 
255 255 255 
0 0 0 
255 175 175 
221 221 221 
221 221 221 
255 255 255 
255 255 255 
255 126 126 
255 255 255 
0 0 0 
247 77 77 
161 161 161 
161 161 161 
255 105 255 
0 0 0 
255 255 255 
255 163 171 
0 0 0 
255 255 255 
255 255 255 
255 255 255 
0 0 0 
161 161 161 
0 0 0 
255 255 255 
161 161 161 
161 161 161 
255 255 255 
255 255 255 
255 206 255 
255 122 233 
0 0 0 
0 0 0 
161 161 161 
221 221 221 
199 199 255 
0 0 0 
126 126 255 
255 255 255 
161 161 161 
255 255 255 
255 255 255 
247 77 77 
255 255 255 
161 161 161 
161 161 161 
175 175 255 
255 255 255 
255 255 255 
255 255 255 
254 254 255 
221 221 221 
0 0 0 
255 210 255 
255 126 255 
227 227 255 
255 255 255 
255 255 255 
161 161 161 
175 175 255 
255 255 255 
221 221 221 
161 161 161 
222 222 255 
255 160 255 
0 0 0 
255 201 225 
161 161 161 
161 161 161 
184 184 255 
255 255 255 
255 126 255 
255 255 255 
255 255 255 
255 61 255 
77 77 247 
221 221 221 
255 255 255 
255 222 255 
255 255 255 
255 255 255 
0 0 0 
255 162 255 
161 161 161 
161 161 161 
255 255 255 
255 184 255 
0 0 0 
255 255 255 
161 161 161 
0 0 0 
255 188 188 
206 206 255 
255 175 175 
0 0 0 
0 0 0 
255 255 255 
0 0 0 
199 199 255 
161 161 161 
255 37 255 
255 255 255 
137 83 255 
255 199 199 
255 255 255 
161 161 161 
170 170 255 
161 161 161 
255 255 255 
255 255 255 
255 226 255 
255 255 255 
255 206 206 
193 60 193 
193 60 193 
255 255 255 
0 0 0 
175 175 255 
77 77 247 
255 159 255 
0 0 0 
0 0 0 
0 0 0 
0 0 0 
161 161 161 
161 161 161 
0 0 0 
255 162 255 
107 85 255 
255 255 255 
64 64 255 
0 0 0 
64 64 207 
174 98 255 
255 77 248 
255 76 246 
83 83 255 
77 77 247 
0 0 0 
88 88 255 
47 47 151 
215 206 255 
0 0 0 
0 0 0 
255 65 210 
72 72 255 
47 47 151 
88 88 255 
98 98 255 
195 100 255 
64 64 207 
97 97 255 
77 77 249 
247 146 255 
0 0 0 
255 255 255 
148 102 255 
74 74 255 
255 255 255 
197 74 238 
64 64 207 
113 113 255 
84 51 164 
147 85 255 
64 64 207 
160 160 255 
207 64 64 
249 77 77 
255 90 187 
255 111 255 
151 47 47 
255 72 72 
0 0 0 
151 47 47 
255 97 97 
118 36 118 
255 80 94 
255 106 106 
255 79 102 
255 88 88 
151 47 47 
255 90 110 
255 69 69 
255 80 138 
255 69 109 
255 109 126 
255 66 110 
186 58 125 
255 126 255 
151 47 47 
207 64 64 
255 86 148 
186 58 125 
151 47 47 
0 0 0 
0 0 0 
255 111 111 
0 0 0 
255 131 145 
255 88 88 
255 146 255 
0 0 0 
141 13 141 
255 88 88 
255 100 255 
255 170 170 
255 255 255 
118 36 118 
0 0 0 
161 161 161 
0 0 0 
0 0 0 
0 0 0 
221 221 221 
161 161 161 
127 127 255 
0 0 0 
0 0 0 
161 161 161 
181 17 56 
255 255 255 
255 255 255 
255 255 255 
255 255 255 
161 161 161 
255 255 255 
247 77 77 
0 0 0 
255 210 255 
255 126 126 
0 0 0 
161 161 161 
255 255 255 
255 206 206 
161 161 161 
255 255 255 
0 0 0 
161 161 161 
255 127 127 
161 161 161 
255 206 206 
221 221 221 
255 60 255 
161 161 161 
255 175 175 
199 199 255 
0 0 0 
255 255 255 
255 255 255 
255 105 105 
255 255 255 
255 255 255 
161 161 161 
161 161 161 
0 0 0 
175 175 255 
161 161 161 
161 161 161 
255 255 255 
221 221 221 
0 0 0 
255 255 255 
255 159 255 
0 0 0 
255 255 255 
255 249 255 
77 77 247 
255 98 255 
255 255 255 
221 221 221 
255 206 206 
255 255 255 
161 161 161 
255 255 255 
255 255 255 
255 255 255 
77 77 247 
255 255 255 
255 255 255 
161 161 161 
255 144 255 
221 221 221 
255 255 255 
255 255 255 
255 255 255 
0 0 0 
254 254 255 
161 161 161 
0 0 0 
161 161 161 
255 255 255 
0 0 0 
161 161 161 
255 233 254 
161 161 161 
255 255 255 
255 255 255 
255 255 255 
161 161 161 
0 0 0 
255 255 255 
255 210 255 
0 0 0 
255 175 255 
255 255 255 
255 126 126 
161 161 161 
0 0 0 
255 255 255 
0 0 0 
255 166 166 
193 60 193 
161 161 161 
247 77 77 
255 248 255 
255 255 255 
161 161 161 
255 74 255 
221 221 221 
255 255 255 
255 112 212 
161 161 161 
255 255 255 
255 255 255 
255 255 255 
255 128 239 
77 77 247 
199 199 255 
161 161 161 
255 255 255 
0 0 0 
255 175 175 
0 0 0 
249 249 255 
255 208 213 
231 231 255 
175 175 255 
255 255 255 
121 121 255 
0 0 0 
255 255 255 
255 255 255 
0 0 0 
161 161 161 
247 77 77 
0 0 0 
175 175 255 
255 255 255 
161 161 161 
255 255 255 
255 115 255 
161 161 161 
175 175 255 
255 210 255 
0 0 0 
255 255 255 
255 255 255 
161 161 161 
161 161 161 
221 221 221 
144 144 255 
161 161 161 
255 255 255 
255 255 255 
255 175 175 
0 0 0 
0 0 0 
0 0 0 
255 255 255 
255 193 255 
136 136 255 
255 255 255 
235 235 255 
175 175 255 
255 126 126 
255 255 255 
161 161 161 
255 231 255 
126 126 255 
221 221 221 
161 161 161 
0 0 0 
255 255 255 
0 0 0 
255 28 92 
107 54 176 
157 145 255 
84 51 164 
255 206 255 
77 77 247 
0 0 0 
0 0 0 
255 106 255 
251 169 255 
247 104 255 
255 165 255 
189 72 255 
64 64 207 
0 0 0 
47 47 151 
216 216 255 
94 67 216 
93 88 255 
77 77 249 
47 47 151 
102 72 233 
88 88 255 
64 64 207 
77 77 249 
36 36 255 
47 47 151 
118 36 118 
255 78 255 
255 106 255 
88 88 255 
106 91 255 
64 64 207 
77 77 249 
72 72 255 
85 85 255 
47 47 151 
106 106 255 
255 72 72 
249 77 77 
207 64 64 
249 77 77 
249 77 77 
255 98 156 
0 0 0 
216 67 94 
207 64 64 
255 129 255 
255 88 88 
255 97 97 
255 111 255 
207 64 64 
255 119 168 
72 22 72 
207 64 64 
255 106 106 
159 49 185 
255 97 97 
186 58 125 
249 77 77 
255 145 145 
255 92 203 
255 88 88 
255 255 255 
255 176 255 
255 126 126 
0 0 0 
72 22 72 
255 126 126 
255 87 255 
255 90 117 
255 60 126 
247 77 77 
255 255 255 
151 47 47 
247 77 77 
255 134 150 
255 255 255 
0 0 0 
182 163 255 
161 161 161 
255 255 255 
255 206 206 
118 36 118 
255 255 255 
118 36 118 
255 255 255 
255 144 255 
0 0 0 
247 77 77 
161 161 161 
0 0 0 
161 161 161 
0 0 0 
255 255 255 
255 255 255 
221 221 221 
255 255 255 
0 0 0 
0 0 0 
255 255 255 
255 255 255 
221 221 221 
255 162 223 
161 161 161 
221 221 221 
221 221 221 
255 183 183 
221 221 221 
255 218 218 
255 47 47 
118 36 118 
0 0 0 
161 161 161 
0 0 0 
255 255 255 
255 255 255 
255 255 255 
126 126 255 
255 160 255 
161 161 161 
221 221 221 
161 161 161 
255 179 224 
255 255 255 
0 0 0 
255 227 227 
0 0 0 
255 255 255 
221 221 221 
255 144 144 
255 255 255 
230 230 255 
161 161 161 
161 161 161 
0 0 0 
204 95 255 
245 170 205 
0 0 0 
235 45 145 
161 161 161 
199 199 255 
255 255 255 
255 249 249 
221 221 221 
255 255 255 
255 255 255 
255 187 255 
255 255 255 
0 0 0 
255 127 127 
255 255 255 
255 255 255 
0 0 0 
255 255 255 
0 0 0 
255 206 206 
255 255 255 
255 255 255 
255 255 255 
255 199 199 
199 199 255 
247 77 77 
161 161 161 
199 199 255 
255 255 255 
0 0 0 
255 255 255 
221 221 221 
161 161 161 
255 255 255 
255 255 255 
210 210 255 
255 170 170 
255 251 255 
175 175 255 
161 161 161 
255 205 255 
127 127 255 
161 161 161 
161 161 161 
255 255 255 
161 161 161 
0 0 0 
255 175 175 
0 0 0 
161 161 161 
230 175 255 
255 255 255 
161 161 161 
255 255 255 
255 255 255 
0 0 0 
0 0 0 
255 210 255 
0 0 0 
235 222 255 
199 199 255 
161 161 161 
255 175 175 
255 255 255 
0 0 0 
221 221 221 
255 199 199 
0 0 0 
161 161 161 
194 164 194 
255 255 255 
255 255 255 
255 255 255 
0 0 0 
161 161 161 
255 255 255 
225 180 255 
255 255 255 
255 255 255 
221 221 221 
255 249 255 
0 0 0 
0 0 0 
255 255 255 
105 105 255 
175 175 255 
255 255 255 
255 255 255 
255 255 255 
255 255 255 
255 221 255 
0 0 0 
175 175 255 
199 199 255 
207 207 255 
255 255 255 
0 0 0 
255 126 126 
199 199 255 
255 255 255 
255 8 255 
144 144 255 
255 227 255 
175 175 255 
255 105 255 
0 0 0 
255 255 255 
161 161 161 
253 253 255 
217 217 255 
0 0 0 
0 0 0 
77 77 247 
161 161 161 
255 255 255 
255 255 255 
255 255 255 
77 77 247 
160 18 190 
115 115 255 
0 0 0 
60 60 255 
118 36 118 
0 0 0 
255 128 255 
0 0 0 
232 22 163 
72 22 72 
149 149 255 
77 77 247 
126 126 255 
47 47 151 
105 105 255 
47 47 151 
0 0 0 
64 64 207 
0 0 0 
34 10 110 
47 47 151 
97 97 255 
77 77 247 
93 88 255 
134 90 255 
47 47 151 
77 77 249 
47 47 151 
145 81 255 
77 77 247 
64 64 207 
0 0 0 
77 77 247 
88 88 255 
77 77 249 
47 47 151 
58 58 255 
47 47 151 
191 184 255 
255 255 255 
0 0 0 
249 77 77 
255 88 88 
255 106 175 
255 51 67 
207 64 64 
255 102 102 
255 30 255 
216 67 94 
255 36 36 
255 182 182 
207 64 64 
255 107 107 
255 126 126 
186 58 125 
72 22 72 
186 58 125 
151 47 47 
255 94 175 
255 81 117 
186 58 125 
151 47 47 
255 78 122 
238 74 197 
255 83 83 
0 0 0 
0 0 0 
151 47 47 
207 64 64 
0 0 0 
247 77 77 
255 13 44 
170 47 255 
0 0 0 
255 209 217 
72 22 72 
255 36 36 
255 126 126 
161 161 161 
255 73 255 
255 132 255 
0 0 0 
255 188 255 
255 255 255 
255 110 153 
255 145 255 
255 255 255 
0 0 0 
247 77 77 
255 170 170 
255 255 255 
246 76 255 
161 161 161 
255 175 175 
0 0 0 
221 221 221 
194 60 137 
126 126 255 
0 0 0 
161 161 161 
221 221 221 
182 163 255 
255 121 255 
255 184 255 
255 216 255 
255 126 126 
0 0 0 
255 166 166 
255 175 175 
255 255 255 
255 255 255 
0 0 0 
255 95 204 
255 175 175 
161 161 161 
0 0 0 
255 178 255 
0 0 0 
161 161 161 
0 0 0 
255 255 255 
161 161 161 
255 253 255 
255 255 255 
255 255 255 
0 0 0 
0 0 0 
161 161 161 
175 175 255 
161 161 161 
255 255 255 
161 161 161 
255 126 126 
255 163 171 
255 172 172 
255 255 255 
255 255 255 
121 121 255 
255 255 255 
161 161 161 
255 255 255 
221 221 221 
255 255 255 
161 161 161 
255 255 255 
255 255 255 
255 255 255 
255 255 255 
255 231 231 
0 0 0 
255 255 255 
161 161 161 
255 255 255 
255 255 255 
255 255 255 
255 249 249 
255 175 175 
127 127 255 
255 255 255 
255 255 255 
255 255 255 
255 101 255 
170 170 255 
255 255 255 
255 255 255 
0 0 0 
255 255 255 
161 161 161 
0 0 0 
255 199 199 
0 0 0 
255 255 255 
255 255 255 
255 221 221 
255 255 255 
255 255 255 
247 77 77 
255 186 255 
255 255 255 
247 77 77 
168 162 235 
161 161 161 
255 206 206 
255 255 255 
244 170 244 
255 255 255 
184 184 255 
221 221 221 
255 255 255 
225 201 255 
255 255 255 
255 206 206 
221 221 221 
221 221 221 
126 126 255 
255 186 255 
254 227 255 
255 255 255 
193 60 193 
255 255 255 
255 255 255 
161 161 161 
77 77 247 
255 255 255 
127 127 255 
221 221 221 
175 175 255 
0 0 0 
0 0 0 
255 255 255 
193 60 193 
255 255 255 
255 255 255 
255 132 255 
0 0 0 
255 207 255 
245 223 245 
255 255 255 
255 225 255 
0 0 0 
255 207 207 
255 255 255 
255 255 255 
205 170 245 
161 161 161 
255 255 255 
0 0 0 
0 0 0 
221 221 221 
255 255 255 
231 231 255 
77 77 247 
255 255 255 
255 255 255 
0 0 0 
205 178 255 
77 77 247 
161 161 161 
0 0 0 
161 161 161 
206 206 255 
255 255 255 
205 205 255 
244 170 244 
0 0 0 
161 161 161 
0 0 0 
255 199 199 
161 161 161 
255 126 126 
255 255 255 
0 0 0 
190 132 255 
231 231 255 
249 249 255 
0 0 0 
47 47 151 
72 22 72 
255 36 255 
0 0 0 
0 0 0 
0 0 0 
255 127 255 
255 255 255 
118 36 118 
149 100 255 
99 86 255 
93 58 187 
0 0 0 
58 58 255 
255 137 255 
0 0 0 
77 77 249 
0 0 0 
99 89 255 
111 76 255 
125 58 186 
64 64 207 
255 106 255 
84 51 164 
72 22 72 
126 126 255 
77 77 249 
84 51 164 
47 47 151 
88 88 255 
83 51 255 
47 47 151 
255 100 255 
64 64 207 
47 47 151 
142 134 255 
64 64 207 
64 64 207 
56 48 182 
255 220 220 
255 88 88 
255 97 97 
207 64 64 
255 81 255 
151 47 47 
255 88 88 
255 88 88 
255 97 97 
207 64 64 
207 64 64 
255 88 88 
207 64 64 
207 64 64 
249 77 77 
255 113 113 
247 77 77 
255 47 56 
0 0 0 
151 47 47 
255 163 255 
158 47 255 
0 0 0 
255 88 88 
194 60 137 
151 47 47 
255 209 209 
255 94 94 
255 255 255 
255 48 56 
255 60 60 
0 0 0 
255 213 213 
0 0 0 
255 48 62 
255 95 204 
255 208 208 
0 0 0 
0 0 0 
255 255 255 
127 127 255 
161 161 161 
255 255 255 
255 255 255 
255 255 255 
255 255 255 
161 161 161 
0 0 0 
255 225 255 
255 255 255 
0 0 0 
255 255 255 
161 161 161 
0 0 0 
255 255 255 
221 221 221 
255 255 255 
247 77 77 
0 0 0 
0 0 0 
255 199 199 
255 175 175 
255 201 225 
0 0 0 
0 0 0 
255 255 255 
255 222 222 
0 0 0 
0 0 0 
255 255 255 
255 255 255 
255 227 255 
255 255 255 
255 255 255 
255 255 255 
0 0 0 
0 0 0 
0 0 0 
255 255 255 
255 255 255 
221 221 221 
255 199 199 
0 0 0 
255 164 255 
0 0 0 
255 147 255 
255 255 255 
0 0 0 
161 161 161 
255 164 194 
255 255 255 
255 255 255 
161 161 161 
255 255 255 
255 255 255 
255 255 255 
137 60 194 
255 175 175 
255 129 167 
200 162 255 
255 126 126 
255 255 255 
255 255 255 
255 255 255 
255 255 255 
255 179 236 
255 255 255 
161 161 161 
0 0 0 
161 161 161 
255 255 255 
44 13 255 
255 126 126 
255 255 255 
255 255 255 
161 161 161 
161 161 161 
255 255 255 
0 0 0 
255 255 255 
255 175 175 
255 163 193 
161 161 161 
255 254 254 
255 132 255 
206 206 255 
0 0 0 
161 161 161 
255 207 255 
161 161 161 
161 161 161 
221 221 221 
161 161 161 
161 161 161 
0 0 0 
0 0 0 
77 77 247 
255 249 249 
77 77 247 
0 0 0 
255 126 126 
255 196 255 
255 255 255 
255 99 224 
255 255 255 
231 231 255 
0 0 0 
0 0 0 
161 161 161 
255 255 255 
255 255 255 
255 255 255 
255 255 255 
231 231 255 
221 221 221 
255 255 255 
184 184 255 
161 161 161 
161 161 161 
255 254 255 
0 0 0 
255 255 255 
255 255 255 
221 221 255 
255 255 255 
255 235 255 
221 221 221 
226 226 255 
0 0 0 
255 255 255 
255 255 255 
255 255 255 
255 255 255 
255 255 255 
255 184 255 
255 127 127 
221 221 221 
126 126 255 
161 161 161 
161 161 161 
77 77 247 
255 255 255 
255 255 255 
255 255 255 
0 0 0 
170 170 255 
216 183 255 
255 255 255 
161 161 161 
255 255 255 
161 161 161 
161 161 161 
161 161 161 
77 77 247 
204 95 255 
161 161 161 
204 95 255 
77 77 247 
0 0 0 
0 0 0 
255 255 255 
255 255 255 
255 255 255 
255 255 255 
255 210 210 
0 0 0 
161 161 161 
255 83 255 
0 0 0 
0 0 0 
255 255 255 
255 255 255 
255 162 255 
0 0 0 
0 0 0 
0 0 0 
255 255 255 
77 77 247 
255 255 255 
60 60 255 
179 179 255 
0 0 0 
255 255 255 
0 0 0 
255 63 255 
254 206 255 
94 61 255 
91 63 255 
0 0 0 
198 142 255 
93 58 187 
102 72 233 
56 17 181 
107 47 255 
97 97 255 
118 93 255 
47 47 151 
0 0 0 
0 0 0 
126 126 255 
88 88 255 
144 140 255 
47 47 151 
88 88 255 
209 209 255 
0 0 0 
93 58 187 
113 113 255 
64 64 207 
64 64 255 
171 106 255 
118 36 118 
0 0 0 
144 144 255 
255 148 255 
72 22 72 
151 47 47 
216 67 94 
72 22 72 
151 47 47 
0 0 0 
249 77 77 
255 132 132 
151 47 47 
255 95 95 
255 88 88 
151 47 47 
255 114 114 
255 69 110 
207 64 64 
255 88 88 
255 93 93 
255 143 143 
255 74 74 
151 47 47 
255 95 115 
255 138 138 
151 47 47 
255 255 255 
151 47 47 
255 137 173 
207 64 64 
151 47 47 
0 0 0 
255 72 72 
255 255 255 
0 0 0 
207 64 64 
0 0 0 
247 77 77 
72 22 72 
247 77 77 
255 255 255 
247 77 77 
255 255 255 
255 255 255 
255 46 46 
247 77 77 
255 161 255 
255 255 255 
255 194 255 
0 0 0 
0 0 0 
207 207 255 
255 255 255 
255 255 255 
0 0 0 
0 0 0 
161 161 161 
161 161 161 
255 255 255 
0 0 0 
255 223 255 
255 235 235 
255 255 255 
161 161 161 
255 175 175 
255 255 255 
0 0 0 
255 2 57 
255 255 255 
221 221 221 
255 255 255 
255 255 255 
255 227 227 
221 221 221 
161 161 161 
255 255 255 
0 0 0 
255 255 255 
161 161 161 
255 169 255 
77 77 247 
0 0 0 
255 255 255 
221 221 221 
255 120 255 
255 255 255 
255 175 175 
255 204 255 
0 0 0 
255 255 255 
255 255 255 
255 255 255 
255 255 255 
255 255 255 
255 207 207 
255 255 255 
207 207 255 
255 255 255 
255 255 255 
255 95 95 
255 184 255 
255 210 210 
161 161 161 
0 0 0 
247 77 77 
247 77 77 
56 17 181 
255 255 255 
255 255 255 
161 161 161 
255 221 221 
255 255 255 
255 146 255 
206 206 255 
126 126 255 
255 255 255 
0 0 0 
255 255 255 
255 175 175 
255 210 210 
255 245 255 
161 161 161 
255 175 175 
221 221 221 
255 255 255 
221 221 221 
161 161 161 
175 175 255 
161 161 161 
221 221 221 
255 231 231 
255 255 255 
161 161 161 
255 255 255 
255 255 255 
244 170 244 
255 255 255 
77 77 247 
0 0 0 
255 255 255 
255 255 255 
255 255 255 
161 161 161 
161 161 161 
255 199 199 
0 0 0 
255 175 255 
199 199 255 
255 255 255 
255 255 255 
161 161 161 
60 60 255 
255 255 255 
0 0 0 
0 0 0 
255 255 255 
255 184 255 
255 175 175 
221 221 221 
255 255 255 
161 161 161 
255 255 255 
255 223 255 
235 235 255 
0 0 0 
221 221 221 
221 221 221 
0 0 0 
161 161 161 
0 0 0 
0 0 0 
255 255 255 
0 0 0 
255 255 255 
255 255 255 
255 254 255 
127 127 255 
255 255 255 
161 161 161 
161 161 161 
247 77 77 
126 126 255 
77 77 247 
255 255 255 
118 36 118 
255 255 255 
0 0 0 
179 179 255 
0 0 0 
0 0 0 
255 206 206 
0 0 0 
0 0 0 
193 60 193 
221 221 221 
106 47 255 
255 255 255 
0 0 0 
255 255 255 
255 255 255 
255 184 255 
0 0 0 
0 0 0 
255 255 255 
255 255 255 
217 6 47 
221 221 221 
247 77 77 
255 199 255 
255 255 255 
0 0 0 
150 46 255 
0 0 0 
161 161 161 
0 0 0 
44 13 255 
255 255 255 
0 0 0 
175 175 255 
255 155 255 
161 161 161 
137 60 194 
88 88 255 
77 77 247 
72 72 255 
0 0 0 
255 108 255 
255 64 208 
121 121 255 
154 141 255 
210 87 255 
230 115 255 
93 58 187 
47 47 151 
100 76 255 
64 64 207 
76 65 255 
64 64 207 
47 47 151 
64 64 207 
97 97 255 
232 100 255 
0 0 0 
247 213 255 
84 84 255 
72 22 72 
47 47 151 
84 51 164 
28 28 255 
52 40 255 
122 91 255 
47 47 151 
88 88 255 
77 77 249 
64 64 207 
47 47 151 
217 105 255 
255 36 255 
118 99 255 
0 0 0 
255 66 83 
207 64 64 
255 211 219 
207 64 64 
255 85 145 
255 90 111 
255 72 72 
255 255 255 
255 88 88 
255 255 255 
255 28 92 
151 47 47 
255 178 255 
255 67 168 
255 106 106 
255 98 255 
0 0 0 
255 129 129 
207 64 64 
0 0 0 
255 80 103 
207 64 64 
255 105 105 
255 138 138 
247 77 77 
255 144 144 
0 0 0 
0 0 0 
151 47 47 
151 47 47 
255 107 227 
255 83 83 
153 47 243 
0 0 0 
72 22 72 
255 255 255 
0 0 0 
255 206 206 
150 46 255 
0 0 0 
255 255 255 
255 206 206 
118 36 118 
255 255 255 
225 137 255 
0 0 0 
255 255 255 
255 255 255 
255 255 255 
255 121 255 
255 255 255 
161 161 161 
255 175 175 
255 255 255 
247 77 77 
236 223 255 
161 161 161 
255 255 255 
161 161 161 
255 130 255 
0 0 0 
206 206 255 
0 0 0 
161 161 161 
255 255 255 
244 170 244 
0 0 0 
161 161 161 
255 201 255 
161 161 161 
255 199 199 
255 255 255 
255 175 175 
255 255 255 
255 255 255 
255 172 172 
0 0 0 
161 161 161 
255 255 255 
255 174 174 
161 161 161 
217 217 255 
161 161 161 
255 199 199 
0 0 0 
244 170 244 
247 77 77 
245 223 245 
255 255 255 
255 175 175 
255 199 255 
255 170 170 
255 255 255 
255 255 255 
161 161 161 
255 255 255 
255 255 255 
199 199 255 
199 199 255 
0 0 0 
255 126 126 
161 161 161 
255 255 255 
255 255 255 
255 175 175 
255 199 199 
255 255 255 
161 161 161 
0 0 0 
0 0 0 
255 255 255 
0 0 0 
247 77 77 
255 173 255 
221 221 221 
161 161 161 
255 210 255 
255 255 255 
255 162 162 
255 255 255 
188 166 255 
168 162 235 
0 0 0 
255 255 255 
255 255 255 
255 255 255 
161 161 161 
161 161 161 
161 161 161 
161 161 161 
255 255 255 
255 255 255 
255 183 254 
255 255 255 
161 161 161 
255 255 255 
255 255 255 
255 255 255 
161 161 161 
221 221 221 
161 161 161 
255 255 255 
255 255 255 
175 175 255 
255 253 255 
0 0 0 
161 161 161 
161 161 161 
255 255 255 
255 255 255 
0 0 0 
0 0 0 
255 199 199 
161 161 161 
255 255 255 
255 212 255 
255 126 126 
161 161 161 
221 221 221 
161 161 161 
255 98 255 
255 137 180 
255 255 255 
0 0 0 
161 161 161 
221 221 221 
161 161 161 
255 255 255 
255 255 255 
255 254 254 
0 0 0 
0 0 0 
161 161 161 
161 161 161 
0 0 0 
255 255 255 
255 255 255 
0 0 0 
221 221 221 
255 175 175 
255 255 255 
255 255 255 
255 255 255 
0 0 0 
161 161 161 
161 161 161 
167 129 255 
0 0 0 
221 221 221 
161 161 161 
126 126 255 
255 255 255 
161 161 161 
0 0 0 
161 161 161 
255 255 255 
229 229 255 
255 255 255 
255 255 255 
255 255 255 
255 144 255 
227 227 255 
0 0 0 
0 0 0 
0 0 0 
255 133 255 
255 226 255 
118 36 118 
161 161 161 
255 255 255 
255 173 255 
255 185 255 
254 254 255 
198 198 255 
229 229 255 
161 161 161 
161 161 161 
64 64 207 
102 72 233 
47 47 151 
90 75 255 
255 88 255 
0 0 0 
64 64 207 
137 60 194 
90 61 255 
47 47 151 
47 47 151 
164 112 255 
105 105 255 
173 67 255 
215 119 255 
47 47 151 
36 36 255 
107 86 255 
86 8 86 
88 88 255 
47 47 151 
64 64 207 
64 64 207 
165 126 255 
84 51 164 
64 64 207 
0 0 0 
72 22 72 
74 74 255 
88 88 255 
97 97 255 
106 106 255 
64 64 207 
47 47 151 
77 77 247 
77 77 249 
132 132 255 
255 255 255 
72 72 255 
255 64 90 
255 64 64 
255 95 95 
249 77 77 
255 95 151 
151 47 47 
255 88 255 
159 49 134 
255 129 236 
255 103 255 
255 85 201 
151 47 47 
249 77 77 
255 216 224 
255 73 155 
249 50 77 
255 216 216 
255 172 255 
255 68 195 
255 28 65 
255 53 109 
255 216 216 
255 36 117 
249 77 77 
0 0 0 
255 170 170 
255 88 88 
255 132 132 
207 64 64 
207 64 64 
255 93 93 
151 47 47 
255 111 111 
255 10 34 
255 125 255 
207 64 64 
255 129 167 
0 0 0 
255 50 122 
255 162 255 
194 164 194 
0 0 0 
0 0 0 
161 161 161 
247 77 77 
255 206 255 
0 0 0 
255 199 199 
255 159 255 
0 0 0 
127 127 255 
255 98 98 
255 255 255 
0 0 0 
255 47 255 
244 170 244 
255 255 255 
255 170 170 
0 0 0 
255 222 222 
0 0 0 
199 199 255 
247 77 77 
255 60 60 
255 172 255 
255 76 246 
247 77 77 
0 0 0 
221 221 221 
0 0 0 
255 175 175 
161 161 161 
255 255 255 
255 231 231 
255 162 173 
194 164 194 
255 162 255 
245 170 205 
255 255 255 
0 0 0 
118 36 118 
255 255 255 
255 127 127 
255 255 255 
255 255 255 
255 255 255 
161 161 161 
255 175 175 
255 255 255 
161 161 161 
255 249 249 
161 161 161 
161 161 161 
0 0 0 
255 255 255 
99 99 255 
255 255 255 
161 161 161 
255 255 255 
255 255 255 
255 185 255 
255 255 255 
255 255 255 
255 255 255 
255 255 255 
255 199 199 
255 255 255 
0 0 0 
250 78 255 
255 255 255 
255 166 214 
255 255 255 
0 0 0 
231 231 255 
118 36 118 
255 125 255 
255 250 255 
231 231 255 
255 255 255 
255 255 255 
255 255 255 
255 255 255 
0 0 0 
255 255 255 
221 221 221 
255 255 255 
255 255 255 
199 199 255 
248 248 255 
255 255 255 
255 255 255 
255 255 255 
161 161 161 
255 231 231 
255 255 255 
255 98 255 
0 0 0 
255 255 255 
255 255 255 
221 221 221 
221 221 221 
255 255 255 
161 161 161 
77 77 247 
255 126 126 
255 255 255 
0 0 0 
255 255 255 
244 170 244 
255 255 255 
255 255 255 
126 126 255 
0 0 0 
221 221 221 
161 161 161 
255 255 255 
255 255 255 
255 175 175 
255 255 255 
255 255 255 
0 0 0 
255 98 255 
255 255 255 
255 231 231 
205 170 245 
218 218 255 
161 161 161 
77 77 247 
137 60 194 
255 255 255 
161 161 161 
255 255 255 
255 255 255 
0 0 0 
255 255 255 
255 127 127 
255 255 255 
255 222 226 
255 180 255 
150 46 255 
161 161 161 
255 255 255 
161 161 161 
126 126 255 
255 255 255 
0 0 0 
255 255 255 
221 221 221 
77 77 247 
0 0 0 
161 161 161 
255 206 206 
175 175 255 
161 161 161 
255 175 175 
255 255 255 
221 221 221 
255 255 255 
175 175 255 
255 255 255 
161 161 161 
255 255 255 
255 199 199 
255 255 255 
0 0 0 
255 163 255 
150 46 255 
255 199 199 
255 255 255 
60 60 255 
255 106 255 
255 105 255 
77 77 247 
161 161 161 
77 77 247 
255 185 255 
255 194 255 
0 0 0 
89 52 192 
255 22 72 
86 78 255 
0 0 0 
0 0 0 
0 0 0 
0 0 0 
126 126 255 
228 49 255 
77 77 249 
36 36 255 
64 64 207 
77 77 249 
47 47 151 
106 106 255 
77 77 247 
47 47 151 
93 78 255 
0 0 0 
0 0 0 
74 74 255 
255 255 255 
64 64 207 
0 0 0 
77 77 249 
0 0 0 
56 17 181 
101 53 255 
139 139 255 
72 72 255 
106 106 255 
172 172 255 
111 90 255 
77 77 249 
64 64 207 
64 64 207 
64 64 207 
47 47 151 
255 114 114 
255 74 74 
151 47 47 
151 47 47 
0 0 0 
255 58 58 
255 92 92 
151 47 47 
255 110 110 
0 0 0 
151 47 47 
255 63 91 
255 116 166 
255 58 58 
0 0 0 
0 0 0 
255 88 88 
72 22 72 
255 104 122 
255 255 255 
255 136 136 
255 77 82 
255 99 118 
255 110 154 
255 133 255 
255 243 255 
255 88 88 
255 107 107 
151 47 47 
0 0 0 
255 88 88 
247 77 77 
255 214 214 
255 125 255 
255 83 83 
151 47 47 
207 64 64 
151 47 47 
0 0 0 
255 255 255 
0 0 0 
255 250 255 
118 36 118 
255 255 255 
161 161 161 
0 0 0 
221 221 221 
118 36 118 
194 60 137 
255 255 255 
255 255 255 
221 221 221 
0 0 0 
221 221 221 
255 36 255 
255 255 255 
255 255 255 
0 0 0 
255 255 255 
161 161 161 
247 77 77 
255 171 171 
255 255 255 
161 161 161 
0 0 0 
255 255 255 
255 255 255 
161 161 161 
77 77 247 
247 77 77 
255 254 254 
161 161 161 
255 255 255 
255 255 255 
255 121 121 
255 255 255 
255 255 255 
255 184 184 
255 255 255 
161 161 161 
255 255 255 
255 255 255 
255 255 255 
255 255 255 
221 221 221 
255 255 255 
255 255 255 
255 255 255 
255 206 206 
255 255 255 
161 161 161 
105 105 255 
0 0 0 
0 0 0 
255 218 255 
255 255 255 
255 255 255 
161 161 161 
255 255 255 
255 199 199 
254 227 255 
161 161 161 
255 255 255 
255 255 255 
255 170 170 
161 161 161 
221 221 221 
255 255 255 
255 255 255 
255 36 36 
255 229 255 
255 255 255 
0 0 0 
161 161 161 
255 255 255 
255 255 255 
161 161 161 
0 0 0 
77 77 247 
255 238 255 
255 255 255 
0 0 0 
255 255 255 
0 0 0 
255 255 255 
0 0 0 
255 121 255 
247 77 77 
255 255 255 
255 255 255 
231 231 255 
255 255 255 
255 255 255 
255 255 255 
247 77 77 
0 0 0 
221 221 221 
199 199 255 
255 255 255 
255 255 255 
60 60 255 
244 170 244 
0 0 0 
255 255 255 
118 36 118 
255 247 255 
255 255 255 
255 255 255 
255 255 255 
0 0 0 
255 199 199 
221 221 221 
0 0 0 
255 255 255 
255 255 255 
255 210 210 
255 255 255 
0 0 0 
0 0 0 
255 255 255 
255 255 255 
0 0 0 
255 255 255 
245 223 245 
255 175 175 
255 255 255 
255 255 255 
161 161 161 
161 161 161 
250 155 255 
0 0 0 
161 161 161 
0 0 0 
210 210 255 
255 46 46 
255 255 255 
255 175 175 
255 255 255 
255 244 244 
247 77 77 
160 160 255 
231 231 255 
0 0 0 
161 161 161 
161 161 161 
255 255 255 
77 77 247 
0 0 0 
255 255 255 
161 161 161 
221 221 221 
255 86 255 
0 0 0 
221 221 221 
244 170 244 
255 255 255 
255 184 255 
0 0 0 
0 0 0 
255 176 204 
255 238 255 
247 77 77 
0 0 0 
221 221 221 
0 0 0 
161 161 161 
255 122 255 
0 0 0 
255 196 255 
255 255 255 
255 255 255 
161 161 161 
0 0 0 
225 137 255 
225 225 255 
255 255 255 
161 161 161 
0 0 0 
255 255 255 
165 88 255 
216 216 255 
255 255 255 
72 22 72 
60 60 255 
47 47 151 
203 75 255 
88 88 255 
0 0 0 
107 54 255 
255 255 255 
47 47 151 
233 122 255 
99 75 255 
47 47 151 
0 0 0 
0 0 0 
64 64 207 
255 206 255 
47 47 151 
88 88 255 
255 255 255 
111 90 255 
102 72 233 
84 51 164 
58 58 255 
117 59 255 
76 76 255 
150 46 255 
255 121 255 
47 47 151 
96 47 160 
47 47 151 
43 8 255 
84 51 164 
88 88 255 
255 146 255 
151 47 47 
207 64 64 
255 89 89 
255 72 72 
255 72 255 
249 77 77 
255 88 88 
255 13 255 
207 64 64 
164 51 84 
249 77 77 
255 36 36 
255 255 255 
163 22 232 
151 47 47 
255 132 132 
207 64 64 
207 64 64 
0 0 0 
255 72 72 
0 0 0 
151 47 47 
0 0 0 
151 47 47 
151 47 47 
151 47 47 
0 0 0 
0 0 0 
151 47 47 
247 77 77 
151 47 47 
151 47 47 
255 98 98 
255 255 255 
255 145 255 
255 155 250 
0 0 0 
247 77 77 
255 139 152 
255 255 255 
255 255 255 
255 126 126 
255 255 255 
255 172 255 
255 136 224 
161 161 161 
255 175 175 
255 255 255 
0 0 0 
161 161 161 
255 255 255 
255 206 206 
0 0 0 
161 161 161 
255 160 160 
255 231 255 
77 77 247 
247 77 77 
255 255 255 
0 0 0 
255 255 255 
0 0 0 
161 161 161 
0 0 0 
255 255 255 
255 255 255 
255 240 240 
255 160 255 
255 180 225 
255 255 255 
0 0 0 
255 175 175 
223 167 255 
161 161 161 
255 255 255 
0 0 0 
0 0 0 
0 0 0 
255 175 175 
255 255 255 
221 221 221 
255 255 255 
161 161 161 
0 0 0 
0 0 0 
255 162 162 
0 0 0 
255 231 231 
255 255 255 
0 0 0 
255 255 255 
247 77 77 
0 0 0 
0 0 0 
255 255 255 
255 255 255 
255 105 255 
161 161 161 
255 255 255 
255 255 255 
221 221 221 
255 255 255 
255 200 255 
255 255 255 
255 207 207 
221 221 221 
255 255 255 
255 255 255 
255 255 255 
0 0 0 
221 221 221 
255 255 255 
255 255 255 
127 127 255 
255 255 255 
255 255 255 
255 255 255 
0 0 0 
161 161 161 
0 0 0 
221 221 221 
255 223 255 
161 161 161 
255 255 255 
255 248 248 
255 238 255 
255 255 255 
77 77 247 
161 161 161 
255 255 255 
207 207 255 
161 161 161 
255 255 255 
221 221 221 
255 255 255 
221 221 221 
255 255 255 
255 105 255 
240 240 255 
77 77 247 
221 221 221 
0 0 0 
161 161 161 
221 221 221 
221 221 221 
175 175 255 
221 221 221 
0 0 0 
255 255 255 
0 0 0 
255 255 255 
255 255 255 
255 227 255 
255 255 255 
255 255 255 
247 77 77 
255 255 255 
161 161 161 
161 161 161 
0 0 0 
161 161 161 
175 175 255 
247 77 77 
0 0 0 
255 255 255 
0 0 0 
255 255 255 
0 0 0 
255 255 255 
248 248 255 
221 221 221 
221 221 221 
255 255 255 
145 145 255 
255 98 255 
255 255 255 
161 161 161 
0 0 0 
255 255 255 
221 221 221 
77 77 247 
161 161 161 
0 0 0 
254 254 255 
161 161 161 
255 255 255 
221 221 221 
255 255 255 
255 255 255 
255 174 255 
0 0 0 
235 162 168 
161 161 161 
255 207 207 
161 161 161 
161 161 161 
249 177 255 
255 255 255 
0 0 0 
161 161 161 
221 221 221 
0 0 0 
160 13 255 
175 175 255 
255 255 255 
77 77 247 
255 255 255 
92 28 255 
255 255 255 
255 255 255 
255 160 160 
255 255 255 
95 95 255 
194 164 194 
247 77 77 
206 206 255 
0 0 0 
154 58 255 
204 95 255 
142 74 239 
255 255 255 
72 22 72 
189 37 255 
78 54 253 
156 76 255 
132 132 255 
97 97 255 
255 78 255 
0 0 0 
64 64 207 
84 51 164 
60 60 255 
64 64 207 
0 0 0 
102 79 255 
118 36 118 
47 47 151 
77 77 249 
84 84 255 
84 51 164 
93 79 255 
47 47 151 
255 114 255 
106 106 255 
88 88 255 
53 53 255 
47 47 151 
0 0 0 
47 47 151 
77 77 249 
203 91 255 
160 160 255 
0 0 0 
64 64 207 
179 88 255 
62 48 255 
249 77 77 
0 0 0 
255 80 103 
255 39 65 
151 47 47 
255 36 36 
207 64 64 
207 64 64 
118 36 118 
249 77 77 
164 51 84 
255 88 88 
255 138 155 
207 64 64 
0 0 0 
255 132 255 
229 49 71 
249 77 77 
233 72 131 
255 88 88 
255 58 58 
255 105 105 
255 217 217 
255 255 255 
159 49 185 
186 58 125 
255 255 255 
151 47 47 
255 145 255 
255 36 36 
255 226 255 
119 37 83 
203 11 90 
0 0 0 
255 144 144 
135 42 107 
255 36 36 
255 93 93 
151 47 47 
255 255 255 
247 77 77 
255 184 255 
205 170 245 
255 254 254 
255 28 92 
255 212 255 
255 255 255 
0 0 0 
221 221 221 
221 221 221 
247 77 77 
255 255 255 
161 161 161 
161 161 161 
255 59 59 
0 0 0 
255 255 255 
255 175 175 
0 0 0 
221 221 221 
255 255 255 
255 255 255 
105 105 255 
0 0 0 
161 161 161 
255 255 255 
161 161 161 
255 255 255 
221 221 221 
255 255 255 
0 0 0 
255 255 255 
255 255 255 
0 0 0 
221 221 221 
0 0 0 
0 0 0 
255 255 255 
255 255 255 
255 255 255 
255 255 255 
255 255 255 
255 129 255 
0 0 0 
255 255 255 
194 164 194 
231 231 255 
221 221 221 
0 0 0 
0 0 0 
255 249 249 
255 172 172 
255 235 235 
255 255 255 
255 255 255 
161 161 161 
255 255 255 
0 0 0 
255 249 249 
161 161 161 
118 36 118 
255 170 170 
0 0 0 
0 0 0 
255 126 126 
255 255 255 
255 255 255 
255 255 255 
255 249 249 
161 161 161 
221 221 221 
255 175 175 
255 255 255 
255 255 255 
255 255 255 
255 249 249 
255 255 255 
221 221 221 
0 0 0 
255 255 255 
255 255 255 
175 175 255 
247 77 77 
0 0 0 
161 161 161 
255 255 255 
199 199 255 
221 221 221 
0 0 0 
161 161 161 
161 161 161 
255 127 127 
255 255 255 
221 221 221 
0 0 0 
255 28 92 
255 255 255 
255 127 127 
255 255 255 
255 255 255 
0 0 0 
161 161 161 
255 255 255 
255 249 249 
199 199 255 
161 161 161 
221 221 221 
255 255 255 
0 0 0 
255 255 255 
210 109 255 
255 255 255 
255 255 255 
226 138 255 
255 175 175 
0 0 0 
255 255 255 
255 255 255 
161 161 161 
161 161 161 
255 255 255 
255 255 255 
0 0 0 
126 126 255 
255 255 255 
161 161 161 
126 126 255 
175 175 255 
161 161 161 
161 161 161 
255 210 210 
98 98 255 
161 161 161 
255 255 255 
0 0 0 
105 105 255 
255 255 255 
171 163 255 
255 255 255 
161 161 161 
255 255 255 
0 0 0 
255 199 199 
255 255 255 
0 0 0 
0 0 0 
161 161 161 
255 255 255 
247 77 77 
0 0 0 
255 255 255 
0 0 0 
255 255 255 
255 227 255 
255 255 255 
175 175 255 
77 77 247 
255 255 255 
255 99 224 
0 0 0 
0 0 0 
255 255 255 
144 144 255 
255 255 255 
0 0 0 
88 88 255 
255 255 255 
255 255 255 
194 60 137 
161 161 161 
255 255 255 
255 255 255 
255 164 255 
199 199 255 
0 0 0 
255 125 255 
77 77 247 
84 51 164 
0 0 0 
71 22 255 
162 50 255 
0 0 0 
137 60 194 
255 223 255 
118 99 255 
255 162 255 
102 79 255 
255 49 159 
182 21 255 
132 132 255 
91 91 255 
58 58 255 
71 22 255 
0 0 0 
115 61 197 
255 103 255 
112 77 255 
141 90 255 
106 106 255 
47 47 151 
0 0 0 
84 51 164 
255 140 255 
47 47 151 
138 138 255 
98 68 238 
97 97 255 
110 84 255 
232 118 255 
205 177 255 
255 176 255 
0 0 0 
131 72 233 
0 0 0 
172 161 255 
77 77 249 
119 37 83 
151 47 47 
255 88 88 
151 47 47 
151 47 47 
255 88 88 
255 78 96 
255 150 150 
255 88 88 
151 47 47 
255 140 255 
207 64 64 
255 136 136 
255 98 98 
207 64 64 
207 64 64 
255 88 88 
0 0 0 
0 0 0 
216 67 94 
255 144 144 
0 0 0 
255 132 132 
207 64 64 
255 132 132 
151 47 47 
249 77 77 
247 77 77 
255 93 143 
255 170 208 
255 103 103 
255 58 58 
72 22 72 
237 73 255 
164 51 84 
151 47 47 
151 47 47 
0 0 0 
255 47 241 
255 161 255 
0 0 0 
255 255 255 
0 0 0 
255 206 255 
255 60 60 
255 254 254 
255 126 126 
255 255 255 
0 0 0 
255 126 126 
0 0 0 
255 145 255 
161 161 161 
0 0 0 
255 255 255 
161 161 161 
255 221 255 
255 255 255 
0 0 0 
225 201 255 
161 161 161 
255 255 255 
255 126 126 
255 255 255 
247 77 77 
255 224 255 
255 199 199 
126 126 255 
255 249 249 
255 175 175 
255 255 255 
161 161 161 
161 161 161 
255 255 255 
255 255 255 
255 254 254 
255 255 255 
255 254 254 
161 161 161 
207 207 255 
170 170 255 
247 77 77 
194 60 137 
255 216 216 
221 221 221 
77 77 247 
126 126 255 
255 199 199 
161 161 161 
181 17 56 
161 161 161 
161 161 161 
255 255 255 
249 249 255 
0 0 0 
255 99 224 
221 221 221 
161 161 161 
255 255 255 
161 161 161 
0 0 0 
255 188 188 
0 0 0 
255 188 255 
161 161 161 
0 0 0 
221 221 221 
255 175 175 
255 255 255 
255 255 255 
255 255 255 
255 163 255 
255 255 255 
255 255 255 
255 255 255 
255 210 255 
161 161 161 
255 47 47 
255 255 255 
255 255 255 
255 148 255 
255 255 255 
161 161 161 
127 127 255 
255 255 255 
244 170 244 
77 77 247 
255 255 255 
0 0 0 
0 0 0 
255 255 255 
231 231 255 
255 255 255 
255 175 175 
255 199 199 
255 255 255 
255 255 255 
255 230 255 
255 255 255 
161 161 161 
255 255 255 
255 255 255 
193 60 193 
221 221 221 
60 60 255 
0 0 0 
221 221 221 
255 235 255 
161 161 161 
144 144 255 
255 249 249 
255 255 255 
255 137 137 
0 0 0 
255 227 254 
199 199 255 
255 129 255 
0 0 0 
126 126 255 
0 0 0 
255 254 254 
255 255 255 
255 255 255 
255 246 255 
255 255 255 
255 255 255 
206 206 255 
221 221 221 
247 77 77 
161 161 161 
161 161 161 
206 206 255 
255 255 255 
255 255 255 
255 174 255 
255 170 255 
255 255 255 
0 0 0 
161 161 161 
221 221 221 
56 17 255 
255 155 255 
255 255 255 
0 0 0 
161 161 161 
0 0 0 
255 190 255 
161 161 161 
0 0 0 
175 175 255 
0 0 0 
255 255 255 
0 0 0 
126 126 255 
255 255 255 
255 196 255 
0 0 0 
175 175 255 
0 0 0 
126 126 255 
255 126 126 
175 175 255 
0 0 0 
255 144 255 
161 161 161 
0 0 0 
77 77 247 
222 222 255 
227 227 255 
255 173 255 
255 254 255 
77 77 247 
255 236 255 
255 255 255 
221 221 221 
60 60 255 
255 255 255 
47 47 151 
101 53 255 
72 22 72 
0 0 0 
65 29 211 
102 79 255 
72 22 72 
47 47 151 
0 0 0 
47 47 151 
78 60 255 
132 132 255 
255 98 255 
255 255 255 
149 149 255 
255 98 255 
169 40 128 
197 74 238 
203 63 203 
78 24 128 
255 232 255 
47 47 151 
238 75 255 
122 75 241 
130 84 255 
163 84 255 
167 129 255 
255 114 255 
94 67 216 
255 111 255 
255 240 255 
122 122 255 
47 47 151 
56 17 181 
47 47 151 
149 103 255 
126 126 255 
119 95 255 
98 98 255 
255 107 107 
249 77 77 
255 88 88 
255 80 103 
255 88 88 
207 64 64 
216 67 94 
255 77 229 
255 89 95 
151 47 47 
207 64 64 
164 51 84 
255 158 196 
255 88 88 
255 81 131 
255 140 255 
207 64 64 
255 126 126 
255 98 155 
255 126 126 
255 107 255 
255 64 64 
255 49 208 
255 50 50 
255 57 103 
255 110 110 
151 47 47 
255 97 97 
0 0 0 
0 0 0 
72 22 72 
255 99 224 
0 0 0 
92 28 255 
255 255 255 
0 0 0 
0 0 0 
255 28 28 
151 47 47 
0 0 0 
255 206 206 
255 255 255 
161 161 161 
0 0 0 
220 81 255 
247 77 77 
255 255 255 
255 255 255 
255 255 255 
0 0 0 
255 175 175 
255 126 162 
255 224 255 
0 0 0 
161 161 161 
0 0 0 
255 255 255 
0 0 0 
0 0 0 
255 60 60 
255 255 255 
255 255 255 
255 199 199 
255 210 210 
255 255 255 
255 255 255 
255 255 255 
255 155 250 
255 166 215 
247 77 77 
0 0 0 
255 199 199 
161 161 161 
255 145 255 
221 221 221 
221 221 221 
0 0 0 
255 255 255 
255 255 255 
0 0 0 
255 249 249 
127 127 255 
126 126 255 
161 161 161 
255 199 199 
255 255 255 
181 163 255 
0 0 0 
205 199 255 
255 199 199 
255 127 127 
255 255 255 
118 36 118 
255 255 255 
161 161 161 
255 196 255 
255 255 255 
255 255 255 
255 199 199 
255 255 255 
255 255 255 
161 161 161 
255 255 255 
255 255 255 
221 221 221 
255 175 175 
161 161 161 
255 255 255 
255 255 255 
255 207 207 
255 206 206 
255 249 249 
161 161 161 
0 0 0 
255 255 255 
207 207 255 
255 106 255 
221 221 221 
0 0 0 
255 255 255 
255 163 255 
255 255 255 
161 161 161 
221 221 221 
161 161 161 
161 161 161 
0 0 0 
0 0 0 
255 199 199 
0 0 0 
247 77 77 
0 0 0 
161 161 161 
255 255 255 
255 255 255 
255 255 255 
255 175 175 
255 193 255 
255 99 224 
161 161 161 
255 255 255 
249 249 255 
255 255 255 
255 255 255 
255 231 231 
144 144 255 
0 0 0 
224 99 255 
255 175 175 
255 255 255 
0 0 0 
255 255 255 
255 255 255 
234 153 255 
161 161 161 
255 162 255 
0 0 0 
77 77 247 
255 255 255 
0 0 0 
221 221 221 
255 255 255 
0 0 0 
161 161 161 
255 255 255 
255 255 255 
255 162 223 
77 77 247 
255 255 255 
255 60 136 
255 239 255 
161 161 161 
161 161 161 
77 77 247 
255 255 255 
0 0 0 
255 184 255 
161 161 161 
77 77 247 
145 113 255 
161 161 161 
255 255 255 
221 221 221 
255 174 255 
255 127 127 
193 60 193 
255 13 142 
255 255 255 
161 161 161 
161 161 161 
0 0 0 
0 0 0 
247 77 77 
255 144 255 
221 221 221 
60 60 255 
255 220 255 
0 0 0 
161 161 161 
0 0 0 
255 46 150 
0 0 0 
60 60 255 
161 161 161 
255 255 255 
255 255 255 
0 0 0 
170 170 255 
0 0 0 
255 249 249 
86 8 86 
199 199 255 
194 164 194 
255 255 255 
255 175 255 
77 77 247 
255 254 254 
235 51 216 
107 47 255 
0 0 0 
255 255 255 
69 69 255 
34 10 110 
84 51 164 
72 22 72 
0 0 0 
58 58 255 
0 0 0 
77 77 247 
172 161 255 
255 59 191 
245 146 255 
47 47 151 
72 22 72 
177 113 255 
171 61 255 
77 77 247 
149 149 255 
74 74 255 
84 51 164 
47 47 151 
77 77 249 
37 37 255 
118 99 255 
88 88 255 
77 77 249 
64 64 207 
108 87 255 
140 84 255 
90 50 255 
255 29 230 
148 102 255 
124 114 255 
64 64 207 
0 0 0 
160 77 255 
255 58 58 
207 64 64 
207 64 64 
233 72 131 
255 121 255 
255 86 86 
255 50 255 
207 64 64 
0 0 0 
207 64 64 
255 99 99 
247 77 77 
255 72 72 
255 144 144 
255 102 102 
255 171 255 
255 107 255 
207 64 64 
151 47 47 
255 103 208 
0 0 0 
0 0 0 
255 143 143 
255 98 202 
207 64 64 
249 77 77 
255 88 88 
151 47 47 
255 206 208 
0 0 0 
207 64 64 
255 13 142 
255 107 124 
0 0 0 
151 47 47 
0 0 0 
216 67 94 
255 91 223 
151 47 47 
221 221 221 
161 161 161 
255 164 255 
255 162 238 
0 0 0 
199 199 255 
181 17 56 
221 167 221 
255 255 255 
255 98 98 
0 0 0 
255 255 255 
255 255 255 
255 99 224 
0 0 0 
0 0 0 
247 77 77 
255 255 255 
255 229 229 
255 162 162 
255 255 255 
77 77 247 
255 255 255 
255 136 224 
255 175 175 
161 161 161 
255 231 231 
161 161 161 
0 0 0 
255 188 188 
0 0 0 
0 0 0 
255 188 255 
0 0 0 
247 77 77 
0 0 0 
247 77 77 
255 227 255 
254 254 255 
255 255 255 
247 77 77 
255 105 255 
255 255 255 
255 255 255 
255 255 255 
255 95 252 
145 145 255 
199 199 255 
161 161 161 
255 175 175 
255 255 255 
255 255 255 
255 132 190 
221 221 221 
255 132 255 
255 255 255 
255 255 255 
255 255 255 
161 161 161 
161 161 161 
77 77 247 
0 0 0 
255 255 255 
255 177 255 
255 184 184 
161 161 161 
255 255 255 
255 255 255 
255 255 255 
255 231 231 
255 216 255 
255 255 255 
221 221 221 
161 161 161 
0 0 0 
255 126 126 
221 221 221 
255 255 255 
255 255 255 
255 255 255 
255 255 255 
255 126 126 
221 221 221 
221 221 221 
0 0 0 
0 0 0 
0 0 0 
206 95 255 
161 161 161 
255 212 255 
255 255 255 
0 0 0 
255 255 255 
0 0 0 
255 105 255 
255 255 255 
255 222 255 
255 255 255 
255 228 255 
255 238 255 
255 237 255 
161 161 161 
244 170 244 
77 77 247 
0 0 0 
161 161 161 
255 255 255 
255 255 255 
221 221 221 
255 199 199 
255 255 255 
161 161 161 
255 210 255 
255 199 199 
255 255 255 
161 161 161 
199 199 255 
161 161 161 
255 255 255 
255 183 253 
0 0 0 
255 144 255 
0 0 0 
255 255 255 
255 175 175 
255 255 255 
255 176 204 
255 126 126 
150 46 255 
0 0 0 
255 227 227 
231 231 255 
255 255 255 
161 161 161 
232 232 255 
205 178 255 
255 255 255 
161 161 161 
206 206 255 
255 255 255 
255 255 255 
255 255 255 
118 36 118 
255 255 255 
255 255 255 
144 144 255 
60 60 255 
161 161 161 
255 255 255 
161 161 161 
255 255 255 
0 0 0 
255 255 255 
0 0 0 
255 255 255 
255 230 255 
0 0 0 
200 82 255 
0 0 0 
255 255 255 
255 200 255 
0 0 0 
255 255 255 
77 77 247 
244 223 255 
161 161 161 
0 0 0 
0 0 0 
0 0 0 
255 255 255 
255 255 255 
0 0 0 
255 126 126 
255 199 199 
0 0 0 
206 206 255 
0 0 0 
167 129 255 
209 28 92 
71 65 230 
189 107 255 
255 212 255 
0 0 0 
124 102 255 
74 74 255 
0 0 0 
125 125 255 
106 106 255 
64 64 207 
0 0 0 
0 0 0 
152 65 244 
64 64 207 
110 90 255 
255 215 255 
79 79 255 
245 170 255 
124 102 255 
130 100 255 
203 78 255 
47 47 151 
193 60 193 
64 64 207 
47 47 151 
255 255 255 
72 22 72 
193 60 193 
72 72 255 
99 89 255 
230 102 255 
255 66 237 
111 90 255 
255 255 255 
106 106 255 
97 97 255 
235 211 255 
120 120 255 
255 121 255 
255 98 98 
255 76 76 
255 97 97 
0 0 0 
255 114 114 
255 88 88 
255 32 98 
207 64 64 
221 68 206 
164 51 84 
255 97 97 
255 64 255 
255 138 138 
186 58 125 
255 64 157 
0 0 0 
255 121 255 
255 227 227 
223 69 178 
247 77 77 
255 132 132 
151 47 47 
255 216 216 
119 37 83 
255 58 58 
216 67 94 
0 0 0 
247 77 77 
0 0 0 
255 255 255 
255 77 77 
255 58 58 
0 0 0 
0 0 0 
255 211 255 
255 47 47 
255 164 255 
110 10 34 
255 207 255 
161 161 161 
255 238 238 
255 177 193 
221 221 221 
255 95 95 
255 219 255 
0 0 0 
255 95 95 
244 170 244 
221 221 221 
255 60 60 
255 144 144 
0 0 0 
255 255 255 
255 175 175 
255 255 255 
255 126 126 
161 161 161 
255 255 255 
199 199 255 
255 255 255 
255 95 95 
0 0 0 
206 162 255 
255 188 188 
161 161 161 
161 161 161 
255 175 175 
255 162 193 
255 241 255 
255 199 199 
0 0 0 
0 0 0 
161 161 161 
255 250 255 
255 199 199 
255 255 255 
255 199 199 
161 161 161 
161 161 161 
193 60 193 
255 255 255 
255 255 255 
0 0 0 
0 0 0 
161 161 161 
255 255 255 
161 161 161 
255 175 175 
161 161 161 
255 192 255 
0 0 0 
0 0 0 
255 255 255 
161 161 161 
255 175 175 
121 121 255 
255 165 233 
255 255 255 
0 0 0 
255 255 255 
255 249 249 
255 255 255 
255 231 231 
161 161 161 
255 255 255 
0 0 0 
255 255 255 
255 255 255 
255 164 255 
255 60 60 
255 255 255 
255 255 255 
255 175 175 
255 255 255 
0 0 0 
255 255 255 
0 0 0 
255 255 255 
255 145 255 
161 161 161 
77 77 247 
0 0 0 
221 221 221 
161 161 161 
161 161 161 
255 238 255 
255 255 255 
255 255 255 
255 255 255 
255 255 255 
166 166 255 
161 161 161 
0 0 0 
0 0 0 
221 221 221 
0 0 0 
255 17 90 
0 0 0 
255 255 255 
255 255 255 
161 161 161 
221 221 221 
255 184 184 
255 175 175 
221 221 221 
255 199 199 
255 255 255 
255 255 255 
0 0 0 
255 255 255 
199 199 255 
161 161 161 
0 0 0 
255 255 255 
255 255 255 
0 0 0 
255 255 255 
255 255 255 
255 227 255 
0 0 0 
255 95 255 
161 161 161 
126 126 255 
255 255 255 
255 255 255 
255 255 255 
0 0 0 
255 255 255 
255 174 174 
255 255 255 
0 0 0 
255 255 255 
221 221 221 
255 255 255 
221 221 221 
175 175 255 
255 222 255 
161 161 161 
255 221 255 
199 199 255 
255 255 255 
0 0 0 
60 60 255 
60 60 255 
255 231 255 
199 199 255 
0 0 0 
60 60 255 
77 77 247 
255 255 255 
255 255 255 
255 199 199 
0 0 0 
255 255 255 
255 255 255 
255 255 255 
118 36 118 
255 254 254 
172 172 255 
221 221 221 
161 161 161 
255 181 255 
255 255 255 
193 60 193 
0 0 0 
161 161 161 
221 221 221 
105 105 255 
255 206 206 
0 0 0 
221 221 221 
255 255 255 
0 0 0 
221 221 221 
77 77 247 
221 221 221 
151 47 255 
83 36 255 
47 47 151 
47 47 151 
0 0 0 
64 64 207 
255 255 255 
92 28 255 
0 0 0 
255 255 255 
125 58 186 
107 86 255 
95 95 255 
0 0 0 
156 126 255 
255 103 255 
97 97 255 
88 88 255 
118 36 118 
255 255 255 
94 67 216 
84 51 164 
0 0 0 
106 91 255 
92 28 209 
64 64 207 
72 22 72 
106 106 255 
213 213 255 
97 97 255 
58 58 255 
107 86 255 
47 47 151 
255 155 255 
134 97 255 
64 64 207 
77 77 249 
88 88 255 
118 99 255 
142 13 100 
255 80 103 
151 47 47 
255 88 88 
249 77 77 
207 64 64 
255 98 98 
151 47 47 
151 47 47 
255 90 111 
151 47 47 
164 51 84 
151 47 47 
238 74 197 
255 81 114 
255 86 86 
255 95 95 
255 143 255 
207 64 64 
255 78 83 
151 47 47 
255 134 239 
255 58 58 
0 0 0 
255 174 255 
151 47 47 
0 0 0 
255 64 71 
255 47 47 
255 112 210 
151 47 47 
0 0 0 
0 0 0 
249 77 77 
0 0 0 
0 0 0 
255 126 126 
255 88 88 
99 30 99 
255 232 239 
255 255 255 
255 255 255 
255 121 121 
255 144 144 
255 144 144 
255 226 255 
255 255 255 
255 185 255 
255 175 175 
255 81 116 
255 186 255 
161 161 161 
255 255 255 
0 0 0 
161 161 161 
255 17 17 
247 77 77 
255 255 255 
255 98 98 
255 255 255 
233 210 255 
127 127 255 
255 255 255 
173 162 255 
255 126 126 
255 126 126 
255 255 255 
0 0 0 
0 0 0 
161 161 161 
161 161 161 
255 255 255 
161 161 161 
255 230 255 
161 161 161 
255 255 255 
0 0 0 
255 184 255 
255 255 255 
255 255 255 
255 255 255 
255 98 98 
0 0 0 
161 161 161 
255 210 210 
255 255 255 
255 255 255 
161 161 161 
161 161 161 
221 221 221 
255 255 255 
255 255 255 
255 244 255 
0 0 0 
161 161 161 
221 221 221 
255 126 126 
0 0 0 
221 221 221 
255 175 175 
0 0 0 
255 255 255 
255 255 255 
221 221 221 
255 255 255 
255 255 255 
255 255 255 
175 175 255 
175 175 255 
255 175 175 
255 255 255 
161 161 161 
0 0 0 
255 255 255 
255 199 199 
255 255 255 
255 199 199 
255 255 255 
255 249 249 
255 255 255 
161 161 161 
255 60 60 
255 221 255 
255 255 255 
255 255 255 
175 175 255 
255 255 255 
255 255 255 
0 0 0 
254 227 255 
255 255 255 
249 249 255 
255 255 255 
0 0 0 
0 0 0 
255 199 199 
221 221 221 
221 221 221 
247 77 77 
255 254 255 
255 222 255 
255 255 255 
161 161 161 
0 0 0 
255 162 255 
161 161 161 
161 161 161 
161 161 161 
255 255 255 
255 255 255 
255 255 255 
161 161 161 
0 0 0 
0 0 0 
255 255 255 
245 223 245 
0 0 0 
255 255 255 
161 161 161 
255 188 255 
255 229 255 
255 145 145 
0 0 0 
0 0 0 
161 161 161 
0 0 0 
255 255 255 
199 199 255 
60 60 255 
126 126 255 
77 77 247 
255 255 255 
77 77 247 
161 161 161 
255 205 255 
255 255 255 
161 161 161 
255 255 255 
255 99 224 
221 221 221 
221 221 221 
255 255 255 
161 161 161 
255 127 127 
255 255 255 
221 221 221 
255 98 255 
221 221 221 
247 77 77 
255 255 255 
161 161 161 
0 0 0 
161 161 161 
255 121 255 
161 161 161 
255 255 255 
255 206 255 
0 0 0 
139 129 255 
221 221 221 
255 255 255 
254 227 255 
247 77 77 
255 175 175 
255 203 255 
106 47 255 
161 161 161 
255 175 231 
0 0 0 
161 161 161 
255 255 255 
175 175 255 
77 77 247 
0 0 0 
255 255 255 
77 77 247 
247 77 77 
44 13 255 
0 0 0 
97 97 255 
255 136 255 
255 178 255 
77 77 247 
64 64 207 
0 0 0 
0 0 0 
167 129 255 
47 47 151 
255 95 255 
83 37 119 
47 47 151 
85 85 255 
47 47 151 
255 126 255 
0 0 0 
47 47 151 
64 64 207 
163 94 255 
77 77 249 
47 47 151 
72 72 255 
130 73 239 
47 47 151 
255 255 255 
47 47 151 
47 47 151 
102 102 255 
47 47 151 
255 214 255 
64 64 207 
171 37 126 
47 47 151 
77 77 249 
64 64 207 
99 75 255 
90 61 255 
216 67 94 
255 58 125 
255 97 97 
255 94 143 
255 106 106 
255 170 255 
255 104 104 
72 22 72 
151 47 47 
255 77 160 
255 255 255 
255 255 255 
255 138 138 
72 22 72 
255 255 255 
255 206 206 
255 102 255 
255 218 241 
207 64 64 
255 97 97 
255 80 103 
0 0 0 
186 58 125 
255 107 107 
0 0 0 
255 104 158 
0 0 0 
151 47 47 
207 64 64 
0 0 0 
0 0 0 
0 0 0 
255 97 97 
255 237 237 
255 60 60 
151 47 47 
255 60 60 
255 255 255 
255 138 138 
255 36 255 
255 47 255 
255 172 172 
0 0 0 
255 255 255 
255 172 172 
255 144 144 
255 175 175 
151 47 255 
255 212 255 
247 77 77 
255 208 208 
255 188 188 
161 161 161 
161 161 161 
161 161 161 
255 174 255 
255 183 255 
255 255 255 
255 255 255 
0 0 0 
255 154 255 
255 155 255 
161 161 161 
255 126 126 
161 161 161 
245 170 205 
255 255 255 
255 255 255 
255 255 255 
255 170 170 
255 255 255 
255 254 254 
0 0 0 
255 175 175 
161 161 161 
255 98 98 
0 0 0 
255 231 231 
0 0 0 
255 121 121 
0 0 0 
255 162 193 
255 184 255 
247 77 77 
255 255 255 
255 126 126 
255 255 255 
175 175 255 
0 0 0 
0 0 0 
255 255 255 
255 95 255 
255 255 255 
255 255 255 
0 0 0 
247 77 77 
255 175 175 
255 255 255 
255 200 255 
182 163 255 
255 255 255 
255 255 255 
255 255 255 
255 215 255 
0 0 0 
161 161 161 
0 0 0 
77 77 247 
161 161 161 
175 175 255 
255 255 255 
199 199 255 
255 255 255 
0 0 0 
161 161 161 
199 199 255 
255 255 255 
0 0 0 
255 255 255 
255 255 255 
161 161 161 
255 255 255 
0 0 0 
255 231 231 
255 170 170 
255 255 255 
221 221 221 
0 0 0 
255 255 255 
255 255 255 
255 198 255 
175 175 255 
255 145 255 
0 0 0 
0 0 0 
255 255 255 
161 161 161 
255 203 255 
255 255 255 
255 198 255 
0 0 0 
161 161 161 
231 231 255 
255 255 255 
221 221 221 
161 161 161 
0 0 0 
255 255 255 
255 255 255 
255 255 255 
255 255 255 
255 255 255 
255 255 255 
161 161 161 
161 161 161 
255 255 255 
77 77 247 
255 235 255 
255 255 255 
0 0 0 
255 255 255 
0 0 0 
0 0 0 
205 170 245 
255 255 255 
255 255 255 
255 207 207 
255 255 255 
255 255 255 
221 221 221 
161 161 161 
137 83 255 
255 255 255 
221 221 221 
0 0 0 
196 144 255 
255 255 255 
255 255 255 
199 199 255 
255 125 255 
175 175 255 
255 255 255 
161 161 161 
231 231 255 
255 109 109 
255 255 255 
0 0 0 
255 255 255 
255 255 255 
161 161 161 
255 255 255 
255 125 255 
126 126 255 
255 255 255 
255 255 255 
161 161 161 
255 255 255 
77 77 247 
255 199 199 
149 87 255 
161 161 161 
255 255 255 
202 199 255 
184 184 255 
255 255 255 
255 255 255 
251 156 255 
255 160 255 
255 255 255 
255 172 255 
221 221 221 
255 255 255 
199 199 255 
0 0 0 
181 163 255 
255 248 255 
65 28 255 
95 95 255 
0 0 0 
64 64 207 
72 22 72 
0 0 0 
0 0 0 
72 22 72 
0 0 0 
197 107 255 
0 0 0 
47 47 151 
255 123 255 
77 77 247 
93 67 255 
47 47 151 
206 206 255 
247 137 255 
77 77 247 
140 66 213 
0 0 0 
144 144 255 
69 69 255 
143 93 255 
201 85 255 
255 255 255 
247 99 255 
125 58 186 
47 47 151 
93 58 187 
64 64 207 
239 80 255 
142 142 255 
255 104 255 
47 47 151 
166 88 255 
64 64 207 
0 0 0 
47 47 151 
72 72 255 
255 88 88 
0 0 0 
151 47 47 
255 99 122 
151 47 47 
255 169 255 
153 6 67 
255 97 97 
255 138 138 
151 47 47 
255 88 88 
255 88 88 
151 47 47 
0 0 0 
255 172 172 
196 61 141 
0 0 0 
255 127 127 
255 106 106 
255 68 192 
118 36 118 
118 36 118 
110 10 34 
151 47 47 
255 99 224 
255 88 88 
255 97 97 
0 0 0 
255 28 28 
119 37 83 
151 47 47 
255 128 236 
255 113 113 
151 47 47 
233 72 255 
151 47 47 
255 93 143 
255 126 126 
255 255 255 
0 0 0 
175 175 255 
175 175 255 
161 161 161 
255 255 255 
255 206 255 
118 36 118 
77 77 247 
255 255 255 
221 221 221 
255 199 199 
255 255 255 
161 161 161 
255 255 255 
161 161 161 
161 161 161 
255 255 255 
255 255 255 
0 0 0 
0 0 0 
255 255 255 
161 161 161 
161 161 161 
255 163 255 
161 161 161 
255 255 255 
161 161 161 
255 255 255 
255 255 255 
255 60 255 
0 0 0 
255 208 208 
255 121 255 
214 126 255 
255 255 255 
255 126 126 
161 161 161 
255 255 255 
255 255 255 
0 0 0 
255 225 255 
221 221 221 
0 0 0 
161 161 161 
255 212 240 
161 161 161 
255 255 255 
255 60 60 
161 161 161 
255 126 126 
221 221 221 
255 236 255 
255 255 255 
255 255 255 
255 255 255 
255 255 255 
255 98 98 
255 255 255 
221 221 221 
255 255 255 
255 255 255 
255 249 253 
255 255 255 
247 77 77 
221 221 221 
255 231 231 
255 255 255 
255 255 255 
255 255 255 
199 199 255 
221 221 221 
255 255 255 
0 0 0 
255 175 175 
255 255 255 
255 227 227 
161 161 161 
249 249 255 
255 255 255 
162 162 255 
221 221 221 
161 161 161 
255 196 255 
194 164 194 
161 161 161 
255 175 175 
0 0 0 
77 77 247 
255 254 254 
77 77 247 
255 255 255 
0 0 0 
255 255 255 
255 253 255 
255 255 255 
221 221 221 
255 255 255 
77 77 247 
161 161 161 
255 255 255 
255 162 162 
255 255 255 
0 0 0 
255 255 255 
161 161 161 
221 221 221 
255 255 255 
221 221 221 
254 233 255 
161 161 161 
161 161 161 
255 255 255 
255 255 255 
255 255 255 
255 222 255 
255 255 255 
255 255 255 
255 255 255 
221 221 221 
255 127 127 
161 161 161 
255 162 162 
161 161 161 
255 199 199 
255 255 255 
0 0 0 
255 255 255 
255 255 255 
255 106 106 
161 161 161 
255 255 255 
255 255 255 
221 221 221 
0 0 0 
255 163 181 
161 161 161 
255 255 255 
126 126 255 
255 132 255 
161 161 161 
244 170 244 
255 199 199 
184 184 255 
255 255 255 
255 255 255 
255 255 255 
161 161 161 
255 255 255 
161 161 161 
161 161 161 
206 206 255 
255 255 255 
255 255 255 
142 13 100 
161 161 161 
77 77 247 
161 161 161 
175 175 255 
175 175 255 
77 77 247 
161 161 161 
126 126 255 
161 161 161 
255 255 255 
0 0 0 
188 188 255 
255 221 221 
255 238 255 
172 172 255 
161 161 161 
255 50 255 
126 126 255 
0 0 0 
161 161 161 
0 0 0 
224 99 255 
255 126 126 
0 0 0 
255 46 150 
182 139 255 
255 36 255 
125 125 255 
122 81 255 
150 46 255 
255 79 253 
102 79 255 
77 77 247 
141 61 196 
0 0 0 
166 61 255 
74 74 255 
74 74 255 
255 255 255 
87 8 61 
255 255 255 
47 47 151 
102 79 255 
77 77 249 
47 47 151 
255 75 240 
74 74 255 
77 77 249 
246 76 255 
0 0 0 
145 45 255 
223 223 255 
255 114 255 
47 47 151 
255 255 255 
88 88 255 
88 88 255 
64 64 207 
158 104 255 
88 88 255 
255 219 255 
138 138 255 
140 91 255 
255 255 255 
255 90 169 
255 255 255 
151 47 47 
255 80 103 
151 47 47 
207 64 64 
255 65 70 
255 170 170 
255 26 186 
255 180 255 
255 80 103 
255 120 120 
249 77 77 
223 69 217 
255 22 71 
255 88 255 
151 47 47 
255 134 134 
255 126 126 
255 126 126 
249 77 77 
255 88 88 
255 112 112 
249 77 77 
255 97 97 
151 47 47 
255 133 147 
255 88 88 
255 107 172 
207 64 64 
181 17 56 
255 78 157 
255 144 144 
0 0 0 
255 63 91 
255 36 36 
255 63 91 
255 64 64 
255 199 199 
194 60 137 
255 126 126 
0 0 0 
255 166 166 
255 146 255 
255 184 255 
255 255 255 
0 0 0 
255 255 255 
161 161 161 
255 255 255 
0 0 0 
255 175 175 
255 175 175 
255 199 199 
245 223 245 
255 255 255 
255 40 255 
0 0 0 
255 175 175 
255 145 145 
255 255 255 
255 105 105 
255 199 199 
255 255 255 
255 227 227 
161 161 161 
255 227 254 
221 221 221 
255 188 255 
161 161 161 
255 255 255 
161 161 161 
255 255 255 
255 255 255 
247 77 77 
161 161 161 
255 210 255 
221 221 221 
161 161 161 
255 255 255 
255 119 255 
255 255 255 
161 161 161 
255 22 71 
0 0 0 
221 221 221 
255 169 255 
161 161 161 
255 172 172 
255 175 175 
255 250 255 
221 221 221 
255 13 44 
255 170 170 
0 0 0 
221 221 221 
255 255 255 
255 200 215 
161 161 161 
221 221 221 
255 255 255 
255 255 255 
161 161 161 
255 255 255 
0 0 0 
161 161 161 
0 0 0 
161 161 161 
221 221 221 
255 255 255 
255 255 255 
255 255 255 
255 255 255 
255 255 255 
255 255 255 
255 255 255 
255 255 255 
255 255 255 
221 221 221 
255 249 255 
255 210 210 
247 77 77 
0 0 0 
255 255 255 
255 255 255 
161 161 161 
255 255 255 
77 77 247 
255 255 255 
255 255 255 
175 175 255 
161 161 161 
161 161 161 
255 255 255 
221 221 221 
255 206 206 
255 255 255 
0 0 0 
255 255 255 
0 0 0 
255 199 255 
0 0 0 
221 221 221 
255 210 255 
255 206 206 
161 161 161 
255 255 255 
126 126 255 
221 221 221 
255 255 255 
0 0 0 
161 161 161 
255 199 199 
221 221 221 
255 137 255 
221 221 221 
0 0 0 
255 234 255 
255 255 255 
161 161 161 
255 126 126 
255 255 255 
255 188 255 
139 129 255 
254 254 255 
255 255 255 
0 0 0 
77 77 247 
0 0 0 
221 221 221 
0 0 0 
255 255 255 
161 161 161 
255 255 255 
224 99 255 
255 217 255 
221 221 221 
255 255 255 
255 255 255 
221 221 221 
161 161 161 
255 255 255 
255 255 255 
255 255 255 
77 77 247 
255 210 255 
255 36 118 
255 255 255 
126 126 255 
161 161 161 
0 0 0 
255 201 255 
255 181 255 
159 159 255 
255 255 255 
244 170 244 
255 255 255 
255 255 255 
161 161 161 
255 132 191 
255 255 255 
255 255 255 
0 0 0 
77 77 247 
161 161 161 
255 255 255 
161 161 161 
255 255 255 
175 175 255 
161 161 161 
145 45 255 
255 28 92 
205 170 245 
0 0 0 
0 0 0 
105 105 255 
255 210 255 
0 0 0 
61 48 255 
213 213 255 
77 77 247 
0 0 0 
255 255 255 
128 39 210 
255 214 255 
0 0 0 
106 106 255 
113 76 255 
255 128 255 
64 64 207 
141 127 255 
64 64 207 
111 58 255 
114 114 255 
220 81 255 
47 47 151 
0 0 0 
47 47 151 
0 0 0 
255 255 255 
98 53 202 
60 60 255 
0 0 0 
107 86 255 
189 66 213 
186 65 230 
137 118 255 
93 58 187 
163 89 255 
72 22 72 
88 88 255 
255 227 255 
163 88 255 
163 163 255 
106 78 255 
249 77 77 
255 106 255 
207 64 64 
255 38 118 
151 47 47 
255 85 201 
164 51 84 
0 0 0 
255 114 114 
207 64 64 
255 106 106 
255 75 121 
255 132 132 
182 48 56 
255 107 255 
255 230 233 
186 58 125 
255 88 232 
255 129 255 
207 64 64 
151 47 47 
249 77 77 
255 208 208 
207 64 64 
255 77 174 
255 88 88 
255 128 236 
0 0 0 
255 36 36 
151 47 47 
255 91 203 
255 93 93 
255 95 153 
0 0 0 
255 132 132 
247 77 77 
217 6 47 
151 47 47 
255 88 88 
255 255 255 
255 229 255 
0 0 0 
161 161 161 
255 255 255 
0 0 0 
0 0 0 
0 0 0 
151 47 255 
255 255 255 
255 255 255 
255 118 118 
255 255 255 
0 0 0 
255 60 60 
0 0 0 
0 0 0 
255 126 126 
255 183 183 
255 216 216 
255 175 175 
255 199 199 
255 227 227 
194 60 137 
161 161 161 
235 162 168 
221 221 221 
161 161 161 
0 0 0 
255 255 255 
255 195 255 
255 188 188 
255 255 255 
255 170 205 
255 255 255 
255 191 255 
230 175 255 
255 255 255 
255 255 255 
118 36 118 
255 255 255 
255 255 255 
255 255 255 
0 0 0 
255 255 255 
221 221 221 
255 60 60 
181 163 255 
255 231 231 
0 0 0 
255 255 255 
255 255 255 
206 206 255 
199 199 255 
255 188 188 
255 223 228 
255 255 255 
161 161 161 
255 254 254 
161 161 161 
161 161 161 
0 0 0 
255 231 231 
0 0 0 
161 161 161 
221 221 221 
161 161 161 
218 218 255 
227 227 255 
0 0 0 
255 255 255 
127 127 255 
161 161 161 
255 255 255 
221 221 221 
255 255 255 
161 161 161 
255 255 255 
255 255 255 
247 77 77 
255 13 226 
255 255 255 
161 161 161 
0 0 0 
129 68 255 
255 255 255 
254 254 255 
255 255 255 
255 255 255 
255 255 255 
221 221 221 
255 255 255 
193 60 193 
255 210 255 
199 199 255 
0 0 0 
161 161 161 
255 255 255 
161 161 161 
255 216 255 
0 0 0 
161 161 161 
0 0 0 
255 255 255 
221 221 221 
248 77 255 
255 255 255 
248 77 255 
255 255 255 
255 255 255 
255 175 175 
255 220 255 
161 161 161 
255 255 255 
126 126 255 
255 255 255 
175 175 255 
0 0 0 
161 161 161 
0 0 0 
161 161 161 
255 255 255 
161 161 161 
255 199 199 
255 199 199 
0 0 0 
255 223 236 
161 161 161 
255 195 255 
210 210 255 
0 0 0 
255 255 255 
0 0 0 
255 255 255 
0 0 0 
0 0 0 
249 249 255 
161 161 161 
255 255 255 
255 255 255 
255 236 236 
127 127 255 
0 0 0 
255 255 255 
255 255 255 
188 188 255 
255 255 255 
255 255 255 
161 161 161 
77 77 247 
204 95 255 
161 161 161 
0 0 0 
161 161 161 
175 175 255 
221 221 221 
0 0 0 
161 161 161 
161 161 161 
0 0 0 
0 0 0 
255 36 255 
161 161 161 
175 175 255 
161 161 161 
161 161 161 
255 175 255 
0 0 0 
0 0 0 
161 161 161 
255 207 207 
255 127 127 
0 0 0 
210 210 255 
0 0 0 
0 0 0 
221 221 221 
161 161 161 
0 0 0 
107 42 135 
99 30 99 
255 255 255 
193 78 255 
105 105 255 
255 106 255 
208 103 255 
143 93 255 
152 139 255 
0 0 0 
125 58 186 
0 0 0 
0 0 0 
88 88 255 
255 47 152 
94 67 216 
60 60 255 
113 113 255 
255 135 255 
132 132 255 
154 110 255 
88 88 255 
88 88 255 
64 64 207 
149 149 255 
255 255 255 
47 47 151 
0 0 0 
181 17 56 
99 67 255 
36 36 255 
104 104 255 
125 58 186 
64 64 207 
255 74 255 
64 64 207 
47 47 151 
84 84 255 
238 74 197 
255 114 114 
255 74 74 
214 65 105 
255 121 121 
255 97 97 
255 103 103 
255 88 88 
207 64 64 
0 0 0 
247 77 77 
151 47 47 
255 81 81 
216 67 94 
255 80 255 
255 177 255 
255 146 146 
255 97 97 
255 125 125 
255 65 76 
255 74 74 
255 121 121 
255 76 143 
207 64 64 
255 81 255 
255 88 89 
255 79 102 
255 170 170 
151 47 47 
255 88 88 
255 136 172 
0 0 0 
249 77 77 
255 210 227 
0 0 0 
247 77 77 
151 47 47 
0 0 0 
255 116 207 
255 121 255 
161 161 161 
194 164 194 
161 161 161 
221 221 221 
0 0 0 
255 255 255 
255 255 255 
255 255 255 
247 77 77 
255 126 126 
0 0 0 
161 161 161 
0 0 0 
255 175 175 
255 199 199 
255 170 205 
255 255 255 
0 0 0 
255 255 255 
0 0 0 
161 161 161 
221 221 221 
247 77 77 
255 121 255 
161 161 161 
255 255 255 
161 161 161 
255 255 255 
161 161 161 
161 161 161 
0 0 0 
161 161 161 
255 255 255 
206 206 255 
221 221 221 
255 199 199 
0 0 0 
0 0 0 
255 175 175 
0 0 0 
249 249 255 
255 255 255 
0 0 0 
221 221 221 
0 0 0 
255 175 175 
161 161 161 
255 255 255 
126 126 255 
255 98 255 
255 255 255 
255 144 255 
0 0 0 
255 162 162 
247 77 77 
161 161 161 
255 255 255 
255 46 46 
255 255 255 
0 0 0 
255 255 255 
255 36 255 
255 255 255 
0 0 0 
255 255 255 
161 161 161 
255 255 255 
193 60 193 
161 161 161 
255 184 184 
161 161 161 
0 0 0 
255 255 255 
161 161 161 
255 255 255 
255 255 255 
221 221 221 
206 206 255 
221 221 221 
0 0 0 
77 77 247 
255 223 255 
0 0 0 
255 199 199 
0 0 0 
244 170 244 
221 221 221 
221 221 221 
127 127 255 
0 0 0 
255 255 255 
255 255 255 
255 255 255 
255 255 255 
161 161 161 
255 255 255 
118 36 118 
0 0 0 
161 161 161 
161 161 161 
255 199 199 
255 255 255 
255 255 255 
0 0 0 
199 199 255 
255 255 255 
161 161 161 
221 221 221 
161 161 161 
221 221 221 
255 81 116 
255 255 255 
161 161 161 
255 255 255 
255 166 166 
161 161 161 
255 126 126 
0 0 0 
255 255 255 
255 255 255 
179 162 179 
255 249 249 
255 175 255 
161 161 161 
255 255 255 
255 255 255 
0 0 0 
255 210 255 
255 255 255 
255 199 204 
0 0 0 
255 255 255 
126 126 255 
0 0 0 
255 131 255 
126 126 255 
237 237 255 
175 175 255 
255 166 255 
255 238 255 
221 221 221 
0 0 0 
255 255 255 
77 77 247 
161 161 161 
255 255 255 
0 0 0 
255 175 175 
77 77 247 
255 255 255 
0 0 0 
0 0 0 
77 77 247 
255 255 255 
161 161 161 
242 222 255 
205 170 245 
0 0 0 
0 0 0 
255 36 255 
0 0 0 
0 0 0 
161 161 161 
0 0 0 
255 175 175 
0 0 0 
175 175 255 
255 220 255 
161 161 161 
0 0 0 
255 255 255 
161 161 161 
255 28 65 
255 255 255 
0 0 0 
255 249 249 
77 77 247 
97 97 255 
155 64 255 
39 17 255 
77 77 247 
228 207 255 
60 60 255 
94 94 255 
132 132 255 
255 142 255 
191 133 255 
64 64 207 
105 105 255 
193 60 193 
77 77 247 
0 0 0 
105 83 255 
0 0 0 
255 53 172 
97 97 255 
0 0 0 
72 22 72 
218 56 209 
0 0 0 
89 69 255 
47 47 151 
64 64 207 
88 88 255 
255 48 225 
93 93 255 
64 64 207 
64 64 207 
47 47 151 
47 47 151 
142 13 100 
77 77 249 
118 118 255 
107 54 176 
47 47 151 
77 77 249 
255 88 88 
72 22 72 
255 93 93 
173 47 61 
151 47 47 
255 58 58 
151 47 47 
151 47 47 
249 77 77 
255 127 127 
170 47 96 
255 114 114 
251 54 102 
255 138 138 
151 47 47 
255 78 83 
135 42 107 
255 118 118 
255 50 122 
0 0 0 
255 107 115 
249 77 77 
255 58 58 
255 110 162 
255 97 97 
151 47 47 
255 138 181 
0 0 0 
0 0 0 
255 77 79 
0 0 0 
247 77 77 
255 17 39 
0 0 0 
0 0 0 
255 60 60 
0 0 0 
255 139 227 
151 47 47 
255 144 144 
255 218 218 
255 207 207 
161 161 161 
255 218 255 
255 255 255 
255 175 175 
255 255 255 
255 101 255 
161 161 161 
0 0 0 
255 126 126 
0 0 0 
255 196 255 
255 188 255 
0 0 0 
255 255 255 
255 140 255 
0 0 0 
255 231 231 
126 126 255 
255 231 231 
0 0 0 
0 0 0 
255 255 255 
255 255 255 
247 77 77 
255 255 255 
255 255 255 
255 255 255 
255 132 160 
244 170 244 
0 0 0 
194 164 194 
161 161 161 
255 210 210 
255 184 184 
255 166 214 
199 199 255 
255 166 255 
255 255 255 
255 126 126 
255 238 255 
255 255 255 
0 0 0 
255 249 249 
255 175 175 
255 179 179 
255 162 165 
247 77 77 
255 231 231 
255 223 223 
0 0 0 
255 196 196 
255 255 255 
247 77 77 
255 255 255 
222 222 255 
249 249 255 
221 221 221 
255 255 255 
161 161 161 
240 240 255 
199 199 255 
161 161 161 
199 199 255 
255 255 255 
255 255 255 
255 128 175 
255 175 175 
161 161 161 
255 210 255 
255 184 255 
255 253 255 
255 175 175 
161 161 161 
255 199 199 
255 126 126 
161 161 161 
255 255 255 
171 163 255 
255 255 255 
221 221 221 
255 255 255 
161 161 161 
255 255 255 
255 255 255 
221 221 221 
221 221 221 
255 199 199 
161 161 161 
221 221 221 
255 255 255 
255 156 252 
255 255 255 
235 162 168 
255 113 255 
254 227 255 
255 255 255 
255 46 150 
255 255 255 
255 255 255 
255 206 206 
255 98 255 
175 175 255 
161 161 161 
255 255 255 
255 255 255 
255 255 255 
255 255 255 
175 175 255 
255 255 255 
255 199 199 
0 0 0 
161 161 161 
255 255 255 
255 255 255 
254 254 255 
221 221 221 
0 0 0 
254 227 255 
221 221 221 
175 175 255 
77 77 247 
161 161 161 
255 255 255 
255 254 255 
255 203 243 
0 0 0 
161 161 161 
255 255 255 
255 255 255 
216 183 255 
161 161 161 
0 0 0 
255 217 255 
255 255 255 
255 255 255 
255 236 255 
206 206 255 
255 255 255 
255 255 255 
0 0 0 
0 0 0 
255 57 185 
255 255 255 
255 137 225 
161 161 161 
170 170 255 
255 207 207 
255 255 255 
161 161 161 
126 126 255 
255 255 255 
255 144 255 
221 221 221 
255 255 255 
159 74 255 
175 175 255 
255 255 255 
161 161 161 
255 255 255 
0 0 0 
255 255 255 
255 135 255 
255 255 255 
153 110 255 
161 161 161 
77 77 247 
92 28 255 
250 78 255 
126 126 255 
255 105 255 
255 175 255 
161 161 161 
0 0 0 
206 206 255 
0 0 0 
88 88 255 
83 36 255 
153 129 255 
0 0 0 
251 88 255 
47 47 151 
77 77 247 
47 47 151 
255 37 255 
255 146 255 
220 68 220 
193 60 193 
98 98 255 
255 55 255 
64 64 207 
144 140 255 
255 91 255 
193 60 193 
47 47 151 
116 91 255 
58 58 255 
92 28 209 
126 126 255 
64 64 207 
255 37 255 
84 84 255 
88 88 255 
64 64 207 
204 170 255 
88 88 255 
65 65 255 
47 47 151 
172 72 255 
102 72 233 
60 60 255 
47 47 151 
98 98 255 
0 0 0 
106 106 255 
255 88 88 
255 105 254 
151 47 47 
255 74 74 
255 132 255 
207 64 64 
255 128 255 
207 64 64 
255 86 107 
0 0 0 
255 133 147 
255 127 141 
151 47 47 
249 77 77 
255 72 72 
255 114 114 
255 132 132 
151 47 47 
255 93 118 
0 0 0 
255 84 137 
255 165 165 
207 64 64 
247 77 77 
255 120 120 
193 60 193 
255 113 113 
118 36 118 
255 118 159 
255 58 255 
207 64 64 
255 210 223 
255 106 106 
255 126 126 
255 102 102 
151 47 47 
255 69 129 
0 0 0 
0 0 0 
0 0 0 
255 126 126 
221 221 221 
118 36 118 
0 0 0 
0 0 0 
255 255 255 
255 184 184 
255 188 255 
245 223 245 
255 255 255 
0 0 0 
161 161 161 
0 0 0 
71 22 255 
255 255 255 
247 77 77 
255 98 255 
255 144 144 
161 161 161 
255 172 172 
98 98 255 
247 77 77 
255 255 255 
255 183 183 
255 255 255 
161 161 161 
255 175 179 
214 166 255 
255 175 175 
0 0 0 
247 77 77 
0 0 0 
255 255 255 
221 221 221 
161 161 161 
225 100 225 
161 161 161 
255 210 255 
127 127 255 
255 184 255 
255 175 175 
255 255 255 
255 227 255 
255 237 255 
161 161 161 
0 0 0 
221 221 221 
161 161 161 
166 166 255 
127 127 255 
255 255 255 
161 161 161 
255 255 255 
0 0 0 
255 234 255 
255 170 170 
161 161 161 
255 254 254 
0 0 0 
255 255 255 
255 255 255 
255 255 255 
255 170 170 
161 161 161 
221 221 221 
0 0 0 
161 161 161 
0 0 0 
255 255 255 
255 126 126 
255 255 255 
161 161 161 
255 255 255 
255 127 127 
137 60 194 
255 188 255 
161 161 161 
255 255 255 
0 0 0 
161 161 161 
255 255 255 
221 221 221 
0 0 0 
255 239 255 
161 161 161 
255 175 175 
0 0 0 
255 227 255 
255 255 255 
126 126 255 
221 221 221 
161 161 161 
161 161 161 
255 255 255 
255 187 255 
255 175 175 
255 255 255 
221 221 221 
255 255 255 
255 255 255 
255 255 255 
247 77 77 
255 255 255 
255 255 255 
255 255 255 
255 255 255 
255 255 255 
161 161 161 
255 255 255 
44 13 255 
221 221 221 
0 0 0 
161 161 161 
205 178 255 
161 161 161 
255 231 231 
161 161 161 
0 0 0 
77 77 247 
255 255 255 
221 221 221 
161 161 161 
105 105 255 
126 126 255 
77 77 247 
0 0 0 
0 0 0 
255 174 255 
255 255 255 
0 0 0 
161 161 161 
255 222 255 
161 161 161 
255 221 228 
214 214 255 
255 255 255 
193 60 193 
199 199 255 
255 192 255 
98 98 255 
0 0 0 
0 0 0 
255 199 255 
199 199 255 
255 105 105 
161 161 161 
255 255 255 
255 255 255 
255 255 255 
255 255 255 
193 60 193 
255 199 199 
255 255 255 
194 164 194 
255 232 255 
221 221 221 
255 255 255 
161 161 161 
166 166 255 
199 199 255 
0 0 0 
255 255 255 
255 255 255 
255 246 255 
162 162 255 
247 77 77 
161 161 161 
199 199 255 
168 162 235 
255 121 255 
161 161 161 
161 161 161 
255 204 255 
105 105 255 
0 0 0 
0 0 0 
0 0 0 
0 0 0 
92 28 255 
77 77 247 
112 64 255 
118 36 118 
0 0 0 
255 54 255 
0 0 0 
0 0 0 
189 72 255 
255 255 255 
88 88 255 
93 58 187 
0 0 0 
77 77 249 
0 0 0 
0 0 0 
255 144 255 
74 74 255 
77 77 247 
47 47 151 
77 77 249 
47 47 151 
249 87 255 
146 75 241 
64 64 207 
98 98 255 
255 98 255 
103 80 255 
0 0 0 
0 0 0 
77 77 249 
148 124 255 
187 60 255 
0 0 0 
0 0 0 
163 112 255 
88 88 255 
102 79 255 
151 47 47 
255 74 142 
255 151 166 
249 77 77 
255 75 255 
0 0 0 
151 47 47 
249 77 77 
255 113 113 
151 47 47 
255 96 213 
151 47 47 
233 72 131 
255 111 255 
0 0 0 
207 64 64 
255 227 255 
154 47 255 
207 64 64 
255 88 88 
247 77 77 
255 30 96 
207 64 64 
207 64 64 
151 47 47 
0 0 0 
247 77 77 
118 36 118 
255 88 88 
255 230 255 
255 78 78 
72 22 72 
255 57 183 
151 47 47 
255 58 58 
255 90 110 
255 105 105 
0 0 0 
255 33 105 
193 60 193 
0 0 0 
0 0 0 
161 161 161 
255 175 175 
255 218 255 
255 199 199 
161 161 161 
255 137 137 
255 221 221 
255 126 126 
255 175 175 
161 161 161 
255 255 255 
255 105 105 
161 161 161 
0 0 0 
0 0 0 
0 0 0 
255 145 145 
255 175 175 
255 159 159 
255 175 175 
255 255 255 
161 161 161 
221 221 221 
255 175 175 
255 255 255 
255 255 255 
255 255 255 
161 161 161 
161 161 161 
255 255 255 
255 255 255 
255 210 255 
0 0 0 
255 187 255 
255 218 218 
255 199 199 
0 0 0 
255 235 255 
161 161 161 
193 60 193 
249 249 255 
255 199 199 
221 221 221 
255 255 255 
221 221 221 
0 0 0 
255 255 255 
161 161 161 
0 0 0 
255 255 255 
244 170 244 
221 221 221 
255 255 255 
255 255 255 
161 161 161 
199 199 255 
255 10 78 
255 199 199 
161 161 161 
161 161 161 
255 101 255 
161 161 161 
255 183 183 
255 255 255 
247 77 77 
0 0 0 
255 255 255 
0 0 0 
255 188 188 
255 255 255 
255 255 255 
161 161 161 
161 161 161 
221 221 221 
255 255 255 
255 175 175 
221 221 221 
255 175 175 
255 255 255 
255 255 255 
0 0 0 
255 255 255 
255 255 255 
255 255 255 
231 231 255 
255 255 255 
221 221 221 
161 161 161 
0 0 0 
255 255 255 
255 255 255 
0 0 0 
255 255 255 
255 255 255 
161 161 161 
0 0 0 
255 255 255 
193 60 193 
255 255 255 
126 126 255 
255 254 254 
161 161 161 
0 0 0 
161 161 161 
221 221 221 
194 60 137 
0 0 0 
255 255 255 
255 255 255 
255 255 255 
255 255 255 
0 0 0 
255 255 255 
0 0 0 
231 231 255 
221 221 221 
0 0 0 
255 255 255 
255 255 255 
255 110 255 
170 170 255 
255 255 255 
255 199 199 
161 161 161 
161 161 161 
0 0 0 
0 0 0 
221 221 221 
221 221 221 
255 206 235 
255 255 255 
175 175 255 
222 222 255 
255 126 255 
161 161 161 
255 255 255 
255 255 255 
0 0 0 
127 127 255 
255 255 255 
254 254 255 
255 37 255 
0 0 0 
255 255 255 
255 255 255 
255 255 255 
255 255 255 
255 202 255 
255 255 255 
255 222 222 
161 161 161 
255 255 255 
255 98 255 
254 227 255 
0 0 0 
0 0 0 
0 0 0 
161 161 161 
0 0 0 
77 77 247 
255 255 255 
77 77 247 
255 255 255 
0 0 0 
255 199 199 
175 175 255 
255 255 255 
221 221 221 
0 0 0 
175 175 255 
0 0 0 
255 255 255 
255 255 255 
0 0 0 
255 255 255 
255 159 255 
0 0 0 
255 133 255 
237 237 255 
255 46 150 
0 0 0 
255 192 255 
0 0 0 
77 77 247 
64 64 207 
0 0 0 
88 88 255 
0 0 0 
47 47 151 
93 58 187 
0 0 0 
137 84 255 
0 0 0 
72 72 255 
93 58 187 
106 106 255 
97 97 255 
0 0 0 
234 160 255 
255 106 255 
255 77 255 
77 77 249 
47 47 151 
125 58 186 
227 142 255 
64 64 207 
255 109 255 
88 66 255 
222 211 255 
93 79 255 
181 17 56 
106 106 255 
125 58 186 
95 95 255 
164 51 84 
151 47 47 
255 110 110 
151 47 47 
151 47 47 
255 28 92 
255 84 255 
255 97 97 
151 47 47 
207 64 64 
244 65 152 
255 101 255 
255 93 178 
238 74 197 
249 77 77 
187 58 93 
72 22 72 
255 114 124 
118 36 118 
255 142 157 
255 58 58 
255 179 179 
0 0 0 
151 47 47 
151 47 47 
255 28 92 
0 0 0 
151 47 47 
255 83 83 
255 149 149 
0 0 0 
151 47 47 
255 57 103 
151 47 47 
255 50 50 
255 60 60 
255 127 127 
255 72 72 
151 47 47 
0 0 0 
0 0 0 
255 82 199 
0 0 0 
161 161 161 
161 161 161 
0 0 0 
255 255 255 
247 77 77 
247 77 77 
255 255 255 
161 161 161 
255 255 255 
255 255 255 
0 0 0 
255 255 255 
221 221 221 
255 255 255 
255 175 185 
0 0 0 
247 77 77 
255 230 230 
221 221 221 
221 221 221 
161 161 161 
161 161 161 
255 255 255 
221 221 221 
247 77 77 
255 217 217 
255 77 248 
255 255 255 
255 121 121 
0 0 0 
255 255 255 
255 255 255 
255 175 175 
221 221 221 
255 99 99 
0 0 0 
255 205 255 
0 0 0 
126 126 255 
255 174 255 
255 109 255 
255 199 199 
0 0 0 
161 161 161 
161 161 161 
0 0 0 
0 0 0 
255 160 160 
255 229 229 
0 0 0 
161 161 161 
255 255 255 
0 0 0 
0 0 0 
255 230 255 
255 199 199 
161 161 161 
161 161 161 
244 170 244 
161 161 161 
255 126 126 
0 0 0 
161 161 161 
255 255 255 
255 255 255 
255 188 255 
255 206 206 
221 221 221 
255 255 255 
0 0 0 
161 161 161 
255 255 255 
161 161 161 
221 221 221 
0 0 0 
161 161 161 
0 0 0 
255 184 184 
255 255 255 
0 0 0 
161 161 161 
255 105 187 
247 77 77 
255 255 255 
161 161 161 
161 161 161 
161 161 161 
255 255 255 
247 77 77 
161 161 161 
161 161 161 
221 221 221 
175 175 255 
255 188 255 
221 221 221 
247 77 77 
181 163 255 
255 255 255 
255 196 255 
255 255 255 
255 255 255 
221 221 221 
0 0 0 
255 255 255 
255 255 255 
170 170 255 
255 255 255 
255 255 255 
255 255 255 
255 255 255 
255 255 255 
255 255 255 
136 136 255 
255 255 255 
161 161 161 
161 161 161 
255 199 199 
221 221 221 
255 255 255 
161 161 161 
255 255 255 
0 0 0 
0 0 0 
255 238 255 
161 161 161 
255 213 255 
161 161 161 
161 161 161 
255 254 254 
255 231 231 
255 255 255 
255 255 255 
161 161 161 
221 221 221 
255 162 255 
60 60 255 
193 60 193 
137 60 255 
255 255 255 
255 255 255 
255 255 255 
0 0 0 
0 0 0 
0 0 0 
199 199 255 
255 255 255 
254 254 255 
161 161 161 
255 255 255 
161 161 161 
255 207 207 
255 255 255 
0 0 0 
231 231 255 
77 77 247 
200 180 255 
221 221 221 
0 0 0 
0 0 0 
255 255 255 
0 0 0 
255 255 255 
255 255 255 
198 198 255 
0 0 0 
0 0 0 
255 255 255 
255 255 255 
161 161 161 
161 161 161 
0 0 0 
255 255 255 
0 0 0 
60 60 255 
92 78 255 
99 75 255 
0 0 0 
125 58 186 
88 88 255 
0 0 0 
0 0 0 
0 0 0 
139 104 255 
137 60 194 
174 98 255 
47 47 151 
255 69 223 
255 98 255 
255 179 255 
131 72 233 
0 0 0 
99 99 255 
97 97 255 
125 58 186 
107 79 255 
255 125 255 
243 243 255 
255 94 255 
253 97 255 
88 88 255 
77 77 247 
47 47 151 
119 119 255 
185 49 159 
77 77 249 
64 64 207 
128 128 255 
110 84 255 
230 212 255 
250 10 110 
47 47 151 
47 47 151 
77 77 249 
255 75 99 
255 129 244 
118 36 118 
255 36 36 
255 215 215 
0 0 0 
255 132 132 
249 77 77 
151 47 47 
207 64 64 
207 64 64 
255 126 126 
249 77 77 
255 65 107 
207 64 64 
255 74 74 
255 90 110 
151 47 47 
255 88 96 
255 99 99 
207 64 64 
216 67 94 
255 28 28 
255 120 120 
0 0 0 
255 114 114 
151 47 47 
233 72 131 
247 77 77 
255 126 126 
0 0 0 
255 133 183 
255 88 88 
255 83 137 
255 120 120 
255 135 152 
247 77 77 
255 83 83 
0 0 0 
0 0 0 
0 0 0 
247 77 77 
255 255 255 
0 0 0 
255 47 151 
255 255 255 
247 77 77 
161 161 161 
255 195 255 
161 161 161 
255 126 126 
0 0 0 
231 208 255 
255 255 255 
255 255 255 
255 88 179 
247 77 77 
231 231 255 
255 255 255 
161 161 161 
255 255 255 
255 255 255 
255 255 255 
194 164 194 
255 175 175 
255 207 207 
255 76 246 
0 0 0 
0 0 0 
255 255 255 
255 255 255 
255 255 255 
255 255 255 
255 255 255 
0 0 0 
255 175 175 
255 255 255 
255 255 255 
221 221 221 
207 207 255 
0 0 0 
255 255 255 
255 162 255 
255 60 60 
0 0 0 
221 221 221 
255 175 175 
255 255 255 
255 255 255 
161 161 161 
255 199 199 
221 221 221 
0 0 0 
255 231 231 
255 255 255 
255 199 255 
255 227 255 
255 206 206 
255 29 147 
184 184 255 
255 188 255 
255 255 255 
161 161 161 
161 161 161 
244 170 244 
255 255 255 
255 255 255 
249 249 255 
255 255 255 
161 161 161 
255 255 255 
255 255 255 
0 0 0 
255 255 255 
255 255 255 
255 255 255 
161 161 161 
221 221 221 
255 175 175 
161 161 161 
231 231 255 
161 161 161 
0 0 0 
255 255 255 
255 255 255 
255 255 255 
0 0 0 
255 255 255 
255 255 255 
255 255 255 
255 255 255 
255 255 255 
255 255 255 
255 255 255 
221 221 221 
255 223 255 
255 255 255 
194 164 194 
255 255 255 
0 0 0 
221 221 221 
255 227 227 
0 0 0 
0 0 0 
255 188 255 
161 161 161 
255 255 255 
224 99 255 
221 221 221 
255 255 255 
255 207 207 
255 255 255 
0 0 0 
240 240 255 
255 255 255 
255 255 255 
0 0 0 
194 60 137 
0 0 0 
161 161 161 
255 255 255 
199 199 255 
126 126 255 
255 144 255 
0 0 0 
255 184 184 
255 255 255 
231 231 255 
0 0 0 
255 222 249 
0 0 0 
255 255 255 
168 162 255 
77 77 247 
255 255 255 
255 253 255 
161 161 161 
161 161 161 
255 255 255 
255 255 255 
221 221 221 
221 221 221 
227 227 255 
0 0 0 
0 0 0 
255 255 255 
144 144 255 
0 0 0 
255 255 255 
255 255 255 
161 161 161 
255 241 255 
0 0 0 
0 0 0 
255 199 199 
0 0 0 
255 82 255 
255 255 255 
0 0 0 
204 95 255 
255 121 255 
255 196 255 
0 0 0 
255 255 255 
255 218 218 
161 161 161 
127 127 255 
77 77 247 
60 60 255 
0 0 0 
255 255 255 
0 0 0 
0 0 0 
255 255 255 
0 0 0 
255 255 255 
161 161 161 
0 0 0 
122 99 255 
118 36 118 
0 0 0 
208 103 255 
166 111 255 
77 77 247 
64 64 207 
37 37 255 
255 80 255 
64 64 207 
47 47 151 
232 22 163 
105 105 255 
205 92 255 
255 255 255 
47 47 151 
206 206 255 
255 30 177 
122 82 255 
138 138 255 
235 109 255 
148 102 255 
47 47 151 
237 63 255 
0 0 0 
64 64 207 
77 77 249 
124 124 255 
106 106 255 
126 126 255 
125 58 186 
34 10 110 
110 110 255 
64 64 207 
72 22 72 
88 88 255 
47 47 151 
255 161 255 
186 58 125 
255 82 122 
0 0 0 
249 77 77 
255 88 88 
255 84 255 
255 38 49 
216 67 94 
255 223 255 
207 64 64 
255 82 88 
255 61 90 
255 133 147 
255 86 86 
151 47 47 
255 120 120 
255 102 148 
249 77 77 
255 103 208 
151 47 47 
255 126 126 
207 64 64 
187 58 93 
182 48 56 
0 0 0 
0 0 0 
255 129 129 
0 0 0 
0 0 0 
255 106 255 
255 91 123 
255 28 35 
255 106 172 
151 47 47 
0 0 0 
255 110 110 
255 60 60 
0 0 0 
255 141 183 
0 0 0 
255 221 251 
161 161 161 
0 0 0 
255 175 175 
255 255 255 
255 126 126 
161 161 161 
0 0 0 
255 162 162 
255 209 255 
221 221 221 
255 126 255 
161 161 161 
255 174 255 
194 164 194 
247 77 77 
161 161 161 
255 255 255 
0 0 0 
255 175 175 
161 161 161 
255 255 255 
255 206 255 
0 0 0 
0 0 0 
255 126 126 
255 199 255 
0 0 0 
255 170 170 
240 240 255 
255 255 255 
0 0 0 
161 161 161 
255 199 199 
255 144 144 
255 255 255 
255 144 144 
0 0 0 
255 255 255 
0 0 0 
255 255 255 
0 0 0 
221 221 221 
255 255 255 
255 255 255 
163 22 232 
255 206 206 
255 255 255 
255 144 255 
255 199 199 
255 126 126 
255 255 255 
255 251 255 
221 221 221 
255 227 255 
255 255 255 
255 255 255 
161 161 161 
255 255 255 
255 255 255 
194 164 194 
255 255 255 
255 255 255 
255 199 199 
221 221 221 
161 161 161 
255 255 255 
221 221 221 
255 255 255 
255 188 188 
255 255 255 
161 161 161 
221 221 221 
255 221 221 
255 255 255 
161 161 161 
255 255 255 
255 255 255 
161 161 161 
255 153 255 
247 77 77 
193 60 193 
255 255 255 
161 161 161 
255 249 255 
255 201 255 
0 0 0 
255 255 255 
255 255 255 
255 247 255 
221 221 221 
255 255 255 
0 0 0 
221 221 221 
0 0 0 
255 255 255 
60 60 255 
161 161 161 
249 249 255 
0 0 0 
255 255 255 
161 161 161 
255 227 254 
255 255 255 
255 255 255 
0 0 0 
221 221 221 
255 255 255 
0 0 0 
255 255 255 
255 189 255 
0 0 0 
161 161 161 
255 255 255 
204 199 255 
221 221 221 
255 255 255 
255 255 255 
255 255 255 
255 227 255 
255 222 255 
0 0 0 
255 175 255 
255 249 255 
221 221 221 
199 199 255 
255 206 255 
255 255 255 
206 206 255 
198 169 255 
0 0 0 
255 255 255 
255 255 255 
255 255 255 
255 255 255 
193 60 193 
255 126 126 
255 255 255 
255 255 255 
0 0 0 
161 161 161 
0 0 0 
0 0 0 
0 0 0 
221 221 221 
0 0 0 
255 255 255 
234 153 255 
172 172 255 
255 126 126 
255 255 255 
255 255 255 
216 183 255 
255 198 255 
0 0 0 
255 126 126 
0 0 0 
255 207 207 
126 126 255 
161 161 161 
0 0 0 
255 255 255 
255 227 255 
161 161 161 
255 155 255 
161 161 161 
255 77 174 
0 0 0 
221 221 221 
0 0 0 
194 164 194 
118 36 118 
196 42 255 
255 105 255 
255 255 255 
161 161 161 
0 0 0 
56 17 181 
77 77 247 
47 47 151 
197 74 238 
255 76 255 
94 67 216 
137 83 255 
47 47 151 
72 72 255 
137 83 255 
71 49 229 
244 144 255 
0 0 0 
125 88 255 
47 47 151 
0 0 0 
155 92 255 
0 0 0 
47 47 151 
255 108 255 
118 36 118 
255 58 255 
103 80 255 
47 47 151 
103 80 255 
197 74 238 
222 222 255 
93 58 187 
94 76 255 
77 77 249 
47 47 151 
98 98 255 
47 47 151 
83 37 119 
47 47 151 
74 74 255 
84 51 164 
255 255 255 
255 70 226 
255 106 106 
181 17 56 
255 149 149 
255 79 102 
255 138 138 
216 67 94 
151 47 47 
255 61 90 
151 47 47 
207 64 64 
255 61 136 
151 47 47 
207 64 64 
151 47 47 
207 64 64 
249 77 77 
119 37 83 
159 49 185 
151 47 47 
255 255 255 
255 185 185 
249 77 77 
255 138 138 
216 67 94 
255 88 88 
255 107 107 
207 64 64 
0 0 0 
255 219 219 
255 160 255 
151 47 47 
255 123 255 
255 97 97 
0 0 0 
247 77 77 
247 77 77 
255 130 144 
255 85 255 
255 132 132 
0 0 0 
0 0 0 
255 255 255 
255 255 255 
255 175 175 
0 0 0 
0 0 0 
255 98 255 
255 175 175 
221 221 221 
255 255 255 
255 219 255 
161 161 161 
194 164 194 
221 221 221 
255 255 255 
161 161 161 
247 77 77 
255 161 255 
161 161 161 
255 255 255 
255 221 221 
255 99 224 
161 161 161 
0 0 0 
221 221 221 
161 161 161 
255 238 255 
255 231 231 
255 154 234 
255 255 255 
161 161 161 
199 199 255 
247 77 77 
247 77 77 
255 255 255 
255 255 255 
249 249 255 
193 60 193 
255 222 255 
255 217 255 
0 0 0 
255 175 175 
255 60 60 
255 126 126 
255 175 175 
255 255 255 
255 60 60 
161 161 161 
255 255 255 
255 28 92 
255 199 199 
255 199 199 
255 255 255 
255 253 255 
118 36 118 
255 255 255 
255 144 144 
255 238 255 
255 255 255 
161 161 161 
0 0 0 
255 255 255 
255 255 255 
175 175 255 
255 255 255 
255 255 255 
0 0 0 
255 255 255 
255 155 155 
255 217 217 
255 255 255 
255 82 230 
255 255 255 
255 255 255 
255 255 255 
255 255 255 
247 77 77 
161 161 161 
221 221 221 
255 255 255 
255 216 255 
255 255 255 
255 255 255 
255 178 255 
255 231 231 
255 231 231 
255 184 255 
161 161 161 
0 0 0 
221 221 221 
249 249 255 
221 221 221 
161 161 161 
161 161 161 
255 255 255 
255 255 255 
255 255 255 
0 0 0 
255 254 254 
255 255 255 
161 161 161 
255 255 255 
161 161 161 
255 255 255 
221 221 221 
161 161 161 
255 255 255 
162 50 162 
0 0 0 
161 161 161 
0 0 0 
238 238 255 
255 255 255 
255 255 255 
161 161 161 
255 255 255 
155 155 255 
161 161 161 
255 199 199 
0 0 0 
255 29 210 
199 199 255 
0 0 0 
161 161 161 
175 175 255 
161 161 161 
77 77 247 
161 161 161 
255 255 255 
255 172 255 
255 255 255 
0 0 0 
221 221 221 
170 170 255 
255 175 255 
255 255 255 
255 255 255 
255 105 255 
255 255 255 
244 170 244 
0 0 0 
161 161 161 
255 255 255 
221 221 221 
255 255 255 
255 164 255 
255 255 255 
255 217 255 
231 231 255 
0 0 0 
255 255 255 
255 174 255 
255 188 255 
194 164 194 
255 255 255 
255 255 255 
161 161 161 
255 188 255 
255 145 255 
179 179 255 
0 0 0 
77 77 247 
170 170 255 
255 255 255 
255 255 255 
255 255 255 
128 88 255 
0 0 0 
255 199 199 
194 164 194 
0 0 0 
179 171 255 
0 0 0 
221 221 221 
255 98 255 
77 77 247 
77 77 247 
47 47 151 
78 60 255 
117 111 255 
64 64 207 
216 216 255 
0 0 0 
64 64 207 
77 77 249 
97 97 255 
0 0 0 
40 17 182 
77 77 247 
147 147 255 
255 255 255 
97 97 255 
47 47 151 
138 138 255 
118 36 118 
88 88 255 
0 0 0 
255 98 255 
255 255 255 
255 97 255 
0 0 0 
88 88 255 
193 60 193 
77 77 249 
0 0 0 
64 64 207 
88 88 255 
77 77 249 
47 47 151 
77 77 247 
77 77 247 
114 114 255 
77 77 249 
255 78 255 
255 126 255 
79 47 255 
0 0 0 
193 60 193 
255 255 255 
253 54 255 
255 75 110 
255 78 83 
249 77 77 
164 51 84 
0 0 0 
0 0 0 
255 127 199 
255 58 58 
247 77 77 
255 106 140 
255 101 255 
0 0 0 
0 0 0 
255 129 255 
0 0 0 
0 0 0 
151 47 47 
0 0 0 
255 89 92 
186 58 125 
151 47 47 
255 168 255 
255 255 255 
249 77 77 
0 0 0 
0 0 0 
255 148 148 
187 58 93 
255 107 107 
0 0 0 
0 0 0 
0 0 0 
255 206 206 
0 0 0 
151 47 47 
255 126 126 
0 0 0 
255 255 255 
0 0 0 
247 77 77 
161 161 161 
0 0 0 
255 60 60 
0 0 0 
221 221 221 
0 0 0 
255 255 255 
255 255 255 
161 161 161 
0 0 0 
0 0 0 
255 255 255 
255 255 255 
0 0 0 
255 255 255 
255 225 255 
255 255 255 
255 255 255 
255 60 60 
247 77 77 
255 255 255 
255 128 151 
161 161 161 
255 126 126 
255 255 255 
161 161 161 
255 231 231 
255 254 254 
171 161 255 
0 0 0 
255 255 255 
255 176 255 
255 163 181 
161 161 161 
161 161 161 
255 220 220 
255 255 255 
161 161 161 
221 221 221 
255 100 230 
255 255 255 
245 223 255 
0 0 0 
255 175 175 
201 172 255 
221 221 221 
255 255 255 
255 175 175 
0 0 0 
0 0 0 
255 112 171 
0 0 0 
221 221 221 
255 255 255 
255 205 205 
255 175 175 
255 255 255 
206 206 255 
255 175 175 
0 0 0 
255 199 199 
255 255 255 
255 249 249 
221 221 221 
255 238 255 
255 255 255 
255 175 175 
221 221 221 
221 221 221 
255 255 255 
255 255 255 
0 0 0 
255 255 255 
161 161 161 
255 255 255 
221 221 221 
161 161 161 
255 255 255 
249 249 255 
255 255 255 
161 161 161 
161 161 161 
255 184 184 
255 175 175 
255 255 255 
255 76 246 
255 255 255 
255 254 255 
221 221 221 
231 231 255 
221 221 221 
255 255 255 
161 161 161 
221 221 221 
255 231 231 
255 255 255 
255 255 255 
0 0 0 
205 170 245 
161 161 161 
207 207 255 
255 255 255 
221 221 221 
255 255 255 
255 144 144 
255 199 199 
0 0 0 
255 255 255 
255 162 162 
255 255 255 
255 206 206 
161 161 161 
255 255 255 
0 0 0 
161 161 161 
175 175 255 
0 0 0 
0 0 0 
255 145 255 
0 0 0 
161 161 161 
255 255 255 
221 221 221 
255 126 126 
0 0 0 
0 0 0 
255 210 255 
255 255 255 
0 0 0 
255 227 255 
161 161 161 
0 0 0 
221 221 221 
255 255 255 
175 175 255 
161 161 161 
60 60 255 
0 0 0 
161 161 161 
255 249 255 
0 0 0 
161 161 161 
255 204 204 
221 221 221 
255 255 255 
161 161 161 
92 28 255 
255 222 255 
0 0 0 
255 255 255 
255 255 255 
255 255 255 
77 77 247 
255 255 255 
0 0 0 
0 0 0 
255 60 60 
193 60 193 
161 161 161 
221 221 221 
255 107 255 
255 255 255 
162 50 162 
0 0 0 
255 255 255 
0 0 0 
0 0 0 
206 206 255 
0 0 0 
224 136 255 
0 0 0 
255 255 255 
175 175 255 
0 0 0 
208 173 255 
182 108 255 
77 77 247 
177 79 255 
28 28 255 
64 64 207 
105 105 255 
0 0 0 
47 47 151 
117 117 255 
88 88 255 
131 111 255 
160 119 255 
219 44 143 
64 64 207 
83 83 255 
255 48 167 
77 77 249 
47 47 151 
77 77 249 
97 97 255 
147 48 176 
255 144 255 
255 123 255 
88 88 255 
118 93 255 
102 79 255 
47 47 151 
214 60 192 
255 162 255 
255 255 255 
47 47 151 
112 112 255 
47 47 151 
255 73 255 
0 0 0 
64 64 207 
47 47 151 
0 0 0 
207 64 64 
0 0 0 
253 73 200 
0 0 0 
118 36 118 
187 58 93 
255 112 238 
255 112 212 
135 42 107 
255 216 216 
255 114 114 
255 122 122 
238 74 197 
255 69 89 
0 0 0 
255 126 126 
255 72 72 
151 47 47 
207 64 64 
255 83 131 
255 93 111 
255 164 255 
151 47 47 
0 0 0 
0 0 0 
207 64 64 
239 74 142 
72 22 72 
0 0 0 
255 173 255 
255 82 82 
247 77 77 
0 0 0 
151 47 47 
255 255 255 
0 0 0 
207 64 64 
0 0 0 
247 77 77 
255 126 126 
0 0 0 
255 196 255 
0 0 0 
0 0 0 
255 255 255 
255 188 188 
194 60 137 
255 217 217 
255 231 231 
193 78 252 
0 0 0 
255 255 255 
255 217 255 
247 77 77 
247 77 77 
255 255 255 
161 161 161 
0 0 0 
0 0 0 
247 77 77 
255 255 255 
255 222 222 
255 255 255 
255 255 255 
0 0 0 
221 221 221 
255 126 126 
255 255 255 
161 161 161 
255 255 255 
255 109 109 
255 255 255 
161 161 161 
255 175 175 
255 255 255 
161 161 161 
0 0 0 
221 221 221 
255 99 224 
255 255 255 
161 161 161 
161 161 161 
0 0 0 
255 231 255 
221 221 221 
245 223 245 
255 199 199 
161 161 161 
255 251 255 
255 250 255 
0 0 0 
231 231 255 
255 208 255 
161 161 161 
0 0 0 
255 255 255 
255 255 255 
255 255 255 
255 121 255 
255 199 199 
221 221 221 
255 210 255 
255 255 255 
255 105 255 
161 161 161 
255 175 175 
255 255 255 
255 255 255 
255 255 255 
255 255 255 
255 255 255 
221 221 221 
221 221 221 
221 221 221 
255 255 255 
254 254 255 
255 255 255 
161 161 161 
255 255 255 
255 255 255 
255 199 199 
255 206 206 
247 77 77 
0 0 0 
161 161 161 
255 255 255 
221 221 221 
255 255 255 
255 255 255 
255 196 196 
255 249 249 
255 255 255 
255 255 255 
0 0 0 
255 255 255 
255 255 255 
255 231 231 
255 255 255 
255 206 206 
255 127 127 
255 210 210 
255 255 255 
254 233 255 
255 255 255 
161 161 161 
161 161 161 
255 206 255 
255 255 255 
0 0 0 
255 255 255 
255 255 255 
255 205 255 
231 231 255 
255 255 255 
255 175 175 
255 255 255 
255 178 255 
255 105 255 
0 0 0 
110 10 255 
168 162 235 
231 231 255 
255 255 255 
175 175 255 
221 221 221 
240 240 255 
255 222 255 
255 255 255 
0 0 0 
161 161 161 
255 255 255 
255 147 255 
255 47 151 
255 231 231 
255 255 255 
0 0 0 
255 255 255 
221 221 221 
161 161 161 
196 196 255 
255 255 255 
255 127 127 
255 255 255 
255 59 255 
161 161 161 
0 0 0 
0 0 0 
205 205 255 
255 255 255 
161 161 161 
254 105 255 
255 255 255 
175 175 255 
255 206 206 
255 145 145 
95 95 255 
255 207 207 
161 161 161 
0 0 0 
205 170 245 
161 161 161 
175 175 255 
121 121 255 
255 255 255 
255 255 255 
255 250 255 
0 0 0 
255 255 255 
161 161 161 
161 161 161 
0 0 0 
0 0 0 
255 126 255 
0 0 0 
178 164 255 
175 175 255 
255 6 108 
89 27 191 
92 28 255 
138 54 255 
96 81 255 
255 4 132 
60 60 255 
255 132 255 
0 0 0 
88 88 255 
77 77 247 
227 107 255 
89 50 255 
114 74 255 
64 64 207 
208 103 255 
255 179 255 
47 47 151 
110 90 255 
125 58 186 
64 64 207 
84 51 164 
77 77 249 
64 64 207 
255 53 172 
255 139 255 
102 72 233 
47 47 151 
0 0 0 
47 47 151 
255 87 255 
0 0 0 
0 0 0 
47 47 151 
64 64 207 
64 64 207 
255 77 250 
182 139 255 
47 47 151 
207 64 64 
207 64 64 
216 67 94 
238 74 197 
249 77 77 
151 47 47 
151 47 47 
255 69 106 
0 0 0 
207 64 64 
233 72 131 
255 54 54 
255 115 157 
255 86 241 
207 64 64 
255 255 255 
255 58 58 
255 255 255 
255 144 144 
255 235 235 
0 0 0 
156 42 133 
151 47 47 
255 81 117 
255 149 149 
255 113 113 
255 138 138 
0 0 0 
255 106 109 
0 0 0 
255 182 255 
0 0 0 
151 47 47 
164 51 255 
255 97 97 
255 88 88 
0 0 0 
56 17 181 
207 64 64 
255 255 255 
255 255 255 
255 175 175 
255 255 255 
255 255 255 
255 126 126 
161 161 161 
221 221 221 
255 99 99 
161 161 161 
255 128 151 
255 255 255 
255 175 175 
255 255 255 
0 0 0 
247 77 77 
255 206 255 
255 188 255 
255 216 216 
0 0 0 
255 98 98 
77 77 247 
255 255 255 
255 47 47 
161 161 161 
255 175 175 
0 0 0 
0 0 0 
255 126 126 
255 255 255 
255 175 175 
161 161 161 
0 0 0 
221 221 221 
255 255 255 
0 0 0 
0 0 0 
221 221 221 
255 255 255 
161 161 161 
255 184 255 
255 255 255 
255 238 238 
161 161 161 
255 255 255 
0 0 0 
255 175 175 
255 255 255 
161 161 161 
0 0 0 
255 255 255 
244 170 244 
161 161 161 
255 224 255 
255 255 255 
255 255 255 
161 161 161 
254 254 255 
161 161 161 
255 255 255 
255 231 255 
161 161 161 
255 175 175 
161 161 161 
0 0 0 
161 161 161 
0 0 0 
255 255 255 
255 255 255 
255 255 255 
0 0 0 
0 0 0 
255 255 255 
161 161 161 
137 60 194 
221 221 221 
255 255 255 
255 255 255 
255 255 255 
221 221 221 
247 77 77 
255 255 255 
255 255 255 
255 255 255 
255 255 255 
255 255 255 
255 255 255 
231 231 255 
161 161 161 
0 0 0 
161 161 161 
221 221 221 
221 221 221 
255 255 255 
255 231 231 
255 255 255 
249 249 255 
0 0 0 
247 77 77 
255 255 255 
255 231 231 
255 127 127 
255 255 255 
255 255 255 
255 255 255 
255 255 255 
255 255 255 
255 8 195 
161 161 161 
0 0 0 
255 206 206 
0 0 0 
255 255 255 
255 255 255 
161 161 161 
255 255 255 
199 199 255 
221 221 221 
224 99 255 
0 0 0 
255 255 255 
255 255 255 
255 231 231 
255 255 255 
170 170 255 
255 163 182 
255 255 255 
126 126 255 
255 231 231 
221 221 221 
193 60 193 
255 255 255 
255 255 255 
255 255 255 
221 221 221 
161 161 161 
221 221 221 
161 161 161 
255 199 199 
255 255 255 
255 163 255 
0 0 0 
255 255 255 
255 249 249 
255 255 255 
0 0 0 
137 60 194 
255 121 121 
231 231 255 
255 222 255 
255 255 255 
0 0 0 
255 255 255 
0 0 0 
0 0 0 
255 174 255 
161 161 161 
28 28 255 
77 77 247 
255 255 255 
77 77 247 
255 185 255 
200 180 255 
255 160 255 
255 255 255 
175 175 255 
126 126 255 
0 0 0 
0 0 0 
0 0 0 
188 175 255 
205 170 245 
255 255 255 
170 170 255 
255 255 255 
0 0 0 
255 173 173 
193 60 193 
255 97 255 
47 47 151 
174 77 255 
28 28 255 
110 90 255 
97 97 255 
72 22 72 
47 47 151 
135 42 135 
193 60 193 
255 191 255 
155 155 255 
77 77 247 
47 47 151 
84 51 255 
0 0 0 
255 170 255 
37 37 255 
0 0 0 
138 85 255 
0 0 0 
0 0 0 
77 77 247 
64 64 207 
165 67 255 
77 77 249 
61 8 87 
77 77 249 
138 138 255 
77 77 247 
64 64 207 
255 106 255 
47 47 151 
128 92 255 
125 58 186 
88 88 255 
64 64 207 
77 77 249 
255 212 255 
255 74 74 
255 106 255 
151 47 47 
255 133 133 
255 76 246 
255 75 82 
255 60 60 
255 89 175 
255 187 203 
151 47 47 
255 58 58 
151 47 47 
151 47 47 
255 120 120 
255 88 93 
255 95 95 
255 58 58 
255 48 55 
255 51 67 
255 206 243 
0 0 0 
255 88 88 
255 216 253 
255 216 216 
0 0 0 
72 22 72 
0 0 0 
0 0 0 
151 47 47 
255 104 149 
255 213 213 
0 0 0 
255 74 74 
0 0 0 
255 142 216 
255 66 83 
255 82 96 
255 149 149 
255 88 88 
0 0 0 
255 255 255 
255 188 188 
255 184 184 
255 255 255 
245 170 205 
0 0 0 
247 77 77 
255 255 255 
0 0 0 
132 4 41 
161 161 161 
0 0 0 
0 0 0 
255 255 255 
255 162 255 
0 0 0 
255 255 255 
255 126 126 
247 77 77 
255 255 255 
255 199 199 
221 221 221 
255 243 255 
161 161 161 
255 255 255 
221 221 221 
221 221 221 
255 195 255 
255 255 255 
255 199 199 
255 231 231 
255 175 175 
221 221 221 
0 0 0 
255 149 174 
249 249 255 
0 0 0 
161 161 161 
161 161 161 
0 0 0 
161 161 161 
161 161 161 
255 255 255 
161 161 161 
247 77 77 
255 255 255 
255 98 255 
0 0 0 
0 0 0 
255 254 254 
255 255 255 
247 77 77 
175 175 255 
255 175 175 
255 255 255 
255 127 127 
255 237 255 
255 255 255 
255 255 255 
255 175 175 
233 223 255 
255 175 175 
255 255 255 
255 249 249 
255 255 255 
221 221 221 
0 0 0 
221 221 221 
0 0 0 
255 255 255 
255 243 255 
199 199 255 
255 255 255 
255 200 209 
255 255 255 
126 126 255 
0 0 0 
255 255 255 
255 255 255 
255 255 255 
247 77 77 
255 98 255 
255 121 255 
255 46 150 
0 0 0 
221 221 221 
254 233 255 
255 255 255 
161 161 161 
161 161 161 
255 255 255 
255 255 255 
255 205 205 
255 254 254 
161 161 161 
255 255 255 
0 0 0 
221 221 221 
255 255 255 
255 227 227 
255 255 255 
255 255 255 
161 161 161 
221 221 221 
255 255 255 
106 47 255 
206 206 255 
255 255 255 
255 122 233 
161 161 161 
250 78 255 
0 0 0 
255 255 255 
0 0 0 
199 199 255 
0 0 0 
255 255 255 
255 175 175 
161 161 161 
244 170 244 
255 255 255 
77 77 247 
255 255 255 
255 249 249 
161 161 161 
0 0 0 
255 255 255 
255 228 255 
255 247 255 
161 161 161 
221 221 221 
255 255 255 
221 221 221 
255 222 255 
0 0 0 
199 199 255 
255 255 255 
188 166 255 
255 255 255 
0 0 0 
0 0 0 
255 78 237 
255 255 255 
0 0 0 
167 129 255 
221 221 221 
255 199 199 
255 231 255 
161 161 161 
255 199 255 
161 161 161 
255 255 255 
255 126 126 
77 77 247 
255 255 255 
205 178 255 
170 170 255 
126 126 255 
210 210 255 
255 175 255 
0 0 0 
255 255 255 
255 255 255 
255 255 255 
161 161 161 
255 255 255 
175 175 255 
0 0 0 
0 0 0 
255 255 255 
255 145 255 
255 126 255 
77 77 247 
137 83 255 
255 208 255 
127 127 255 
255 255 255 
126 126 255 
47 47 151 
255 147 255 
157 134 255 
160 160 255 
197 74 238 
84 51 164 
0 0 0 
85 85 255 
0 0 0 
110 90 255 
255 53 255 
47 47 151 
255 121 255 
0 0 0 
0 0 0 
103 80 255 
137 84 255 
222 80 255 
156 67 255 
76 76 255 
84 51 164 
64 64 207 
101 84 255 
0 0 0 
79 47 255 
77 77 247 
64 64 207 
255 255 255 
209 28 92 
47 47 151 
122 50 255 
94 67 216 
47 47 151 
106 106 255 
47 47 151 
114 114 255 
125 58 186 
64 64 207 
255 113 113 
255 98 255 
255 72 72 
255 105 170 
186 58 125 
255 72 102 
255 86 107 
255 88 88 
186 58 125 
255 36 36 
151 47 47 
207 64 64 
151 47 47 
255 28 28 
221 65 86 
247 77 77 
0 0 0 
0 0 0 
255 90 90 
255 91 123 
255 88 88 
255 49 72 
56 17 128 
255 110 153 
255 74 77 
151 47 47 
0 0 0 
255 58 128 
255 94 118 
244 65 116 
247 77 77 
0 0 0 
151 47 47 
255 83 83 
0 0 0 
255 114 124 
0 0 0 
255 163 169 
255 60 60 
255 255 255 
255 126 126 
161 161 161 
255 255 255 
255 83 137 
0 0 0 
255 105 255 
255 47 151 
210 210 255 
0 0 0 
0 0 0 
247 77 77 
255 163 171 
255 98 98 
161 161 161 
255 255 255 
255 105 105 
255 175 175 
161 161 161 
0 0 0 
221 221 221 
255 255 255 
255 255 255 
221 221 221 
221 221 221 
118 36 118 
255 175 175 
161 161 161 
255 255 255 
161 161 161 
161 161 161 
221 221 221 
221 221 221 
0 0 0 
255 221 255 
221 221 221 
0 0 0 
0 0 0 
244 170 244 
255 255 255 
255 126 126 
0 0 0 
255 60 60 
255 255 255 
255 255 255 
255 231 231 
161 161 161 
247 77 77 
255 230 230 
0 0 0 
247 77 77 
255 255 255 
255 175 175 
0 0 0 
255 255 255 
254 254 255 
255 255 255 
247 77 77 
221 221 221 
221 221 221 
255 255 255 
221 221 221 
221 221 221 
161 161 161 
245 223 245 
255 121 255 
255 255 255 
161 161 161 
255 255 255 
255 255 255 
255 133 161 
255 255 255 
255 255 255 
255 175 175 
249 249 255 
175 175 255 
255 255 255 
254 254 255 
255 255 255 
254 254 255 
255 175 175 
161 161 161 
193 60 193 
161 161 161 
221 221 221 
175 175 255 
255 255 255 
255 255 255 
161 161 161 
255 188 255 
127 127 255 
118 36 118 
255 255 255 
60 60 255 
255 255 255 
255 255 255 
255 175 255 
221 221 221 
255 255 255 
193 60 193 
255 255 255 
249 249 255 
0 0 0 
255 255 255 
255 255 255 
0 0 0 
255 233 254 
193 60 193 
255 170 170 
221 221 221 
221 221 221 
255 166 211 
255 255 255 
255 81 255 
206 206 255 
221 221 221 
221 221 221 
161 161 161 
255 199 199 
224 99 255 
199 199 255 
255 255 255 
118 36 118 
249 249 255 
255 196 255 
255 168 255 
254 254 255 
255 255 255 
0 0 0 
255 255 255 
221 221 221 
255 255 255 
0 0 0 
255 255 255 
0 0 0 
255 255 255 
161 161 161 
161 161 161 
161 161 161 
255 255 255 
255 199 199 
255 255 255 
255 231 255 
255 255 255 
255 255 255 
255 255 255 
255 238 238 
255 255 255 
255 255 255 
221 221 221 
126 126 255 
255 255 255 
255 255 255 
161 161 161 
0 0 0 
199 199 255 
255 255 255 
175 175 255 
77 77 247 
255 255 255 
161 161 161 
161 161 161 
235 222 255 
161 161 161 
255 255 255 
255 255 255 
255 163 163 
255 255 255 
199 199 255 
98 98 255 
145 45 255 
0 0 0 
161 161 161 
126 126 255 
160 13 255 
255 255 255 
126 126 255 
255 210 255 
74 74 255 
0 0 0 
36 36 255 
135 85 255 
255 130 255 
101 53 255 
0 0 0 
47 47 151 
133 95 255 
77 77 249 
93 58 187 
137 83 255 
132 132 255 
102 79 255 
64 64 207 
255 107 255 
47 47 151 
152 108 255 
88 88 255 
139 139 255 
222 57 184 
47 47 151 
227 107 255 
0 0 0 
72 22 72 
74 66 255 
0 0 0 
255 78 252 
255 104 255 
255 110 255 
179 92 255 
197 74 238 
147 147 255 
47 47 151 
47 47 151 
97 97 255 
47 47 151 
118 36 118 
0 0 0 
255 88 88 
255 86 148 
255 78 83 
255 93 93 
255 48 83 
151 47 47 
0 0 0 
151 47 47 
255 138 138 
255 255 255 
255 112 112 
255 61 235 
0 0 0 
207 64 64 
151 47 47 
249 77 77 
255 162 255 
0 0 0 
255 87 87 
255 149 149 
255 99 99 
0 0 0 
249 77 77 
255 255 255 
0 0 0 
207 64 64 
187 58 93 
151 47 47 
255 45 173 
255 81 121 
255 69 89 
247 77 77 
255 97 134 
0 0 0 
0 0 0 
255 88 88 
255 53 101 
255 50 255 
255 76 100 
255 178 205 
255 74 159 
255 255 255 
255 255 255 
0 0 0 
247 77 77 
209 28 92 
193 60 193 
221 221 221 
0 0 0 
0 0 0 
255 113 255 
221 221 221 
161 161 161 
255 255 255 
0 0 0 
161 161 161 
255 225 225 
255 163 255 
255 207 207 
0 0 0 
255 175 175 
0 0 0 
161 161 161 
255 255 255 
255 233 254 
255 255 255 
255 255 255 
0 0 0 
255 255 255 
118 36 118 
161 161 161 
77 77 247 
0 0 0 
255 227 255 
255 231 231 
255 255 255 
255 126 126 
221 221 221 
0 0 0 
161 161 161 
255 220 220 
255 255 255 
255 186 186 
255 170 176 
255 255 255 
221 221 221 
255 255 255 
255 186 255 
199 199 255 
255 255 255 
224 99 255 
255 175 175 
221 221 221 
161 161 161 
255 231 231 
255 210 210 
255 126 126 
221 221 221 
255 255 255 
255 255 255 
221 221 221 
255 255 255 
255 255 255 
255 99 224 
255 255 255 
161 161 161 
0 0 0 
221 221 221 
255 255 255 
255 210 255 
255 255 255 
92 28 255 
221 221 221 
255 255 255 
255 255 255 
254 254 255 
255 255 255 
126 126 255 
255 255 255 
161 161 161 
221 221 221 
255 255 255 
255 127 127 
0 0 0 
205 178 255 
221 221 221 
255 230 255 
0 0 0 
221 221 221 
161 161 161 
255 255 255 
161 161 161 
255 255 255 
255 255 255 
221 221 221 
161 161 161 
0 0 0 
255 255 255 
221 221 221 
255 255 255 
255 255 255 
118 36 118 
161 161 161 
221 221 221 
255 218 255 
175 175 255 
255 255 255 
161 161 161 
0 0 0 
0 0 0 
255 255 255 
255 255 255 
175 175 255 
255 255 255 
175 175 255 
255 229 255 
60 60 255 
0 0 0 
255 255 255 
255 180 255 
255 214 255 
255 231 231 
244 170 255 
255 255 255 
161 161 161 
255 255 255 
0 0 0 
126 126 255 
255 195 255 
0 0 0 
255 207 207 
0 0 0 
255 255 255 
161 161 161 
0 0 0 
0 0 0 
255 198 255 
161 161 161 
161 161 161 
255 255 255 
161 161 161 
221 221 221 
105 105 255 
255 247 255 
255 188 255 
175 175 255 
255 162 255 
0 0 0 
95 95 255 
255 255 255 
255 255 255 
0 0 0 
77 77 247 
254 254 255 
255 255 255 
255 199 255 
255 255 255 
179 179 255 
77 77 247 
255 255 255 
255 255 255 
98 98 255 
161 161 161 
255 184 255 
238 238 255 
255 227 255 
175 175 255 
0 0 0 
0 0 0 
193 60 193 
161 161 161 
77 77 247 
255 83 255 
161 161 161 
255 201 255 
0 0 0 
255 184 184 
255 83 255 
0 0 0 
250 130 255 
0 0 0 
129 129 255 
118 36 118 
168 119 255 
72 22 72 
94 35 255 
99 75 255 
214 59 255 
97 97 255 
72 72 255 
47 47 151 
64 64 207 
36 36 255 
47 47 151 
181 17 56 
47 47 151 
107 54 176 
47 47 151 
64 64 207 
144 144 255 
255 64 208 
64 64 207 
85 85 255 
132 132 255 
0 0 0 
107 42 135 
77 77 255 
97 97 255 
171 66 237 
173 173 255 
74 74 255 
74 74 255 
235 87 255 
47 47 151 
144 69 255 
255 112 255 
255 88 88 
255 126 126 
153 47 243 
151 47 47 
0 0 0 
193 60 193 
151 47 47 
255 107 245 
255 255 255 
207 64 64 
255 88 88 
255 153 153 
233 72 102 
164 51 84 
207 64 64 
207 64 64 
247 77 77 
255 159 255 
255 97 97 
230 65 71 
255 172 172 
207 64 64 
255 160 255 
255 144 144 
255 110 136 
233 72 131 
255 107 107 
255 255 255 
255 88 88 
151 47 47 
255 60 60 
194 60 137 
207 64 64 
247 77 77 
247 77 77 
255 83 83 
239 74 142 
0 0 0 
255 60 60 
255 28 65 
255 6 174 
126 126 255 
255 238 238 
255 95 95 
255 231 231 
255 255 255 
255 175 175 
255 231 231 
0 0 0 
255 255 255 
255 126 126 
255 60 60 
221 221 221 
160 160 255 
255 255 255 
0 0 0 
0 0 0 
0 0 0 
221 221 221 
0 0 0 
161 161 161 
255 255 255 
0 0 0 
255 175 175 
255 60 60 
255 78 86 
255 126 126 
221 221 221 
221 221 221 
255 255 255 
0 0 0 
255 231 231 
255 255 255 
255 255 255 
247 77 77 
161 161 161 
255 255 255 
255 255 255 
255 231 231 
221 221 221 
247 77 77 
255 127 127 
0 0 0 
56 17 255 
0 0 0 
255 255 255 
221 221 221 
221 221 221 
161 161 161 
255 231 231 
255 126 126 
161 161 161 
255 255 255 
255 255 255 
95 95 255 
255 198 255 
255 65 138 
163 163 255 
161 161 161 
255 169 169 
255 255 255 
221 221 221 
77 77 247 
161 161 161 
155 146 255 
255 126 126 
255 227 227 
247 77 77 
255 255 255 
255 255 255 
255 145 255 
161 161 161 
255 255 255 
161 161 161 
255 163 181 
221 221 221 
255 98 98 
255 255 255 
0 0 0 
0 0 0 
255 255 255 
255 126 126 
161 161 161 
255 255 255 
0 0 0 
255 255 255 
161 161 161 
0 0 0 
255 255 255 
60 60 255 
161 161 161 
199 199 255 
221 221 221 
255 255 255 
161 161 161 
249 249 255 
221 221 221 
255 255 255 
0 0 0 
77 77 247 
247 77 77 
182 164 255 
255 60 136 
255 255 255 
0 0 0 
161 161 161 
168 131 255 
255 255 255 
0 0 0 
255 255 255 
0 0 0 
255 127 127 
221 221 221 
255 255 255 
255 255 255 
255 255 255 
175 175 255 
255 255 255 
161 161 161 
224 99 255 
199 199 255 
221 221 221 
174 77 255 
255 255 255 
255 255 255 
161 161 161 
230 174 255 
255 255 255 
161 161 161 
255 255 255 
255 255 255 
161 161 161 
255 255 255 
255 255 255 
161 161 161 
224 99 255 
255 255 255 
255 175 175 
0 0 0 
255 225 255 
0 0 0 
77 77 247 
255 255 255 
255 255 255 
0 0 0 
99 99 255 
255 184 255 
255 199 199 
255 255 255 
255 255 255 
0 0 0 
255 255 255 
161 161 161 
0 0 0 
255 255 255 
255 10 110 
255 255 255 
0 0 0 
255 19 255 
255 255 255 
255 255 255 
116 80 255 
255 255 255 
255 42 196 
255 222 255 
188 188 255 
0 0 0 
161 161 161 
0 0 0 
255 99 99 
194 60 137 
255 255 255 
255 255 255 
60 60 255 
126 126 255 
255 255 255 
231 231 255 
255 132 255 
72 22 72 
77 77 247 
91 63 255 
188 86 255 
255 88 255 
77 77 247 
0 0 0 
78 54 255 
72 22 72 
117 36 255 
83 51 255 
137 84 255 
47 47 151 
131 79 255 
255 51 255 
77 77 249 
88 88 255 
91 91 255 
72 72 255 
77 77 247 
47 47 151 
208 104 255 
237 138 255 
47 47 151 
58 58 255 
0 0 0 
232 151 255 
118 36 118 
0 0 0 
125 58 186 
88 88 255 
211 202 255 
255 76 255 
0 0 0 
207 179 255 
0 0 0 
47 47 151 
72 22 72 
255 97 97 
255 97 183 
118 36 118 
255 46 46 
255 88 88 
0 0 0 
255 126 255 
255 93 93 
233 72 131 
255 58 58 
255 88 88 
255 127 141 
255 97 97 
255 114 114 
195 8 255 
151 47 47 
249 77 77 
0 0 0 
0 0 0 
207 64 64 
229 49 71 
255 107 204 
41 4 255 
255 139 152 
0 0 0 
0 0 0 
233 72 102 
255 105 255 
216 67 94 
151 47 47 
238 74 197 
207 64 64 
255 35 113 
255 64 157 
0 0 0 
255 255 255 
255 83 83 
0 0 0 
247 77 77 
247 77 77 
221 221 221 
77 77 247 
0 0 0 
0 0 0 
127 127 255 
255 175 175 
161 161 161 
0 0 0 
255 204 255 
255 194 194 
0 0 0 
255 175 175 
255 172 172 
255 188 188 
0 0 0 
255 255 255 
255 255 255 
214 166 255 
161 161 161 
255 144 255 
0 0 0 
255 175 175 
255 126 126 
255 255 255 
255 173 173 
0 0 0 
161 161 161 
207 207 255 
0 0 0 
255 199 199 
255 249 249 
199 199 255 
255 255 255 
221 221 221 
247 77 77 
161 161 161 
77 77 247 
255 199 199 
0 0 0 
0 0 0 
255 206 206 
161 161 161 
255 255 255 
255 255 255 
244 170 244 
0 0 0 
221 221 221 
161 161 161 
255 175 175 
199 199 255 
255 231 255 
255 255 255 
255 255 255 
255 255 255 
255 255 255 
255 255 255 
0 0 0 
221 221 221 
255 221 221 
0 0 0 
255 175 175 
161 161 161 
221 221 221 
255 238 255 
255 255 255 
0 0 0 
221 221 221 
161 161 161 
255 153 255 
161 161 161 
255 255 255 
92 28 209 
255 240 240 
161 161 161 
255 255 255 
255 255 255 
255 255 255 
255 255 255 
255 255 255 
0 0 0 
255 255 255 
0 0 0 
255 250 255 
137 60 194 
212 208 255 
161 161 161 
255 255 255 
255 209 227 
175 175 255 
0 0 0 
255 222 222 
221 221 221 
255 83 137 
255 231 231 
0 0 0 
161 161 161 
255 255 255 
161 161 161 
255 234 255 
254 254 255 
255 255 255 
255 13 228 
255 255 255 
0 0 0 
255 126 255 
170 170 255 
161 161 161 
255 188 255 
255 255 255 
255 255 255 
249 249 255 
255 255 255 
255 255 255 
175 175 255 
255 255 255 
221 221 221 
175 175 255 
255 249 249 
255 255 255 
255 255 255 
255 254 254 
255 255 255 
221 221 221 
0 0 0 
221 221 221 
0 0 0 
224 99 255 
255 227 254 
248 77 255 
255 160 255 
249 249 255 
255 255 255 
255 255 255 
255 178 255 
255 255 255 
255 255 255 
255 255 255 
199 199 255 
137 60 194 
161 161 161 
0 0 0 
255 255 255 
255 126 126 
255 255 255 
77 77 247 
199 199 255 
255 206 206 
255 127 127 
126 126 255 
255 255 255 
255 172 255 
65 28 255 
221 221 221 
255 255 255 
0 0 0 
0 0 0 
221 221 255 
149 46 255 
255 222 255 
0 0 0 
77 77 247 
161 161 161 
255 126 255 
255 255 255 
118 36 118 
0 0 0 
255 166 255 
255 126 126 
221 221 221 
77 77 247 
255 255 255 
255 181 255 
0 0 0 
255 144 255 
0 0 0 
99 99 255 
255 255 255 
0 0 0 
47 47 151 
137 60 194 
47 47 151 
118 36 118 
0 0 0 
0 0 0 
185 49 159 
255 121 255 
0 0 0 
64 64 207 
255 67 216 
72 22 72 
255 156 255 
60 60 255 
72 22 72 
212 53 255 
221 132 255 
193 60 193 
255 167 255 
255 105 255 
97 97 255 
255 73 237 
0 0 0 
134 49 159 
166 67 215 
137 60 194 
255 255 255 
255 160 255 
153 111 255 
148 102 255 
255 129 255 
150 72 255 
113 113 255 
158 78 255 
94 67 216 
71 65 230 
125 58 186 
94 67 216 
255 98 98 
233 72 102 
249 77 77 
151 47 47 
0 0 0 
186 58 125 
255 203 203 
255 85 85 
255 91 149 
151 47 47 
255 97 97 
249 77 77 
255 84 193 
255 84 84 
207 64 64 
255 98 158 
255 45 45 
0 0 0 
255 77 77 
181 17 56 
255 114 180 
151 47 47 
0 0 0 
255 144 144 
255 149 149 
255 88 88 
118 36 118 
72 22 72 
0 0 0 
0 0 0 
247 77 77 
151 47 47 
255 88 88 
0 0 0 
255 57 57 
181 17 56 
255 131 131 
0 0 0 
247 77 77 
255 255 255 
255 231 231 
255 255 255 
255 255 255 
255 138 150 
161 161 161 
255 172 172 
0 0 0 
0 0 0 
255 126 126 
255 175 175 
127 127 255 
255 127 127 
221 221 221 
255 65 255 
161 161 161 
255 175 175 
161 161 161 
255 175 175 
255 255 255 
0 0 0 
255 255 255 
0 0 0 
255 206 206 
255 255 255 
255 223 255 
221 221 221 
0 0 0 
255 255 255 
255 255 255 
221 221 221 
0 0 0 
255 199 255 
0 0 0 
255 255 255 
161 161 161 
255 255 255 
255 255 255 
161 161 161 
245 223 245 
254 233 255 
244 170 244 
161 161 161 
255 199 199 
255 255 255 
0 0 0 
144 144 255 
161 161 161 
127 127 255 
255 255 255 
255 255 255 
0 0 0 
255 121 121 
231 231 255 
255 255 255 
161 161 161 
255 175 175 
255 255 255 
255 98 255 
0 0 0 
255 255 255 
161 161 161 
255 255 255 
137 60 194 
255 126 126 
255 170 255 
255 199 199 
255 255 255 
161 161 161 
227 227 255 
255 255 255 
255 169 255 
0 0 0 
255 210 255 
199 199 255 
255 188 255 
0 0 0 
0 0 0 
77 77 247 
255 60 60 
255 175 175 
221 221 221 
255 255 255 
161 161 161 
249 249 255 
255 255 255 
161 161 161 
221 221 221 
255 255 255 
255 255 255 
255 255 255 
221 221 221 
255 95 206 
255 255 255 
221 221 221 
255 255 255 
255 255 255 
255 199 255 
255 255 255 
221 221 221 
255 255 255 
255 231 231 
161 161 161 
0 0 0 
255 255 255 
221 221 221 
175 175 255 
255 255 255 
161 161 161 
255 255 255 
255 255 255 
0 0 0 
255 255 255 
175 175 255 
194 164 194 
255 225 255 
255 255 255 
77 77 247 
221 221 255 
255 255 255 
255 255 255 
221 221 221 
126 126 255 
255 255 255 
247 77 77 
161 161 161 
249 249 255 
255 184 184 
255 255 255 
255 255 255 
161 161 161 
255 255 255 
188 166 255 
175 175 255 
0 0 0 
231 231 255 
199 199 255 
255 255 255 
0 0 0 
126 126 255 
255 231 231 
0 0 0 
118 36 118 
161 161 161 
255 255 255 
161 161 161 
0 0 0 
255 255 255 
0 0 0 
161 161 161 
0 0 0 
246 76 255 
221 221 221 
175 175 255 
255 188 255 
255 199 199 
183 126 255 
255 255 255 
255 28 91 
0 0 0 
161 161 161 
119 74 255 
255 255 255 
0 0 0 
118 36 118 
255 164 178 
161 161 161 
0 0 0 
255 255 255 
255 255 255 
0 0 0 
255 119 255 
175 175 255 
255 103 149 
161 161 161 
161 161 161 
0 0 0 
255 163 171 
0 0 0 
47 47 151 
0 0 0 
71 22 255 
0 0 0 
72 22 72 
142 74 239 
0 0 0 
136 108 255 
255 153 255 
125 58 186 
47 47 151 
47 47 151 
0 0 0 
227 227 255 
97 97 255 
88 88 255 
64 64 207 
115 115 255 
97 97 255 
226 104 255 
255 78 255 
84 51 164 
88 88 255 
0 0 0 
64 64 207 
64 64 207 
77 77 249 
184 98 255 
126 126 255 
138 77 255 
120 120 255 
255 62 255 
0 0 0 
47 47 151 
47 47 151 
255 38 122 
88 88 255 
0 0 0 
255 176 187 
207 64 64 
0 0 0 
255 58 58 
252 73 134 
255 132 172 
255 97 97 
255 114 114 
207 64 64 
255 86 148 
207 64 64 
255 95 95 
0 0 0 
255 60 60 
0 0 0 
255 86 255 
255 72 72 
255 36 36 
255 77 176 
249 77 77 
255 88 88 
0 0 0 
255 160 160 
255 88 88 
255 63 156 
207 64 64 
0 0 0 
255 88 88 
255 69 95 
247 77 77 
255 54 255 
255 103 103 
0 0 0 
151 47 47 
255 83 137 
151 47 47 
255 255 255 
255 60 60 
151 47 47 
161 161 161 
161 161 161 
255 199 199 
255 255 255 
247 77 77 
221 221 221 
0 0 0 
255 178 205 
247 77 77 
255 226 253 
255 255 255 
255 222 255 
161 161 161 
255 199 199 
255 243 255 
161 161 161 
255 254 255 
255 126 126 
127 127 255 
161 161 161 
247 77 77 
255 175 175 
0 0 0 
255 255 255 
194 164 194 
255 255 255 
161 161 161 
255 255 255 
247 77 77 
255 127 127 
255 249 249 
255 255 255 
221 221 221 
247 77 77 
255 187 255 
255 199 199 
255 255 255 
255 255 255 
161 161 161 
161 161 161 
255 184 184 
255 255 255 
255 255 255 
0 0 0 
0 0 0 
161 161 161 
0 0 0 
255 255 255 
0 0 0 
173 173 255 
255 242 255 
255 255 255 
255 255 255 
118 36 118 
161 161 161 
0 0 0 
221 221 221 
247 77 77 
255 231 231 
77 77 247 
255 255 255 
255 199 199 
0 0 0 
0 0 0 
161 161 161 
255 222 255 
255 199 199 
255 255 255 
255 203 221 
161 161 161 
0 0 0 
255 255 255 
255 255 255 
0 0 0 
255 83 255 
255 227 255 
255 190 255 
221 221 221 
255 255 255 
255 255 255 
255 132 255 
255 255 255 
255 255 255 
161 161 161 
255 184 184 
255 255 255 
0 0 0 
255 255 255 
0 0 0 
0 0 0 
255 195 255 
77 77 247 
221 221 221 
221 221 221 
255 255 255 
161 161 161 
255 255 255 
255 255 255 
221 221 221 
255 255 255 
199 199 255 
0 0 0 
77 77 247 
255 210 255 
161 161 161 
161 161 161 
255 255 255 
255 255 255 
193 60 193 
255 210 255 
161 161 161 
255 178 205 
255 174 255 
161 161 161 
255 206 206 
77 77 247 
206 200 255 
0 0 0 
0 0 0 
161 161 161 
255 255 255 
255 255 255 
255 255 255 
255 255 255 
161 161 161 
255 255 255 
161 161 161 
199 199 255 
255 255 255 
255 255 255 
255 255 255 
161 161 161 
255 126 126 
204 95 255 
255 166 215 
126 126 255 
221 221 221 
255 255 255 
231 231 255 
255 255 255 
255 255 255 
77 77 247 
255 255 255 
255 250 255 
161 161 161 
0 0 0 
249 249 255 
153 6 67 
255 255 255 
0 0 0 
77 77 247 
126 126 255 
255 255 255 
126 126 255 
255 81 255 
77 77 247 
161 161 161 
255 255 255 
126 126 255 
255 28 92 
255 183 253 
161 161 161 
126 126 255 
255 164 255 
60 60 255 
60 60 255 
126 126 255 
194 164 194 
255 222 255 
0 0 0 
77 77 247 
77 77 247 
221 221 255 
98 81 255 
199 199 255 
255 154 255 
0 0 0 
0 0 0 
85 85 255 
0 0 0 
152 129 255 
137 83 255 
255 255 255 
197 74 238 
64 64 207 
131 72 233 
47 47 151 
64 64 207 
255 153 255 
47 47 151 
0 0 0 
255 79 255 
144 109 255 
154 101 255 
177 177 255 
83 30 255 
64 64 207 
255 83 255 
64 64 207 
191 113 255 
0 0 0 
0 0 0 
47 47 151 
188 101 255 
47 47 151 
148 86 255 
71 49 229 
64 64 207 
77 77 249 
47 47 151 
84 51 164 
169 40 128 
130 100 255 
178 133 255 
47 47 151 
54 54 255 
102 72 233 
255 227 227 
255 80 103 
151 47 47 
255 88 88 
255 66 74 
255 132 132 
207 64 64 
255 106 106 
255 79 93 
255 88 88 
255 113 113 
203 63 203 
255 118 137 
255 81 108 
0 0 0 
255 35 94 
0 0 0 
207 64 64 
255 255 255 
0 0 0 
151 47 47 
255 88 88 
255 137 255 
255 125 125 
255 49 203 
255 127 127 
255 55 113 
255 58 65 
151 47 47 
239 74 142 
255 106 106 
247 77 77 
151 47 47 
255 45 73 
0 0 0 
0 0 0 
255 211 211 
72 22 72 
255 68 68 
0 0 0 
255 225 255 
255 60 60 
0 0 0 
255 255 255 
255 171 255 
77 77 247 
255 255 255 
221 221 221 
0 0 0 
0 0 0 
255 255 255 
161 161 161 
255 99 255 
221 221 221 
255 105 105 
255 255 255 
255 210 255 
0 0 0 
255 238 238 
161 161 161 
255 255 255 
255 170 255 
161 161 161 
255 98 255 
206 206 255 
244 170 244 
221 221 221 
247 77 77 
255 255 255 
0 0 0 
255 210 210 
221 221 221 
255 199 199 
255 209 255 
0 0 0 
255 255 255 
247 77 77 
255 255 255 
255 175 175 
247 77 77 
161 161 161 
255 255 255 
246 76 255 
255 255 255 
255 255 255 
255 255 255 
255 99 99 
255 175 175 
255 255 255 
161 161 161 
0 0 0 
255 206 206 
0 0 0 
255 255 255 
0 0 0 
161 161 161 
255 199 255 
0 0 0 
255 255 255 
255 255 255 
0 0 0 
221 221 221 
161 161 161 
255 126 126 
0 0 0 
255 255 255 
255 255 255 
161 161 161 
0 0 0 
255 255 255 
255 255 255 
255 255 255 
255 249 249 
221 221 221 
255 121 255 
255 199 255 
255 133 255 
0 0 0 
255 255 255 
221 221 221 
77 77 247 
255 255 255 
231 231 255 
161 161 161 
255 231 231 
161 161 161 
65 28 255 
255 255 255 
255 255 255 
221 221 221 
0 0 0 
118 36 118 
161 161 161 
221 221 221 
255 175 255 
255 175 175 
255 255 255 
255 255 255 
255 173 173 
161 161 161 
161 161 161 
255 175 175 
255 199 199 
255 175 175 
255 255 255 
174 77 255 
206 206 255 
221 221 221 
161 161 161 
255 255 255 
161 161 161 
255 255 255 
255 255 255 
255 255 255 
255 246 255 
255 238 255 
255 255 255 
255 255 255 
0 0 0 
255 255 255 
0 0 0 
255 255 255 
0 0 0 
255 255 255 
0 0 0 
221 221 221 
255 255 255 
225 100 225 
161 161 161 
221 221 221 
161 161 161 
161 161 161 
255 255 255 
255 255 255 
255 255 255 
161 161 161 
255 212 255 
60 60 255 
175 175 255 
255 255 255 
221 221 221 
161 161 161 
255 227 254 
0 0 0 
161 161 161 
255 255 255 
255 255 255 
255 255 255 
255 160 255 
255 255 255 
168 162 235 
0 0 0 
161 161 161 
161 161 161 
0 0 0 
255 255 255 
0 0 0 
216 216 255 
231 231 255 
255 95 153 
0 0 0 
144 144 255 
161 161 161 
255 255 255 
0 0 0 
255 255 255 
221 221 221 
239 79 255 
255 210 255 
254 254 255 
255 255 255 
0 0 0 
126 126 255 
255 97 255 
255 79 255 
255 13 44 
161 161 161 
47 47 151 
0 0 0 
167 161 255 
0 0 0 
102 79 255 
157 69 255 
98 98 255 
47 47 151 
118 36 118 
47 47 151 
255 211 255 
77 77 247 
153 95 255 
47 47 151 
64 64 207 
226 140 255 
77 77 247 
110 84 255 
64 64 207 
119 55 255 
64 64 207 
77 77 249 
94 67 216 
47 47 151 
64 64 207 
64 64 207 
148 148 255 
64 64 207 
47 47 151 
0 0 0 
97 97 255 
83 78 255 
47 47 151 
36 36 255 
97 97 255 
105 105 255 
142 142 255 
47 47 151 
146 112 255 
207 64 64 
255 95 95 
255 66 66 
255 88 88 
255 145 157 
151 47 47 
0 0 0 
151 47 47 
151 47 47 
255 83 136 
207 64 64 
255 17 17 
255 72 72 
255 110 110 
255 88 88 
255 137 226 
255 166 255 
255 98 110 
255 10 34 
151 47 47 
255 88 96 
207 64 64 
249 77 77 
186 58 125 
255 99 99 
255 90 113 
255 126 126 
255 36 36 
255 106 255 
207 64 64 
255 88 88 
255 49 49 
247 77 77 
173 54 213 
247 77 77 
255 103 149 
255 255 255 
238 74 197 
255 22 22 
255 126 126 
255 105 255 
221 221 221 
0 0 0 
255 221 221 
255 99 99 
255 255 255 
255 144 255 
118 36 118 
255 255 255 
255 255 255 
255 95 153 
161 161 161 
249 249 255 
255 255 255 
255 255 255 
137 60 194 
161 161 161 
255 183 183 
221 221 221 
161 161 161 
255 255 255 
255 255 255 
161 161 161 
161 161 161 
221 221 221 
0 0 0 
161 161 161 
255 255 255 
255 163 181 
0 0 0 
161 161 161 
255 255 255 
161 161 161 
255 199 255 
255 255 255 
255 173 255 
244 170 244 
221 221 221 
221 221 221 
247 77 77 
255 180 255 
255 249 249 
255 175 175 
255 98 255 
0 0 0 
255 46 150 
255 255 255 
255 255 255 
255 255 255 
221 221 221 
255 255 255 
255 106 255 
221 221 221 
161 161 161 
255 126 126 
0 0 0 
255 255 255 
161 161 161 
255 255 255 
255 255 255 
255 166 188 
255 238 238 
255 98 255 
127 127 255 
0 0 0 
255 255 255 
255 105 105 
161 161 161 
0 0 0 
255 126 126 
255 238 255 
255 255 255 
255 255 255 
255 255 255 
77 77 247 
247 77 77 
0 0 0 
255 255 255 
255 255 255 
254 254 255 
193 60 193 
161 161 161 
221 221 221 
221 221 221 
255 255 255 
255 255 255 
255 255 255 
221 221 221 
0 0 0 
0 0 0 
255 255 255 
255 255 255 
161 161 161 
255 255 255 
221 221 221 
255 222 255 
255 138 138 
255 159 255 
161 161 161 
255 127 127 
161 161 161 
255 255 255 
175 175 255 
0 0 0 
255 213 255 
255 255 255 
255 249 249 
231 231 255 
161 161 161 
161 161 161 
255 255 255 
221 221 221 
0 0 0 
255 60 60 
0 0 0 
237 237 255 
255 255 255 
255 175 175 
0 0 0 
231 231 255 
255 255 255 
210 210 255 
0 0 0 
175 175 255 
0 0 0 
255 199 255 
0 0 0 
255 255 255 
255 255 255 
255 255 255 
255 255 255 
221 221 221 
255 231 231 
126 126 255 
175 175 255 
77 77 247 
0 0 0 
255 231 231 
221 221 221 
221 221 221 
255 255 255 
255 163 255 
221 221 221 
255 255 255 
161 161 161 
231 231 255 
239 129 255 
206 206 255 
208 208 255 
105 105 255 
255 255 255 
0 0 0 
255 162 255 
255 255 255 
255 207 207 
150 46 255 
255 255 255 
161 161 161 
0 0 0 
255 184 255 
0 0 0 
99 99 255 
175 175 255 
221 221 221 
217 217 255 
255 60 255 
77 77 247 
0 0 0 
194 60 137 
184 184 255 
255 218 255 
182 163 255 
0 0 0 
255 68 255 
255 216 255 
227 227 255 
0 0 0 
83 83 255 
106 106 255 
255 255 255 
120 120 255 
255 224 255 
0 0 0 
77 77 247 
193 62 235 
126 126 255 
77 77 249 
47 47 151 
255 146 255 
147 133 255 
47 47 151 
151 47 255 
255 109 255 
88 88 255 
47 47 151 
56 48 182 
64 64 207 
196 8 27 
47 47 151 
206 68 221 
47 47 151 
83 83 255 
88 88 255 
79 42 255 
77 77 247 
151 63 255 
125 107 255 
77 77 247 
47 47 151 
90 61 255 
102 72 233 
236 102 255 
88 88 255 
60 60 255 
144 134 255 
216 216 255 
249 77 77 
255 247 247 
255 74 74 
255 88 88 
187 58 93 
151 47 47 
255 61 90 
249 77 77 
255 107 107 
255 255 255 
255 127 144 
255 78 101 
255 74 74 
255 132 132 
255 138 138 
255 88 109 
247 77 77 
255 83 100 
247 57 255 
247 77 77 
0 0 0 
255 108 255 
255 36 36 
247 77 77 
255 58 58 
207 64 64 
0 0 0 
0 0 0 
255 217 255 
0 0 0 
255 113 113 
207 64 64 
255 89 197 
151 47 47 
255 76 76 
255 28 28 
164 51 84 
255 126 137 
255 123 123 
255 175 175 
255 216 216 
255 255 255 
255 177 222 
255 231 231 
255 255 255 
255 255 255 
255 126 126 
255 205 255 
255 255 255 
255 175 175 
255 175 175 
0 0 0 
255 255 255 
161 161 161 
255 255 255 
161 161 161 
255 231 231 
247 77 77 
255 236 255 
255 255 255 
247 77 77 
247 77 77 
0 0 0 
255 255 255 
221 221 221 
0 0 0 
0 0 0 
0 0 0 
247 77 77 
255 255 255 
247 77 77 
255 255 255 
255 255 255 
255 255 255 
161 161 161 
0 0 0 
161 161 161 
126 126 255 
0 0 0 
0 0 0 
245 223 245 
255 175 175 
255 255 255 
255 255 255 
255 255 255 
0 0 0 
255 199 199 
255 255 255 
255 238 255 
255 255 255 
161 161 161 
255 255 255 
255 255 255 
255 175 175 
255 255 255 
161 161 161 
255 255 255 
161 161 161 
161 161 161 
247 77 77 
255 255 255 
144 144 255 
221 221 221 
161 161 161 
247 77 77 
255 255 255 
255 255 255 
126 126 255 
77 77 247 
77 77 247 
255 255 255 
161 161 161 
255 199 199 
231 231 255 
255 170 170 
255 255 255 
255 255 255 
255 255 255 
255 255 255 
245 223 245 
255 255 255 
255 255 255 
161 161 161 
161 161 161 
255 255 255 
231 231 255 
255 175 175 
255 255 255 
161 161 161 
255 255 255 
255 255 255 
255 250 255 
175 175 255 
255 199 199 
221 221 221 
161 161 161 
161 161 161 
255 175 175 
206 206 255 
0 0 0 
255 255 255 
161 161 161 
255 255 255 
0 0 0 
161 161 161 
255 255 255 
255 227 227 
161 161 161 
255 175 175 
255 98 255 
255 68 255 
105 105 255 
161 161 161 
255 210 210 
255 231 231 
77 77 247 
255 255 255 
255 255 255 
255 255 255 
255 255 255 
255 226 255 
0 0 0 
199 199 255 
0 0 0 
255 255 255 
161 161 161 
161 161 161 
161 161 161 
0 0 0 
255 225 255 
161 161 161 
255 249 249 
161 161 161 
221 221 221 
255 169 238 
238 133 255 
255 255 255 
161 161 161 
255 255 255 
255 255 255 
0 0 0 
255 249 249 
255 236 255 
221 221 221 
255 255 255 
255 255 255 
255 255 255 
92 28 255 
255 211 255 
161 161 161 
255 255 255 
255 222 255 
221 221 221 
255 217 255 
255 255 255 
77 77 247 
161 161 161 
161 161 161 
255 199 199 
255 255 255 
161 161 161 
210 210 255 
0 0 0 
60 60 255 
255 255 255 
221 221 221 
255 255 255 
0 0 0 
255 255 255 
0 0 0 
0 0 0 
0 0 0 
199 199 255 
0 0 0 
175 175 255 
255 218 255 
161 161 161 
47 47 151 
65 28 255 
88 88 255 
157 134 255 
102 79 255 
255 90 255 
47 47 151 
0 0 0 
125 58 186 
47 47 151 
113 113 255 
135 132 255 
47 47 151 
117 117 255 
164 164 255 
77 77 247 
197 74 238 
97 97 255 
255 53 172 
124 102 255 
84 51 164 
0 0 0 
103 80 255 
90 29 255 
255 28 91 
77 77 249 
118 36 118 
64 64 207 
64 64 207 
36 36 255 
113 113 255 
77 77 249 
64 64 207 
230 115 255 
47 47 151 
215 54 200 
111 111 255 
143 93 255 
208 139 255 
207 64 64 
255 160 160 
182 17 40 
0 0 0 
0 0 0 
151 47 47 
135 42 135 
255 84 110 
255 60 60 
255 88 88 
239 74 142 
0 0 0 
233 72 102 
0 0 0 
255 206 206 
255 88 88 
255 102 102 
249 77 77 
151 47 47 
118 36 118 
0 0 0 
151 47 47 
255 81 108 
255 255 255 
255 97 97 
151 47 47 
255 255 255 
247 77 77 
0 0 0 
0 0 0 
0 0 0 
255 132 132 
151 47 47 
255 216 216 
0 0 0 
207 64 64 
255 226 233 
255 72 72 
255 86 255 
255 255 255 
255 244 244 
255 255 255 
247 77 77 
161 161 161 
0 0 0 
0 0 0 
255 255 255 
255 172 172 
255 127 127 
255 255 255 
255 199 199 
255 105 105 
0 0 0 
161 161 161 
255 238 238 
255 206 206 
0 0 0 
221 221 221 
255 126 126 
0 0 0 
255 246 246 
255 99 99 
255 227 255 
255 255 255 
0 0 0 
0 0 0 
255 249 249 
226 13 255 
255 81 253 
255 255 255 
249 249 255 
255 127 127 
255 255 255 
255 255 255 
255 255 255 
175 175 255 
255 227 254 
126 126 255 
255 105 105 
255 255 255 
0 0 0 
255 255 255 
255 255 255 
255 255 255 
221 221 221 
249 249 255 
0 0 0 
161 161 161 
255 255 255 
255 240 240 
179 175 255 
207 207 255 
221 221 221 
231 231 255 
255 255 255 
77 77 247 
255 245 255 
0 0 0 
255 255 255 
255 207 255 
255 255 255 
0 0 0 
0 0 0 
255 255 255 
255 227 255 
247 77 77 
161 161 161 
255 255 255 
255 255 255 
255 255 255 
247 77 77 
161 161 161 
221 221 221 
56 17 181 
255 230 255 
247 77 77 
0 0 0 
255 255 255 
255 255 255 
255 255 255 
161 161 161 
255 255 255 
0 0 0 
126 126 255 
161 161 161 
161 161 161 
255 255 255 
0 0 0 
255 255 255 
65 28 255 
255 254 255 
161 161 161 
255 255 255 
161 161 161 
255 222 255 
255 255 255 
255 145 255 
255 184 255 
161 161 161 
175 175 255 
247 77 77 
255 105 255 
199 199 255 
255 255 255 
255 175 175 
255 175 175 
255 255 255 
255 175 175 
255 255 255 
255 255 255 
0 0 0 
255 255 255 
255 255 255 
161 161 161 
255 255 255 
230 175 255 
161 161 161 
161 161 161 
255 255 255 
170 170 255 
0 0 0 
175 175 255 
221 221 221 
161 161 161 
221 221 221 
161 161 161 
255 255 255 
127 127 255 
161 161 161 
255 255 255 
255 255 255 
255 189 253 
255 255 255 
161 161 161 
0 0 0 
255 170 255 
175 175 255 
255 110 255 
255 255 255 
255 154 234 
255 255 255 
255 255 255 
221 221 221 
0 0 0 
161 161 161 
161 161 161 
0 0 0 
161 161 161 
255 255 255 
0 0 0 
255 255 255 
175 175 255 
255 210 255 
77 77 247 
221 221 221 
255 175 255 
255 255 255 
0 0 0 
162 50 162 
255 255 255 
255 255 255 
255 255 255 
221 221 221 
231 231 255 
221 221 221 
0 0 0 
0 0 0 
0 0 0 
161 161 161 
127 127 255 
0 0 0 
221 221 221 
193 60 193 
198 198 255 
247 77 77 
255 243 255 
255 255 255 
0 0 0 
72 22 72 
143 93 255 
72 22 72 
204 95 255 
0 0 0 
255 255 255 
136 136 255 
71 49 229 
64 64 207 
255 140 255 
181 17 56 
64 64 207 
82 77 255 
102 72 233 
55 48 255 
170 112 255 
36 36 255 
72 22 72 
0 0 0 
91 85 255 
164 84 255 
0 0 0 
47 47 151 
230 115 255 
0 0 0 
137 84 255 
84 51 164 
255 87 255 
47 47 151 
77 77 247 
84 84 255 
127 47 188 
106 106 255 
191 170 255 
64 64 207 
119 77 255 
47 47 151 
255 187 255 
0 0 0 
213 66 189 
247 77 77 
182 48 56 
255 103 208 
255 208 208 
255 98 98 
0 0 0 
255 255 255 
249 77 77 
229 49 71 
255 132 132 
249 77 77 
207 64 64 
151 47 47 
0 0 0 
255 185 185 
194 60 137 
255 95 134 
255 85 85 
255 72 72 
164 51 84 
247 77 77 
255 52 186 
151 47 47 
255 97 97 
255 113 113 
255 104 104 
151 47 47 
255 152 185 
255 121 121 
255 88 88 
151 47 47 
255 85 85 
207 64 64 
255 36 36 
255 129 129 
255 88 88 
0 0 0 
0 0 0 
161 161 161 
161 161 161 
255 205 255 
255 88 128 
235 162 168 
255 126 126 
255 255 255 
255 255 255 
255 170 170 
161 161 161 
255 255 255 
255 255 255 
77 77 247 
0 0 0 
255 99 224 
255 105 105 
194 164 255 
0 0 0 
255 176 255 
255 203 255 
0 0 0 
255 255 255 
255 206 215 
247 77 77 
255 165 180 
0 0 0 
255 199 199 
161 161 161 
255 175 175 
255 255 255 
255 249 249 
255 255 255 
0 0 0 
255 255 255 
255 166 166 
221 221 221 
255 227 254 
255 255 255 
255 255 255 
161 161 161 
255 218 218 
255 128 151 
249 249 255 
255 255 255 
255 175 175 
161 161 161 
255 206 255 
255 188 255 
255 255 255 
0 0 0 
161 161 161 
255 162 162 
77 77 247 
255 255 255 
255 255 255 
247 77 77 
255 218 255 
0 0 0 
255 220 255 
255 255 255 
255 163 171 
255 255 255 
249 249 255 
255 255 255 
255 177 255 
255 255 255 
255 199 199 
98 98 255 
255 255 255 
255 255 255 
0 0 0 
255 214 255 
161 161 161 
255 255 255 
255 60 60 
255 255 255 
161 161 161 
255 227 227 
0 0 0 
161 161 161 
255 255 255 
221 221 221 
255 249 249 
255 255 255 
142 13 100 
255 99 99 
255 255 255 
255 255 255 
255 255 255 
221 221 221 
161 161 161 
161 161 161 
0 0 0 
205 170 245 
255 255 255 
255 255 255 
255 255 255 
255 237 255 
249 249 255 
188 166 255 
161 161 161 
126 126 255 
255 206 206 
255 255 255 
255 249 255 
255 188 255 
235 162 168 
255 255 255 
161 161 161 
255 105 255 
205 178 255 
161 161 161 
221 221 221 
221 221 221 
255 255 255 
221 221 221 
255 255 255 
161 161 161 
255 221 255 
0 0 0 
255 255 255 
161 161 161 
161 161 161 
255 255 255 
161 161 161 
126 126 255 
0 0 0 
161 161 161 
221 221 221 
255 255 255 
128 98 255 
221 221 221 
255 255 255 
255 175 175 
255 255 255 
255 29 210 
255 255 255 
255 170 255 
0 0 0 
0 0 0 
0 0 0 
175 175 255 
161 161 161 
77 77 247 
60 60 255 
255 255 255 
0 0 0 
161 161 161 
255 210 255 
255 207 207 
161 161 161 
0 0 0 
206 206 255 
255 206 206 
248 248 255 
255 231 231 
199 199 255 
255 221 221 
77 77 247 
77 77 247 
105 105 255 
255 255 255 
224 222 255 
255 207 207 
161 161 161 
221 221 221 
255 236 255 
255 255 255 
118 36 118 
210 210 255 
0 0 0 
0 0 0 
0 0 0 
161 161 161 
255 175 255 
161 161 161 
0 0 0 
0 0 0 
165 96 255 
255 213 255 
60 49 230 
0 0 0 
179 88 255 
77 77 247 
255 106 255 
255 255 255 
77 77 247 
228 81 255 
156 95 255 
164 113 255 
255 74 255 
67 6 153 
47 47 151 
144 144 255 
47 47 151 
148 86 255 
39 1 198 
199 161 255 
84 51 164 
94 67 216 
131 72 233 
83 37 119 
83 37 119 
125 58 186 
255 137 255 
77 77 247 
101 53 255 
0 0 0 
77 77 249 
218 210 255 
64 64 207 
88 88 255 
114 74 255 
47 47 151 
255 150 255 
72 22 72 
151 47 47 
255 126 126 
255 95 95 
151 47 47 
207 64 64 
255 106 255 
255 255 255 
255 52 92 
234 22 116 
255 86 148 
255 120 120 
151 47 47 
233 72 131 
233 72 131 
249 77 77 
255 101 255 
255 76 233 
247 77 77 
151 47 47 
255 135 255 
255 255 255 
255 94 255 
151 47 47 
0 0 0 
0 0 0 
255 74 255 
0 0 0 
151 47 47 
0 0 0 
151 47 47 
255 183 255 
151 47 47 
151 47 47 
255 36 36 
255 60 60 
255 206 215 
0 0 0 
255 105 105 
255 97 97 
92 28 209 
255 126 126 
255 255 255 
161 161 161 
247 77 77 
118 36 118 
255 175 175 
255 162 200 
255 76 76 
255 255 255 
247 77 77 
0 0 0 
161 161 161 
0 0 0 
255 199 199 
0 0 0 
255 175 175 
255 255 255 
161 161 161 
255 206 206 
255 255 255 
255 188 188 
161 161 161 
221 221 221 
255 107 255 
244 170 244 
255 255 255 
0 0 0 
255 255 255 
255 255 255 
161 161 161 
0 0 0 
161 161 161 
255 126 126 
0 0 0 
255 255 255 
255 46 150 
0 0 0 
221 221 221 
0 0 0 
77 77 247 
255 255 255 
0 0 0 
0 0 0 
0 0 0 
255 255 255 
255 206 206 
255 255 255 
247 77 77 
0 0 0 
255 175 175 
161 161 161 
255 255 255 
161 161 161 
201 83 255 
255 255 255 
255 255 255 
255 255 255 
255 255 255 
255 184 255 
255 191 223 
255 255 255 
221 221 221 
255 255 255 
255 255 255 
231 231 255 
255 231 231 
247 77 77 
161 161 161 
0 0 0 
221 221 221 
255 255 255 
255 255 255 
255 175 175 
255 255 255 
255 255 255 
77 77 247 
255 255 255 
161 161 161 
237 102 255 
161 161 161 
255 255 255 
255 175 175 
255 144 255 
255 255 255 
255 231 255 
255 144 255 
255 231 255 
245 223 245 
255 238 255 
255 255 255 
255 255 255 
255 255 255 
0 0 0 
255 255 255 
255 175 175 
255 255 255 
161 161 161 
0 0 0 
161 161 161 
126 126 255 
221 221 221 
255 126 126 
175 175 255 
118 36 118 
255 255 255 
0 0 0 
255 255 255 
245 170 205 
221 221 221 
255 49 255 
255 161 171 
255 255 255 
0 0 0 
0 0 0 
161 161 161 
255 255 255 
161 161 161 
161 161 161 
126 126 255 
175 175 255 
199 199 255 
161 161 161 
205 170 245 
161 161 161 
161 161 161 
175 175 255 
0 0 0 
161 161 161 
0 0 0 
231 231 255 
255 255 255 
255 255 255 
255 255 255 
161 161 161 
255 50 140 
255 255 255 
161 161 161 
255 175 175 
199 199 255 
0 0 0 
255 255 255 
0 0 0 
255 247 255 
255 254 255 
194 164 194 
205 178 255 
255 238 238 
221 221 221 
255 255 255 
205 178 255 
0 0 0 
255 255 255 
180 137 255 
254 254 255 
161 161 161 
255 255 255 
255 255 255 
161 161 161 
255 255 255 
0 0 0 
0 0 0 
255 222 255 
126 126 255 
255 255 255 
77 77 247 
161 161 161 
161 161 161 
255 98 255 
0 0 0 
229 229 255 
77 77 247 
255 222 243 
161 161 161 
0 0 0 
0 0 0 
188 188 255 
0 0 0 
56 17 128 
183 136 255 
36 36 255 
0 0 0 
255 255 255 
145 144 255 
36 36 255 
56 17 181 
0 0 0 
47 47 151 
64 64 207 
128 86 255 
64 64 207 
47 47 151 
47 47 151 
0 0 0 
0 0 0 
172 136 255 
255 213 255 
118 36 118 
255 78 250 
255 106 255 
76 35 255 
77 77 249 
255 140 255 
100 76 255 
151 89 255 
147 100 255 
118 99 255 
72 22 72 
255 162 255 
0 0 0 
77 77 247 
106 106 255 
77 77 247 
131 72 255 
47 47 151 
120 57 255 
144 144 255 
255 85 255 
207 64 64 
207 64 64 
255 36 255 
247 77 77 
249 77 77 
255 112 112 
151 47 47 
207 64 64 
255 215 238 
255 206 219 
0 0 0 
255 255 255 
255 216 243 
255 106 106 
255 84 110 
255 113 113 
151 47 47 
255 128 255 
164 51 84 
151 47 47 
151 47 47 
255 89 255 
255 116 255 
255 89 197 
56 17 128 
255 102 148 
0 0 0 
255 88 88 
255 149 149 
0 0 0 
207 64 64 
118 36 118 
255 74 74 
0 0 0 
255 93 93 
0 0 0 
247 77 77 
255 98 200 
0 0 0 
221 221 221 
255 126 126 
198 198 255 
0 0 0 
255 254 254 
0 0 0 
0 0 0 
255 162 255 
255 255 255 
0 0 0 
0 0 0 
255 225 241 
0 0 0 
161 161 161 
0 0 0 
255 166 255 
247 77 77 
255 236 236 
255 160 160 
255 184 184 
255 144 144 
255 98 98 
255 175 175 
255 176 186 
221 221 221 
161 161 161 
161 161 161 
0 0 0 
255 199 255 
0 0 0 
221 221 221 
247 77 77 
199 199 255 
255 22 71 
255 175 230 
255 255 255 
0 0 0 
0 0 0 
255 255 255 
0 0 0 
0 0 0 
255 175 175 
255 249 249 
255 255 255 
255 98 255 
255 255 255 
255 166 215 
255 255 255 
255 255 255 
255 255 255 
255 255 255 
0 0 0 
255 199 199 
221 221 221 
161 161 161 
245 223 245 
255 255 255 
161 161 161 
221 221 221 
0 0 0 
255 255 255 
255 231 231 
255 175 175 
221 221 221 
179 162 255 
255 175 175 
255 180 255 
255 144 255 
221 221 221 
161 161 161 
77 77 247 
255 255 255 
161 161 161 
0 0 0 
118 36 255 
221 221 221 
0 0 0 
255 254 254 
161 161 161 
0 0 0 
255 255 255 
255 255 255 
255 255 255 
0 0 0 
77 77 247 
255 255 255 
161 161 161 
255 255 255 
221 221 221 
255 255 255 
161 161 161 
161 161 161 
255 255 255 
255 105 255 
255 255 255 
185 162 209 
217 217 255 
255 255 255 
255 255 255 
255 175 255 
161 161 161 
255 255 255 
255 255 255 
255 255 255 
255 255 255 
161 161 161 
221 221 221 
255 255 255 
255 255 255 
255 245 255 
255 255 255 
255 145 255 
161 161 161 
255 230 255 
255 255 255 
221 221 221 
161 161 161 
255 255 255 
255 60 60 
255 216 255 
221 221 221 
255 255 255 
249 249 255 
221 221 221 
255 255 255 
247 77 77 
137 60 194 
255 255 255 
0 0 0 
255 240 255 
175 69 222 
249 177 255 
255 199 199 
0 0 0 
126 126 255 
255 255 255 
221 221 221 
255 127 127 
161 161 161 
105 105 255 
161 161 161 
175 175 255 
255 255 255 
255 255 255 
255 177 255 
77 77 247 
161 161 161 
255 254 254 
161 161 161 
255 255 255 
247 77 77 
221 221 221 
0 0 0 
118 36 118 
255 255 255 
209 209 255 
255 238 255 
0 0 0 
161 161 161 
255 255 255 
255 255 255 
175 175 255 
0 0 0 
255 255 255 
161 161 161 
0 0 0 
161 161 161 
255 255 255 
255 255 255 
221 221 221 
0 0 0 
255 255 255 
0 0 0 
240 240 255 
255 255 255 
255 255 255 
0 0 0 
137 60 194 
122 78 255 
0 0 0 
255 255 255 
91 63 255 
64 64 207 
47 47 151 
0 0 0 
193 60 193 
47 47 151 
47 47 151 
47 47 151 
72 22 72 
77 77 247 
243 216 255 
0 0 0 
47 47 151 
193 60 193 
97 97 255 
193 60 193 
60 60 255 
77 77 247 
47 47 151 
162 56 182 
255 107 255 
0 0 0 
71 49 229 
86 86 255 
47 47 151 
64 64 207 
47 47 151 
255 86 255 
126 126 255 
84 51 164 
0 0 0 
255 120 255 
107 54 176 
225 47 255 
231 208 255 
255 76 155 
255 114 129 
119 37 83 
255 97 97 
233 72 102 
207 64 64 
255 74 74 
118 36 118 
0 0 0 
255 105 255 
216 67 94 
207 64 64 
247 77 77 
255 151 255 
164 51 84 
151 47 47 
255 122 233 
255 73 255 
151 47 47 
255 75 202 
255 97 97 
255 88 88 
255 48 62 
255 99 99 
255 135 255 
0 0 0 
247 77 77 
255 63 106 
255 255 255 
255 126 126 
255 72 131 
0 0 0 
247 77 77 
255 10 78 
118 36 118 
255 128 255 
255 144 144 
164 51 84 
255 21 69 
255 255 255 
126 126 255 
77 77 247 
255 199 199 
255 199 255 
161 161 161 
255 184 255 
249 249 255 
255 249 255 
161 161 161 
0 0 0 
127 127 255 
255 255 255 
0 0 0 
255 209 209 
247 77 77 
161 161 161 
255 184 255 
161 161 161 
255 233 255 
255 98 255 
0 0 0 
221 221 221 
255 210 210 
255 231 255 
255 221 255 
161 161 161 
247 77 77 
255 255 255 
255 255 255 
161 161 161 
255 255 255 
0 0 0 
161 161 161 
118 36 118 
0 0 0 
175 175 255 
0 0 0 
255 231 255 
255 255 255 
221 221 221 
255 231 231 
161 161 161 
255 22 71 
175 175 255 
255 230 255 
0 0 0 
255 77 255 
0 0 0 
255 255 255 
255 255 255 
161 161 161 
221 221 221 
255 249 249 
255 206 206 
255 127 127 
255 227 255 
0 0 0 
255 255 255 
255 255 255 
0 0 0 
255 121 121 
161 161 161 
255 231 231 
254 233 255 
161 161 161 
161 161 161 
0 0 0 
161 161 161 
255 178 255 
255 255 255 
255 163 255 
255 255 255 
244 170 244 
161 161 161 
255 239 251 
255 255 255 
247 77 77 
255 144 144 
221 221 221 
221 221 221 
255 231 231 
255 255 255 
0 0 0 
255 58 154 
255 255 255 
255 255 255 
161 161 161 
255 255 255 
0 0 0 
221 221 221 
221 221 221 
0 0 0 
255 251 255 
255 206 255 
0 0 0 
255 209 255 
175 175 255 
221 221 221 
0 0 0 
161 161 161 
161 161 161 
0 0 0 
249 249 255 
77 77 247 
161 161 161 
255 166 166 
0 0 0 
221 221 221 
247 77 77 
255 255 255 
161 161 161 
255 231 231 
255 255 255 
255 105 105 
0 0 0 
255 255 255 
255 255 255 
105 105 255 
161 161 161 
0 0 0 
0 0 0 
98 81 255 
255 255 255 
161 161 161 
0 0 0 
255 174 255 
255 255 255 
255 255 255 
255 238 255 
255 240 255 
255 199 255 
255 255 255 
255 130 255 
161 161 161 
255 255 255 
255 255 255 
161 161 161 
175 175 255 
144 144 255 
255 246 255 
255 160 255 
255 255 255 
255 60 193 
255 105 255 
0 0 0 
255 255 255 
0 0 0 
255 255 255 
0 0 0 
161 161 161 
255 255 255 
221 221 221 
218 175 255 
161 161 161 
126 126 255 
60 60 255 
0 0 0 
0 0 0 
255 211 255 
255 255 255 
255 222 255 
255 255 255 
255 255 255 
77 77 247 
255 162 255 
221 221 221 
170 170 255 
255 207 207 
255 255 255 
232 22 163 
255 255 255 
255 209 255 
255 255 255 
0 0 0 
77 77 247 
206 206 255 
199 199 255 
204 95 255 
255 160 255 
93 93 255 
140 69 255 
105 105 255 
77 77 247 
77 77 247 
47 47 151 
72 22 72 
88 88 255 
0 0 0 
47 47 151 
97 97 255 
255 59 255 
145 145 255 
0 0 0 
0 0 0 
137 83 255 
77 77 247 
255 88 255 
126 126 255 
0 0 0 
64 64 207 
94 67 216 
121 37 157 
255 165 255 
36 36 255 
0 0 0 
47 47 151 
47 47 151 
0 0 0 
47 47 151 
79 42 255 
37 37 255 
88 88 255 
93 58 187 
47 47 151 
64 64 207 
203 63 203 
249 77 77 
207 64 64 
255 114 114 
255 138 138 
255 87 113 
255 69 255 
0 0 0 
151 47 47 
151 47 47 
255 144 144 
255 174 255 
187 58 93 
255 255 255 
255 102 197 
255 93 143 
72 22 72 
151 47 47 
255 169 169 
255 113 255 
151 47 47 
0 0 0 
0 0 0 
255 157 157 
207 64 64 
255 80 103 
255 98 255 
151 47 47 
164 51 84 
151 47 47 
0 0 0 
72 22 72 
255 106 106 
255 89 101 
255 99 224 
249 77 77 
176 37 253 
255 105 254 
255 140 242 
255 90 110 
255 136 136 
255 126 126 
255 255 255 
255 182 255 
255 60 255 
255 248 248 
247 77 77 
255 205 205 
255 255 255 
161 161 161 
161 161 161 
255 255 255 
244 170 244 
221 221 221 
175 175 255 
255 255 255 
0 0 0 
247 77 77 
0 0 0 
161 161 161 
255 136 255 
255 105 105 
255 255 255 
255 184 255 
0 0 0 
255 206 255 
77 77 247 
0 0 0 
255 105 105 
255 255 255 
255 199 199 
0 0 0 
255 210 210 
244 170 244 
255 255 255 
255 255 255 
255 231 231 
255 184 255 
247 77 77 
0 0 0 
199 199 255 
244 170 244 
161 161 161 
161 161 161 
161 161 161 
0 0 0 
161 161 161 
0 0 0 
0 0 0 
221 221 221 
255 249 249 
255 255 255 
255 255 255 
175 175 255 
255 255 255 
161 161 161 
247 77 77 
255 99 99 
0 0 0 
255 231 255 
255 144 144 
255 126 126 
221 221 221 
0 0 0 
255 175 175 
221 221 221 
255 207 207 
161 161 161 
255 255 255 
255 207 207 
0 0 0 
255 255 255 
255 166 215 
255 255 255 
161 161 161 
255 255 255 
255 255 255 
255 255 255 
255 255 255 
221 221 221 
255 255 255 
255 255 255 
161 161 161 
255 255 255 
0 0 0 
161 161 161 
77 77 247 
221 221 221 
255 188 188 
255 254 254 
255 255 255 
255 249 249 
60 60 255 
0 0 0 
255 255 255 
254 227 255 
221 221 221 
255 255 255 
161 161 161 
255 255 255 
161 161 161 
161 161 161 
255 227 255 
255 255 255 
255 255 255 
161 161 161 
255 199 199 
0 0 0 
249 249 255 
255 255 255 
0 0 0 
255 127 127 
255 250 255 
0 0 0 
240 240 255 
0 0 0 
255 255 255 
255 255 255 
255 255 255 
221 221 221 
161 161 161 
255 255 255 
255 255 255 
255 210 255 
255 118 255 
255 227 255 
77 77 247 
255 231 231 
0 0 0 
255 221 255 
0 0 0 
77 77 247 
161 161 161 
255 175 175 
0 0 0 
255 255 255 
231 231 255 
0 0 0 
235 162 168 
0 0 0 
255 255 255 
254 254 255 
0 0 0 
255 255 255 
193 60 193 
60 60 255 
255 255 255 
255 255 255 
199 199 255 
255 166 214 
221 221 221 
255 231 255 
255 255 255 
255 199 199 
255 255 255 
0 0 0 
175 175 255 
126 126 255 
77 77 247 
77 77 247 
161 161 161 
221 221 221 
255 255 255 
221 221 221 
194 164 194 
161 161 161 
255 255 255 
199 199 255 
255 199 199 
255 227 255 
0 0 0 
0 0 0 
161 161 161 
235 205 255 
255 255 255 
71 22 255 
193 60 193 
255 207 207 
0 0 0 
36 36 255 
47 47 151 
181 55 225 
133 133 255 
140 66 213 
255 123 255 
60 60 255 
0 0 0 
64 64 207 
47 47 151 
255 165 255 
58 58 255 
49 49 255 
72 72 255 
58 58 255 
0 0 0 
255 182 255 
50 50 255 
64 64 207 
58 58 255 
255 62 245 
142 142 255 
118 99 255 
255 79 255 
37 37 255 
0 0 0 
94 67 216 
97 97 255 
64 64 207 
47 47 151 
106 106 255 
83 66 255 
174 126 255 
47 47 151 
93 93 255 
77 77 249 
0 0 0 
64 64 207 
151 47 47 
255 216 216 
151 47 47 
151 47 47 
207 64 64 
0 0 0 
255 97 97 
0 0 0 
249 77 77 
255 152 152 
255 97 97 
255 80 174 
255 58 58 
255 72 72 
207 64 64 
255 114 114 
255 60 60 
151 47 47 
0 0 0 
255 134 195 
255 66 83 
151 47 47 
151 47 47 
255 36 36 
151 47 47 
255 233 233 
255 89 255 
72 22 72 
255 64 155 
255 154 178 
0 0 0 
151 47 47 
249 77 77 
0 0 0 
255 89 255 
255 97 97 
255 47 151 
151 47 47 
151 47 47 
255 170 170 
255 255 255 
118 36 118 
0 0 0 
221 221 221 
118 118 255 
255 255 255 
0 0 0 
224 99 255 
255 254 255 
199 199 255 
255 255 255 
247 77 77 
245 170 205 
255 255 255 
255 170 255 
255 249 249 
255 188 188 
255 238 255 
214 166 255 
255 255 255 
255 188 255 
255 249 249 
255 216 216 
247 77 77 
255 255 255 
0 0 0 
255 99 224 
255 255 255 
255 255 255 
231 231 255 
255 126 126 
255 207 207 
0 0 0 
247 77 77 
255 175 175 
161 161 161 
255 184 184 
255 175 175 
161 161 161 
255 255 255 
255 199 199 
255 179 224 
255 255 255 
255 175 175 
0 0 0 
161 161 161 
249 249 255 
247 77 77 
255 105 105 
221 221 221 
255 188 255 
245 223 245 
0 0 0 
161 161 161 
254 254 255 
255 234 255 
255 173 255 
161 161 161 
255 255 255 
0 0 0 
255 255 255 
231 231 255 
255 255 255 
0 0 0 
255 227 255 
255 255 255 
199 199 255 
255 175 175 
255 175 175 
255 255 255 
175 175 255 
0 0 0 
161 161 161 
247 77 77 
161 161 161 
161 161 161 
255 255 255 
98 98 255 
221 221 221 
247 77 77 
255 253 255 
255 255 255 
210 210 255 
161 161 161 
255 170 170 
255 98 255 
221 221 221 
255 255 255 
255 231 255 
255 255 255 
255 255 255 
255 255 255 
255 188 188 
0 0 0 
255 255 255 
255 175 175 
255 255 255 
255 255 255 
0 0 0 
255 127 255 
255 231 231 
0 0 0 
255 255 255 
0 0 0 
255 255 255 
161 161 161 
161 161 161 
255 216 255 
161 161 161 
161 161 161 
0 0 0 
0 0 0 
255 255 255 
161 161 161 
221 221 221 
255 255 255 
255 249 249 
255 255 255 
255 199 199 
240 240 255 
0 0 0 
0 0 0 
255 237 255 
175 175 255 
161 161 161 
0 0 0 
161 161 161 
255 255 255 
0 0 0 
255 255 255 
144 144 255 
255 184 255 
221 221 221 
255 255 255 
255 127 255 
175 175 255 
255 249 249 
255 202 226 
247 77 77 
0 0 0 
255 175 255 
0 0 0 
255 255 255 
0 0 0 
0 0 0 
0 0 0 
255 248 255 
161 161 161 
255 144 255 
175 175 255 
161 161 161 
77 77 247 
255 255 255 
105 105 255 
255 220 255 
255 255 255 
0 0 0 
0 0 0 
255 255 255 
255 255 255 
161 161 161 
231 231 255 
161 161 161 
255 255 255 
255 255 255 
207 207 255 
161 161 161 
60 60 255 
193 60 193 
0 0 0 
0 0 0 
0 0 0 
199 199 255 
46 46 255 
247 77 77 
255 229 255 
255 238 255 
0 0 0 
60 60 255 
255 206 255 
167 61 255 
47 47 151 
83 83 255 
125 58 186 
118 36 118 
137 60 194 
47 47 151 
229 75 243 
255 72 233 
72 22 72 
255 57 186 
102 79 255 
183 140 255 
77 77 247 
71 49 229 
255 106 255 
77 77 247 
93 58 187 
77 77 247 
47 47 151 
37 37 255 
36 36 255 
138 99 255 
0 0 0 
101 68 255 
213 213 255 
83 66 255 
88 88 255 
152 139 255 
47 47 151 
77 77 249 
47 47 151 
64 64 207 
47 47 151 
237 67 255 
255 53 172 
255 88 88 
0 0 0 
187 58 93 
255 136 136 
255 83 110 
151 47 47 
151 47 47 
255 255 255 
249 77 77 
255 83 137 
255 69 255 
0 0 0 
255 47 50 
207 64 64 
151 47 47 
255 139 255 
0 0 0 
255 58 58 
118 36 118 
0 0 0 
255 36 36 
151 47 47 
255 72 137 
239 74 142 
229 49 71 
255 166 179 
151 47 47 
255 64 226 
255 95 95 
0 0 0 
255 63 144 
255 60 95 
207 64 64 
255 47 106 
238 66 83 
118 36 118 
151 47 47 
255 74 74 
151 47 47 
255 135 255 
247 77 77 
255 98 98 
161 161 161 
255 166 166 
255 196 255 
255 210 255 
255 255 255 
161 161 161 
255 199 199 
255 255 255 
255 173 184 
255 255 255 
255 207 255 
0 0 0 
0 0 0 
255 129 167 
0 0 0 
0 0 0 
161 161 161 
161 161 161 
0 0 0 
161 161 161 
255 255 255 
0 0 0 
221 221 221 
255 36 255 
161 161 161 
255 199 199 
221 221 221 
255 227 227 
255 175 175 
255 255 255 
255 255 255 
255 241 255 
255 255 255 
161 161 161 
255 227 255 
255 170 170 
255 249 249 
255 188 188 
77 77 247 
255 222 238 
255 255 255 
0 0 0 
0 0 0 
255 255 255 
161 161 161 
161 161 161 
222 222 255 
255 255 255 
0 0 0 
221 221 221 
255 255 255 
255 255 255 
255 199 199 
255 231 231 
255 160 255 
255 254 254 
0 0 0 
255 163 255 
161 161 161 
161 161 161 
255 164 255 
0 0 0 
255 199 199 
0 0 0 
255 126 126 
255 255 255 
255 255 255 
255 255 255 
221 221 221 
255 81 255 
161 161 161 
194 164 194 
255 255 255 
0 0 0 
255 255 255 
255 255 255 
255 255 255 
161 161 161 
161 161 161 
231 231 255 
255 255 255 
161 161 161 
255 255 255 
255 255 255 
161 161 161 
255 255 255 
255 255 255 
255 231 231 
175 175 255 
255 255 255 
221 221 221 
0 0 0 
255 255 255 
255 255 255 
0 0 0 
244 170 244 
161 161 161 
255 255 255 
245 170 205 
255 255 255 
0 0 0 
255 249 249 
221 221 221 
255 255 255 
161 161 161 
206 95 255 
255 255 255 
255 105 254 
255 199 199 
161 161 161 
98 98 255 
0 0 0 
221 221 221 
255 105 255 
161 161 161 
161 161 161 
255 202 226 
174 174 255 
0 0 0 
0 0 0 
255 255 255 
161 161 161 
255 255 255 
161 161 161 
240 240 255 
118 36 118 
161 161 161 
221 221 221 
255 255 255 
161 161 161 
221 221 221 
0 0 0 
217 217 255 
175 175 255 
137 83 255 
255 249 255 
161 161 161 
0 0 0 
0 0 0 
255 175 175 
161 161 161 
161 161 161 
161 161 161 
210 210 255 
221 221 221 
194 164 194 
255 255 255 
221 221 221 
255 255 255 
255 231 255 
255 255 255 
221 221 221 
255 207 207 
221 221 221 
0 0 0 
126 126 255 
155 155 255 
221 221 221 
255 255 255 
255 255 255 
255 255 255 
161 161 161 
255 255 255 
206 206 255 
255 198 255 
255 255 255 
221 221 221 
175 175 255 
221 221 221 
161 161 161 
210 210 255 
236 236 255 
255 199 199 
161 161 161 
0 0 0 
77 77 247 
113 113 255 
88 88 255 
94 67 216 
64 64 207 
169 169 255 
155 143 255 
135 42 135 
47 47 151 
0 0 0 
168 131 255 
84 51 164 
255 217 255 
255 186 255 
0 0 0 
103 103 255 
0 0 0 
232 83 255 
217 69 223 
255 137 255 
174 54 174 
255 125 255 
83 83 255 
102 72 233 
47 47 151 
106 91 255 
197 74 238 
47 47 151 
255 255 255 
64 64 207 
64 64 207 
47 47 151 
0 0 0 
137 122 255 
72 22 72 
83 66 255 
151 63 204 
125 58 186 
210 199 255 
255 255 255 
187 58 93 
0 0 0 
255 72 255 
207 64 64 
255 100 206 
0 0 0 
255 98 255 
255 107 107 
255 28 28 
151 47 47 
255 74 74 
255 88 88 
151 47 47 
255 88 88 
249 77 77 
0 0 0 
255 113 113 
255 72 72 
255 107 125 
255 99 224 
255 62 80 
255 58 58 
255 126 126 
207 64 64 
255 98 98 
255 88 88 
0 0 0 
255 86 148 
151 47 47 
255 90 110 
209 28 92 
255 60 60 
187 58 93 
255 88 88 
151 47 47 
255 235 235 
247 77 77 
255 116 255 
161 161 161 
255 188 188 
247 77 77 
255 255 255 
0 0 0 
255 249 249 
255 230 255 
161 161 161 
255 132 132 
255 216 216 
255 199 199 
161 161 161 
161 161 161 
0 0 0 
255 170 170 
0 0 0 
255 28 65 
255 184 255 
161 161 161 
247 77 77 
209 28 92 
255 206 206 
255 216 216 
247 77 77 
247 77 77 
255 164 164 
255 126 126 
255 255 255 
255 205 255 
221 221 221 
255 255 255 
255 175 230 
0 0 0 
0 0 0 
0 0 0 
255 255 255 
0 0 0 
255 126 126 
255 255 255 
255 126 126 
255 255 255 
255 184 255 
255 99 99 
161 161 161 
221 221 221 
221 221 221 
161 161 161 
255 99 99 
255 255 255 
255 126 126 
255 255 255 
221 221 221 
255 206 206 
207 207 255 
255 173 173 
255 255 255 
255 255 255 
255 144 255 
255 255 255 
255 255 255 
255 255 255 
255 156 251 
199 199 255 
161 161 161 
161 161 161 
221 221 221 
221 221 221 
161 161 161 
255 225 255 
255 254 254 
0 0 0 
0 0 0 
255 230 255 
255 255 255 
255 255 255 
0 0 0 
255 255 255 
247 77 77 
0 0 0 
230 175 255 
247 77 77 
255 255 255 
255 255 255 
0 0 0 
255 255 255 
161 161 161 
161 161 161 
126 126 255 
221 221 221 
161 161 161 
255 255 255 
221 221 221 
255 255 255 
255 144 144 
118 36 118 
255 255 255 
221 221 221 
221 221 221 
255 159 159 
255 255 255 
161 161 161 
247 77 77 
175 175 255 
255 255 255 
255 255 255 
199 199 255 
0 0 0 
161 161 161 
221 221 221 
255 115 255 
0 0 0 
255 255 255 
199 199 255 
255 227 227 
255 255 255 
255 255 255 
255 255 255 
161 161 161 
161 161 161 
255 162 207 
255 196 255 
0 0 0 
0 0 0 
221 221 221 
255 255 255 
255 98 255 
221 221 221 
255 255 255 
0 0 0 
255 255 255 
199 199 255 
247 77 77 
255 255 255 
255 255 255 
0 0 0 
175 175 255 
171 163 255 
255 255 255 
105 105 255 
0 0 0 
255 255 255 
0 0 0 
137 60 194 
255 223 255 
255 154 154 
255 238 255 
253 241 255 
255 255 255 
161 161 161 
0 0 0 
0 0 0 
178 164 255 
0 0 0 
255 88 255 
221 221 221 
255 47 151 
255 159 255 
255 162 162 
255 95 206 
255 255 255 
161 161 161 
0 0 0 
126 126 255 
255 222 255 
77 77 247 
161 161 161 
0 0 0 
255 255 255 
161 161 161 
255 255 255 
255 255 255 
255 108 255 
255 223 255 
255 255 255 
77 77 247 
0 0 0 
0 0 0 
60 60 255 
0 0 0 
162 125 255 
102 72 233 
255 78 255 
77 77 247 
0 0 0 
0 0 0 
255 255 255 
0 0 0 
0 0 0 
255 76 246 
160 77 255 
0 0 0 
102 102 255 
253 160 255 
64 64 207 
98 98 255 
77 77 247 
196 42 255 
118 99 255 
84 51 164 
47 47 151 
107 42 135 
47 47 151 
60 60 255 
110 84 255 
77 77 249 
204 95 255 
47 47 151 
47 47 151 
0 0 0 
0 0 0 
255 88 255 
137 83 255 
88 88 255 
47 47 151 
170 68 255 
47 47 151 
88 88 255 
0 0 0 
255 170 205 
255 104 188 
151 47 47 
255 88 109 
255 97 97 
255 22 255 
0 0 0 
255 98 255 
255 118 255 
255 161 207 
151 47 47 
249 77 77 
255 80 103 
0 0 0 
255 152 152 
255 122 137 
255 28 65 
255 72 72 
255 84 255 
255 88 88 
255 91 91 
151 47 47 
249 77 77 
0 0 0 
255 88 88 
255 95 255 
255 66 83 
207 64 64 
255 81 116 
255 88 88 
255 60 60 
0 0 0 
0 0 0 
255 36 36 
219 6 33 
255 36 36 
247 77 77 
255 131 255 
0 0 0 
161 161 161 
0 0 0 
247 77 77 
161 161 161 
161 161 161 
0 0 0 
255 144 144 
255 255 255 
0 0 0 
206 206 255 
255 60 60 
255 122 255 
255 105 105 
161 161 161 
110 10 255 
255 176 232 
199 199 255 
247 77 77 
118 36 118 
255 255 255 
255 240 240 
255 188 188 
0 0 0 
255 60 60 
161 161 161 
118 36 118 
255 254 254 
0 0 0 
255 255 255 
255 205 205 
255 226 255 
0 0 0 
255 175 175 
127 127 255 
0 0 0 
255 255 255 
255 255 255 
221 221 221 
255 255 255 
0 0 0 
194 60 137 
255 166 166 
255 240 240 
255 144 255 
255 255 255 
255 188 188 
0 0 0 
255 255 255 
247 77 77 
255 255 255 
255 255 255 
255 79 177 
0 0 0 
193 60 193 
255 255 255 
255 255 255 
255 126 255 
255 218 218 
255 175 175 
161 161 161 
255 163 171 
161 161 161 
255 255 255 
255 255 255 
161 161 161 
255 207 255 
161 161 161 
255 255 255 
249 249 255 
255 255 255 
0 0 0 
221 221 221 
247 77 77 
255 255 255 
255 255 255 
255 255 255 
161 161 161 
221 221 221 
255 255 255 
255 255 255 
255 255 255 
255 126 126 
255 137 180 
161 161 161 
255 255 255 
255 255 255 
247 77 77 
255 255 255 
199 199 255 
0 0 0 
0 0 0 
231 231 255 
255 175 175 
0 0 0 
255 255 255 
255 255 255 
199 199 255 
255 255 255 
255 249 249 
210 210 255 
255 255 255 
0 0 0 
199 199 255 
255 231 231 
255 179 255 
0 0 0 
255 255 255 
255 255 255 
255 255 255 
255 240 255 
255 255 255 
255 255 255 
60 60 255 
255 255 255 
255 255 255 
255 255 255 
255 126 126 
255 252 255 
0 0 0 
0 0 0 
0 0 0 
161 161 161 
255 255 255 
199 199 255 
255 255 255 
0 0 0 
255 255 255 
255 200 255 
255 144 255 
255 255 255 
255 239 255 
255 114 255 
0 0 0 
0 0 0 
255 159 255 
161 161 161 
161 161 161 
0 0 0 
255 144 255 
231 231 255 
175 175 255 
0 0 0 
0 0 0 
255 255 255 
199 199 255 
255 255 255 
161 161 161 
194 164 194 
170 170 255 
255 83 137 
255 255 255 
255 255 255 
255 164 255 
255 231 255 
175 175 255 
0 0 0 
199 199 255 
0 0 0 
0 0 0 
255 254 254 
161 161 161 
255 210 255 
255 144 255 
221 221 221 
255 225 255 
199 199 255 
161 161 161 
194 164 194 
255 255 255 
255 57 185 
255 240 255 
105 105 255 
0 0 0 
0 0 0 
0 0 0 
161 161 161 
255 18 168 
47 47 151 
47 47 151 
47 47 151 
56 48 182 
74 74 255 
60 60 255 
47 47 151 
255 36 255 
77 77 247 
47 47 151 
125 125 255 
47 47 151 
167 94 255 
79 75 255 
47 47 151 
113 113 255 
125 58 186 
0 0 0 
0 0 0 
88 88 255 
77 77 247 
47 47 151 
83 66 255 
0 0 0 
47 47 151 
106 106 255 
58 58 255 
97 97 255 
94 67 216 
74 74 255 
0 0 0 
47 47 151 
132 132 255 
72 22 72 
255 149 255 
84 51 164 
114 114 255 
202 83 255 
0 0 0 
151 47 47 
255 17 90 
255 81 136 
181 47 80 
151 47 47 
0 0 0 
255 93 93 
255 138 138 
247 77 77 
255 105 105 
255 88 88 
255 106 106 
151 47 47 
56 17 181 
247 77 77 
255 60 60 
255 92 128 
255 88 88 
207 64 64 
255 91 106 
255 105 105 
255 105 105 
255 88 88 
255 79 79 
255 88 88 
255 214 246 
255 54 54 
0 0 0 
255 91 121 
255 120 120 
255 88 88 
72 22 72 
0 0 0 
255 138 194 
255 175 255 
255 91 106 
0 0 0 
0 0 0 
0 0 0 
161 161 161 
221 221 221 
255 222 255 
255 254 254 
0 0 0 
255 178 255 
255 222 255 
255 255 255 
255 255 255 
161 161 161 
0 0 0 
221 221 221 
255 255 255 
0 0 0 
221 221 221 
0 0 0 
0 0 0 
255 83 255 
255 255 255 
161 161 161 
0 0 0 
255 255 255 
199 199 255 
255 99 99 
255 255 255 
175 175 255 
0 0 0 
247 77 77 
255 255 255 
0 0 0 
255 125 125 
0 0 0 
255 255 255 
255 126 255 
255 127 127 
255 229 229 
161 161 161 
0 0 0 
247 77 77 
255 255 255 
255 199 199 
255 175 175 
255 127 255 
255 215 255 
161 161 161 
255 255 255 
255 233 255 
167 162 255 
0 0 0 
245 223 245 
161 161 161 
255 255 255 
199 199 255 
255 222 222 
224 99 255 
255 255 255 
0 0 0 
247 77 77 
0 0 0 
255 255 255 
0 0 0 
206 206 255 
255 225 255 
255 255 255 
255 183 183 
221 221 221 
221 221 221 
0 0 0 
255 99 99 
255 255 255 
0 0 0 
0 0 0 
0 0 0 
247 77 77 
247 77 77 
255 255 255 
255 255 255 
255 175 175 
255 255 255 
255 255 255 
0 0 0 
161 161 161 
231 231 255 
255 255 255 
0 0 0 
255 255 255 
255 255 255 
245 223 245 
231 231 255 
161 161 161 
206 206 255 
255 46 150 
255 243 255 
221 221 221 
218 218 255 
255 255 255 
60 60 255 
255 231 231 
255 254 254 
255 241 255 
0 0 0 
221 221 221 
255 255 255 
0 0 0 
0 0 0 
255 255 255 
255 255 255 
207 207 255 
255 105 255 
0 0 0 
221 221 221 
0 0 0 
255 255 255 
161 161 161 
255 249 249 
231 231 255 
255 199 255 
255 255 255 
255 255 255 
255 255 255 
188 188 255 
255 255 255 
161 161 161 
175 175 255 
255 255 255 
161 161 161 
255 255 255 
255 255 255 
161 161 161 
255 188 255 
231 231 255 
255 255 255 
255 255 255 
255 255 255 
255 255 255 
0 0 0 
255 255 255 
255 255 255 
0 0 0 
0 0 0 
255 243 255 
255 255 255 
0 0 0 
255 255 255 
255 144 255 
255 255 255 
255 188 255 
255 255 255 
249 249 255 
0 0 0 
161 161 161 
161 161 161 
221 221 221 
161 161 161 
249 249 255 
255 175 175 
0 0 0 
255 238 255 
126 126 255 
255 255 255 
255 177 204 
255 255 255 
255 199 199 
231 231 255 
255 196 255 
137 60 194 
161 161 161 
247 77 77 
184 184 255 
121 121 255 
255 255 255 
249 249 255 
77 77 247 
0 0 0 
0 0 0 
255 128 255 
161 161 161 
0 0 0 
132 132 255 
64 64 207 
103 80 255 
0 0 0 
77 77 249 
0 0 0 
106 106 255 
60 60 255 
77 77 247 
137 60 194 
72 22 72 
102 72 233 
118 99 255 
208 77 255 
118 36 118 
255 98 255 
56 17 181 
103 80 255 
47 47 151 
243 54 224 
58 58 255 
0 0 0 
181 17 56 
88 88 255 
255 64 208 
179 17 255 
255 175 255 
77 77 249 
255 97 255 
47 47 151 
64 64 207 
163 163 255 
47 47 151 
60 60 255 
77 77 249 
64 64 207 
255 64 207 
88 88 255 
0 0 0 
247 77 77 
255 160 160 
0 0 0 
207 64 64 
249 77 77 
0 0 0 
255 58 58 
255 86 148 
151 47 47 
255 255 255 
164 51 84 
255 88 88 
0 0 0 
255 88 88 
186 58 125 
0 0 0 
255 105 105 
255 171 181 
255 134 253 
187 58 93 
187 58 93 
255 93 255 
255 74 74 
0 0 0 
255 72 160 
255 69 109 
255 145 160 
119 37 83 
255 99 146 
255 97 97 
0 0 0 
0 0 0 
151 47 47 
255 95 95 
255 143 255 
255 129 129 
0 0 0 
151 47 47 
0 0 0 
255 255 255 
255 255 255 
0 0 0 
0 0 0 
255 255 255 
247 77 77 
0 0 0 
0 0 0 
255 226 226 
255 255 255 
0 0 0 
255 126 126 
161 161 161 
247 77 77 
209 28 92 
255 255 255 
255 126 126 
255 255 255 
161 161 161 
127 127 255 
255 255 255 
255 163 255 
161 161 161 
255 170 170 
255 255 255 
255 210 255 
255 183 183 
255 159 159 
161 161 161 
255 238 255 
255 255 255 
255 255 255 
255 255 255 
255 255 255 
161 161 161 
0 0 0 
255 255 255 
207 207 255 
255 255 255 
255 255 255 
161 161 161 
193 60 193 
0 0 0 
161 161 161 
182 163 255 
0 0 0 
255 255 255 
255 248 255 
175 175 255 
255 162 255 
255 255 255 
221 221 221 
221 221 221 
221 221 221 
161 161 161 
161 161 161 
255 255 255 
221 221 221 
221 221 221 
255 255 255 
0 0 0 
255 255 255 
255 255 255 
255 22 72 
175 175 255 
255 184 255 
247 77 77 
255 173 255 
255 255 255 
221 221 221 
255 255 255 
255 175 175 
161 161 161 
0 0 0 
255 255 255 
0 0 0 
255 255 255 
255 205 235 
254 254 255 
255 255 255 
0 0 0 
153 47 243 
255 255 255 
161 161 161 
221 221 221 
161 161 161 
255 255 255 
0 0 0 
255 175 175 
0 0 0 
221 221 221 
255 255 255 
255 255 255 
255 254 254 
207 207 255 
255 127 255 
255 254 254 
199 199 255 
194 164 194 
221 221 221 
255 255 255 
255 214 214 
221 221 221 
255 199 255 
172 172 255 
255 255 255 
165 88 255 
255 255 255 
0 0 0 
255 144 255 
255 255 255 
255 175 175 
255 255 255 
255 255 255 
227 227 255 
161 161 161 
255 255 255 
255 127 127 
255 255 255 
175 175 255 
255 255 255 
0 0 0 
247 77 77 
205 170 245 
255 255 255 
255 255 255 
255 164 255 
255 217 255 
0 0 0 
255 255 255 
255 207 255 
255 218 255 
255 131 179 
161 161 161 
216 183 255 
255 255 255 
255 255 255 
255 255 255 
255 255 255 
0 0 0 
77 77 247 
0 0 0 
255 175 175 
255 127 127 
238 238 255 
0 0 0 
175 175 255 
255 255 255 
193 60 193 
175 175 255 
144 144 255 
0 0 0 
255 126 126 
255 255 255 
255 98 255 
244 170 244 
161 161 161 
255 207 255 
255 255 255 
0 0 0 
255 255 255 
240 240 255 
161 161 161 
218 218 255 
255 60 60 
255 255 255 
161 161 161 
161 161 161 
255 255 255 
255 205 255 
0 0 0 
77 77 247 
0 0 0 
144 144 255 
187 105 255 
255 175 175 
196 196 255 
161 161 161 
77 77 247 
36 36 255 
77 77 247 
71 49 229 
114 114 255 
255 64 207 
77 77 247 
255 98 255 
255 160 255 
140 74 255 
204 86 255 
255 255 255 
62 37 255 
118 36 118 
198 74 255 
97 97 255 
72 22 72 
88 88 255 
118 36 118 
123 64 255 
78 54 253 
47 47 151 
255 242 255 
65 28 255 
82 78 255 
236 128 255 
99 75 255 
72 72 255 
77 77 247 
77 77 249 
255 145 255 
142 74 239 
64 64 207 
47 47 151 
72 72 255 
47 47 151 
64 64 207 
134 98 255 
0 0 0 
255 97 97 
255 63 91 
255 151 185 
255 87 142 
207 64 64 
151 47 47 
255 84 110 
207 64 64 
0 0 0 
151 47 47 
230 65 71 
0 0 0 
0 0 0 
249 77 77 
151 47 47 
0 0 0 
255 72 72 
255 140 162 
255 128 238 
229 49 71 
255 79 93 
255 22 22 
0 0 0 
233 72 102 
151 47 47 
255 189 189 
255 78 92 
255 105 105 
255 97 97 
0 0 0 
255 132 255 
151 47 47 
255 255 255 
255 53 255 
255 88 88 
255 58 58 
255 88 88 
255 212 255 
255 133 133 
255 255 255 
255 156 251 
255 175 175 
255 126 126 
255 184 255 
255 255 255 
255 199 199 
0 0 0 
255 255 255 
255 99 224 
255 255 255 
255 175 175 
255 121 255 
161 161 161 
255 196 255 
255 255 255 
161 161 161 
161 161 161 
220 68 220 
255 221 221 
255 255 255 
161 161 161 
255 79 239 
161 161 161 
161 161 161 
255 254 254 
255 217 217 
255 255 255 
255 255 255 
255 177 255 
255 255 255 
161 161 161 
255 255 255 
0 0 0 
255 255 255 
255 95 255 
255 126 126 
255 83 137 
255 226 255 
255 238 255 
0 0 0 
0 0 0 
0 0 0 
247 77 77 
161 161 161 
0 0 0 
0 0 0 
161 161 161 
255 255 255 
255 121 255 
161 161 161 
0 0 0 
255 240 255 
221 221 221 
0 0 0 
60 60 255 
255 255 255 
255 255 255 
255 255 255 
255 175 175 
161 161 161 
161 161 161 
0 0 0 
255 255 255 
161 161 161 
255 255 255 
255 255 255 
221 221 221 
255 175 175 
255 255 255 
0 0 0 
255 255 255 
0 0 0 
255 255 255 
255 255 255 
221 221 221 
255 255 255 
221 221 221 
255 47 107 
255 254 254 
221 221 221 
247 77 77 
127 127 255 
255 236 255 
221 221 221 
254 254 255 
221 221 221 
0 0 0 
255 255 255 
0 0 0 
221 221 221 
255 246 255 
221 221 221 
255 255 255 
0 0 0 
255 255 255 
221 221 221 
221 221 221 
255 231 231 
175 175 255 
214 166 255 
161 161 161 
247 77 77 
161 161 161 
255 201 225 
255 207 207 
161 161 161 
161 161 161 
221 221 221 
255 255 255 
161 161 161 
221 221 221 
255 255 255 
255 255 255 
255 175 175 
161 161 161 
161 161 161 
245 223 245 
255 127 127 
221 221 221 
221 221 221 
255 255 255 
255 255 255 
125 125 255 
247 77 77 
255 131 168 
238 238 255 
255 255 255 
0 0 0 
206 95 255 
161 161 161 
255 223 255 
255 255 255 
255 255 255 
161 161 161 
255 255 255 
161 161 161 
161 161 161 
221 221 221 
255 255 255 
175 175 255 
77 77 247 
161 161 161 
255 255 255 
252 95 255 
221 221 221 
0 0 0 
161 161 161 
0 0 0 
105 105 255 
153 95 255 
255 255 255 
0 0 0 
161 161 161 
161 161 161 
255 255 255 
224 99 255 
255 184 184 
199 199 255 
175 175 255 
210 210 255 
181 163 255 
184 184 255 
221 221 221 
0 0 0 
255 144 255 
0 0 0 
210 210 255 
161 161 161 
181 78 255 
105 105 255 
0 0 0 
205 170 245 
77 77 247 
255 255 255 
0 0 0 
0 0 0 
255 255 255 
36 36 255 
77 77 255 
255 99 255 
86 8 86 
77 77 247 
255 10 34 
255 110 255 
101 89 255 
98 98 255 
47 47 151 
193 60 193 
0 0 0 
0 0 0 
222 216 255 
47 47 151 
255 105 255 
47 47 151 
255 255 255 
0 0 0 
46 4 255 
64 64 207 
77 77 249 
255 56 179 
77 77 247 
0 0 0 
154 123 255 
47 47 151 
131 72 233 
47 47 151 
163 22 232 
228 220 255 
114 81 255 
64 64 207 
114 114 255 
255 86 255 
230 83 255 
77 77 247 
0 0 0 
0 0 0 
230 49 60 
0 0 0 
207 64 64 
233 72 131 
255 72 72 
255 83 208 
255 133 191 
255 97 97 
255 85 85 
255 234 247 
151 47 47 
207 64 64 
0 0 0 
186 58 125 
255 93 143 
151 47 47 
72 22 72 
255 112 250 
0 0 0 
0 0 0 
247 77 77 
255 97 97 
255 79 93 
255 114 114 
151 47 47 
0 0 0 
229 49 71 
255 65 244 
151 47 47 
207 64 64 
255 105 105 
255 149 149 
207 64 64 
255 67 255 
255 36 36 
255 106 204 
255 60 60 
0 0 0 
255 48 62 
0 0 0 
255 255 255 
255 255 255 
193 60 193 
0 0 0 
161 161 161 
255 255 255 
255 255 255 
255 198 255 
161 161 161 
255 255 255 
221 221 221 
255 255 255 
161 161 161 
255 255 255 
255 255 255 
255 255 255 
145 145 255 
255 255 255 
247 77 77 
0 0 0 
255 255 255 
255 170 170 
0 0 0 
255 126 126 
255 255 255 
161 161 161 
255 255 255 
255 255 255 
255 255 255 
230 221 255 
255 255 255 
255 255 255 
255 255 255 
255 175 255 
161 161 161 
255 255 255 
255 255 255 
255 255 255 
161 161 161 
161 161 161 
161 161 161 
221 221 221 
0 0 0 
255 144 144 
255 231 231 
0 0 0 
255 209 255 
255 255 255 
255 255 255 
255 255 255 
0 0 0 
255 145 255 
221 221 221 
0 0 0 
255 175 175 
255 199 199 
255 255 255 
255 170 170 
0 0 0 
255 255 255 
161 161 161 
247 77 77 
255 178 255 
255 255 255 
255 255 255 
255 47 107 
221 221 221 
161 161 161 
255 255 255 
0 0 0 
161 161 161 
255 255 255 
199 199 255 
161 161 161 
255 255 255 
0 0 0 
255 255 255 
221 221 221 
255 255 255 
0 0 0 
247 77 77 
255 230 230 
0 0 0 
255 255 255 
126 126 255 
255 239 255 
0 0 0 
255 255 255 
255 255 255 
255 207 207 
255 255 255 
221 221 221 
247 77 77 
231 231 255 
221 221 221 
255 255 255 
255 184 255 
161 161 161 
255 255 255 
255 199 199 
255 255 255 
255 127 127 
255 255 255 
255 99 99 
255 255 255 
255 145 145 
255 255 255 
161 161 161 
0 0 0 
187 105 255 
205 178 255 
0 0 0 
161 161 161 
140 102 255 
255 255 255 
255 255 255 
0 0 0 
255 255 255 
255 200 200 
199 199 255 
0 0 0 
199 199 255 
255 255 255 
161 161 161 
255 255 255 
255 255 255 
161 161 161 
161 161 161 
161 161 161 
0 0 0 
255 255 255 
221 221 221 
0 0 0 
77 77 247 
0 0 0 
0 0 0 
255 255 255 
255 255 255 
255 199 255 
255 105 255 
255 255 255 
255 231 231 
0 0 0 
0 0 0 
255 119 255 
255 222 255 
255 255 255 
0 0 0 
0 0 0 
221 221 221 
161 161 161 
105 105 255 
255 255 255 
240 240 255 
161 161 161 
255 255 255 
77 77 247 
255 222 255 
121 121 255 
255 255 255 
77 77 247 
105 105 255 
255 255 255 
255 255 255 
0 0 0 
161 161 161 
255 255 255 
126 126 255 
0 0 0 
161 161 161 
216 161 172 
0 0 0 
231 231 255 
0 0 0 
99 99 255 
77 77 247 
247 77 77 
243 95 255 
144 144 255 
83 83 255 
83 37 119 
58 58 255 
106 91 255 
125 58 186 
227 116 255 
0 0 0 
135 42 135 
115 61 197 
0 0 0 
209 209 255 
72 22 72 
255 78 255 
47 47 151 
255 112 255 
255 135 255 
116 22 234 
47 47 151 
102 79 255 
47 47 151 
77 77 247 
47 47 151 
255 81 255 
74 74 255 
181 17 56 
94 89 255 
111 63 255 
0 0 0 
255 207 255 
147 130 255 
246 77 255 
94 67 216 
47 47 151 
37 37 255 
77 77 249 
0 0 0 
0 0 0 
207 64 64 
255 97 97 
255 97 97 
151 47 47 
207 64 64 
249 77 77 
255 100 206 
207 64 64 
0 0 0 
207 64 64 
255 169 216 
249 77 77 
0 0 0 
255 111 111 
255 84 164 
255 98 98 
207 64 64 
255 36 36 
255 100 122 
151 47 47 
0 0 0 
207 64 64 
255 153 153 
255 231 255 
151 47 47 
255 208 255 
255 48 55 
0 0 0 
151 47 47 
151 47 47 
255 84 84 
186 58 125 
255 144 255 
255 37 37 
255 83 83 
151 47 47 
255 36 36 
151 47 47 
255 83 83 
0 0 0 
0 0 0 
207 207 255 
255 184 255 
255 199 199 
255 215 255 
255 255 255 
247 77 77 
255 255 255 
255 255 255 
255 60 60 
255 255 255 
255 255 255 
255 255 255 
194 164 194 
255 98 98 
181 17 56 
245 223 245 
221 221 221 
255 231 231 
255 230 255 
0 0 0 
255 255 255 
0 0 0 
0 0 0 
255 126 126 
255 255 255 
161 161 161 
161 161 161 
221 221 221 
255 141 255 
127 127 255 
161 161 161 
247 77 77 
0 0 0 
255 184 255 
161 161 161 
161 161 161 
0 0 0 
161 161 161 
161 161 161 
161 161 161 
0 0 0 
255 255 255 
255 255 255 
255 255 255 
255 199 199 
255 183 253 
0 0 0 
175 175 255 
0 0 0 
0 0 0 
145 145 255 
0 0 0 
255 255 255 
161 161 161 
255 238 238 
161 161 161 
161 161 161 
0 0 0 
230 230 255 
255 127 127 
255 207 207 
255 255 255 
221 221 221 
255 145 255 
175 175 255 
161 161 161 
255 126 126 
255 255 255 
255 175 175 
255 188 255 
247 77 77 
221 221 221 
247 77 77 
175 175 255 
161 161 161 
0 0 0 
161 161 161 
255 255 255 
0 0 0 
161 161 161 
245 170 205 
255 128 255 
161 161 161 
255 199 199 
255 255 255 
255 105 105 
221 221 221 
255 175 175 
0 0 0 
255 255 255 
255 255 255 
255 249 255 
221 221 221 
255 255 255 
255 238 255 
255 255 255 
199 199 255 
0 0 0 
255 255 255 
255 126 126 
255 255 255 
0 0 0 
0 0 0 
161 161 161 
0 0 0 
255 246 255 
216 216 255 
221 221 221 
0 0 0 
255 255 255 
161 161 161 
255 255 255 
255 145 255 
0 0 0 
221 221 221 
255 60 60 
161 161 161 
255 255 255 
255 255 255 
0 0 0 
254 233 255 
255 231 231 
255 255 255 
221 221 221 
255 255 255 
255 233 255 
255 255 255 
221 221 221 
255 255 255 
161 161 161 
175 175 255 
255 255 255 
255 255 255 
255 255 255 
0 0 0 
0 0 0 
77 77 247 
255 255 255 
255 255 255 
235 222 255 
255 177 255 
255 126 126 
255 254 254 
255 121 255 
255 255 255 
255 255 255 
255 188 255 
99 99 255 
255 255 255 
161 161 161 
118 36 118 
126 126 255 
161 161 161 
255 95 204 
0 0 0 
161 161 161 
255 255 255 
255 255 255 
161 161 161 
255 255 255 
0 0 0 
255 255 255 
126 126 255 
255 162 255 
224 99 255 
247 77 77 
205 170 245 
255 255 255 
224 99 255 
255 85 255 
255 255 255 
255 255 255 
193 60 193 
255 231 255 
255 207 255 
245 223 245 
114 64 255 
78 10 255 
97 97 255 
0 0 0 
47 47 151 
0 0 0 
40 17 182 
47 47 151 
255 91 255 
47 47 151 
106 47 255 
204 95 255 
0 0 0 
97 97 255 
47 47 151 
220 85 255 
107 65 255 
193 58 255 
47 47 151 
171 97 255 
47 47 151 
97 97 255 
64 64 207 
255 97 255 
0 0 0 
222 57 184 
255 13 44 
0 0 0 
102 79 255 
107 54 176 
84 51 164 
128 17 56 
64 64 207 
47 47 151 
97 97 255 
84 43 255 
0 0 0 
0 0 0 
0 0 0 
0 0 0 
0 0 0 
255 89 151 
255 132 132 
255 93 143 
255 64 64 
255 60 68 
255 138 255 
255 88 88 
151 47 47 
0 0 0 
0 0 0 
255 100 118 
207 64 64 
255 132 132 
255 255 255 
249 77 77 
249 77 77 
255 89 128 
151 47 47 
0 0 0 
151 47 47 
0 0 0 
151 47 47 
86 8 86 
0 0 0 
255 90 110 
255 255 255 
255 64 157 
255 33 83 
255 97 97 
255 88 88 
255 98 98 
255 68 129 
255 206 215 
0 0 0 
255 115 230 
252 78 146 
0 0 0 
161 161 161 
255 60 60 
255 144 144 
247 77 77 
255 255 255 
0 0 0 
161 161 161 
221 221 221 
0 0 0 
255 99 255 
247 77 77 
255 95 255 
255 216 255 
244 170 244 
161 161 161 
0 0 0 
246 76 255 
161 161 161 
255 255 255 
255 255 255 
161 161 161 
255 255 255 
255 255 255 
0 0 0 
255 255 255 
0 0 0 
255 255 255 
255 199 199 
207 207 255 
255 249 249 
255 255 255 
0 0 0 
175 175 255 
221 221 221 
255 255 255 
0 0 0 
255 207 207 
0 0 0 
0 0 0 
161 161 161 
0 0 0 
255 255 255 
0 0 0 
255 255 255 
0 0 0 
255 255 255 
127 127 255 
255 233 254 
255 126 126 
221 221 221 
255 164 164 
255 188 188 
255 255 255 
0 0 0 
161 161 161 
255 255 255 
255 255 255 
255 255 255 
0 0 0 
255 255 255 
255 255 255 
255 255 255 
161 161 161 
161 161 161 
255 243 243 
0 0 0 
0 0 0 
247 77 77 
255 255 255 
255 196 255 
0 0 0 
0 0 0 
221 221 221 
0 0 0 
161 161 161 
0 0 0 
255 126 126 
255 255 255 
161 161 161 
255 249 249 
221 221 221 
161 161 161 
255 255 255 
255 255 255 
255 255 255 
255 255 255 
255 175 175 
227 227 255 
255 255 255 
175 175 255 
0 0 0 
255 99 99 
255 255 255 
161 161 161 
255 105 255 
161 161 161 
255 255 255 
255 255 255 
255 152 255 
255 163 255 
255 174 226 
221 221 221 
255 255 255 
255 255 255 
255 223 255 
86 8 86 
184 177 255 
199 199 255 
221 221 221 
77 77 247 
255 175 175 
231 231 255 
199 199 255 
255 255 255 
255 255 255 
175 175 255 
255 255 255 
255 110 228 
161 161 161 
0 0 0 
221 221 221 
0 0 0 
255 207 207 
255 255 255 
126 126 255 
255 255 255 
161 161 161 
255 127 127 
255 231 231 
255 186 255 
199 199 255 
255 155 255 
255 113 164 
255 255 255 
0 0 0 
161 161 161 
255 255 255 
0 0 0 
0 0 0 
126 126 255 
255 255 255 
255 255 255 
170 170 255 
126 126 255 
221 221 221 
249 249 255 
105 105 255 
161 161 161 
161 161 161 
161 161 161 
255 255 255 
255 255 255 
235 212 255 
255 255 255 
118 36 118 
0 0 0 
221 221 221 
255 143 255 
0 0 0 
150 126 255 
255 255 255 
255 255 255 
200 180 255 
161 161 161 
0 0 0 
193 60 193 
255 170 255 
0 0 0 
126 126 255 
126 126 255 
255 255 255 
255 229 255 
255 241 255 
188 188 255 
0 0 0 
161 161 161 
247 77 77 
0 0 0 
0 0 0 
0 0 0 
53 53 255 
255 77 255 
72 22 72 
117 90 255 
115 65 255 
120 57 255 
108 108 255 
83 83 255 
236 219 255 
64 64 207 
255 60 255 
255 217 255 
128 112 255 
138 138 255 
65 28 255 
93 58 187 
106 48 185 
0 0 0 
99 99 255 
255 128 255 
90 61 255 
47 47 151 
102 72 233 
77 77 249 
145 88 255 
167 61 255 
56 17 181 
255 255 255 
185 49 159 
47 47 151 
88 88 255 
77 77 255 
0 0 0 
72 72 255 
0 0 0 
0 0 0 
0 0 0 
233 72 102 
195 47 54 
255 84 84 
255 129 239 
0 0 0 
249 77 77 
207 64 64 
255 88 101 
151 47 47 
255 129 144 
255 96 115 
255 255 255 
0 0 0 
151 47 47 
118 36 118 
255 74 74 
255 110 131 
151 47 47 
255 70 212 
151 47 47 
255 13 44 
207 64 64 
118 36 118 
151 47 47 
255 113 113 
151 47 47 
151 47 47 
110 10 34 
151 47 47 
0 0 0 
255 103 157 
255 95 95 
255 97 255 
0 0 0 
92 28 209 
181 17 56 
255 128 128 
0 0 0 
255 208 208 
255 255 255 
255 144 144 
255 199 199 
221 221 221 
255 162 255 
0 0 0 
161 161 161 
255 255 255 
255 235 255 
221 221 221 
0 0 0 
161 161 161 
255 178 255 
255 255 255 
255 255 255 
255 231 231 
0 0 0 
255 255 255 
255 255 255 
118 36 118 
255 255 255 
255 144 144 
0 0 0 
221 221 221 
255 255 255 
247 77 77 
247 77 77 
255 255 255 
0 0 0 
255 188 255 
161 161 161 
255 175 175 
161 161 161 
161 161 161 
255 122 233 
255 255 255 
161 161 161 
126 126 255 
0 0 0 
0 0 0 
255 199 199 
0 0 0 
141 13 141 
255 255 255 
255 255 255 
255 255 255 
255 255 255 
0 0 0 
0 0 0 
255 231 231 
161 161 161 
245 170 205 
255 175 175 
0 0 0 
60 60 255 
0 0 0 
0 0 0 
255 249 249 
161 161 161 
255 255 255 
0 0 0 
255 255 255 
255 122 122 
255 255 255 
255 170 170 
255 255 255 
137 60 194 
221 221 221 
161 161 161 
161 161 161 
171 163 255 
255 208 213 
255 223 255 
161 161 161 
255 99 99 
199 199 255 
255 254 254 
255 255 255 
255 46 150 
255 255 255 
255 103 125 
225 225 255 
224 99 255 
221 221 221 
255 255 255 
255 222 222 
161 161 161 
255 255 255 
161 161 161 
221 221 221 
255 255 255 
161 161 161 
247 77 77 
255 175 175 
255 60 60 
255 255 255 
161 161 161 
255 126 126 
255 206 206 
0 0 0 
161 161 161 
255 255 255 
228 223 255 
255 255 255 
255 254 254 
255 175 175 
161 161 161 
255 231 231 
255 255 255 
255 184 255 
255 255 255 
255 206 255 
255 255 255 
255 175 175 
206 206 255 
224 179 255 
255 255 255 
221 221 221 
126 126 255 
0 0 0 
171 163 255 
255 127 127 
221 221 221 
161 161 161 
126 126 255 
255 255 255 
0 0 0 
255 255 255 
221 221 221 
255 249 249 
255 255 255 
161 161 161 
255 170 255 
221 221 221 
255 188 255 
0 0 0 
235 162 168 
255 255 255 
255 255 255 
255 255 255 
255 28 91 
255 255 255 
255 255 255 
255 169 255 
255 230 255 
161 161 161 
255 255 255 
0 0 0 
255 255 255 
0 0 0 
161 161 161 
255 127 127 
221 221 221 
161 161 161 
100 13 142 
161 161 161 
255 255 255 
0 0 0 
255 162 255 
255 255 255 
255 252 255 
85 77 255 
77 77 247 
255 255 255 
255 175 175 
252 95 255 
0 0 0 
151 47 255 
0 0 0 
255 221 255 
0 0 0 
244 170 244 
255 252 255 
255 255 255 
0 0 0 
255 144 255 
255 175 175 
0 0 0 
83 83 255 
47 47 151 
0 0 0 
0 0 0 
246 76 255 
47 47 151 
0 0 0 
255 255 255 
83 77 255 
255 139 255 
138 138 255 
92 88 255 
255 115 255 
47 47 151 
77 77 249 
0 0 0 
47 47 151 
97 97 255 
145 145 255 
0 0 0 
149 149 255 
92 28 255 
111 85 255 
0 0 0 
181 143 255 
144 144 255 
54 54 255 
216 216 255 
0 0 0 
72 22 72 
93 58 187 
255 82 255 
204 107 255 
47 47 151 
255 78 252 
108 74 255 
0 0 0 
0 0 0 
0 0 0 
117 36 255 
247 77 77 
0 0 0 
255 88 88 
255 213 213 
255 61 140 
255 58 58 
255 88 88 
151 47 47 
255 48 48 
249 77 77 
151 47 47 
151 47 47 
0 0 0 
255 97 126 
207 64 64 
207 64 64 
255 98 98 
0 0 0 
255 255 255 
255 58 255 
255 165 165 
0 0 0 
247 77 77 
255 104 126 
216 67 94 
151 47 47 
255 144 144 
255 93 93 
72 22 72 
0 0 0 
255 88 88 
207 64 64 
255 124 163 
255 90 110 
0 0 0 
255 171 171 
0 0 0 
151 47 47 
255 88 166 
255 210 255 
193 60 193 
181 17 56 
255 254 254 
0 0 0 
255 95 204 
255 170 255 
255 175 175 
255 136 224 
255 222 249 
0 0 0 
0 0 0 
255 147 255 
247 77 77 
161 161 161 
255 200 255 
161 161 161 
255 198 255 
161 161 161 
0 0 0 
255 46 46 
255 221 228 
255 255 255 
255 217 217 
255 236 255 
161 161 161 
255 255 255 
161 161 161 
255 255 255 
0 0 0 
92 28 255 
0 0 0 
255 255 255 
161 161 161 
161 161 161 
255 173 255 
255 83 137 
247 77 77 
0 0 0 
255 183 216 
0 0 0 
161 161 161 
221 221 221 
247 77 77 
247 77 77 
255 155 155 
255 255 255 
255 200 255 
0 0 0 
161 161 161 
255 99 255 
161 161 161 
161 161 161 
255 255 255 
255 255 255 
255 255 255 
255 197 255 
161 161 161 
161 161 161 
161 161 161 
0 0 0 
255 255 255 
255 206 206 
77 77 247 
255 255 255 
255 255 255 
255 255 255 
255 29 147 
161 161 161 
255 255 255 
255 255 255 
255 170 170 
255 227 255 
161 161 161 
0 0 0 
255 126 126 
255 175 175 
225 201 255 
161 161 161 
0 0 0 
161 161 161 
255 255 255 
205 178 255 
255 255 255 
255 255 255 
200 82 255 
255 255 255 
161 161 161 
126 126 255 
0 0 0 
255 255 255 
161 161 161 
0 0 0 
255 255 255 
255 175 175 
255 196 196 
161 161 161 
77 77 247 
255 255 255 
255 255 255 
255 218 255 
221 221 221 
161 161 161 
221 221 221 
255 188 255 
255 255 255 
161 161 161 
221 221 221 
161 161 161 
161 161 161 
231 231 255 
247 77 77 
0 0 0 
255 255 255 
0 0 0 
0 0 0 
255 184 184 
255 218 255 
255 255 255 
175 175 255 
238 238 255 
255 196 255 
255 255 255 
161 161 161 
255 255 255 
221 221 255 
255 238 255 
0 0 0 
255 138 255 
217 217 255 
255 255 255 
161 161 161 
175 175 255 
220 68 220 
221 221 221 
255 99 99 
221 221 221 
255 255 255 
0 0 0 
255 255 255 
0 0 0 
255 121 255 
255 220 255 
255 190 255 
255 126 126 
231 231 255 
176 78 255 
255 127 127 
255 255 255 
255 255 255 
255 255 255 
255 255 255 
255 255 255 
0 0 0 
255 255 255 
255 206 255 
161 161 161 
255 255 255 
255 255 255 
92 28 255 
255 255 255 
255 255 255 
255 255 255 
199 199 255 
225 225 255 
255 196 255 
255 255 255 
184 184 255 
161 161 161 
161 161 161 
221 221 221 
255 255 255 
255 255 255 
255 255 255 
255 255 255 
161 161 161 
161 161 161 
114 64 255 
77 77 247 
128 17 56 
132 67 255 
216 216 255 
148 107 255 
36 36 255 
135 42 135 
83 37 119 
142 142 255 
255 213 255 
71 22 255 
118 56 244 
255 129 255 
102 72 233 
105 38 255 
0 0 0 
255 86 255 
64 64 207 
64 64 207 
132 132 255 
88 88 255 
94 89 255 
84 51 164 
0 0 0 
111 58 255 
193 60 193 
47 47 151 
255 147 255 
201 85 255 
47 47 151 
58 58 255 
0 0 0 
179 73 240 
106 47 255 
0 0 0 
0 0 0 
0 0 0 
0 0 0 
255 170 255 
255 88 88 
255 117 170 
151 47 47 
255 114 114 
255 88 88 
255 72 102 
151 47 47 
128 24 78 
0 0 0 
207 64 64 
255 84 137 
255 102 255 
151 47 47 
255 83 83 
151 47 47 
255 90 110 
233 72 102 
255 80 103 
164 51 84 
89 27 191 
255 97 97 
0 0 0 
119 37 83 
72 22 72 
255 169 255 
255 170 255 
255 88 88 
255 118 127 
164 51 84 
72 22 72 
255 131 255 
255 126 238 
255 177 222 
118 36 118 
151 47 47 
0 0 0 
255 58 58 
255 103 255 
255 160 255 
255 255 255 
255 126 126 
161 161 161 
161 161 161 
161 161 161 
194 60 137 
161 161 161 
255 58 155 
255 255 255 
161 161 161 
255 255 255 
0 0 0 
255 126 126 
161 161 161 
255 255 255 
161 161 161 
255 255 255 
126 126 255 
161 161 161 
255 180 200 
221 221 221 
0 0 0 
0 0 0 
161 161 161 
199 199 255 
255 255 255 
255 175 175 
255 255 255 
255 121 121 
255 175 175 
161 161 161 
255 255 255 
161 161 161 
255 105 105 
0 0 0 
0 0 0 
255 255 255 
247 77 77 
161 161 161 
0 0 0 
255 83 255 
247 77 77 
161 161 161 
221 221 221 
255 255 255 
0 0 0 
60 60 255 
255 185 255 
255 255 255 
255 255 255 
255 255 255 
255 255 255 
207 207 255 
255 175 175 
221 221 221 
77 77 247 
255 255 255 
255 209 255 
255 255 255 
255 105 255 
249 249 255 
255 237 255 
0 0 0 
161 161 161 
255 255 255 
0 0 0 
221 221 221 
161 161 161 
255 206 206 
255 255 255 
221 221 221 
255 255 255 
255 255 255 
0 0 0 
255 77 77 
255 255 255 
255 183 255 
255 222 255 
255 255 255 
255 255 255 
161 161 161 
255 163 171 
161 161 161 
161 161 161 
221 221 221 
255 88 255 
255 255 255 
255 255 255 
118 36 118 
161 161 161 
221 221 221 
255 255 255 
199 199 255 
255 255 255 
255 234 255 
0 0 0 
255 175 175 
255 255 255 
255 255 255 
255 255 255 
0 0 0 
255 255 255 
221 221 221 
255 255 255 
161 161 161 
255 255 255 
255 83 188 
175 175 255 
221 221 221 
255 255 255 
191 59 255 
161 161 161 
255 164 255 
247 77 77 
255 249 249 
161 161 161 
255 255 255 
255 127 127 
221 221 221 
161 161 161 
255 255 255 
161 161 161 
255 214 255 
255 162 223 
255 255 255 
161 161 161 
0 0 0 
161 161 161 
0 0 0 
175 175 255 
255 255 255 
255 127 127 
0 0 0 
255 184 184 
255 184 184 
231 231 255 
247 77 77 
255 144 255 
221 221 221 
221 221 221 
255 210 255 
255 255 255 
231 231 255 
255 255 255 
255 255 255 
255 255 255 
255 247 255 
255 255 255 
255 255 255 
255 95 252 
255 255 255 
196 196 255 
126 126 255 
255 218 218 
221 221 221 
234 153 255 
175 175 255 
161 161 161 
255 184 255 
255 255 255 
255 255 255 
161 161 161 
255 231 231 
255 217 255 
183 183 255 
255 127 127 
255 127 255 
255 98 255 
77 77 247 
231 231 255 
255 173 255 
221 221 221 
221 221 221 
0 0 0 
255 255 255 
0 0 0 
126 126 255 
137 83 255 
77 77 249 
47 47 151 
195 8 255 
129 98 255 
255 137 255 
77 77 247 
74 66 255 
0 0 0 
255 49 192 
72 22 72 
218 70 255 
0 0 0 
88 88 255 
139 73 255 
0 0 0 
212 53 255 
255 60 255 
0 0 0 
71 49 229 
0 0 0 
255 255 255 
125 58 186 
88 88 255 
0 0 0 
236 128 255 
0 0 0 
47 47 151 
0 0 0 
255 96 255 
137 84 255 
64 64 207 
64 64 207 
114 114 255 
115 107 255 
0 0 0 
0 0 0 
0 0 0 
0 0 0 
249 77 77 
151 47 47 
255 84 84 
0 0 0 
255 66 66 
187 58 93 
255 88 88 
255 104 104 
207 64 64 
151 47 47 
119 37 83 
207 64 64 
151 47 47 
249 77 77 
255 126 126 
255 88 88 
255 47 50 
255 149 196 
255 133 255 
72 22 72 
0 0 0 
151 47 47 
255 98 98 
0 0 0 
255 211 211 
255 129 167 
255 119 168 
151 47 47 
151 47 47 
255 37 37 
151 47 47 
255 62 255 
0 0 0 
255 79 102 
0 0 0 
255 80 105 
151 47 47 
247 77 77 
0 0 0 
255 216 216 
255 126 126 
247 77 77 
255 238 238 
161 161 161 
161 161 161 
161 161 161 
221 221 221 
255 199 199 
255 127 127 
255 126 255 
255 255 255 
255 199 199 
161 161 161 
0 0 0 
0 0 0 
255 255 255 
247 77 77 
161 161 161 
247 77 77 
0 0 0 
255 255 255 
161 161 161 
0 0 0 
255 255 255 
247 77 77 
255 255 255 
0 0 0 
255 255 255 
221 221 221 
255 188 188 
255 255 255 
0 0 0 
255 184 255 
255 255 255 
255 46 150 
161 161 161 
255 199 199 
0 0 0 
0 0 0 
127 127 255 
0 0 0 
127 127 255 
249 249 255 
255 255 255 
0 0 0 
77 77 247 
255 255 255 
247 77 77 
255 255 255 
221 221 221 
0 0 0 
161 161 161 
255 255 255 
175 175 255 
255 254 254 
255 255 255 
255 255 255 
255 255 255 
255 204 255 
255 255 255 
255 255 255 
255 255 255 
221 221 221 
255 255 255 
255 255 255 
255 127 255 
255 255 255 
221 221 221 
255 199 199 
255 245 255 
255 226 226 
215 166 255 
247 77 77 
255 199 199 
255 255 255 
255 255 255 
255 175 231 
255 210 255 
0 0 0 
255 255 255 
255 255 255 
161 161 161 
161 161 161 
255 255 255 
161 161 161 
255 255 255 
244 170 244 
161 161 161 
255 255 255 
0 0 0 
255 255 255 
0 0 0 
255 255 255 
255 222 255 
255 255 255 
0 0 0 
221 221 221 
255 236 255 
255 255 255 
175 175 255 
221 221 221 
137 60 194 
255 238 255 
255 105 255 
221 221 221 
255 255 255 
221 221 221 
255 255 255 
255 255 255 
255 221 221 
0 0 0 
0 0 0 
236 236 255 
255 255 255 
255 238 238 
0 0 0 
255 255 255 
255 255 255 
255 255 255 
255 145 145 
255 255 255 
244 170 244 
255 255 255 
245 223 245 
0 0 0 
255 249 249 
221 221 221 
255 206 255 
0 0 0 
255 255 255 
0 0 0 
245 223 245 
221 221 221 
0 0 0 
255 255 255 
254 227 255 
255 255 255 
221 221 221 
118 36 118 
240 188 255 
255 172 255 
255 255 255 
0 0 0 
77 77 247 
255 255 255 
255 163 255 
255 105 255 
161 161 161 
0 0 0 
161 161 161 
221 221 221 
247 77 77 
221 221 221 
175 175 255 
255 222 222 
255 231 255 
255 255 255 
77 77 247 
255 255 255 
220 81 255 
255 255 255 
161 161 161 
255 255 255 
191 132 255 
0 0 0 
255 255 255 
126 126 255 
46 46 255 
255 177 255 
77 77 247 
161 161 161 
255 255 255 
181 163 255 
255 126 126 
0 0 0 
255 232 255 
0 0 0 
87 87 255 
96 47 160 
255 255 255 
174 77 255 
255 255 255 
138 68 255 
58 58 255 
120 120 255 
0 0 0 
206 206 255 
160 52 210 
182 85 255 
106 91 255 
47 47 151 
255 212 255 
88 88 255 
77 77 249 
0 0 0 
146 75 241 
148 86 255 
91 63 255 
91 91 255 
0 0 0 
64 64 207 
47 47 151 
126 126 255 
60 60 255 
93 88 255 
255 255 255 
209 209 255 
0 0 0 
47 47 151 
255 255 255 
97 97 255 
83 37 119 
0 0 0 
0 0 0 
0 0 0 
0 0 0 
255 162 165 
247 77 77 
207 64 64 
163 50 115 
207 64 64 
255 110 131 
151 47 47 
255 93 93 
255 125 172 
255 100 114 
151 47 47 
0 0 0 
255 255 255 
151 47 47 
255 129 244 
216 67 94 
207 64 64 
0 0 0 
151 47 47 
255 98 98 
0 0 0 
216 67 94 
0 0 0 
0 0 0 
255 156 156 
255 160 255 
255 6 15 
247 77 77 
255 74 74 
0 0 0 
255 90 110 
151 47 47 
0 0 0 
255 85 189 
0 0 0 
0 0 0 
255 118 178 
249 77 77 
0 0 0 
0 0 0 
255 255 255 
255 255 255 
247 77 77 
0 0 0 
0 0 0 
255 255 255 
255 188 188 
255 255 255 
255 175 175 
247 77 77 
0 0 0 
161 161 161 
221 221 221 
255 122 233 
0 0 0 
161 161 161 
255 255 255 
255 255 255 
255 255 255 
0 0 0 
0 0 0 
221 221 221 
255 255 255 
255 129 167 
255 255 255 
255 175 175 
255 255 255 
255 255 255 
255 255 255 
255 98 255 
255 182 255 
255 183 254 
255 225 255 
255 210 210 
255 170 170 
255 199 199 
255 99 255 
255 255 255 
255 188 255 
255 255 255 
255 255 255 
161 161 161 
0 0 0 
255 255 255 
255 147 255 
255 136 136 
255 162 185 
221 221 221 
0 0 0 
255 255 255 
255 255 255 
221 221 221 
255 255 255 
127 127 255 
161 161 161 
255 255 255 
0 0 0 
161 161 161 
161 161 161 
247 77 77 
247 77 77 
0 0 0 
255 183 255 
255 175 175 
161 161 161 
255 255 255 
255 255 255 
255 207 207 
199 199 255 
255 255 255 
255 175 175 
221 221 221 
255 255 255 
0 0 0 
0 0 0 
221 221 221 
255 210 255 
255 255 255 
255 170 170 
255 186 255 
255 255 255 
231 231 255 
255 99 99 
255 255 255 
255 255 255 
255 175 175 
255 255 255 
255 145 145 
255 175 175 
255 255 255 
255 255 255 
0 0 0 
77 77 247 
255 255 255 
255 255 255 
255 199 199 
161 161 161 
247 77 77 
0 0 0 
255 255 255 
220 81 255 
221 221 221 
161 161 161 
255 160 160 
255 207 207 
244 170 255 
255 255 255 
193 60 193 
255 255 255 
255 255 255 
255 255 255 
0 0 0 
0 0 0 
255 255 255 
255 199 199 
161 161 161 
98 98 255 
199 199 255 
0 0 0 
255 255 255 
0 0 0 
255 255 255 
198 60 255 
255 255 255 
184 177 255 
247 77 77 
231 231 255 
161 161 161 
221 171 255 
255 255 255 
221 221 221 
255 231 255 
255 245 255 
255 199 199 
0 0 0 
0 0 0 
255 255 255 
255 205 255 
255 255 255 
0 0 0 
255 255 255 
255 255 255 
161 161 161 
77 77 247 
77 77 247 
255 218 255 
255 159 255 
0 0 0 
255 255 255 
161 161 161 
221 221 221 
65 28 255 
0 0 0 
255 255 255 
126 126 255 
199 199 255 
161 161 161 
255 227 255 
161 161 161 
207 64 255 
221 221 221 
255 110 255 
60 60 255 
255 163 182 
255 255 255 
0 0 0 
161 161 161 
255 255 255 
199 199 255 
255 226 255 
255 188 255 
255 83 255 
255 255 255 
0 0 0 
175 175 255 
201 172 255 
0 0 0 
47 47 151 
113 113 255 
77 77 247 
158 51 255 
255 126 255 
0 0 0 
88 88 255 
255 129 255 
97 97 255 
255 139 255 
0 0 0 
77 77 247 
77 77 247 
201 85 255 
90 61 255 
255 120 255 
237 114 255 
64 64 207 
86 79 255 
255 37 255 
47 47 151 
0 0 0 
47 47 151 
0 0 0 
0 0 0 
220 85 255 
248 112 255 
79 42 255 
47 47 151 
47 47 151 
255 75 255 
56 17 181 
47 47 151 
77 77 249 
0 0 0 
0 0 0 
0 0 0 
0 0 0 
0 0 0 
255 88 120 
207 64 64 
255 110 255 
118 36 118 
255 81 210 
151 47 47 
255 138 255 
0 0 0 
255 94 94 
255 132 255 
255 58 93 
0 0 0 
255 106 106 
255 213 213 
0 0 0 
207 64 64 
151 47 47 
249 77 77 
151 47 47 
0 0 0 
255 88 88 
255 142 142 
230 49 60 
255 79 102 
207 64 64 
255 209 209 
118 36 118 
255 97 97 
213 66 189 
255 242 246 
255 144 144 
207 64 64 
255 155 155 
255 91 227 
151 47 47 
255 99 99 
72 22 72 
151 47 47 
255 255 255 
0 0 0 
245 223 245 
255 126 126 
0 0 0 
0 0 0 
255 106 255 
255 255 255 
161 161 161 
255 126 126 
255 78 78 
161 161 161 
207 207 255 
255 95 255 
255 210 210 
255 255 255 
255 255 255 
127 127 255 
125 125 255 
255 255 255 
255 255 255 
0 0 0 
161 161 161 
255 240 240 
255 255 255 
0 0 0 
250 78 255 
255 98 255 
255 199 199 
255 255 255 
255 255 255 
255 255 255 
0 0 0 
255 255 255 
221 221 221 
161 161 161 
254 254 255 
255 255 255 
255 172 172 
255 109 210 
255 175 175 
255 255 255 
255 163 255 
255 255 255 
255 255 255 
255 255 255 
193 60 255 
161 161 161 
207 207 255 
255 255 255 
255 126 126 
255 217 255 
255 255 255 
0 0 0 
161 161 161 
0 0 0 
255 175 175 
255 255 255 
0 0 0 
199 199 255 
255 126 126 
255 175 175 
161 161 161 
174 174 255 
161 161 161 
255 255 255 
247 77 77 
0 0 0 
221 221 221 
255 163 171 
161 161 161 
199 199 255 
0 0 0 
221 221 221 
255 255 255 
255 95 252 
255 255 255 
255 255 255 
255 255 255 
0 0 0 
161 161 161 
255 199 199 
255 255 255 
255 255 255 
0 0 0 
255 254 254 
161 161 161 
255 205 255 
255 255 255 
255 221 255 
255 255 255 
0 0 0 
0 0 0 
255 144 144 
255 8 43 
255 255 255 
255 162 255 
255 146 255 
255 255 255 
0 0 0 
255 255 255 
175 175 255 
231 231 255 
255 255 255 
255 255 255 
221 221 221 
0 0 0 
0 0 0 
249 249 255 
0 0 0 
255 175 175 
161 161 161 
0 0 0 
255 196 255 
255 255 255 
255 255 255 
255 255 255 
161 161 161 
255 255 255 
221 221 221 
255 255 255 
255 126 126 
255 98 255 
255 255 255 
161 161 161 
255 255 255 
233 210 255 
161 161 161 
249 249 255 
255 255 255 
161 161 161 
255 188 255 
0 0 0 
255 255 255 
255 239 255 
0 0 0 
161 161 161 
161 161 161 
255 255 255 
161 161 161 
255 255 255 
247 77 77 
161 161 161 
249 249 255 
175 175 255 
0 0 0 
231 231 255 
161 161 161 
0 0 0 
161 161 161 
255 179 255 
161 161 161 
221 221 221 
255 255 255 
0 0 0 
161 161 161 
254 254 255 
255 255 255 
249 249 255 
255 255 255 
0 0 0 
0 0 0 
221 179 255 
255 60 255 
221 221 221 
126 126 255 
127 127 255 
144 144 255 
0 0 0 
255 211 255 
255 177 255 
255 175 255 
161 161 161 
161 161 161 
0 0 0 
255 255 255 
255 255 255 
0 0 0 
161 161 161 
81 81 255 
255 126 255 
107 107 255 
105 105 255 
0 0 0 
64 64 207 
64 64 207 
255 255 255 
132 132 255 
47 47 151 
56 17 181 
129 103 255 
118 93 255 
0 0 0 
94 67 216 
37 37 255 
77 77 247 
77 77 247 
136 109 255 
84 51 164 
0 0 0 
113 113 255 
64 64 207 
0 0 0 
97 97 255 
117 117 255 
147 48 176 
146 85 255 
142 74 239 
47 47 151 
88 78 255 
186 129 255 
34 10 110 
47 47 151 
0 0 0 
0 0 0 
0 0 0 
0 0 0 
0 0 0 
255 138 138 
0 0 0 
239 74 142 
0 0 0 
151 47 47 
247 77 77 
100 13 142 
255 85 85 
247 77 77 
0 0 0 
119 37 83 
255 109 255 
151 47 47 
151 47 47 
255 126 126 
207 64 64 
207 64 64 
118 36 118 
0 0 0 
255 104 104 
0 0 0 
255 89 94 
255 145 158 
249 77 77 
255 145 145 
255 88 88 
207 64 64 
207 64 64 
252 60 134 
255 66 86 
255 95 95 
0 0 0 
255 110 127 
255 206 206 
0 0 0 
233 72 131 
0 0 0 
255 91 123 
247 77 77 
255 144 144 
255 255 255 
255 255 255 
255 255 255 
255 143 255 
247 77 77 
221 221 221 
0 0 0 
0 0 0 
255 255 255 
161 161 161 
247 77 77 
161 161 161 
255 255 255 
161 161 161 
255 172 172 
255 174 255 
255 144 144 
0 0 0 
161 161 161 
255 170 170 
255 183 183 
255 201 225 
221 221 221 
255 255 255 
255 206 255 
255 188 188 
0 0 0 
255 255 255 
0 0 0 
255 255 255 
255 255 255 
161 161 161 
245 170 205 
194 60 137 
77 77 247 
255 255 255 
255 255 255 
126 126 255 
255 255 255 
255 199 199 
255 255 255 
0 0 0 
255 229 250 
247 77 77 
220 68 220 
255 83 201 
255 210 210 
255 175 175 
0 0 0 
255 255 255 
161 161 161 
0 0 0 
249 249 255 
255 255 255 
255 231 231 
255 199 199 
221 221 221 
255 144 144 
255 255 255 
247 77 77 
0 0 0 
255 175 175 
255 206 206 
255 210 255 
255 249 249 
0 0 0 
221 221 221 
161 161 161 
255 249 249 
255 255 255 
255 126 255 
255 255 255 
255 255 255 
255 231 231 
255 255 255 
221 221 221 
161 161 161 
255 255 255 
255 255 255 
161 161 161 
255 240 240 
255 255 255 
0 0 0 
255 222 222 
255 156 255 
255 255 255 
255 255 255 
161 161 161 
255 255 255 
255 255 255 
199 199 255 
0 0 0 
77 77 247 
255 255 255 
255 255 255 
221 221 221 
255 199 199 
255 143 255 
255 254 254 
255 249 249 
199 199 255 
255 255 255 
0 0 0 
255 255 255 
255 207 207 
255 197 255 
255 248 255 
161 161 161 
255 199 255 
165 88 255 
161 161 161 
255 255 255 
247 77 77 
255 199 199 
0 0 0 
161 161 161 
255 199 199 
0 0 0 
161 161 161 
161 161 161 
255 127 127 
0 0 0 
255 255 255 
255 199 199 
255 255 255 
161 161 161 
221 221 221 
161 161 161 
255 255 255 
0 0 0 
255 227 255 
221 221 221 
161 161 161 
255 112 213 
0 0 0 
0 0 0 
221 221 221 
255 144 255 
255 36 83 
217 146 255 
255 199 199 
255 227 227 
255 201 255 
255 47 107 
161 161 161 
255 184 255 
255 255 255 
255 163 171 
255 199 199 
193 60 193 
161 161 161 
255 210 255 
255 255 255 
0 0 0 
175 175 255 
161 161 161 
255 255 255 
255 239 255 
161 161 161 
255 145 255 
255 255 255 
255 166 215 
0 0 0 
255 255 255 
255 255 255 
0 0 0 
0 0 0 
161 161 161 
188 166 255 
77 77 247 
255 255 255 
199 199 255 
0 0 0 
161 161 161 
176 106 255 
255 159 255 
0 0 0 
118 36 118 
74 74 255 
72 22 72 
36 36 255 
0 0 0 
47 47 151 
0 0 0 
118 36 118 
0 0 0 
0 0 0 
110 90 255 
84 51 164 
0 0 0 
110 90 255 
72 22 72 
31 13 255 
132 132 255 
0 0 0 
111 72 255 
122 122 255 
64 64 207 
64 64 207 
58 58 255 
95 64 217 
255 114 255 
215 118 255 
139 73 255 
0 0 0 
255 47 186 
222 57 184 
156 67 255 
255 255 255 
110 84 255 
0 0 0 
0 0 0 
0 0 0 
0 0 0 
0 0 0 
0 0 0 
151 47 47 
255 63 63 
255 102 124 
151 47 47 
0 0 0 
255 59 255 
255 77 255 
255 69 89 
151 47 47 
255 156 255 
255 95 153 
255 88 109 
255 206 206 
216 67 94 
255 88 88 
255 86 148 
0 0 0 
187 58 93 
249 77 77 
255 206 255 
151 47 47 
255 88 88 
255 121 125 
255 88 93 
0 0 0 
0 0 0 
0 0 0 
255 106 106 
255 113 113 
255 95 204 
181 17 56 
255 124 135 
0 0 0 
255 134 255 
255 134 157 
0 0 0 
255 95 255 
255 68 255 
255 168 168 
255 255 255 
255 255 255 
255 255 255 
0 0 0 
0 0 0 
193 60 193 
255 174 255 
255 147 255 
255 176 255 
0 0 0 
255 227 255 
255 255 255 
255 225 255 
0 0 0 
161 161 161 
255 199 199 
161 161 161 
77 77 247 
221 221 221 
255 189 231 
255 175 175 
255 36 255 
0 0 0 
0 0 0 
0 0 0 
0 0 0 
255 255 255 
255 255 255 
255 184 255 
247 77 77 
161 161 161 
221 221 221 
255 255 255 
0 0 0 
255 255 255 
255 255 255 
255 199 199 
255 255 255 
255 184 255 
0 0 0 
255 255 255 
255 255 255 
255 222 222 
255 255 255 
255 255 255 
255 207 207 
255 175 175 
0 0 0 
161 161 161 
255 255 255 
161 161 161 
255 255 255 
161 161 161 
255 255 255 
255 255 255 
255 255 255 
255 99 224 
255 255 255 
161 161 161 
255 255 255 
224 99 255 
255 255 255 
255 255 255 
255 175 255 
255 255 255 
161 161 161 
161 161 161 
221 221 221 
255 162 162 
255 210 210 
161 161 161 
255 225 255 
255 231 231 
255 255 255 
161 161 161 
255 46 150 
221 221 221 
161 161 161 
0 0 0 
249 249 255 
255 231 231 
255 255 255 
161 161 161 
77 77 247 
0 0 0 
77 77 247 
161 161 161 
255 255 255 
161 161 161 
161 161 161 
0 0 0 
161 161 161 
255 175 175 
255 222 226 
255 255 255 
77 77 247 
255 255 255 
255 255 255 
161 161 161 
255 255 255 
161 161 161 
247 77 77 
255 208 255 
161 161 161 
161 161 161 
161 161 161 
231 231 255 
255 255 255 
231 231 255 
221 221 221 
255 255 255 
221 221 221 
255 166 215 
0 0 0 
118 36 118 
255 206 206 
0 0 0 
221 221 221 
0 0 0 
255 255 255 
0 0 0 
255 255 255 
161 161 161 
255 231 255 
170 170 255 
218 218 255 
188 188 255 
0 0 0 
255 255 255 
255 255 255 
255 255 255 
255 255 255 
161 161 161 
0 0 0 
161 161 161 
255 227 227 
255 255 255 
255 255 255 
161 161 161 
255 184 184 
0 0 0 
161 161 161 
175 175 255 
199 199 255 
245 223 245 
127 127 255 
175 175 255 
255 81 255 
0 0 0 
249 249 255 
166 166 255 
255 175 175 
255 255 255 
255 81 255 
0 0 0 
191 59 255 
255 170 170 
255 255 255 
60 60 255 
255 229 255 
241 225 255 
255 255 255 
255 255 255 
188 166 255 
0 0 0 
98 98 255 
126 126 255 
216 183 255 
0 0 0 
224 99 255 
144 144 255 
255 192 255 
255 255 255 
255 230 255 
170 170 255 
77 77 247 
255 105 255 
255 22 72 
80 77 255 
255 145 255 
56 17 181 
88 88 255 
47 47 151 
0 0 0 
96 47 255 
213 103 255 
108 74 255 
255 255 255 
110 83 255 
225 223 255 
204 82 255 
185 49 159 
0 0 0 
255 255 255 
0 0 0 
0 0 0 
88 88 255 
134 106 255 
72 22 72 
126 126 255 
219 85 255 
0 0 0 
65 28 255 
47 47 151 
64 64 207 
58 58 255 
204 107 255 
64 64 207 
74 66 255 
0 0 0 
255 81 255 
0 0 0 
0 0 0 
0 0 0 
0 0 0 
0 0 0 
0 0 0 
238 74 197 
255 139 191 
119 37 83 
255 219 246 
255 88 128 
247 77 77 
151 47 47 
151 47 47 
255 107 217 
255 165 165 
255 255 255 
0 0 0 
255 58 103 
207 64 64 
255 72 72 
247 77 77 
151 47 47 
151 47 47 
255 38 46 
110 10 34 
255 60 60 
255 113 113 
255 113 113 
255 139 139 
255 135 255 
151 47 47 
0 0 0 
255 107 124 
0 0 0 
151 47 47 
255 81 149 
0 0 0 
255 63 91 
0 0 0 
151 47 47 
255 98 98 
0 0 0 
255 216 255 
247 77 77 
255 223 223 
247 77 77 
99 99 255 
255 144 255 
161 161 161 
255 210 210 
255 53 136 
221 221 221 
161 161 161 
255 144 144 
255 255 255 
255 255 255 
255 187 255 
255 162 193 
255 121 255 
255 255 255 
255 216 255 
161 161 161 
161 161 161 
0 0 0 
255 199 199 
255 221 255 
0 0 0 
0 0 0 
255 255 255 
247 77 77 
0 0 0 
161 161 161 
161 161 161 
255 255 255 
255 129 167 
255 176 255 
0 0 0 
255 255 255 
255 126 126 
255 255 255 
255 231 231 
207 207 255 
255 255 255 
255 36 117 
255 255 255 
255 47 107 
255 255 255 
255 255 255 
0 0 0 
234 22 116 
245 170 205 
255 255 255 
255 177 184 
255 255 255 
255 223 223 
234 22 116 
255 255 255 
161 161 161 
255 199 199 
255 77 248 
255 28 92 
187 187 255 
255 255 255 
161 161 161 
161 161 161 
137 60 194 
255 255 255 
255 122 233 
255 255 255 
255 170 170 
161 161 161 
255 255 255 
255 230 230 
247 77 77 
255 255 255 
255 230 255 
255 36 255 
161 161 161 
247 77 77 
247 77 77 
255 255 255 
221 221 221 
244 170 244 
161 161 161 
221 221 221 
161 161 161 
255 127 127 
255 255 255 
255 207 207 
255 184 255 
255 195 255 
127 127 255 
255 255 255 
0 0 0 
254 254 255 
255 236 255 
0 0 0 
255 240 240 
0 0 0 
221 221 221 
255 249 249 
0 0 0 
255 255 255 
255 255 255 
255 255 255 
255 255 255 
0 0 0 
0 0 0 
221 221 221 
255 255 255 
221 221 221 
161 161 161 
255 37 255 
255 170 170 
255 255 255 
255 222 255 
161 161 161 
255 28 92 
231 231 255 
255 255 255 
255 255 255 
255 238 255 
0 0 0 
118 36 118 
255 105 105 
0 0 0 
126 126 255 
0 0 0 
255 255 255 
230 230 255 
193 60 193 
255 255 255 
106 47 255 
255 220 255 
255 104 209 
255 255 255 
255 255 255 
0 0 0 
255 255 255 
0 0 0 
255 95 252 
161 161 161 
221 221 221 
255 255 255 
0 0 0 
0 0 0 
249 249 255 
246 76 255 
161 161 161 
161 161 161 
255 185 255 
0 0 0 
105 105 255 
206 206 255 
255 255 255 
136 136 255 
161 161 161 
106 47 255 
0 0 0 
127 127 255 
221 221 221 
0 0 0 
0 0 0 
161 161 161 
255 255 255 
151 47 255 
255 162 255 
255 255 255 
231 231 255 
247 77 77 
255 255 255 
0 0 0 
0 0 0 
224 99 255 
70 13 255 
0 0 0 
161 161 161 
77 77 247 
255 137 255 
255 184 255 
172 172 255 
206 206 255 
174 174 255 
110 10 255 
47 47 151 
47 47 151 
60 47 195 
0 0 0 
77 77 247 
183 77 255 
0 0 0 
118 36 118 
255 138 255 
77 77 247 
134 83 255 
47 47 151 
118 100 255 
193 60 193 
137 83 255 
0 0 0 
47 47 151 
255 170 255 
255 109 255 
88 88 255 
47 47 151 
72 22 72 
72 72 255 
156 133 255 
0 0 0 
93 93 255 
0 0 0 
0 0 0 
157 96 255 
64 64 207 
125 108 255 
0 0 0 
0 0 0 
0 0 0 
0 0 0 
0 0 0 
0 0 0 
255 88 88 
255 92 124 
151 47 47 
151 47 47 
255 188 255 
207 64 64 
255 242 255 
255 66 83 
164 51 84 
255 50 255 
0 0 0 
255 54 78 
151 47 47 
255 132 132 
255 28 65 
247 77 77 
0 0 0 
207 64 64 
151 47 47 
247 77 77 
255 93 143 
255 206 206 
151 47 47 
255 151 255 
0 0 0 
0 0 0 
151 47 47 
255 110 110 
0 0 0 
255 89 94 
255 84 137 
0 0 0 
255 146 166 
247 77 77 
255 121 121 
255 94 252 
255 105 105 
255 98 143 
255 38 122 
255 255 255 
236 223 255 
255 255 255 
255 227 255 
247 77 77 
0 0 0 
0 0 0 
255 255 255 
255 188 188 
161 161 161 
255 126 126 
255 28 65 
161 161 161 
161 161 161 
255 199 199 
255 255 255 
161 161 161 
255 255 255 
247 77 77 
221 221 221 
255 255 255 
77 77 247 
255 126 126 
0 0 0 
255 255 255 
255 231 231 
255 255 255 
255 127 127 
161 161 161 
245 223 245 
161 161 161 
0 0 0 
0 0 0 
221 221 221 
255 28 92 
161 161 161 
255 255 255 
199 199 255 
255 255 255 
247 77 77 
161 161 161 
0 0 0 
255 185 255 
221 221 221 
255 251 255 
255 255 255 
255 199 199 
255 255 255 
255 175 175 
255 206 206 
247 77 77 
0 0 0 
255 255 255 
247 77 77 
221 221 221 
0 0 0 
255 255 255 
255 255 255 
255 255 255 
161 161 161 
161 161 161 
0 0 0 
255 255 255 
255 255 255 
255 199 199 
255 175 175 
255 254 254 
255 255 255 
161 161 161 
0 0 0 
255 255 255 
255 126 126 
255 175 175 
161 161 161 
255 255 255 
255 255 255 
255 255 255 
255 245 255 
255 255 255 
0 0 0 
161 161 161 
221 221 221 
175 175 255 
221 221 221 
255 175 175 
255 255 255 
255 255 255 
255 255 255 
255 255 255 
244 170 244 
255 255 255 
255 255 255 
221 221 221 
255 76 246 
255 255 255 
255 173 255 
255 126 126 
255 255 255 
0 0 0 
255 160 160 
161 161 161 
255 255 255 
161 161 161 
175 175 255 
255 175 175 
255 255 255 
0 0 0 
255 207 255 
255 198 255 
255 231 231 
255 255 255 
161 161 161 
255 125 255 
255 225 255 
255 255 255 
221 221 221 
205 170 255 
255 231 231 
255 217 255 
221 221 221 
255 238 238 
255 210 255 
77 77 247 
175 175 255 
255 145 255 
255 201 255 
77 77 247 
255 255 255 
255 175 175 
255 145 145 
207 207 255 
221 221 221 
255 255 255 
255 255 255 
126 126 255 
77 77 247 
255 126 126 
0 0 0 
0 0 0 
255 255 255 
221 221 221 
0 0 0 
0 0 0 
255 203 255 
0 0 0 
161 161 161 
161 161 161 
0 0 0 
255 255 255 
118 36 118 
160 133 255 
255 255 255 
247 77 77 
255 140 255 
118 36 118 
255 199 199 
77 77 247 
221 221 221 
171 163 255 
255 216 255 
144 144 255 
255 95 252 
0 0 0 
0 0 0 
255 126 255 
255 108 255 
0 0 0 
255 136 224 
126 126 255 
255 255 255 
221 221 221 
255 255 255 
0 0 0 
144 144 255 
255 162 255 
161 161 161 
255 255 255 
77 77 247 
255 255 255 
255 200 255 
0 0 0 
255 220 255 
47 47 151 
0 0 0 
255 81 255 
77 77 247 
47 47 151 
47 47 151 
211 206 255 
89 27 191 
255 147 255 
255 93 255 
0 0 0 
170 105 255 
97 97 255 
140 69 255 
64 64 207 
83 37 119 
47 47 151 
77 77 249 
118 36 118 
88 88 255 
45 45 255 
225 98 255 
98 98 255 
84 51 164 
120 98 255 
64 64 207 
34 10 110 
47 47 151 
200 47 153 
0 0 0 
0 0 0 
0 0 0 
0 0 0 
0 0 0 
0 0 0 
0 0 0 
255 68 255 
255 28 65 
207 64 64 
255 119 119 
0 0 0 
255 84 137 
255 210 220 
170 47 75 
255 144 144 
207 64 64 
255 121 121 
255 125 128 
151 47 47 
72 22 72 
151 47 47 
0 0 0 
255 31 76 
255 140 166 
255 78 158 
0 0 0 
0 0 0 
151 47 47 
194 60 137 
72 22 72 
255 164 164 
151 47 47 
207 64 64 
255 67 123 
151 47 47 
0 0 0 
255 110 110 
255 97 97 
255 106 106 
255 142 243 
255 63 246 
255 88 88 
0 0 0 
183 2 81 
221 221 221 
255 255 255 
247 77 77 
161 161 161 
255 175 255 
255 159 255 
0 0 0 
0 0 0 
255 175 175 
161 161 161 
255 140 255 
255 145 145 
0 0 0 
255 231 255 
255 255 255 
255 255 255 
255 199 199 
161 161 161 
255 95 95 
221 221 221 
255 255 255 
255 98 98 
255 255 255 
255 199 199 
255 105 255 
255 183 183 
255 201 255 
255 175 255 
161 161 161 
255 234 255 
221 221 221 
255 217 217 
0 0 0 
255 231 231 
161 161 161 
118 36 118 
255 255 255 
255 255 255 
161 161 161 
255 255 255 
255 231 231 
161 161 161 
255 255 255 
255 255 255 
255 162 255 
255 255 255 
255 255 255 
221 221 221 
255 255 255 
255 238 238 
0 0 0 
161 161 161 
161 161 161 
255 221 221 
193 60 193 
227 227 255 
255 255 255 
255 196 255 
255 175 175 
255 255 255 
254 254 255 
255 255 255 
228 223 255 
255 196 255 
255 225 225 
221 221 221 
255 255 255 
0 0 0 
255 254 254 
193 60 193 
255 249 249 
255 255 255 
255 175 175 
255 210 210 
255 255 255 
255 255 255 
0 0 0 
0 0 0 
247 77 77 
255 255 255 
255 254 254 
255 255 255 
221 221 221 
255 166 166 
255 250 255 
255 255 255 
161 161 161 
255 212 255 
255 255 255 
255 255 255 
161 161 161 
255 184 184 
0 0 0 
255 186 255 
226 222 255 
255 60 60 
255 255 255 
255 255 255 
0 0 0 
255 255 255 
231 231 255 
0 0 0 
255 255 255 
231 61 255 
255 255 255 
255 255 255 
255 126 126 
199 199 255 
255 235 255 
221 221 221 
163 163 255 
255 255 255 
255 162 255 
255 255 255 
106 47 255 
0 0 0 
249 249 255 
255 255 255 
161 161 161 
255 255 255 
255 210 255 
255 255 255 
255 255 255 
161 161 161 
224 99 255 
0 0 0 
255 255 255 
255 198 255 
196 196 255 
153 95 255 
255 175 255 
175 175 255 
161 161 161 
221 221 221 
255 255 255 
161 161 161 
0 0 0 
255 255 255 
255 255 255 
255 210 255 
255 147 255 
255 144 255 
255 98 255 
221 221 221 
0 0 0 
255 160 255 
255 255 255 
255 255 255 
161 161 161 
0 0 0 
161 161 161 
255 198 198 
255 255 255 
0 0 0 
118 36 118 
255 234 255 
0 0 0 
249 249 255 
221 221 221 
255 255 255 
161 161 161 
255 126 126 
77 77 247 
160 160 255 
255 203 255 
161 161 161 
220 81 255 
0 0 0 
255 255 255 
175 175 255 
0 0 0 
255 175 255 
255 163 255 
249 126 255 
161 161 161 
0 0 0 
255 255 255 
77 77 247 
47 47 151 
215 63 255 
0 0 0 
255 255 255 
255 163 255 
64 64 207 
0 0 0 
47 47 151 
88 88 255 
185 49 159 
64 64 207 
129 129 255 
90 17 255 
72 22 72 
201 102 255 
152 149 255 
72 22 72 
40 17 182 
98 85 255 
178 143 255 
47 47 151 
0 0 0 
216 216 255 
83 37 119 
47 47 151 
0 0 0 
158 104 255 
149 65 255 
115 61 197 
137 94 255 
47 47 151 
47 47 151 
102 72 233 
0 0 0 
0 0 0 
0 0 0 
0 0 0 
0 0 0 
0 0 0 
207 64 64 
255 230 255 
249 77 77 
151 47 47 
207 64 64 
255 100 119 
255 83 137 
151 47 47 
255 47 47 
151 47 47 
0 0 0 
255 113 255 
118 36 118 
255 36 36 
255 88 109 
151 47 47 
230 49 60 
207 64 64 
255 162 162 
255 77 174 
255 121 255 
72 22 72 
255 119 255 
151 47 47 
255 51 85 
247 77 77 
110 10 34 
255 74 74 
181 17 56 
0 0 0 
0 0 0 
255 83 110 
255 255 255 
0 0 0 
207 64 64 
0 0 0 
255 105 105 
255 128 157 
255 95 95 
255 126 126 
0 0 0 
255 163 171 
247 77 77 
255 126 126 
255 255 255 
255 132 190 
255 255 255 
0 0 0 
193 60 193 
255 255 255 
161 161 161 
247 77 77 
161 161 161 
255 255 255 
0 0 0 
255 175 175 
194 164 194 
255 126 126 
255 255 255 
255 205 205 
255 255 255 
161 161 161 
161 161 161 
161 161 161 
0 0 0 
0 0 0 
247 77 77 
0 0 0 
255 255 255 
0 0 0 
255 255 255 
255 221 255 
255 255 255 
0 0 0 
255 162 255 
255 166 215 
161 161 161 
255 22 71 
254 254 255 
255 88 255 
247 77 77 
255 175 175 
255 222 229 
255 255 255 
255 199 199 
255 196 255 
255 144 144 
0 0 0 
255 255 255 
0 0 0 
255 206 206 
255 238 238 
255 255 255 
175 175 255 
255 255 255 
255 255 255 
0 0 0 
255 254 254 
249 249 255 
221 221 221 
255 255 255 
255 255 255 
221 221 221 
255 255 255 
255 255 255 
0 0 0 
255 255 255 
161 161 161 
0 0 0 
255 255 255 
255 255 255 
161 161 161 
255 225 255 
0 0 0 
161 161 161 
255 249 249 
255 255 255 
255 175 175 
255 210 210 
255 185 185 
0 0 0 
255 207 207 
255 255 255 
255 255 255 
161 161 161 
0 0 0 
221 221 221 
255 175 175 
161 161 161 
161 161 161 
221 221 221 
255 255 255 
161 161 161 
241 225 255 
255 255 255 
255 255 255 
255 255 255 
255 255 255 
231 175 255 
0 0 0 
0 0 0 
221 221 221 
221 221 221 
255 255 255 
255 255 255 
206 206 255 
255 191 255 
221 221 221 
255 144 144 
161 161 161 
161 161 161 
0 0 0 
255 137 137 
175 175 255 
255 255 255 
221 221 221 
161 161 161 
255 255 255 
247 77 77 
255 215 255 
0 0 0 
255 156 255 
255 78 250 
194 60 137 
0 0 0 
255 255 255 
0 0 0 
255 250 255 
255 249 255 
255 255 255 
255 255 255 
161 161 161 
247 77 77 
92 28 209 
255 255 255 
255 255 255 
255 221 255 
255 236 255 
255 255 255 
221 221 221 
255 255 255 
161 161 161 
214 166 255 
255 255 255 
0 0 0 
221 221 221 
137 83 255 
0 0 0 
0 0 0 
0 0 0 
0 0 0 
77 77 247 
255 222 255 
255 255 255 
255 255 255 
255 207 207 
77 77 247 
255 255 255 
0 0 0 
77 77 247 
221 221 221 
0 0 0 
244 170 244 
0 0 0 
255 60 195 
161 161 161 
0 0 0 
255 185 255 
161 161 161 
188 188 255 
255 255 255 
255 230 255 
255 175 175 
255 137 225 
255 255 255 
161 161 161 
175 175 255 
126 126 255 
162 162 255 
0 0 0 
255 60 255 
64 64 207 
97 97 255 
140 66 213 
60 60 255 
0 0 0 
143 93 255 
64 64 207 
79 42 255 
0 0 0 
0 0 0 
88 88 255 
97 97 255 
0 0 0 
255 167 255 
88 88 255 
83 83 255 
142 74 239 
60 49 230 
64 64 207 
88 88 255 
255 106 255 
88 88 255 
131 72 233 
127 72 255 
47 47 151 
77 77 249 
47 47 151 
77 77 249 
222 45 146 
0 0 0 
0 0 0 
0 0 0 
0 0 0 
0 0 0 
0 0 0 
255 152 152 
255 65 98 
255 133 147 
0 0 0 
142 13 100 
229 49 71 
255 88 128 
255 53 98 
143 37 100 
164 51 84 
0 0 0 
255 47 151 
0 0 0 
151 47 47 
247 77 77 
255 85 141 
0 0 0 
151 47 47 
255 58 58 
151 47 47 
255 222 255 
255 48 62 
255 67 67 
255 106 106 
255 132 149 
255 60 60 
207 64 64 
0 0 0 
207 64 64 
151 47 47 
255 208 208 
255 76 255 
255 74 74 
151 47 47 
255 99 255 
118 36 118 
0 0 0 
0 0 0 
0 0 0 
0 0 0 
255 250 255 
247 77 77 
0 0 0 
255 254 254 
255 255 255 
255 155 155 
161 161 161 
255 184 255 
255 207 221 
255 212 255 
255 126 126 
255 255 255 
0 0 0 
255 255 255 
255 235 255 
0 0 0 
247 77 77 
255 77 112 
255 160 255 
255 231 231 
255 255 255 
161 161 161 
249 249 255 
255 255 255 
255 255 255 
161 161 161 
221 221 221 
247 77 77 
255 255 255 
255 255 255 
255 255 255 
221 221 221 
221 221 221 
255 255 255 
255 222 222 
255 255 255 
161 161 161 
0 0 0 
255 155 255 
255 163 181 
255 206 206 
255 230 230 
193 60 193 
255 255 255 
0 0 0 
0 0 0 
255 255 255 
255 199 199 
0 0 0 
255 255 255 
161 161 161 
255 229 255 
255 255 255 
161 161 161 
77 77 247 
255 255 255 
188 188 255 
255 255 255 
255 255 255 
244 170 244 
255 255 255 
255 255 255 
255 255 255 
255 206 206 
0 0 0 
161 161 161 
221 221 221 
161 161 161 
221 221 221 
255 255 255 
255 199 199 
0 0 0 
255 255 255 
255 222 255 
255 210 210 
0 0 0 
161 161 161 
255 255 255 
255 255 255 
255 249 255 
255 255 255 
255 255 255 
255 255 255 
161 161 161 
255 255 255 
175 175 255 
0 0 0 
255 199 199 
255 165 255 
255 255 255 
255 255 255 
161 161 161 
255 249 249 
255 255 255 
255 236 255 
255 163 255 
161 161 161 
161 161 161 
255 60 60 
255 254 255 
255 255 255 
161 161 161 
160 160 255 
226 222 255 
0 0 0 
255 160 160 
231 231 255 
255 255 255 
255 166 255 
161 161 161 
255 207 207 
255 128 255 
255 175 175 
255 207 207 
221 221 221 
255 255 255 
0 0 0 
0 0 0 
255 255 255 
255 205 255 
175 175 255 
141 13 255 
0 0 0 
0 0 0 
255 255 255 
255 199 199 
255 249 249 
0 0 0 
0 0 0 
255 255 255 
0 0 0 
77 77 247 
255 249 255 
0 0 0 
161 161 161 
77 77 247 
0 0 0 
255 255 255 
0 0 0 
201 172 255 
255 255 255 
255 245 245 
244 170 244 
255 88 255 
0 0 0 
0 0 0 
0 0 0 
255 255 255 
221 221 221 
161 161 161 
221 221 221 
161 161 161 
255 60 60 
0 0 0 
255 255 255 
175 175 255 
77 77 247 
255 255 255 
0 0 0 
255 200 255 
255 218 255 
0 0 0 
255 255 255 
221 221 221 
247 77 77 
92 28 255 
255 255 255 
255 125 255 
0 0 0 
255 255 255 
249 234 255 
161 161 161 
0 0 0 
161 161 161 
0 0 0 
161 161 161 
161 161 161 
142 74 239 
84 51 164 
255 61 255 
72 22 72 
107 107 255 
98 98 255 
106 60 255 
84 51 164 
242 140 255 
0 0 0 
47 47 151 
83 37 119 
209 28 92 
180 137 255 
255 104 255 
47 47 151 
95 78 255 
84 51 164 
77 77 249 
152 136 255 
47 47 151 
118 36 118 
47 47 151 
118 36 118 
0 0 0 
102 79 255 
153 54 255 
60 49 230 
248 77 255 
0 0 0 
64 64 207 
255 69 223 
111 50 255 
209 209 255 
0 0 0 
0 0 0 
0 0 0 
0 0 0 
0 0 0 
151 47 47 
151 47 47 
151 47 47 
255 147 181 
207 64 64 
255 88 88 
255 88 88 
249 77 77 
255 69 69 
186 58 125 
255 83 110 
255 58 58 
0 0 0 
164 51 84 
255 106 106 
151 47 47 
151 47 47 
151 47 47 
255 255 255 
150 46 255 
255 17 40 
255 255 255 
255 192 255 
255 83 110 
0 0 0 
255 88 88 
255 246 255 
255 126 126 
255 206 206 
151 47 47 
255 88 88 
164 51 84 
207 64 64 
255 255 255 
255 132 132 
255 131 131 
255 69 69 
247 77 77 
255 95 95 
0 0 0 
247 77 77 
255 255 255 
255 217 255 
174 174 255 
255 210 210 
247 77 77 
0 0 0 
255 88 255 
255 255 255 
255 255 255 
255 238 255 
161 161 161 
0 0 0 
255 110 153 
255 126 126 
255 229 229 
255 255 255 
207 207 255 
255 105 105 
255 255 255 
255 255 255 
199 199 255 
255 17 40 
255 249 249 
255 212 255 
161 161 161 
255 255 255 
255 255 255 
255 163 255 
0 0 0 
255 255 255 
255 140 255 
255 255 255 
255 112 112 
0 0 0 
0 0 0 
193 60 193 
221 221 221 
255 106 188 
161 161 161 
255 255 255 
199 199 255 
161 161 161 
255 103 149 
255 255 255 
0 0 0 
255 175 255 
0 0 0 
255 255 255 
255 228 255 
255 88 255 
0 0 0 
161 161 161 
255 255 255 
175 175 255 
255 60 255 
0 0 0 
255 226 255 
255 230 255 
161 161 161 
231 231 255 
255 212 255 
199 199 255 
0 0 0 
255 255 255 
255 199 199 
255 255 255 
255 255 255 
255 255 255 
255 255 255 
255 255 255 
193 60 193 
255 144 255 
255 177 255 
255 255 255 
161 161 161 
255 200 255 
255 255 255 
247 77 77 
255 255 255 
255 255 255 
161 161 161 
221 221 221 
255 255 255 
255 255 255 
255 255 255 
0 0 0 
199 199 255 
255 255 255 
221 221 221 
255 255 255 
255 255 255 
161 161 161 
255 247 255 
255 255 255 
161 161 161 
255 255 255 
175 175 255 
255 255 255 
255 127 127 
255 88 88 
255 231 231 
255 255 255 
255 255 255 
255 99 224 
255 184 184 
255 255 255 
161 161 161 
255 255 255 
0 0 0 
161 161 161 
161 161 161 
0 0 0 
255 236 255 
126 126 255 
0 0 0 
0 0 0 
255 255 255 
249 249 255 
175 175 255 
255 76 76 
221 221 221 
161 161 161 
255 255 255 
0 0 0 
221 221 221 
206 206 255 
255 255 255 
249 249 255 
247 77 77 
144 144 255 
255 255 255 
77 77 247 
255 255 255 
255 175 175 
0 0 0 
255 175 175 
249 249 255 
255 255 255 
255 255 255 
255 255 255 
255 255 255 
255 255 255 
255 255 255 
161 161 161 
221 221 221 
255 126 126 
255 201 255 
255 222 255 
0 0 0 
161 161 161 
247 77 77 
199 199 255 
254 254 255 
255 255 255 
0 0 0 
216 183 255 
0 0 0 
255 188 255 
221 221 221 
255 255 255 
175 175 255 
255 255 255 
161 161 161 
221 221 221 
255 255 255 
144 144 255 
77 77 247 
255 76 246 
255 46 150 
255 255 255 
221 221 221 
126 126 255 
0 0 0 
255 60 255 
77 77 247 
0 0 0 
156 76 255 
171 61 255 
0 0 0 
107 85 255 
77 77 247 
250 51 165 
225 217 255 
78 24 128 
0 0 0 
255 58 255 
180 137 255 
0 0 0 
105 34 202 
47 47 151 
255 142 255 
60 60 255 
77 77 247 
47 47 151 
125 58 186 
0 0 0 
47 47 151 
47 47 151 
159 50 255 
0 0 0 
154 154 255 
0 0 0 
57 57 255 
71 49 229 
125 58 186 
139 84 255 
227 107 255 
0 0 0 
185 49 159 
64 64 207 
0 0 0 
0 0 0 
0 0 0 
0 0 0 
0 0 0 
255 128 255 
255 66 83 
151 47 47 
0 0 0 
151 47 47 
255 209 209 
207 64 64 
255 88 139 
0 0 0 
255 113 113 
207 64 64 
255 126 126 
255 58 58 
255 78 112 
255 100 147 
151 47 47 
255 25 172 
255 125 255 
255 110 144 
255 120 215 
207 64 64 
255 144 144 
255 40 132 
0 0 0 
151 47 47 
216 67 94 
255 125 125 
255 120 120 
182 48 56 
255 255 255 
255 126 126 
255 36 36 
186 58 125 
255 88 88 
255 24 58 
255 78 176 
255 60 60 
255 149 149 
255 88 88 
193 60 193 
255 255 255 
0 0 0 
255 185 190 
207 207 255 
161 161 161 
175 175 255 
255 255 255 
175 175 255 
255 255 255 
247 77 77 
221 221 221 
0 0 0 
255 95 95 
161 161 161 
255 255 255 
0 0 0 
0 0 0 
255 160 255 
255 166 188 
221 221 221 
247 77 77 
255 255 255 
255 255 255 
255 199 199 
255 126 255 
255 175 175 
255 199 199 
255 144 255 
224 99 255 
221 221 221 
255 255 255 
175 175 255 
255 246 246 
255 255 255 
255 60 60 
255 255 255 
0 0 0 
255 175 175 
255 255 255 
221 221 221 
255 255 255 
161 161 161 
161 161 161 
161 161 161 
255 162 166 
255 176 204 
255 255 255 
0 0 0 
255 60 60 
161 161 161 
255 122 255 
221 221 221 
255 255 255 
255 255 255 
161 161 161 
247 77 77 
221 221 221 
255 199 199 
221 221 221 
255 231 231 
245 223 245 
255 133 133 
255 255 255 
255 207 207 
255 172 172 
255 231 231 
255 207 207 
247 77 77 
255 255 255 
255 255 255 
181 163 255 
161 161 161 
255 255 255 
98 81 255 
255 198 198 
221 221 221 
255 255 255 
161 161 161 
255 225 255 
255 137 255 
255 127 127 
255 255 255 
255 175 175 
255 255 255 
255 255 255 
247 77 77 
0 0 0 
255 254 255 
221 221 221 
161 161 161 
255 255 255 
0 0 0 
161 161 161 
99 99 255 
161 161 161 
221 221 221 
0 0 0 
255 255 255 
255 255 255 
247 77 77 
255 255 255 
255 196 255 
254 254 255 
255 255 255 
255 255 255 
77 77 247 
187 105 255 
0 0 0 
161 161 161 
0 0 0 
161 161 161 
221 221 221 
215 166 255 
221 221 221 
255 199 199 
255 255 255 
161 161 161 
0 0 0 
255 255 255 
0 0 0 
255 199 199 
0 0 0 
255 127 127 
255 188 255 
0 0 0 
255 255 255 
255 255 255 
255 199 199 
161 161 161 
255 255 255 
255 162 255 
255 255 255 
193 60 193 
255 255 255 
255 255 255 
255 255 255 
206 206 255 
255 163 163 
77 77 247 
221 221 221 
255 255 255 
255 255 255 
0 0 0 
255 207 255 
161 161 161 
255 255 255 
255 173 255 
255 172 255 
255 112 255 
221 221 221 
255 255 255 
255 255 255 
255 255 255 
161 161 161 
255 195 255 
175 175 255 
161 161 161 
233 122 255 
255 255 255 
161 161 161 
175 175 255 
206 200 255 
216 169 255 
255 212 255 
255 255 255 
199 199 255 
255 78 255 
0 0 0 
255 199 237 
236 236 255 
255 210 255 
77 77 247 
0 0 0 
255 207 207 
77 77 247 
255 255 255 
0 0 0 
137 60 194 
72 22 72 
181 78 255 
0 0 0 
62 60 255 
77 77 247 
47 47 151 
0 0 0 
209 209 255 
122 82 255 
191 174 255 
171 81 255 
170 170 255 
64 64 207 
77 77 249 
132 132 255 
189 189 255 
204 107 255 
233 51 255 
233 107 255 
47 47 151 
56 17 128 
131 72 233 
255 106 255 
47 47 151 
190 46 255 
93 58 187 
77 77 249 
88 88 255 
64 64 207 
157 102 255 
132 132 255 
64 64 207 
93 58 187 
0 0 0 
0 0 0 
0 0 0 
0 0 0 
0 0 0 
151 47 47 
207 64 64 
135 42 135 
255 97 97 
207 64 64 
255 72 102 
255 64 157 
207 64 64 
151 47 47 
255 255 255 
247 77 77 
254 79 193 
255 113 113 
216 67 94 
207 64 64 
151 47 47 
255 81 255 
0 0 0 
255 98 98 
255 206 206 
118 36 118 
0 0 0 
181 17 56 
255 74 197 
255 255 255 
216 67 94 
255 178 255 
247 77 77 
0 0 0 
255 22 73 
255 75 90 
194 60 137 
255 255 255 
255 255 255 
255 133 147 
151 47 47 
255 132 255 
255 60 60 
255 51 51 
255 188 255 
255 105 105 
255 175 175 
255 199 199 
247 77 77 
255 255 255 
247 77 77 
0 0 0 
161 161 161 
161 161 161 
255 78 101 
0 0 0 
255 105 105 
77 77 247 
255 184 184 
161 161 161 
0 0 0 
0 0 0 
221 221 221 
255 255 255 
255 199 199 
0 0 0 
255 249 249 
247 77 77 
126 126 255 
127 127 255 
0 0 0 
255 184 184 
161 161 161 
0 0 0 
255 199 199 
255 255 255 
255 255 255 
221 221 221 
255 255 255 
0 0 0 
0 0 0 
255 225 255 
0 0 0 
255 168 255 
255 255 255 
206 206 255 
255 231 231 
255 175 175 
255 255 255 
0 0 0 
255 162 255 
255 175 175 
255 255 255 
255 188 188 
255 255 255 
255 255 255 
255 255 255 
255 110 153 
0 0 0 
255 127 127 
0 0 0 
255 255 255 
255 37 189 
255 255 255 
0 0 0 
221 221 221 
199 199 255 
255 255 255 
255 28 65 
255 255 255 
255 255 255 
255 255 255 
255 238 238 
161 161 161 
255 220 220 
0 0 0 
255 255 255 
161 161 161 
150 47 255 
255 255 255 
255 249 249 
0 0 0 
0 0 0 
0 0 0 
161 161 161 
221 221 221 
255 255 255 
255 255 255 
0 0 0 
255 255 255 
217 217 255 
0 0 0 
194 60 137 
0 0 0 
255 255 255 
126 126 255 
0 0 0 
255 255 255 
161 161 161 
161 161 161 
247 77 77 
255 255 255 
255 255 255 
0 0 0 
161 161 161 
255 255 255 
161 161 161 
175 175 255 
245 223 245 
161 161 161 
161 161 161 
221 221 221 
0 0 0 
161 161 161 
231 231 255 
255 255 255 
221 221 221 
161 161 161 
245 223 245 
255 175 175 
199 199 255 
127 127 255 
255 127 127 
221 221 221 
161 161 161 
255 87 255 
255 175 175 
125 125 255 
194 164 194 
255 227 255 
247 231 255 
247 77 77 
255 255 255 
161 161 161 
0 0 0 
255 255 255 
255 255 255 
175 175 255 
255 255 255 
0 0 0 
161 161 161 
0 0 0 
255 199 199 
161 161 161 
255 102 255 
161 161 161 
255 231 231 
221 221 221 
255 255 255 
255 255 255 
221 221 221 
249 249 255 
254 227 255 
255 156 255 
0 0 0 
161 161 161 
194 164 194 
255 255 255 
255 255 255 
255 255 255 
255 255 255 
161 161 161 
161 161 161 
255 255 255 
255 60 193 
0 0 0 
255 255 255 
0 0 0 
255 176 255 
77 77 247 
0 0 0 
245 170 205 
145 145 255 
194 164 194 
126 126 255 
233 162 191 
161 161 161 
255 132 255 
0 0 0 
77 77 247 
206 206 255 
0 0 0 
47 47 151 
0 0 0 
120 120 255 
88 88 255 
47 47 151 
97 97 255 
0 0 0 
255 32 255 
0 0 0 
140 84 255 
97 97 255 
248 132 255 
0 0 0 
47 47 151 
84 84 255 
132 116 255 
84 51 164 
84 51 164 
88 88 255 
158 104 255 
47 47 151 
88 88 255 
40 17 182 
64 64 207 
47 47 151 
47 47 151 
83 37 119 
77 77 247 
78 54 255 
0 0 0 
88 88 255 
47 47 151 
98 59 212 
211 39 255 
197 74 238 
0 0 0 
0 0 0 
0 0 0 
0 0 0 
255 138 255 
207 64 64 
151 47 47 
151 47 47 
255 210 211 
72 22 72 
99 30 99 
255 93 93 
151 47 47 
56 17 181 
230 49 60 
207 64 64 
151 47 47 
255 88 88 
255 114 114 
151 47 47 
0 0 0 
250 10 110 
250 78 255 
0 0 0 
151 47 47 
186 58 125 
255 63 151 
255 108 152 
255 221 221 
247 77 77 
56 17 181 
255 50 255 
255 77 77 
255 74 74 
255 46 150 
151 47 47 
255 66 66 
255 53 240 
151 47 47 
255 67 67 
0 0 0 
255 97 97 
255 100 230 
255 170 170 
221 221 221 
255 255 255 
255 99 224 
255 171 255 
255 127 127 
221 221 221 
255 174 174 
255 166 214 
127 127 255 
255 255 255 
231 231 255 
247 77 77 
161 161 161 
255 184 255 
247 77 77 
255 195 255 
255 255 255 
184 184 255 
245 223 245 
255 136 255 
0 0 0 
0 0 0 
0 0 0 
247 77 77 
255 255 255 
255 183 255 
0 0 0 
255 255 255 
255 64 179 
221 221 221 
0 0 0 
255 191 223 
0 0 0 
161 161 161 
255 255 255 
255 210 210 
194 60 137 
255 175 175 
255 184 255 
255 255 255 
255 255 255 
161 161 161 
255 163 181 
0 0 0 
0 0 0 
255 255 255 
161 161 161 
255 255 255 
255 255 255 
255 235 235 
161 161 161 
161 161 161 
255 255 255 
0 0 0 
255 196 255 
221 221 221 
0 0 0 
255 255 255 
161 161 161 
0 0 0 
255 255 255 
255 88 255 
255 255 255 
0 0 0 
255 255 255 
255 255 255 
255 231 231 
255 199 199 
0 0 0 
255 127 127 
255 255 255 
152 128 255 
255 255 255 
255 184 255 
255 255 255 
247 77 77 
221 221 221 
77 77 247 
199 199 255 
255 162 173 
161 161 161 
255 255 255 
0 0 0 
255 255 255 
255 255 255 
161 161 161 
161 161 161 
255 207 207 
255 255 255 
0 0 0 
255 177 255 
255 255 255 
161 161 161 
161 161 161 
207 207 255 
255 255 255 
161 161 161 
221 221 221 
255 199 199 
255 249 249 
255 255 255 
255 255 255 
255 255 255 
161 161 161 
255 47 106 
255 127 255 
255 255 255 
77 77 247 
77 77 247 
0 0 0 
255 255 255 
210 210 255 
255 255 255 
161 161 161 
255 175 175 
255 98 255 
185 162 209 
0 0 0 
161 161 161 
0 0 0 
221 221 221 
0 0 0 
231 231 255 
255 227 255 
161 161 161 
255 231 231 
161 161 161 
255 255 255 
170 170 255 
161 161 161 
221 221 221 
255 255 255 
221 221 221 
0 0 0 
255 255 255 
255 188 255 
255 47 151 
255 255 255 
126 126 255 
255 255 255 
255 216 255 
221 221 221 
0 0 0 
255 255 255 
255 255 255 
199 199 255 
255 255 255 
255 255 255 
255 255 255 
77 77 247 
255 206 206 
255 237 255 
248 77 255 
161 161 161 
255 198 255 
255 175 255 
161 161 161 
255 175 175 
106 47 255 
0 0 0 
0 0 0 
255 255 255 
0 0 0 
255 255 255 
255 175 255 
0 0 0 
0 0 0 
0 0 0 
255 255 255 
221 221 221 
255 255 255 
151 128 255 
255 255 255 
144 144 255 
175 175 255 
161 161 161 
199 199 255 
178 113 255 
255 183 255 
60 60 255 
125 58 186 
255 191 255 
47 47 151 
92 28 209 
118 36 118 
126 126 255 
169 169 255 
224 99 255 
255 102 255 
47 47 151 
97 97 255 
255 217 255 
36 36 255 
103 57 255 
47 47 151 
255 61 255 
77 77 247 
47 47 151 
72 22 72 
51 22 255 
121 38 255 
0 0 0 
0 0 0 
110 83 255 
255 78 255 
151 85 255 
47 47 151 
58 58 255 
33 6 219 
47 47 151 
147 139 255 
58 58 255 
0 0 0 
0 0 0 
0 0 0 
0 0 0 
207 64 64 
255 136 255 
241 64 221 
0 0 0 
0 0 0 
255 213 255 
255 171 255 
247 77 77 
151 47 47 
239 74 142 
255 63 255 
255 143 255 
255 58 58 
207 64 64 
151 47 47 
207 64 64 
255 178 255 
255 128 128 
119 37 83 
255 217 255 
0 0 0 
0 0 0 
255 101 225 
247 77 77 
247 77 77 
255 168 255 
255 140 255 
255 155 155 
255 160 255 
151 47 47 
0 0 0 
255 78 192 
151 47 47 
0 0 0 
151 47 47 
164 51 84 
255 36 36 
255 58 58 
255 88 88 
0 0 0 
0 0 0 
255 255 255 
221 221 221 
161 161 161 
255 217 255 
0 0 0 
0 0 0 
255 126 126 
255 255 255 
255 255 255 
255 199 199 
161 161 161 
255 255 255 
0 0 0 
255 162 181 
255 255 255 
255 122 255 
199 199 255 
0 0 0 
0 0 0 
188 188 255 
221 221 221 
0 0 0 
0 0 0 
161 161 161 
255 126 126 
161 161 161 
255 255 255 
0 0 0 
255 144 144 
255 255 255 
255 255 255 
255 255 255 
161 161 161 
0 0 0 
0 0 0 
0 0 0 
0 0 0 
221 221 221 
255 255 255 
255 255 255 
255 255 255 
0 0 0 
255 166 188 
255 255 255 
161 161 161 
255 255 255 
255 227 254 
255 177 255 
0 0 0 
221 221 221 
255 233 233 
255 126 126 
255 255 255 
255 249 249 
255 255 255 
255 205 255 
0 0 0 
0 0 0 
0 0 0 
161 161 161 
255 255 255 
221 221 221 
255 199 255 
161 161 161 
222 222 255 
255 175 175 
255 249 249 
221 221 221 
221 221 221 
255 255 255 
255 255 255 
161 161 161 
255 199 199 
221 221 221 
255 255 255 
161 161 161 
255 231 231 
245 170 205 
184 184 255 
221 221 221 
206 206 255 
0 0 0 
161 161 161 
161 161 161 
255 255 255 
0 0 0 
255 255 255 
0 0 0 
255 255 255 
161 161 161 
0 0 0 
189 37 255 
0 0 0 
221 221 221 
255 255 255 
255 255 255 
255 255 255 
255 255 255 
255 255 255 
221 221 221 
255 255 255 
221 221 221 
255 199 199 
255 255 255 
255 105 255 
255 255 255 
255 210 255 
77 77 247 
0 0 0 
255 255 255 
255 255 255 
255 255 255 
0 0 0 
255 229 255 
255 227 254 
161 161 161 
161 161 161 
247 77 77 
255 255 255 
77 77 255 
255 230 255 
0 0 0 
255 255 255 
255 255 255 
0 0 0 
255 199 199 
255 231 231 
255 199 255 
65 28 255 
0 0 0 
255 255 255 
255 255 255 
199 199 255 
255 255 255 
0 0 0 
0 0 0 
255 255 255 
255 255 255 
161 161 161 
0 0 0 
255 255 255 
255 255 255 
255 255 255 
255 255 255 
175 175 255 
221 221 221 
83 36 255 
77 77 247 
255 255 255 
255 255 255 
221 221 221 
0 0 0 
184 184 255 
0 0 0 
161 161 161 
150 46 255 
107 47 255 
255 255 255 
193 60 193 
0 0 0 
0 0 0 
255 255 255 
255 173 255 
254 227 255 
255 99 224 
0 0 0 
161 161 161 
255 255 255 
255 255 255 
255 255 255 
255 184 255 
231 231 255 
0 0 0 
0 0 0 
0 0 0 
0 0 0 
0 0 0 
0 0 0 
193 60 193 
0 0 0 
108 48 201 
118 36 118 
47 47 151 
149 21 222 
143 93 255 
255 60 255 
88 88 255 
105 105 255 
137 83 255 
142 61 255 
255 155 255 
102 72 233 
255 133 255 
193 60 193 
255 98 255 
255 166 255 
123 91 255 
243 105 255 
132 79 255 
118 93 255 
0 0 0 
188 52 255 
81 77 255 
131 110 255 
148 102 255 
94 67 216 
0 0 0 
230 230 255 
255 53 255 
0 0 0 
255 210 255 
0 0 0 
0 0 0 
0 0 0 
0 0 0 
0 0 0 
255 54 54 
255 88 88 
0 0 0 
255 88 88 
207 64 64 
255 134 134 
255 10 34 
72 22 72 
255 107 124 
151 47 47 
247 77 77 
255 88 88 
151 47 47 
255 69 69 
255 68 68 
255 113 113 
0 0 0 
249 77 255 
249 77 77 
255 209 209 
255 128 142 
151 47 47 
255 97 97 
255 67 67 
207 64 64 
247 77 77 
0 0 0 
247 77 77 
0 0 0 
255 100 119 
255 98 98 
255 94 143 
151 47 47 
255 255 255 
255 60 60 
247 77 77 
0 0 0 
72 22 72 
0 0 0 
255 155 255 
255 255 255 
0 0 0 
255 255 255 
255 255 255 
255 222 255 
0 0 0 
0 0 0 
255 255 255 
255 199 199 
0 0 0 
221 221 221 
255 255 255 
161 161 161 
255 255 255 
0 0 0 
255 60 60 
161 161 161 
255 255 255 
255 95 182 
161 161 161 
161 161 161 
0 0 0 
161 161 161 
118 36 118 
161 161 161 
255 255 255 
255 206 206 
255 255 255 
255 175 175 
255 126 126 
0 0 0 
221 221 221 
255 255 255 
255 255 255 
255 255 255 
0 0 0 
0 0 0 
255 255 255 
161 161 161 
199 199 255 
0 0 0 
255 255 255 
0 0 0 
60 60 255 
255 255 255 
255 255 255 
255 143 255 
255 199 199 
255 190 255 
255 255 255 
77 77 247 
255 105 105 
255 255 255 
199 199 255 
0 0 0 
255 255 255 
255 255 255 
255 105 105 
168 131 255 
161 161 161 
255 240 255 
221 221 221 
255 164 255 
161 161 161 
0 0 0 
161 161 161 
255 255 255 
0 0 0 
161 161 161 
170 170 255 
65 28 255 
161 161 161 
77 77 247 
0 0 0 
161 161 161 
255 255 255 
255 255 255 
255 255 255 
0 0 0 
0 0 0 
0 0 0 
161 161 161 
0 0 0 
77 77 247 
161 161 161 
175 175 255 
254 254 255 
0 0 0 
247 77 77 
255 231 231 
255 255 255 
221 221 221 
255 255 255 
255 255 255 
161 161 161 
255 199 199 
247 77 77 
161 161 161 
255 255 255 
255 216 255 
255 255 255 
0 0 0 
77 77 247 
255 255 255 
255 255 255 
221 221 221 
161 161 161 
221 221 221 
161 161 161 
255 255 255 
193 60 193 
161 161 161 
230 175 255 
0 0 0 
255 199 199 
255 230 230 
252 10 78 
161 161 161 
255 255 255 
255 255 255 
77 77 247 
255 255 255 
231 231 255 
231 231 255 
255 255 255 
188 188 255 
255 255 255 
255 255 255 
221 221 221 
255 158 255 
255 255 255 
221 221 221 
255 97 255 
255 255 255 
161 161 161 
255 249 249 
255 255 255 
161 161 161 
255 255 255 
0 0 0 
240 240 255 
161 161 161 
0 0 0 
255 255 255 
221 221 221 
0 0 0 
255 255 255 
0 0 0 
175 175 255 
0 0 0 
194 60 137 
255 212 255 
0 0 0 
255 154 255 
118 36 118 
121 121 255 
255 255 255 
255 217 255 
161 161 161 
255 227 255 
230 22 230 
0 0 0 
255 145 255 
77 77 247 
255 255 255 
199 199 255 
221 221 221 
255 255 255 
255 177 255 
86 65 255 
175 175 255 
0 0 0 
255 215 255 
255 144 255 
0 0 0 
166 127 255 
56 17 255 
100 69 255 
175 175 255 
0 0 0 
0 0 0 
255 121 255 
144 144 255 
47 47 151 
0 0 0 
47 47 151 
56 17 181 
0 0 0 
255 255 255 
77 77 247 
255 174 255 
0 0 0 
86 8 86 
253 48 182 
158 69 255 
110 83 255 
94 89 255 
40 17 182 
0 0 0 
99 90 255 
0 0 0 
77 77 247 
83 66 238 
233 51 255 
83 37 119 
72 22 72 
56 48 182 
80 27 193 
64 64 207 
64 64 207 
64 64 207 
0 0 0 
0 0 0 
0 0 0 
0 0 0 
255 57 103 
255 88 88 
255 94 94 
213 66 189 
207 64 64 
151 47 47 
207 64 64 
216 67 94 
238 74 197 
255 188 188 
255 53 101 
255 142 142 
255 47 58 
255 93 118 
207 64 64 
0 0 0 
247 77 77 
151 47 47 
207 64 64 
118 36 118 
255 160 160 
255 107 107 
255 58 255 
151 47 47 
255 105 255 
151 47 47 
247 77 77 
0 0 0 
255 50 50 
255 174 255 
255 58 58 
239 74 142 
247 77 77 
255 100 100 
247 77 77 
159 49 134 
255 88 88 
151 47 47 
0 0 0 
161 161 161 
0 0 0 
255 184 255 
217 6 47 
0 0 0 
255 255 255 
255 255 255 
0 0 0 
255 177 249 
255 98 255 
0 0 0 
161 161 161 
0 0 0 
255 164 164 
255 175 175 
245 223 245 
255 255 255 
255 255 255 
255 255 255 
255 47 106 
0 0 0 
0 0 0 
221 221 221 
255 126 126 
255 255 255 
255 255 255 
255 105 105 
255 211 249 
255 201 255 
255 255 255 
255 216 216 
0 0 0 
255 175 175 
255 175 175 
247 77 77 
247 77 77 
0 0 0 
255 255 255 
255 196 255 
255 255 255 
255 220 255 
0 0 0 
247 77 77 
255 255 255 
106 47 255 
255 197 197 
255 255 255 
0 0 0 
255 255 255 
255 199 199 
161 161 161 
0 0 0 
0 0 0 
161 161 161 
161 161 161 
255 255 255 
0 0 0 
255 255 255 
255 255 255 
161 161 161 
255 255 255 
255 255 255 
255 207 207 
0 0 0 
221 221 221 
255 125 255 
161 161 161 
161 161 161 
0 0 0 
221 221 221 
255 255 255 
255 255 255 
221 221 221 
0 0 0 
255 255 255 
255 105 255 
175 175 255 
0 0 0 
175 175 255 
161 161 161 
255 255 255 
161 161 161 
255 255 255 
161 161 161 
0 0 0 
255 22 51 
255 175 175 
255 255 255 
255 255 255 
0 0 0 
77 77 247 
221 221 221 
255 255 255 
255 199 199 
255 255 255 
255 17 128 
255 127 127 
161 161 161 
161 161 161 
161 161 161 
161 161 161 
255 249 249 
161 161 161 
255 153 255 
255 255 255 
255 126 126 
0 0 0 
255 231 255 
161 161 161 
161 161 161 
255 255 255 
255 255 255 
0 0 0 
0 0 0 
255 255 255 
255 127 255 
255 224 255 
255 255 255 
178 164 255 
255 255 255 
161 161 161 
255 184 184 
255 222 255 
255 196 255 
255 255 255 
255 255 255 
161 161 161 
255 255 255 
0 0 0 
255 206 206 
161 161 161 
255 255 255 
255 255 255 
0 0 0 
255 191 255 
255 22 22 
255 145 255 
255 222 255 
221 221 221 
255 255 255 
221 221 221 
255 210 255 
255 217 255 
255 103 255 
255 127 127 
161 161 161 
175 175 255 
161 161 161 
231 231 255 
0 0 0 
255 60 255 
199 199 255 
161 161 161 
0 0 0 
255 255 255 
161 161 161 
238 238 255 
255 127 255 
182 163 255 
255 169 238 
255 204 255 
255 175 255 
0 0 0 
255 255 255 
255 255 255 
255 88 255 
0 0 0 
0 0 0 
161 161 161 
0 0 0 
187 105 255 
0 0 0 
0 0 0 
255 255 255 
206 206 255 
206 200 255 
161 161 161 
255 255 255 
0 0 0 
0 0 0 
216 216 255 
0 0 0 
47 47 151 
116 116 255 
47 47 151 
72 22 72 
58 58 255 
64 64 207 
107 107 255 
77 77 247 
216 216 255 
255 128 255 
173 35 255 
137 60 194 
140 61 255 
96 47 170 
94 67 216 
0 0 0 
88 88 255 
88 88 255 
64 64 207 
64 64 207 
83 37 119 
74 66 255 
177 64 255 
131 72 233 
157 78 255 
90 50 255 
55 48 255 
47 47 151 
92 28 209 
255 169 255 
47 47 151 
64 64 207 
0 0 0 
0 0 0 
0 0 0 
0 0 0 
255 255 255 
255 85 201 
151 47 47 
164 51 84 
255 133 133 
207 64 64 
255 103 149 
255 98 98 
207 64 64 
151 47 47 
230 49 255 
255 170 255 
164 51 84 
255 135 145 
255 106 106 
164 51 84 
255 129 129 
207 64 64 
255 105 105 
216 67 94 
255 90 244 
0 0 0 
255 90 197 
0 0 0 
255 206 211 
255 100 119 
0 0 0 
255 255 255 
0 0 0 
255 215 255 
255 64 244 
151 47 47 
0 0 0 
186 58 125 
207 64 64 
0 0 0 
151 47 255 
0 0 0 
118 36 118 
255 162 193 
161 161 161 
255 105 105 
255 255 255 
255 47 151 
255 255 255 
0 0 0 
0 0 0 
216 216 255 
255 175 175 
0 0 0 
255 255 255 
255 255 255 
255 178 205 
0 0 0 
161 161 161 
161 161 161 
255 129 255 
255 172 172 
255 105 105 
255 249 249 
255 255 255 
255 255 255 
255 206 255 
221 221 221 
0 0 0 
255 255 255 
255 255 255 
255 191 255 
161 161 161 
255 199 199 
0 0 0 
161 161 161 
161 161 161 
0 0 0 
221 221 221 
247 77 77 
255 175 230 
255 175 175 
161 161 161 
0 0 0 
255 206 235 
161 161 161 
0 0 0 
255 255 255 
255 231 231 
255 255 255 
0 0 0 
0 0 0 
255 255 255 
255 83 137 
255 255 255 
0 0 0 
247 77 77 
255 255 255 
255 184 255 
255 224 255 
161 161 161 
0 0 0 
0 0 0 
0 0 0 
77 77 247 
255 255 255 
0 0 0 
255 255 255 
255 255 255 
255 255 255 
161 161 161 
0 0 0 
255 255 255 
255 127 255 
247 77 77 
255 255 255 
255 47 151 
255 255 255 
247 77 77 
181 17 56 
0 0 0 
0 0 0 
255 254 255 
161 161 161 
161 161 161 
221 221 221 
255 255 255 
255 255 255 
161 161 161 
255 255 255 
0 0 0 
255 255 255 
255 218 255 
0 0 0 
0 0 0 
255 255 255 
221 221 221 
255 199 199 
0 0 0 
175 175 255 
207 207 255 
255 255 255 
0 0 0 
0 0 0 
221 221 221 
255 222 255 
255 255 255 
161 161 161 
98 98 255 
255 170 170 
255 255 255 
255 255 255 
255 76 246 
161 161 161 
255 255 255 
0 0 0 
161 161 161 
254 227 255 
255 255 255 
0 0 0 
77 77 247 
0 0 0 
221 221 221 
228 223 255 
77 77 247 
247 77 77 
221 221 221 
255 255 255 
255 210 255 
221 221 221 
175 175 255 
255 162 255 
161 161 161 
255 183 253 
255 255 255 
137 60 194 
161 161 161 
247 77 77 
247 77 77 
255 174 255 
255 255 255 
206 206 255 
188 166 255 
161 161 161 
214 166 255 
221 221 221 
255 136 136 
255 255 255 
184 184 255 
0 0 0 
240 188 255 
255 255 255 
161 161 161 
255 255 255 
255 189 255 
255 255 255 
0 0 0 
161 161 161 
118 36 118 
0 0 0 
161 161 161 
255 255 255 
0 0 0 
255 255 255 
0 0 0 
255 255 255 
221 221 221 
221 221 221 
255 255 255 
255 255 255 
170 170 255 
194 164 194 
255 255 255 
126 126 255 
0 0 0 
255 255 255 
175 175 255 
255 105 255 
161 161 161 
0 0 0 
143 93 255 
255 108 255 
83 83 255 
115 95 255 
106 106 255 
193 78 252 
47 47 151 
92 28 255 
201 43 255 
47 47 151 
0 0 0 
64 64 207 
255 253 255 
199 146 255 
180 147 255 
0 0 0 
235 51 216 
131 58 255 
92 28 255 
0 0 0 
0 0 0 
137 61 255 
0 0 0 
106 106 255 
199 81 255 
47 47 151 
77 77 247 
137 118 255 
107 85 255 
0 0 0 
127 61 255 
255 255 255 
255 105 255 
93 58 187 
72 22 72 
0 0 0 
0 0 0 
0 0 0 
0 0 0 
255 70 82 
244 65 152 
255 84 137 
255 84 255 
249 77 77 
151 47 47 
151 47 47 
255 77 121 
255 88 255 
207 64 64 
0 0 0 
0 0 0 
193 60 193 
0 0 0 
255 114 114 
216 67 94 
255 77 121 
233 72 102 
255 85 199 
255 46 150 
255 160 160 
207 64 64 
0 0 0 
182 17 40 
0 0 0 
151 47 47 
255 139 152 
0 0 0 
255 88 88 
247 77 77 
207 64 64 
255 13 255 
151 47 47 
255 77 82 
255 104 104 
186 58 125 
255 79 255 
0 0 0 
255 69 69 
255 160 255 
255 126 126 
255 255 255 
255 127 127 
255 164 255 
244 170 244 
0 0 0 
255 173 255 
255 255 255 
255 175 175 
0 0 0 
255 170 170 
255 230 230 
221 221 221 
221 221 221 
255 162 255 
255 239 255 
255 255 255 
0 0 0 
255 255 255 
221 221 221 
255 126 126 
255 255 255 
255 255 255 
255 170 170 
255 255 255 
0 0 0 
77 77 247 
221 221 221 
255 255 255 
255 255 255 
210 210 255 
255 126 126 
221 221 221 
255 196 255 
0 0 0 
0 0 0 
184 184 255 
255 255 255 
0 0 0 
0 0 0 
221 221 221 
255 199 199 
247 77 77 
255 255 255 
255 255 255 
255 255 255 
255 255 255 
0 0 0 
255 255 255 
118 36 118 
161 161 161 
255 255 255 
161 161 161 
0 0 0 
161 161 161 
0 0 0 
255 255 255 
255 77 174 
255 255 255 
0 0 0 
0 0 0 
0 0 0 
255 254 254 
0 0 0 
161 161 161 
127 127 255 
0 0 0 
255 255 255 
255 255 255 
161 161 161 
161 161 161 
0 0 0 
255 199 199 
0 0 0 
175 175 255 
255 255 255 
0 0 0 
161 161 161 
221 221 221 
255 184 255 
255 255 255 
255 255 255 
249 203 255 
255 199 199 
0 0 0 
0 0 0 
161 161 161 
255 255 255 
255 199 199 
0 0 0 
247 77 77 
161 161 161 
255 254 254 
161 161 161 
255 255 255 
0 0 0 
255 227 255 
161 161 161 
60 60 255 
255 127 127 
0 0 0 
161 161 161 
255 255 255 
0 0 0 
221 221 221 
161 161 161 
161 161 161 
255 207 207 
0 0 0 
127 127 255 
161 161 161 
155 155 255 
0 0 0 
161 161 161 
0 0 0 
0 0 0 
193 60 193 
161 161 161 
255 255 255 
0 0 0 
255 105 255 
255 255 255 
255 255 255 
255 175 175 
0 0 0 
161 161 161 
255 255 255 
161 161 161 
255 255 255 
0 0 0 
255 255 255 
255 255 255 
0 0 0 
255 255 255 
118 36 118 
255 255 255 
161 161 161 
255 255 255 
0 0 0 
161 161 161 
194 164 194 
77 77 247 
0 0 0 
255 255 255 
255 207 207 
77 77 247 
255 199 255 
255 255 255 
167 129 255 
255 60 60 
255 255 255 
184 184 255 
255 125 255 
255 127 127 
0 0 0 
0 0 0 
255 255 255 
161 161 161 
137 60 194 
106 47 255 
255 254 254 
0 0 0 
206 206 255 
255 183 255 
255 162 255 
254 227 255 
174 77 255 
137 60 194 
0 0 0 
255 255 255 
255 106 255 
0 0 0 
0 0 0 
224 136 255 
175 175 255 
161 161 161 
255 108 255 
255 30 98 
47 47 151 
146 67 215 
0 0 0 
0 0 0 
0 0 0 
224 94 255 
110 10 250 
255 88 255 
71 49 229 
47 47 151 
255 104 255 
47 47 151 
47 47 151 
200 85 255 
85 78 255 
47 47 151 
147 130 255 
47 47 151 
47 47 151 
255 164 255 
255 104 255 
55 48 255 
47 47 151 
60 49 230 
68 60 255 
77 77 249 
58 58 255 
195 40 129 
64 64 207 
255 64 208 
47 47 151 
34 10 110 
77 77 249 
47 47 151 
47 47 151 
103 80 255 
0 0 0 
0 0 0 
0 0 0 
249 77 77 
240 37 132 
255 85 151 
172 51 117 
255 149 255 
255 132 132 
255 63 91 
255 67 168 
151 47 47 
255 60 60 
255 87 255 
255 138 138 
255 72 72 
207 64 64 
151 47 47 
207 64 64 
255 255 255 
0 0 0 
0 0 0 
255 88 88 
255 88 88 
255 133 133 
149 46 255 
255 88 88 
207 64 64 
0 0 0 
255 70 190 
255 97 97 
255 95 156 
255 107 255 
255 67 128 
255 36 36 
186 58 125 
151 47 47 
151 47 47 
255 76 246 
255 79 102 
0 0 0 
255 238 238 
0 0 0 
0 0 0 
255 126 126 
255 255 255 
163 22 232 
255 98 98 
255 255 255 
255 175 175 
161 161 161 
255 255 255 
255 255 255 
255 201 225 
255 175 175 
255 47 255 
247 77 77 
255 183 183 
161 161 161 
0 0 0 
0 0 0 
255 255 255 
161 161 161 
193 162 255 
255 255 255 
255 188 188 
255 255 255 
247 77 77 
255 255 255 
161 161 161 
221 221 221 
161 161 161 
255 255 255 
255 175 175 
247 77 77 
255 126 126 
247 77 77 
244 170 244 
0 0 0 
161 161 161 
255 255 255 
255 180 200 
77 77 247 
0 0 0 
0 0 0 
127 127 255 
255 255 255 
161 161 161 
161 161 161 
214 166 255 
255 255 255 
255 255 255 
255 126 126 
255 76 76 
221 221 221 
255 255 255 
255 255 255 
255 175 175 
161 161 161 
161 161 161 
0 0 0 
255 255 255 
255 255 255 
255 255 255 
255 255 255 
255 255 255 
0 0 0 
255 175 175 
255 206 206 
255 214 255 
255 184 184 
0 0 0 
221 221 221 
161 161 161 
0 0 0 
255 255 255 
255 255 255 
255 255 255 
0 0 0 
161 161 161 
255 255 255 
255 255 255 
255 255 255 
161 161 161 
255 255 255 
161 161 161 
255 255 255 
255 77 248 
255 240 255 
175 175 255 
255 240 255 
0 0 0 
255 214 255 
255 255 255 
255 218 218 
255 255 255 
0 0 0 
255 255 255 
231 231 255 
255 162 255 
247 77 77 
255 255 255 
255 210 210 
255 175 255 
255 255 255 
255 134 199 
255 255 255 
137 60 194 
0 0 0 
255 206 255 
255 175 175 
126 126 255 
255 130 255 
171 163 255 
255 255 255 
255 175 255 
255 241 255 
255 60 60 
0 0 0 
118 36 118 
77 77 247 
161 161 161 
255 255 255 
255 255 255 
199 199 255 
255 255 255 
255 255 255 
0 0 0 
221 221 221 
255 255 255 
255 199 199 
161 161 161 
255 255 255 
255 255 255 
255 255 255 
0 0 0 
0 0 0 
255 255 255 
161 161 161 
255 255 255 
255 255 255 
255 122 255 
255 255 255 
0 0 0 
255 255 255 
247 77 77 
255 255 255 
0 0 0 
161 161 161 
221 167 221 
206 206 255 
0 0 0 
255 255 255 
77 77 247 
161 161 161 
0 0 0 
77 77 247 
195 174 255 
0 0 0 
0 0 0 
255 230 255 
255 255 255 
255 162 255 
0 0 0 
0 0 0 
98 98 255 
77 77 247 
255 234 255 
77 77 247 
227 227 255 
161 161 161 
77 77 247 
255 164 255 
255 162 255 
231 231 255 
0 0 0 
0 0 0 
255 201 225 
224 99 255 
0 0 0 
255 255 255 
72 22 72 
255 255 255 
47 47 151 
31 13 255 
0 0 0 
192 134 255 
0 0 0 
99 67 255 
123 40 211 
0 0 0 
255 13 255 
0 0 0 
0 0 0 
255 255 255 
83 54 255 
64 64 207 
64 64 207 
0 0 0 
77 77 249 
64 64 207 
132 132 255 
255 52 255 
125 58 186 
72 22 72 
47 47 151 
116 85 255 
65 29 211 
72 64 255 
197 74 238 
155 93 255 
143 129 255 
193 60 193 
0 0 0 
125 58 186 
83 37 119 
0 0 0 
0 0 0 
151 47 47 
151 47 47 
255 255 255 
255 77 160 
255 180 182 
255 67 132 
0 0 0 
255 78 85 
255 255 255 
255 255 255 
255 86 170 
255 107 107 
207 64 64 
164 51 84 
255 114 114 
255 88 88 
194 60 137 
0 0 0 
151 47 47 
0 0 0 
255 100 170 
255 114 114 
255 105 105 
255 97 97 
255 36 36 
255 77 77 
255 112 255 
255 95 95 
255 113 164 
151 47 47 
255 110 255 
0 0 0 
192 49 71 
255 156 255 
255 136 158 
255 88 96 
255 72 72 
0 0 0 
0 0 0 
0 0 0 
255 254 254 
255 255 255 
0 0 0 
255 255 255 
0 0 0 
255 249 255 
255 206 206 
207 207 255 
0 0 0 
221 221 221 
255 235 235 
0 0 0 
255 199 199 
255 255 255 
255 255 255 
255 222 255 
255 160 255 
255 241 255 
255 98 98 
255 255 255 
0 0 0 
0 0 0 
255 255 255 
255 144 255 
255 255 255 
244 162 244 
207 207 255 
255 28 28 
255 121 121 
247 77 77 
0 0 0 
255 217 255 
255 206 206 
255 255 255 
255 255 255 
255 205 235 
194 164 194 
161 161 161 
255 126 126 
255 255 255 
255 255 255 
255 227 255 
255 249 249 
0 0 0 
0 0 0 
0 0 0 
255 127 127 
255 164 178 
161 161 161 
255 255 255 
255 255 255 
161 161 161 
255 60 255 
255 223 236 
255 230 255 
255 255 255 
0 0 0 
255 145 255 
161 161 161 
255 255 255 
161 161 161 
221 221 221 
255 255 255 
255 255 255 
255 255 255 
161 161 161 
161 161 161 
221 221 221 
243 169 255 
231 231 255 
255 255 255 
221 221 221 
255 231 231 
0 0 0 
255 36 255 
161 161 161 
255 255 255 
255 175 175 
255 255 255 
255 159 255 
255 255 255 
161 161 161 
161 161 161 
255 210 210 
255 175 175 
0 0 0 
255 255 255 
255 255 255 
255 175 175 
255 254 254 
255 255 255 
221 221 255 
255 221 225 
0 0 0 
199 199 255 
0 0 0 
0 0 0 
0 0 0 
255 199 199 
255 231 231 
255 78 176 
161 161 161 
0 0 0 
161 161 161 
255 255 255 
161 161 161 
126 126 255 
250 211 255 
126 126 255 
161 161 161 
0 0 0 
221 221 221 
161 161 161 
161 161 161 
255 220 255 
161 161 161 
230 175 255 
0 0 0 
255 237 255 
161 161 161 
255 255 255 
0 0 0 
0 0 0 
249 249 255 
175 175 255 
255 255 255 
255 127 127 
205 178 255 
161 161 161 
255 255 255 
255 255 255 
255 207 207 
144 144 255 
221 221 221 
161 161 161 
255 199 199 
255 255 255 
161 161 161 
255 255 255 
161 161 161 
255 255 255 
205 170 245 
161 161 161 
255 255 255 
0 0 0 
255 255 255 
0 0 0 
255 127 127 
255 255 255 
126 126 255 
247 77 77 
0 0 0 
77 77 247 
193 60 193 
0 0 0 
214 166 255 
255 255 255 
255 255 255 
175 175 255 
199 199 255 
60 60 255 
255 207 207 
0 0 0 
126 126 255 
255 255 255 
165 161 255 
161 161 161 
161 161 161 
161 161 161 
0 0 0 
255 255 255 
0 0 0 
0 0 0 
247 77 77 
77 77 247 
126 126 255 
161 161 161 
201 82 255 
65 28 255 
0 0 0 
242 140 255 
77 77 247 
90 61 255 
104 104 255 
72 22 72 
247 137 255 
93 58 187 
77 77 249 
138 138 255 
206 145 255 
197 74 238 
72 22 72 
90 49 250 
72 72 255 
153 130 255 
111 111 255 
47 47 151 
47 47 151 
150 82 255 
156 87 255 
47 47 151 
64 64 207 
58 58 255 
47 47 151 
47 47 151 
128 79 255 
0 0 0 
84 51 164 
255 255 255 
143 93 255 
72 22 72 
205 53 255 
209 209 255 
60 49 230 
0 0 0 
0 0 0 
255 94 255 
0 0 0 
151 47 47 
0 0 0 
151 47 47 
151 47 47 
255 58 58 
207 64 64 
151 47 47 
209 28 92 
151 47 47 
72 22 72 
255 120 120 
255 95 95 
247 77 77 
255 67 128 
164 51 84 
255 72 72 
255 88 93 
255 80 138 
255 132 132 
151 47 47 
207 64 64 
255 47 79 
0 0 0 
255 255 255 
255 95 95 
0 0 0 
118 36 118 
0 0 0 
0 0 0 
255 60 78 
255 95 204 
0 0 0 
255 78 92 
255 36 36 
255 37 37 
255 88 88 
192 49 71 
0 0 0 
255 196 196 
255 175 175 
161 161 161 
255 255 255 
255 172 172 
255 144 255 
106 47 255 
0 0 0 
255 175 175 
161 161 161 
161 161 161 
0 0 0 
206 206 255 
0 0 0 
161 161 161 
255 255 255 
255 255 255 
255 255 255 
0 0 0 
255 255 255 
255 183 255 
161 161 161 
255 255 255 
255 229 229 
161 161 161 
255 175 175 
255 255 255 
255 255 255 
0 0 0 
255 255 255 
0 0 0 
255 255 255 
0 0 0 
255 210 255 
255 255 255 
0 0 0 
255 255 255 
255 173 255 
255 98 255 
255 255 255 
255 249 249 
175 175 255 
161 161 161 
255 255 255 
255 231 231 
255 255 255 
255 255 255 
255 144 144 
0 0 0 
0 0 0 
255 234 234 
0 0 0 
161 161 161 
255 238 255 
0 0 0 
255 255 255 
161 161 161 
161 161 161 
221 221 221 
255 255 255 
0 0 0 
161 161 161 
161 161 161 
255 255 255 
255 254 254 
221 221 221 
255 255 255 
0 0 0 
221 221 221 
0 0 0 
255 255 255 
255 255 255 
118 36 118 
161 161 161 
255 255 255 
118 36 118 
255 255 255 
161 161 161 
255 255 255 
255 241 255 
255 255 255 
161 161 161 
255 255 255 
255 255 255 
161 161 161 
255 175 175 
255 255 255 
221 221 221 
255 255 255 
161 161 161 
255 255 255 
0 0 0 
161 161 161 
255 255 255 
255 170 240 
255 255 255 
255 172 172 
255 199 199 
161 161 161 
255 105 105 
255 231 231 
0 0 0 
255 255 255 
255 255 255 
255 255 255 
0 0 0 
161 161 161 
161 161 161 
0 0 0 
0 0 0 
255 199 199 
0 0 0 
161 161 161 
199 199 255 
0 0 0 
255 255 255 
255 255 255 
0 0 0 
161 161 161 
199 199 255 
0 0 0 
249 249 255 
255 78 176 
249 249 255 
255 255 255 
126 126 255 
161 161 161 
199 199 255 
255 206 255 
0 0 0 
255 255 255 
255 218 218 
255 47 106 
255 255 255 
0 0 0 
255 210 255 
118 36 118 
255 255 255 
181 138 255 
0 0 0 
255 255 255 
255 87 255 
255 255 255 
255 255 255 
144 144 255 
0 0 0 
255 255 255 
205 170 245 
127 127 255 
122 54 255 
255 207 207 
255 255 255 
0 0 0 
255 198 255 
56 17 181 
161 161 161 
175 175 255 
255 208 255 
161 161 161 
255 207 207 
77 77 247 
137 60 194 
255 184 255 
77 77 247 
206 206 255 
0 0 0 
255 175 175 
255 255 255 
255 240 255 
161 161 161 
255 177 255 
221 221 221 
214 206 255 
255 228 255 
255 255 255 
221 221 221 
255 108 255 
132 94 255 
0 0 0 
77 77 247 
195 68 255 
36 36 255 
114 114 255 
255 255 255 
49 21 255 
255 213 255 
255 255 255 
255 217 255 
187 82 255 
64 64 207 
224 99 255 
47 47 151 
72 22 72 
255 86 255 
0 0 0 
101 69 255 
77 77 247 
47 47 151 
224 214 255 
0 0 0 
40 17 182 
47 47 151 
145 74 255 
64 64 207 
0 0 0 
88 88 255 
92 89 255 
0 0 0 
184 142 255 
77 77 249 
132 72 255 
36 36 255 
125 94 255 
47 47 151 
221 107 255 
0 0 0 
255 58 58 
255 74 143 
0 0 0 
151 47 47 
255 97 97 
255 36 36 
151 47 47 
207 64 64 
151 47 47 
255 36 36 
255 84 137 
182 17 40 
255 97 97 
255 79 135 
255 64 65 
255 97 101 
255 81 117 
207 64 64 
151 47 47 
255 127 255 
255 154 154 
207 64 64 
255 17 45 
249 77 77 
255 255 255 
164 51 84 
255 77 174 
255 46 46 
255 88 88 
0 0 0 
0 0 0 
247 77 77 
0 0 0 
255 144 144 
255 104 133 
181 17 56 
72 22 72 
255 63 255 
0 0 0 
255 199 199 
161 161 161 
255 255 255 
255 255 255 
0 0 0 
255 255 255 
255 255 255 
0 0 0 
255 206 206 
255 188 188 
255 255 255 
255 255 255 
0 0 0 
0 0 0 
0 0 0 
175 175 255 
161 161 161 
255 255 255 
255 175 175 
161 161 161 
0 0 0 
0 0 0 
255 255 255 
255 249 249 
255 170 170 
255 177 194 
255 105 105 
255 231 231 
0 0 0 
255 112 255 
255 83 137 
255 126 126 
255 255 255 
255 17 255 
255 178 205 
0 0 0 
161 161 161 
255 255 255 
255 230 255 
255 121 255 
0 0 0 
255 255 255 
255 255 255 
255 254 254 
255 255 255 
255 255 255 
255 196 196 
47 47 255 
255 255 255 
247 77 77 
161 161 161 
161 161 161 
255 65 215 
255 60 60 
0 0 0 
255 255 255 
255 255 255 
255 255 255 
255 255 255 
221 221 221 
0 0 0 
161 161 161 
161 161 161 
161 161 161 
255 255 255 
221 221 221 
255 255 255 
255 255 255 
0 0 0 
60 60 255 
255 189 255 
161 161 161 
255 60 60 
255 255 255 
255 222 255 
221 221 221 
221 221 221 
161 161 161 
255 255 255 
0 0 0 
126 126 255 
221 221 221 
0 0 0 
255 164 194 
255 255 255 
255 255 255 
255 255 255 
0 0 0 
255 255 255 
255 255 255 
255 138 138 
255 175 255 
255 255 255 
161 161 161 
247 77 77 
255 255 255 
255 255 255 
253 253 255 
255 255 255 
161 161 161 
255 255 255 
199 199 255 
255 126 126 
255 162 255 
60 60 255 
161 161 161 
221 221 221 
199 199 255 
255 225 255 
161 161 161 
0 0 0 
0 0 0 
255 255 255 
221 221 221 
255 207 207 
161 161 161 
0 0 0 
255 255 255 
255 255 255 
0 0 0 
228 223 255 
0 0 0 
255 255 255 
216 183 255 
255 255 255 
247 77 77 
255 255 255 
255 255 255 
0 0 0 
255 255 255 
0 0 0 
161 161 161 
161 161 161 
0 0 0 
0 0 0 
255 255 255 
255 220 255 
161 161 161 
161 161 161 
0 0 0 
0 0 0 
255 255 255 
255 238 255 
0 0 0 
255 255 255 
255 164 255 
255 255 255 
255 177 255 
175 175 255 
65 28 255 
255 255 255 
221 221 221 
0 0 0 
255 255 255 
0 0 0 
193 177 255 
0 0 0 
255 255 255 
235 235 255 
0 0 0 
255 105 255 
255 22 72 
255 147 255 
175 175 255 
137 60 194 
126 126 255 
77 77 247 
60 60 255 
255 255 255 
255 207 207 
0 0 0 
255 255 255 
193 60 193 
255 255 255 
255 255 255 
0 0 0 
255 255 255 
244 170 244 
77 77 247 
0 0 0 
62 48 255 
248 77 255 
0 0 0 
178 167 255 
77 77 247 
47 47 151 
0 0 0 
142 74 239 
0 0 0 
164 78 255 
126 126 255 
150 46 255 
83 37 119 
64 64 207 
206 155 255 
47 47 151 
0 0 0 
255 60 255 
0 0 0 
64 64 207 
88 88 255 
0 0 0 
47 47 151 
47 47 151 
115 85 255 
118 36 118 
64 64 207 
83 37 119 
47 47 151 
202 54 255 
0 0 0 
47 47 151 
255 58 255 
84 51 164 
125 58 255 
255 79 255 
0 0 0 
255 65 68 
151 47 47 
207 64 64 
181 17 56 
99 30 99 
255 104 249 
118 36 118 
255 58 235 
255 46 150 
207 64 64 
255 58 255 
255 206 255 
255 37 37 
72 22 72 
151 47 47 
157 37 121 
233 72 131 
0 0 0 
255 171 171 
255 149 149 
255 88 88 
239 74 142 
207 64 64 
207 64 64 
255 144 144 
0 0 0 
255 218 255 
255 126 255 
255 54 54 
0 0 0 
255 98 98 
0 0 0 
0 0 0 
255 83 189 
255 105 123 
255 28 28 
207 64 64 
151 47 47 
0 0 0 
161 161 161 
161 161 161 
0 0 0 
255 163 163 
0 0 0 
0 0 0 
255 255 255 
255 13 44 
255 188 255 
255 49 171 
0 0 0 
255 255 255 
255 255 255 
0 0 0 
255 255 255 
255 255 255 
255 210 210 
0 0 0 
255 237 255 
255 100 230 
0 0 0 
255 60 60 
221 221 221 
255 126 126 
255 255 255 
255 199 199 
255 255 255 
161 161 161 
255 255 255 
255 76 246 
255 125 255 
0 0 0 
255 46 46 
161 161 161 
255 255 255 
255 99 99 
255 249 249 
247 77 77 
255 255 255 
255 255 255 
255 195 195 
221 221 221 
0 0 0 
127 127 255 
255 255 255 
255 255 255 
221 221 221 
0 0 0 
255 88 255 
255 199 199 
255 105 105 
0 0 0 
255 216 216 
161 161 161 
255 255 255 
255 255 255 
255 255 255 
0 0 0 
255 255 255 
161 161 161 
0 0 0 
255 255 255 
255 230 255 
255 127 127 
60 60 255 
255 162 168 
255 222 255 
0 0 0 
255 196 255 
255 255 255 
255 255 255 
255 210 210 
255 218 255 
255 231 231 
255 255 255 
255 255 255 
247 77 77 
255 206 255 
255 121 255 
255 163 255 
255 249 255 
126 126 255 
161 161 161 
221 221 221 
161 161 161 
199 199 255 
255 255 255 
161 161 161 
255 221 255 
161 161 161 
255 199 199 
255 210 255 
221 221 221 
0 0 0 
0 0 0 
0 0 0 
255 255 255 
255 255 255 
255 255 255 
221 221 221 
255 231 231 
255 99 99 
255 255 255 
0 0 0 
0 0 0 
161 161 161 
255 255 255 
255 170 170 
255 255 255 
221 221 255 
0 0 0 
255 255 255 
255 255 255 
255 255 255 
175 175 255 
161 161 161 
0 0 0 
255 88 255 
255 255 255 
248 10 255 
0 0 0 
255 163 182 
0 0 0 
255 231 231 
175 175 255 
255 255 255 
77 77 247 
95 95 255 
161 161 161 
161 161 161 
206 206 255 
0 0 0 
0 0 0 
127 127 255 
255 255 255 
255 255 255 
255 233 255 
206 206 255 
255 255 255 
255 98 98 
255 255 255 
0 0 0 
255 175 175 
0 0 0 
0 0 0 
255 255 255 
161 161 161 
0 0 0 
255 207 207 
171 163 255 
161 161 161 
255 255 255 
161 161 161 
0 0 0 
255 127 127 
221 221 221 
255 216 255 
255 255 255 
221 221 221 
255 255 255 
255 98 255 
206 200 255 
77 77 247 
161 161 161 
161 161 161 
0 0 0 
161 161 161 
0 0 0 
255 255 255 
255 227 255 
161 161 161 
175 175 255 
0 0 0 
161 161 161 
199 199 255 
77 77 247 
0 0 0 
255 131 168 
36 36 255 
231 147 255 
132 132 255 
28 28 255 
198 60 255 
255 58 255 
47 47 151 
249 87 255 
224 99 255 
0 0 0 
0 0 0 
92 28 209 
134 98 255 
84 51 164 
153 110 255 
85 78 255 
103 80 255 
56 48 182 
232 22 163 
81 74 255 
255 255 255 
0 0 0 
47 47 151 
84 51 164 
102 54 251 
144 144 255 
77 77 249 
93 58 187 
198 32 255 
158 104 255 
97 97 255 
233 93 255 
47 47 151 
0 0 0 
99 30 99 
64 64 207 
191 113 255 
58 58 255 
0 0 0 
151 47 47 
255 88 253 
255 78 78 
255 45 233 
255 151 151 
0 0 0 
151 47 47 
204 63 151 
207 64 64 
255 105 105 
207 64 64 
0 0 0 
255 84 205 
186 58 125 
255 85 201 
151 47 47 
230 65 186 
151 47 47 
0 0 0 
255 61 137 
0 0 0 
255 165 255 
0 0 0 
0 0 0 
255 88 88 
255 88 88 
72 22 72 
255 47 107 
159 49 185 
118 36 118 
255 206 206 
0 0 0 
0 0 0 
151 47 47 
255 160 255 
207 64 64 
255 50 122 
0 0 0 
151 47 47 
255 60 60 
255 126 126 
255 255 255 
255 60 60 
0 0 0 
255 144 144 
0 0 0 
255 255 255 
161 161 161 
0 0 0 
255 47 151 
255 255 255 
247 77 77 
255 255 255 
161 161 161 
161 161 161 
0 0 0 
0 0 0 
255 255 255 
247 77 77 
255 255 255 
255 255 255 
255 100 255 
255 255 255 
255 13 44 
255 175 175 
255 196 255 
255 255 255 
161 161 161 
255 98 98 
255 175 255 
161 161 161 
255 99 99 
193 60 193 
161 161 161 
0 0 0 
161 161 161 
255 144 144 
255 163 171 
0 0 0 
255 199 199 
255 175 175 
0 0 0 
255 177 255 
161 161 161 
255 222 255 
255 255 255 
255 255 255 
255 255 255 
221 221 221 
110 10 250 
221 221 221 
255 184 184 
247 77 77 
161 161 161 
255 199 199 
255 255 255 
255 126 126 
0 0 0 
255 255 255 
0 0 0 
255 255 255 
255 255 255 
247 77 77 
255 255 255 
255 154 255 
161 161 161 
255 255 255 
255 255 255 
254 254 255 
255 255 255 
151 47 255 
0 0 0 
255 255 255 
255 126 126 
221 221 221 
255 231 231 
0 0 0 
161 161 161 
221 221 221 
161 161 161 
255 255 255 
0 0 0 
126 126 255 
161 161 161 
221 221 221 
0 0 0 
221 221 221 
255 255 255 
255 106 255 
0 0 0 
255 255 255 
0 0 0 
255 230 230 
231 231 255 
221 221 221 
255 255 255 
255 255 255 
221 221 221 
255 255 255 
0 0 0 
255 255 255 
255 207 207 
161 161 161 
255 166 214 
77 77 247 
255 255 255 
255 255 255 
142 13 100 
255 255 255 
221 221 221 
255 47 255 
0 0 0 
161 161 161 
0 0 0 
255 255 255 
255 255 255 
161 161 161 
175 175 255 
255 255 255 
255 255 255 
255 255 255 
255 127 127 
255 255 255 
0 0 0 
0 0 0 
255 255 255 
0 0 0 
255 255 255 
0 0 0 
255 144 255 
0 0 0 
0 0 0 
255 198 255 
0 0 0 
255 255 255 
255 255 255 
255 127 127 
255 175 175 
255 199 199 
0 0 0 
0 0 0 
0 0 0 
0 0 0 
0 0 0 
161 161 161 
255 255 255 
170 170 255 
175 175 255 
0 0 0 
220 220 255 
255 255 255 
77 77 247 
161 161 161 
161 161 161 
0 0 0 
0 0 0 
199 199 255 
161 161 161 
193 60 193 
0 0 0 
161 161 161 
153 95 255 
0 0 0 
255 255 255 
255 255 255 
255 255 255 
255 255 255 
161 161 161 
199 199 255 
255 126 255 
255 255 255 
161 161 161 
175 69 222 
255 255 255 
231 231 255 
0 0 0 
255 175 255 
47 47 151 
0 0 0 
0 0 0 
47 47 151 
0 0 0 
83 37 119 
118 93 255 
84 51 164 
51 20 208 
217 35 255 
47 47 151 
124 76 255 
109 58 202 
144 144 255 
0 0 0 
61 8 87 
255 127 255 
60 49 230 
84 51 164 
88 88 255 
94 67 216 
47 47 151 
255 58 186 
184 142 255 
0 0 0 
255 60 193 
0 0 0 
101 98 255 
40 17 182 
147 132 255 
0 0 0 
249 87 255 
255 131 255 
0 0 0 
88 88 255 
84 51 164 
0 0 0 
255 126 255 
255 255 255 
197 61 115 
255 65 155 
255 48 62 
207 64 64 
151 47 47 
255 28 255 
251 54 102 
255 97 97 
0 0 0 
255 255 255 
0 0 0 
0 0 0 
255 53 255 
0 0 0 
207 64 64 
186 58 125 
249 77 77 
151 47 47 
255 36 36 
255 69 69 
255 136 136 
164 51 84 
0 0 0 
0 0 0 
0 0 0 
119 37 83 
0 0 0 
247 77 77 
255 113 113 
0 0 0 
223 69 217 
0 0 0 
255 255 255 
0 0 0 
255 36 36 
0 0 0 
255 88 88 
92 28 209 
118 36 255 
0 0 0 
77 77 247 
255 255 255 
255 255 255 
161 161 161 
255 255 255 
255 255 255 
255 175 175 
161 161 161 
0 0 0 
255 255 255 
255 188 188 
255 255 255 
255 250 255 
255 163 182 
0 0 0 
161 161 161 
161 161 161 
255 172 172 
255 60 60 
255 199 199 
255 98 255 
255 255 255 
0 0 0 
255 170 170 
0 0 0 
0 0 0 
255 166 214 
0 0 0 
255 212 255 
255 127 127 
0 0 0 
255 60 60 
161 161 161 
255 255 255 
161 161 161 
247 77 77 
255 255 255 
255 231 231 
161 161 161 
247 77 77 
255 212 255 
255 126 126 
255 125 255 
255 255 255 
0 0 0 
0 0 0 
193 60 193 
221 221 221 
255 255 255 
161 161 161 
255 255 255 
255 255 255 
255 175 175 
255 206 255 
255 255 255 
161 161 161 
161 161 161 
255 199 199 
255 255 255 
184 184 255 
247 77 77 
255 255 255 
0 0 0 
255 184 255 
0 0 0 
255 210 210 
161 161 161 
255 255 255 
255 175 255 
255 126 126 
255 188 188 
161 161 161 
255 184 255 
255 255 255 
255 255 255 
255 255 255 
255 208 208 
255 127 255 
161 161 161 
255 255 255 
255 125 125 
255 255 255 
0 0 0 
255 207 207 
0 0 0 
255 255 255 
255 199 199 
255 255 255 
255 255 255 
255 222 222 
0 0 0 
255 220 255 
255 255 255 
0 0 0 
0 0 0 
255 255 255 
0 0 0 
161 161 161 
255 231 255 
161 161 161 
255 255 255 
255 255 255 
255 255 255 
255 255 255 
161 161 161 
161 161 161 
175 175 255 
255 175 175 
161 161 161 
255 255 255 
255 255 255 
221 221 221 
249 249 255 
161 161 161 
255 222 230 
161 161 161 
221 221 221 
221 221 221 
0 0 0 
161 161 161 
255 255 255 
255 255 255 
255 210 255 
255 206 206 
0 0 0 
255 255 255 
161 161 161 
205 170 245 
255 127 141 
255 255 255 
255 28 65 
0 0 0 
0 0 0 
255 175 255 
255 207 207 
255 255 255 
247 77 77 
161 161 161 
137 60 194 
174 174 255 
255 255 255 
161 161 161 
0 0 0 
161 161 161 
0 0 0 
255 163 212 
0 0 0 
255 255 255 
223 191 255 
255 127 127 
255 255 255 
255 255 255 
255 174 255 
255 255 255 
161 161 161 
161 161 161 
255 224 255 
99 99 255 
0 0 0 
255 255 255 
161 161 161 
255 255 255 
0 0 0 
0 0 0 
255 218 255 
193 60 193 
255 175 175 
255 89 255 
255 255 255 
255 250 255 
255 255 255 
221 221 221 
77 77 247 
221 221 221 
161 161 161 
0 0 0 
126 126 255 
88 88 255 
105 105 255 
207 187 255 
213 54 173 
204 65 255 
255 111 255 
150 46 255 
47 47 151 
56 48 182 
0 0 0 
255 184 255 
239 90 255 
192 153 255 
65 28 255 
58 58 255 
47 47 151 
199 144 255 
255 99 255 
0 0 0 
58 58 255 
201 85 255 
129 108 255 
74 74 255 
0 0 0 
60 49 230 
47 47 151 
0 0 0 
204 17 255 
93 93 255 
127 127 255 
206 76 255 
255 164 255 
74 74 255 
47 47 151 
125 58 186 
72 72 255 
64 64 207 
72 22 72 
110 84 255 
207 64 64 
255 62 111 
255 103 208 
207 64 64 
255 126 126 
207 64 64 
0 0 0 
151 47 47 
255 58 58 
224 21 106 
207 64 64 
0 0 0 
255 58 186 
255 87 249 
207 64 64 
255 51 83 
182 17 40 
164 51 84 
255 54 78 
255 36 36 
255 144 144 
207 64 64 
0 0 0 
255 255 255 
255 72 72 
255 211 255 
255 47 107 
255 144 255 
255 50 89 
255 97 97 
151 47 47 
255 58 133 
255 138 138 
151 47 47 
0 0 0 
255 91 123 
0 0 0 
255 46 46 
0 0 0 
255 255 255 
194 60 137 
244 170 244 
255 220 255 
221 221 221 
161 161 161 
161 161 161 
0 0 0 
255 255 255 
0 0 0 
161 161 161 
255 60 60 
255 255 255 
255 255 255 
247 77 77 
255 121 121 
0 0 0 
0 0 0 
255 255 255 
255 238 255 
255 170 205 
255 255 255 
77 77 247 
0 0 0 
255 255 255 
255 155 255 
161 161 161 
161 161 161 
255 255 255 
255 255 255 
0 0 0 
255 162 255 
161 161 161 
255 255 255 
255 160 160 
0 0 0 
255 255 255 
255 137 255 
255 255 255 
255 255 255 
161 161 161 
255 184 255 
161 161 161 
247 77 77 
0 0 0 
255 255 255 
126 126 255 
0 0 0 
161 161 161 
255 187 255 
255 255 255 
255 255 255 
255 184 255 
255 255 255 
255 255 255 
255 255 255 
161 161 161 
255 218 218 
221 221 221 
255 231 231 
255 255 255 
255 178 205 
255 255 255 
255 255 255 
255 255 255 
255 170 205 
255 188 255 
0 0 0 
161 161 161 
255 196 255 
0 0 0 
255 255 255 
255 255 255 
255 255 255 
255 175 175 
255 249 249 
255 255 255 
221 221 221 
254 254 255 
221 221 221 
255 255 255 
161 161 161 
161 161 161 
255 255 255 
255 170 170 
255 184 255 
255 183 255 
0 0 0 
255 253 255 
255 255 255 
0 0 0 
199 199 255 
161 161 161 
199 199 255 
255 200 209 
221 221 221 
221 221 221 
255 255 255 
255 249 249 
255 255 255 
161 161 161 
255 255 255 
255 255 255 
0 0 0 
255 255 255 
221 221 221 
255 255 255 
0 0 0 
255 206 206 
255 255 255 
161 161 161 
255 170 255 
0 0 0 
255 255 255 
255 210 255 
255 127 127 
0 0 0 
0 0 0 
255 255 255 
0 0 0 
161 161 161 
255 255 255 
231 231 255 
255 255 255 
118 36 118 
0 0 0 
255 175 255 
205 178 255 
255 255 255 
0 0 0 
161 161 161 
221 221 221 
255 255 255 
161 161 161 
77 77 247 
247 77 77 
255 255 255 
161 161 161 
0 0 0 
0 0 0 
175 175 255 
0 0 0 
255 99 99 
255 255 255 
0 0 0 
161 161 161 
255 255 255 
255 255 255 
255 249 249 
199 199 255 
175 175 255 
255 184 255 
161 161 161 
255 255 255 
255 255 255 
127 127 255 
0 0 0 
255 47 151 
224 99 255 
255 184 255 
255 171 255 
161 161 161 
209 28 92 
255 47 255 
0 0 0 
65 28 255 
161 161 161 
255 255 255 
77 77 247 
77 77 247 
0 0 0 
255 255 255 
0 0 0 
255 162 162 
255 255 255 
0 0 0 
255 255 255 
0 0 0 
47 47 151 
0 0 0 
47 47 151 
154 92 255 
77 77 247 
167 129 255 
235 51 216 
72 22 72 
216 6 67 
113 113 255 
255 47 151 
94 35 255 
64 64 207 
0 0 0 
208 105 255 
94 89 255 
67 6 216 
255 224 255 
174 107 255 
0 0 0 
77 77 247 
83 48 202 
77 77 247 
129 2 81 
180 88 255 
37 37 255 
0 0 0 
137 60 194 
47 47 151 
102 79 255 
0 0 0 
60 49 230 
84 51 164 
60 49 230 
93 58 187 
47 47 151 
0 0 0 
47 47 151 
112 77 253 
151 47 47 
255 213 255 
255 97 254 
255 136 224 
249 77 77 
186 58 125 
255 65 70 
255 91 116 
0 0 0 
251 54 102 
0 0 0 
0 0 0 
151 47 47 
247 77 77 
151 47 47 
151 47 47 
0 0 0 
255 60 60 
255 78 78 
255 13 31 
151 47 47 
72 22 72 
135 42 135 
255 60 60 
151 47 47 
255 139 255 
255 210 255 
255 122 137 
247 77 77 
0 0 0 
0 0 0 
0 0 0 
255 126 126 
255 210 255 
255 132 132 
255 104 255 
255 118 118 
247 77 77 
0 0 0 
0 0 0 
0 0 0 
255 210 210 
247 77 77 
0 0 0 
0 0 0 
255 162 162 
255 255 255 
255 126 126 
255 255 255 
255 255 255 
247 77 77 
0 0 0 
255 207 221 
221 221 221 
255 210 210 
255 206 206 
255 255 255 
255 175 175 
255 184 255 
0 0 0 
255 255 255 
0 0 0 
255 255 255 
182 163 255 
255 255 255 
245 170 205 
255 121 121 
255 255 255 
221 221 221 
255 175 175 
0 0 0 
255 130 130 
161 161 161 
0 0 0 
221 221 221 
161 161 161 
127 127 255 
221 221 221 
255 255 255 
255 255 255 
255 255 255 
255 254 254 
255 255 255 
255 180 200 
255 83 137 
0 0 0 
255 206 212 
255 255 255 
0 0 0 
255 255 255 
255 249 255 
255 255 255 
0 0 0 
255 249 249 
255 255 255 
255 255 255 
0 0 0 
255 255 255 
255 255 255 
0 0 0 
255 126 126 
255 255 255 
161 161 161 
255 175 175 
255 255 255 
92 28 255 
255 255 255 
255 255 255 
255 255 255 
255 127 127 
0 0 0 
175 175 255 
0 0 0 
144 144 255 
255 255 255 
161 161 161 
255 171 255 
0 0 0 
161 161 161 
0 0 0 
161 161 161 
255 255 255 
0 0 0 
221 221 221 
207 207 255 
161 161 161 
255 255 255 
0 0 0 
0 0 0 
255 255 255 
161 161 161 
255 255 255 
255 255 255 
255 255 255 
161 161 161 
255 170 170 
255 255 255 
255 255 255 
255 184 255 
221 221 221 
255 238 255 
221 221 221 
255 255 255 
255 255 255 
0 0 0 
255 255 255 
255 255 255 
255 255 255 
161 161 161 
255 144 255 
255 255 255 
0 0 0 
255 255 255 
255 255 255 
0 0 0 
255 255 255 
255 255 255 
77 77 247 
255 255 255 
255 164 194 
255 255 255 
238 238 255 
255 227 227 
255 255 255 
0 0 0 
221 221 221 
255 255 255 
0 0 0 
77 77 247 
0 0 0 
221 221 221 
0 0 0 
0 0 0 
255 255 255 
255 255 255 
255 255 255 
255 177 255 
0 0 0 
247 77 77 
77 77 247 
193 154 255 
161 161 161 
255 210 210 
255 225 255 
255 199 199 
255 255 255 
255 255 255 
255 171 255 
161 161 161 
255 255 255 
0 0 0 
0 0 0 
255 233 255 
161 161 161 
255 255 255 
185 185 255 
161 161 161 
255 255 255 
255 218 255 
0 0 0 
161 161 161 
0 0 0 
0 0 0 
171 163 255 
0 0 0 
77 77 247 
255 255 255 
255 255 255 
255 185 255 
0 0 0 
0 0 0 
255 255 255 
0 0 0 
0 0 0 
0 0 0 
255 28 92 
255 127 127 
77 77 247 
58 58 255 
40 17 182 
64 64 207 
97 97 255 
143 93 255 
88 88 255 
253 253 255 
139 139 255 
85 78 255 
0 0 0 
255 255 255 
83 51 255 
47 47 151 
70 62 255 
0 0 0 
81 81 255 
77 77 247 
0 0 0 
117 81 255 
255 220 255 
132 45 255 
94 67 216 
141 127 255 
150 46 255 
102 79 255 
77 77 249 
84 51 164 
64 64 207 
243 130 255 
163 22 232 
198 60 255 
0 0 0 
0 0 0 
255 141 255 
0 0 0 
255 73 255 
83 51 255 
64 64 207 
255 66 77 
72 22 72 
151 47 47 
255 97 97 
255 106 106 
247 77 77 
255 97 97 
186 58 125 
255 75 132 
255 100 156 
255 255 255 
0 0 0 
118 36 118 
72 22 72 
0 0 0 
151 47 47 
255 37 84 
247 77 77 
255 180 255 
255 172 172 
255 78 158 
255 58 58 
255 78 85 
0 0 0 
188 19 101 
0 0 0 
151 47 47 
255 110 168 
255 79 102 
255 88 88 
0 0 0 
255 45 235 
255 136 136 
255 139 144 
255 69 109 
0 0 0 
151 47 47 
255 196 255 
255 149 255 
255 255 255 
247 77 77 
255 144 144 
255 255 255 
255 255 255 
0 0 0 
0 0 0 
118 36 118 
255 184 255 
255 255 255 
255 126 126 
255 255 255 
255 199 255 
255 231 231 
161 161 161 
247 77 77 
255 255 255 
255 255 255 
255 255 255 
161 161 161 
0 0 0 
255 175 175 
0 0 0 
255 255 255 
255 216 243 
255 144 255 
161 161 161 
255 95 253 
161 161 161 
255 105 105 
175 175 255 
0 0 0 
255 255 255 
255 255 255 
255 175 175 
255 255 255 
0 0 0 
255 255 255 
0 0 0 
0 0 0 
255 255 255 
255 255 255 
255 255 255 
161 161 161 
255 255 255 
170 170 255 
255 166 189 
0 0 0 
0 0 0 
161 161 161 
255 126 126 
0 0 0 
255 105 255 
255 255 255 
255 253 253 
255 255 255 
255 255 255 
255 255 255 
255 199 199 
255 175 255 
255 255 255 
0 0 0 
0 0 0 
77 77 247 
221 221 221 
255 82 230 
255 255 255 
221 221 221 
0 0 0 
255 255 255 
145 145 255 
161 161 161 
255 191 255 
255 176 255 
247 77 77 
0 0 0 
205 178 255 
255 255 255 
0 0 0 
255 255 255 
255 175 175 
255 216 216 
255 255 255 
255 255 255 
0 0 0 
0 0 0 
255 255 255 
0 0 0 
0 0 0 
175 175 255 
255 255 255 
161 161 161 
255 207 207 
255 255 255 
77 77 247 
221 221 221 
161 161 161 
161 161 161 
255 255 255 
255 255 255 
221 221 221 
255 255 255 
206 206 255 
255 60 60 
255 255 255 
255 255 255 
161 161 161 
255 255 255 
161 161 161 
255 255 255 
255 255 255 
0 0 0 
221 221 221 
255 236 255 
255 255 255 
255 255 255 
0 0 0 
0 0 0 
255 255 255 
255 255 255 
255 161 172 
255 255 255 
161 161 161 
0 0 0 
255 98 98 
242 214 255 
0 0 0 
150 46 255 
126 126 255 
255 255 255 
255 255 255 
255 199 199 
0 0 0 
255 255 255 
0 0 0 
0 0 0 
77 77 247 
221 221 221 
0 0 0 
255 162 162 
255 207 207 
0 0 0 
255 255 255 
255 199 255 
255 255 255 
255 255 255 
0 0 0 
0 0 0 
161 161 161 
255 83 255 
255 255 255 
255 255 255 
241 225 255 
255 255 255 
0 0 0 
221 221 221 
46 46 255 
151 47 255 
65 28 255 
255 176 255 
126 126 255 
161 161 161 
221 221 221 
255 255 255 
221 221 221 
255 255 255 
255 199 199 
255 207 207 
0 0 0 
0 0 0 
231 231 255 
255 255 255 
255 225 255 
118 36 118 
126 126 255 
255 22 72 
255 206 206 
161 161 161 
47 47 151 
225 107 255 
255 69 255 
0 0 0 
0 0 0 
0 0 0 
88 88 255 
36 36 255 
77 77 247 
101 53 255 
88 88 255 
47 47 151 
255 106 255 
255 255 255 
249 51 255 
77 77 247 
149 93 255 
153 95 255 
88 88 255 
85 78 255 
118 93 255 
249 111 255 
125 58 186 
193 94 255 
88 88 255 
47 47 151 
105 105 255 
88 88 255 
255 160 255 
126 126 255 
255 98 255 
93 58 187 
47 47 151 
0 0 0 
86 86 255 
135 106 255 
47 47 151 
0 0 0 
102 54 251 
249 77 77 
255 28 92 
255 204 255 
157 37 121 
255 85 151 
255 144 144 
255 88 88 
0 0 0 
255 126 126 
216 67 94 
255 98 211 
0 0 0 
255 255 255 
0 0 0 
255 47 107 
164 51 84 
207 64 64 
255 42 79 
151 47 47 
191 27 89 
247 77 77 
247 77 77 
255 105 105 
0 0 0 
0 0 0 
255 162 255 
0 0 0 
255 108 121 
151 47 47 
255 134 241 
151 47 47 
255 113 113 
255 129 129 
255 255 255 
255 65 87 
255 113 113 
0 0 0 
255 93 93 
192 49 71 
247 77 77 
0 0 0 
0 0 0 
255 255 255 
0 0 0 
0 0 0 
0 0 0 
0 0 0 
255 126 126 
247 77 77 
0 0 0 
255 237 255 
0 0 0 
0 0 0 
255 185 185 
161 161 161 
235 162 168 
0 0 0 
255 254 255 
99 99 255 
161 161 161 
255 255 255 
255 255 255 
255 126 126 
255 144 255 
255 255 255 
126 126 255 
255 255 255 
255 255 255 
221 221 221 
0 0 0 
255 235 235 
0 0 0 
0 0 0 
255 255 255 
255 126 126 
255 221 255 
0 0 0 
0 0 0 
161 161 161 
161 161 161 
225 100 225 
255 218 255 
0 0 0 
255 255 255 
207 207 255 
137 60 194 
0 0 0 
255 255 255 
247 77 77 
0 0 0 
0 0 0 
255 255 255 
161 161 161 
0 0 0 
255 216 216 
247 77 77 
255 255 255 
255 255 255 
193 60 193 
255 126 126 
255 255 255 
255 255 255 
161 161 161 
255 255 255 
0 0 0 
255 255 255 
255 255 255 
255 255 255 
161 161 161 
161 161 161 
255 126 126 
221 221 221 
255 255 255 
255 255 255 
255 255 255 
221 221 221 
0 0 0 
161 161 161 
255 126 126 
255 255 255 
255 170 170 
0 0 0 
255 255 255 
247 77 77 
0 0 0 
255 255 255 
0 0 0 
161 161 161 
161 161 161 
0 0 0 
255 162 255 
255 175 175 
0 0 0 
118 36 118 
0 0 0 
255 127 127 
255 175 175 
0 0 0 
255 255 255 
255 177 255 
161 161 161 
255 255 255 
255 221 255 
231 231 255 
0 0 0 
255 206 255 
161 161 161 
255 255 255 
255 126 255 
255 255 255 
255 175 175 
0 0 0 
255 255 255 
255 175 175 
161 161 161 
255 255 255 
255 231 231 
255 255 255 
77 77 247 
161 161 161 
255 175 255 
161 161 161 
255 255 255 
255 222 222 
221 221 221 
247 77 77 
255 255 255 
247 77 77 
221 221 221 
255 255 255 
161 161 161 
0 0 0 
0 0 0 
255 255 255 
255 255 255 
255 255 255 
0 0 0 
0 0 0 
77 77 247 
255 255 255 
255 78 250 
98 98 255 
255 255 255 
255 255 255 
255 255 255 
255 255 255 
193 60 193 
255 255 255 
255 227 255 
0 0 0 
161 161 161 
0 0 0 
199 199 255 
193 60 193 
175 175 255 
0 0 0 
255 255 255 
161 161 161 
0 0 0 
255 238 255 
210 210 255 
77 77 247 
175 175 255 
161 161 161 
255 255 255 
255 184 255 
255 255 255 
255 255 255 
77 77 247 
0 0 0 
0 0 0 
161 161 161 
255 47 151 
0 0 0 
0 0 0 
255 227 255 
255 255 255 
83 83 255 
74 30 255 
119 5 169 
36 36 255 
255 116 255 
0 0 0 
84 51 164 
0 0 0 
34 10 110 
47 47 151 
79 47 255 
0 0 0 
93 93 255 
255 127 255 
255 53 255 
220 220 255 
111 77 255 
77 77 247 
64 64 207 
89 69 255 
83 50 242 
47 47 151 
77 77 247 
88 88 255 
64 64 207 
118 77 255 
93 58 187 
255 255 255 
108 81 255 
135 42 135 
47 47 151 
88 88 255 
77 25 255 
47 47 151 
235 104 255 
77 77 249 
47 47 151 
77 77 249 
126 126 255 
234 50 109 
255 93 143 
151 47 47 
0 0 0 
255 85 255 
255 255 255 
0 0 0 
187 58 93 
0 0 0 
151 47 47 
207 64 64 
0 0 0 
255 83 133 
255 58 168 
255 126 126 
255 72 72 
164 51 84 
0 0 0 
255 46 46 
207 64 64 
255 140 255 
182 17 40 
151 47 47 
151 47 47 
255 77 77 
255 206 206 
255 98 163 
151 47 47 
0 0 0 
255 255 255 
255 36 36 
207 64 64 
0 0 0 
255 72 72 
216 67 94 
151 47 47 
141 13 141 
0 0 0 
0 0 0 
161 161 161 
255 246 246 
0 0 0 
255 255 255 
255 255 255 
170 170 255 
255 137 180 
247 77 77 
0 0 0 
255 255 255 
0 0 0 
247 77 77 
255 255 255 
161 161 161 
161 161 161 
255 184 255 
0 0 0 
161 161 161 
238 238 255 
255 183 183 
0 0 0 
255 255 255 
255 126 126 
161 161 161 
209 65 255 
0 0 0 
255 36 255 
161 161 161 
255 255 255 
255 98 98 
255 255 255 
255 255 255 
255 196 255 
255 126 126 
255 255 255 
161 161 161 
255 255 255 
255 60 136 
255 255 255 
161 161 161 
255 255 255 
255 255 255 
161 161 161 
0 0 0 
221 221 221 
247 77 77 
161 161 161 
255 255 255 
193 60 193 
247 77 77 
255 255 255 
244 170 244 
255 255 255 
161 161 161 
0 0 0 
255 60 60 
0 0 0 
247 77 77 
255 194 255 
255 206 255 
255 175 175 
255 255 255 
0 0 0 
0 0 0 
255 175 175 
255 255 255 
255 255 255 
255 255 255 
255 254 254 
161 161 161 
255 255 255 
255 255 255 
255 206 206 
255 255 255 
247 77 77 
255 255 255 
118 36 118 
221 221 221 
255 255 255 
255 255 255 
0 0 0 
255 110 255 
118 36 118 
255 199 199 
0 0 0 
161 161 161 
255 255 255 
255 255 255 
255 255 255 
247 77 77 
255 121 255 
255 255 255 
55 10 255 
255 255 255 
255 227 227 
0 0 0 
255 255 255 
255 177 255 
255 255 255 
255 255 255 
0 0 0 
161 161 161 
221 221 221 
255 225 255 
255 255 255 
255 255 255 
255 255 255 
255 255 255 
255 235 255 
255 223 255 
255 255 255 
255 255 255 
221 221 221 
255 227 227 
255 255 255 
255 255 255 
0 0 0 
161 161 161 
0 0 0 
255 255 255 
122 122 255 
255 255 255 
0 0 0 
255 255 255 
221 221 221 
199 199 255 
255 255 255 
161 161 161 
255 255 255 
221 221 221 
0 0 0 
255 255 255 
161 161 161 
255 255 255 
0 0 0 
0 0 0 
255 255 255 
255 160 160 
0 0 0 
161 161 161 
255 255 255 
161 161 161 
0 0 0 
255 36 255 
255 255 255 
255 199 199 
221 221 221 
161 161 161 
255 175 175 
255 255 255 
255 255 255 
255 231 231 
255 175 255 
255 255 255 
175 175 255 
161 161 161 
255 255 255 
0 0 0 
255 225 255 
146 104 255 
255 255 255 
161 161 161 
221 221 221 
255 255 255 
175 175 255 
255 255 255 
155 155 255 
255 255 255 
255 255 255 
255 255 255 
161 161 161 
0 0 0 
255 255 255 
255 255 255 
161 161 161 
255 255 255 
0 0 0 
255 255 255 
255 13 142 
47 47 151 
0 0 0 
137 83 255 
0 0 0 
215 118 255 
255 98 255 
72 22 72 
147 130 255 
88 88 255 
255 178 255 
255 255 255 
47 47 151 
255 255 255 
255 142 255 
255 89 255 
88 88 255 
137 60 194 
200 60 207 
255 107 255 
255 66 255 
31 13 255 
88 88 255 
77 77 249 
255 255 255 
83 37 119 
88 88 255 
148 77 255 
128 17 56 
93 93 255 
88 88 255 
47 47 151 
58 58 255 
75 47 170 
0 0 0 
71 49 229 
160 77 255 
100 13 142 
83 37 119 
0 0 0 
255 114 114 
255 141 243 
255 49 59 
255 106 106 
0 0 0 
255 83 255 
255 88 88 
0 0 0 
0 0 0 
255 136 136 
255 74 74 
0 0 0 
255 58 93 
0 0 0 
0 0 0 
151 47 47 
0 0 0 
255 105 105 
247 77 77 
0 0 0 
255 36 255 
119 37 83 
0 0 0 
151 47 47 
255 106 106 
255 51 51 
255 28 92 
151 47 47 
255 86 255 
0 0 0 
255 118 215 
255 98 98 
255 98 255 
255 119 119 
255 126 126 
255 120 120 
0 0 0 
255 28 65 
126 126 255 
0 0 0 
255 255 255 
255 255 255 
247 77 77 
255 105 105 
0 0 0 
255 126 126 
0 0 0 
0 0 0 
0 0 0 
234 22 116 
255 237 255 
0 0 0 
255 184 255 
255 162 255 
0 0 0 
127 17 255 
255 255 255 
255 160 160 
255 255 255 
255 222 255 
0 0 0 
255 170 170 
199 199 255 
0 0 0 
255 255 255 
255 255 255 
161 161 161 
0 0 0 
255 126 126 
0 0 0 
255 255 255 
0 0 0 
255 255 255 
255 175 175 
0 0 0 
77 77 247 
255 210 210 
255 255 255 
255 218 218 
255 255 255 
161 161 161 
255 255 255 
255 184 184 
255 255 255 
255 175 175 
255 255 255 
255 160 160 
255 255 255 
255 249 249 
255 183 183 
247 77 77 
255 98 255 
255 249 249 
255 175 175 
255 255 255 
255 255 255 
255 255 255 
221 221 221 
255 255 255 
161 161 161 
255 255 255 
161 161 161 
231 231 255 
199 199 255 
255 206 206 
255 255 255 
255 255 255 
255 222 255 
255 255 255 
0 0 0 
221 221 221 
0 0 0 
161 161 161 
161 161 161 
255 255 255 
0 0 0 
232 22 163 
161 161 161 
0 0 0 
255 166 255 
255 255 255 
161 161 161 
255 255 255 
221 221 221 
0 0 0 
92 28 255 
255 187 255 
255 255 255 
255 255 255 
126 126 255 
255 255 255 
255 255 255 
0 0 0 
0 0 0 
255 236 255 
77 77 247 
255 255 255 
161 161 161 
77 77 247 
255 255 255 
0 0 0 
255 239 255 
255 255 255 
0 0 0 
175 175 255 
255 255 255 
231 231 255 
255 255 255 
255 255 255 
255 99 99 
255 255 255 
247 77 77 
0 0 0 
255 153 255 
170 170 255 
0 0 0 
161 161 161 
255 255 255 
255 170 205 
0 0 0 
255 163 255 
137 60 194 
0 0 0 
255 207 207 
255 254 254 
255 100 255 
0 0 0 
255 255 255 
255 255 255 
0 0 0 
0 0 0 
255 255 255 
188 188 255 
0 0 0 
0 0 0 
221 221 221 
161 161 161 
255 255 255 
0 0 0 
0 0 0 
161 161 161 
0 0 0 
255 255 255 
255 255 255 
0 0 0 
255 207 207 
255 235 255 
161 161 161 
0 0 0 
231 231 255 
255 212 255 
0 0 0 
255 255 255 
0 0 0 
77 77 247 
255 103 255 
255 162 162 
255 255 255 
0 0 0 
255 255 255 
255 77 248 
225 225 255 
199 199 255 
255 184 255 
0 0 0 
0 0 0 
199 199 255 
176 78 255 
0 0 0 
161 161 161 
255 255 255 
105 105 255 
161 161 161 
255 198 255 
255 122 255 
118 36 118 
77 77 247 
56 17 181 
137 83 255 
0 0 0 
255 13 255 
182 99 255 
47 47 151 
158 80 255 
179 136 255 
77 77 247 
56 17 181 
60 49 230 
92 78 255 
0 0 0 
140 66 213 
97 97 255 
86 65 221 
118 36 118 
77 77 247 
77 77 247 
94 67 216 
85 78 255 
0 0 0 
47 47 151 
77 77 247 
131 72 233 
47 47 151 
83 37 119 
77 77 249 
83 37 119 
94 67 216 
0 0 0 
65 28 255 
255 174 255 
47 47 151 
84 84 255 
159 118 255 
64 64 207 
84 51 164 
255 83 83 
255 98 226 
255 96 206 
255 37 48 
0 0 0 
247 77 77 
0 0 0 
118 36 118 
255 144 144 
255 57 103 
0 0 0 
151 47 47 
72 22 72 
255 72 255 
247 77 77 
255 88 92 
255 132 132 
255 72 72 
255 74 74 
247 77 77 
110 10 34 
255 88 88 
151 47 47 
0 0 0 
255 255 255 
151 47 47 
247 77 77 
255 255 255 
255 36 36 
0 0 0 
255 88 137 
207 64 64 
255 81 98 
255 164 255 
0 0 0 
255 8 26 
194 60 137 
255 57 153 
255 65 139 
0 0 0 
0 0 0 
255 255 255 
255 184 184 
161 161 161 
255 255 255 
0 0 0 
255 246 255 
255 23 67 
247 77 77 
255 144 144 
255 169 255 
255 177 255 
255 235 255 
77 77 247 
255 216 255 
255 255 255 
0 0 0 
255 182 255 
255 255 255 
0 0 0 
161 161 161 
255 255 255 
255 199 199 
126 126 255 
118 36 118 
247 77 77 
0 0 0 
255 255 255 
255 255 255 
161 161 161 
255 255 255 
255 255 255 
221 221 221 
161 161 161 
255 255 255 
255 175 175 
0 0 0 
161 161 161 
255 255 255 
255 255 255 
118 36 118 
255 255 255 
161 161 161 
161 161 161 
255 209 255 
204 95 255 
255 255 255 
0 0 0 
0 0 0 
0 0 0 
255 126 126 
161 161 161 
255 255 255 
244 170 244 
255 255 255 
255 255 255 
255 255 255 
161 161 161 
199 199 255 
161 161 161 
255 255 255 
255 167 255 
255 255 255 
255 255 255 
255 255 255 
161 161 161 
161 161 161 
254 254 255 
0 0 0 
221 221 221 
255 255 255 
255 255 255 
255 255 255 
175 175 255 
255 95 204 
255 60 193 
255 255 255 
171 163 255 
255 99 255 
255 144 255 
230 22 230 
161 161 161 
255 255 255 
255 255 255 
255 255 255 
221 221 221 
0 0 0 
126 126 255 
0 0 0 
0 0 0 
255 166 166 
0 0 0 
255 255 255 
255 255 255 
145 145 255 
0 0 0 
0 0 0 
144 144 255 
255 255 255 
175 175 255 
255 170 170 
199 199 255 
255 199 199 
255 255 255 
247 77 77 
77 77 247 
175 175 255 
161 161 161 
161 161 161 
255 255 255 
221 221 221 
247 77 77 
255 199 199 
255 255 255 
255 255 255 
255 255 255 
255 255 255 
170 170 255 
77 77 247 
255 255 255 
127 127 255 
255 255 255 
255 255 255 
126 126 255 
199 199 255 
161 161 161 
255 255 255 
255 255 255 
199 199 255 
255 254 254 
221 221 221 
255 255 255 
255 255 255 
255 255 255 
174 77 255 
60 60 255 
255 255 255 
230 230 255 
161 161 161 
255 255 255 
247 77 77 
98 98 255 
255 255 255 
137 60 194 
255 222 255 
0 0 0 
255 255 255 
161 161 161 
221 221 221 
199 199 255 
255 207 207 
77 77 247 
255 206 206 
161 161 161 
0 0 0 
255 144 255 
161 161 161 
255 255 255 
255 255 255 
255 127 255 
0 0 0 
0 0 0 
77 77 247 
255 255 255 
240 188 255 
255 255 255 
255 255 255 
175 175 255 
255 255 255 
199 199 255 
255 98 98 
105 105 255 
0 0 0 
255 184 255 
0 0 0 
255 255 255 
0 0 0 
36 36 255 
61 8 87 
90 79 255 
126 126 255 
77 77 247 
255 36 255 
255 255 255 
0 0 0 
77 77 249 
60 49 230 
0 0 0 
0 0 0 
213 213 255 
202 58 255 
40 17 182 
213 213 255 
71 49 229 
255 254 255 
88 88 255 
47 47 151 
0 0 0 
0 0 0 
0 0 0 
77 77 249 
64 64 207 
88 88 255 
47 47 151 
0 0 0 
88 88 255 
47 47 151 
0 0 0 
97 97 255 
47 47 151 
126 126 255 
84 51 164 
94 67 216 
47 47 151 
67 51 255 
83 37 119 
255 106 106 
255 85 201 
255 88 88 
255 54 78 
207 64 64 
255 79 102 
245 65 93 
255 85 85 
255 95 153 
164 51 84 
255 42 79 
255 64 114 
229 49 71 
255 58 58 
255 142 176 
255 90 110 
255 65 147 
207 64 64 
186 58 125 
0 0 0 
255 255 255 
255 137 137 
72 22 72 
72 22 72 
255 113 255 
253 77 112 
255 95 153 
255 71 205 
255 146 167 
255 113 113 
255 75 99 
151 47 47 
247 77 77 
255 165 165 
255 242 242 
255 88 88 
255 42 79 
255 100 255 
255 118 118 
255 98 255 
0 0 0 
247 77 77 
0 0 0 
247 77 77 
255 163 171 
255 224 255 
161 161 161 
0 0 0 
255 255 255 
255 255 255 
255 255 255 
255 126 126 
255 60 60 
255 255 255 
255 255 255 
255 255 255 
0 0 0 
0 0 0 
255 184 255 
255 254 254 
255 188 188 
161 161 161 
255 225 255 
0 0 0 
255 255 255 
255 166 214 
255 247 247 
161 161 161 
255 169 243 
255 161 255 
0 0 0 
127 127 255 
207 207 255 
255 255 255 
255 255 255 
255 255 255 
255 255 255 
255 255 255 
0 0 0 
255 175 175 
221 221 221 
255 255 255 
255 255 255 
255 175 175 
255 255 255 
255 99 224 
255 255 255 
255 175 175 
161 161 161 
0 0 0 
0 0 0 
255 231 231 
235 162 168 
0 0 0 
255 255 255 
255 127 127 
255 210 255 
255 237 255 
161 161 161 
255 255 255 
255 255 255 
255 255 255 
0 0 0 
175 175 255 
0 0 0 
0 0 0 
255 231 231 
0 0 0 
255 121 255 
255 210 255 
161 161 161 
161 161 161 
255 255 255 
161 161 161 
0 0 0 
0 0 0 
255 170 170 
0 0 0 
0 0 0 
92 28 255 
255 83 110 
255 255 255 
255 255 255 
255 255 255 
0 0 0 
255 255 255 
255 255 255 
221 221 221 
255 254 255 
0 0 0 
255 126 126 
255 238 238 
255 255 255 
0 0 0 
255 255 255 
255 255 255 
255 196 196 
255 240 255 
161 161 161 
255 184 184 
247 77 77 
161 161 161 
255 255 255 
255 255 255 
0 0 0 
161 161 161 
0 0 0 
199 199 255 
255 255 255 
0 0 0 
0 0 0 
231 208 255 
221 221 221 
255 127 127 
206 206 255 
161 161 161 
255 255 255 
175 175 255 
221 221 221 
255 127 127 
255 164 194 
0 0 0 
255 255 255 
205 178 255 
255 255 255 
255 255 255 
199 199 255 
255 255 255 
255 255 255 
161 161 161 
255 255 255 
161 161 161 
150 46 255 
0 0 0 
255 255 255 
144 144 255 
255 100 255 
161 161 161 
255 208 208 
161 161 161 
170 170 255 
205 178 255 
0 0 0 
95 95 255 
161 161 161 
255 127 127 
255 255 255 
205 168 255 
221 221 221 
255 128 255 
255 127 127 
77 77 247 
255 255 255 
0 0 0 
204 204 255 
255 255 255 
156 146 255 
161 161 161 
126 126 255 
161 161 161 
255 254 255 
0 0 0 
255 255 255 
0 0 0 
255 255 255 
255 255 255 
142 13 100 
255 255 255 
255 99 255 
255 255 255 
161 161 161 
0 0 0 
255 255 255 
144 144 255 
255 255 255 
255 126 126 
255 175 255 
47 47 151 
126 126 255 
0 0 0 
88 88 255 
255 177 255 
0 0 0 
0 0 0 
131 72 255 
0 0 0 
106 69 255 
0 0 0 
64 64 207 
167 129 255 
97 97 255 
118 36 118 
64 64 207 
217 133 255 
169 58 255 
162 140 255 
72 22 72 
125 58 186 
0 0 0 
84 51 164 
0 0 0 
34 10 110 
64 64 207 
47 47 151 
93 58 187 
137 60 194 
169 15 255 
195 164 255 
101 89 255 
77 77 249 
64 64 207 
93 58 187 
206 206 255 
126 126 255 
77 77 249 
47 47 151 
151 47 47 
0 0 0 
151 47 47 
151 47 47 
197 61 115 
0 0 0 
151 47 47 
255 101 115 
0 0 0 
0 0 0 
255 112 112 
255 83 110 
255 86 148 
255 88 88 
255 88 88 
0 0 0 
0 0 0 
255 129 255 
0 0 0 
207 64 64 
247 77 77 
255 98 98 
151 47 47 
255 88 88 
255 84 137 
255 255 255 
255 128 236 
255 88 128 
255 83 137 
255 255 255 
255 64 112 
0 0 0 
255 217 221 
151 47 47 
151 47 47 
255 88 88 
0 0 0 
247 77 77 
255 176 255 
161 161 161 
255 255 255 
0 0 0 
127 127 255 
0 0 0 
255 199 255 
255 255 255 
255 126 126 
255 126 255 
255 156 255 
255 255 255 
255 255 255 
161 161 161 
0 0 0 
255 255 255 
255 184 255 
255 255 255 
255 175 175 
0 0 0 
255 77 248 
255 245 255 
0 0 0 
255 175 255 
161 161 161 
0 0 0 
255 255 255 
0 0 0 
126 126 255 
255 255 255 
247 77 77 
0 0 0 
161 161 161 
0 0 0 
255 255 255 
255 255 255 
255 227 227 
255 255 255 
255 255 255 
221 221 221 
161 161 161 
0 0 0 
255 249 249 
255 255 255 
255 28 65 
0 0 0 
255 184 184 
255 255 255 
0 0 0 
255 255 255 
255 255 255 
255 255 255 
255 255 255 
255 162 193 
255 126 126 
255 28 92 
255 255 255 
255 255 255 
255 255 255 
255 126 126 
255 255 255 
255 249 255 
0 0 0 
127 127 255 
161 161 161 
247 77 77 
175 175 255 
255 206 206 
161 161 161 
236 236 255 
161 161 161 
161 161 161 
255 255 255 
0 0 0 
247 77 77 
255 255 255 
0 0 0 
0 0 0 
255 255 255 
255 162 162 
255 175 175 
255 255 255 
161 161 161 
255 255 255 
255 222 255 
255 207 207 
255 126 126 
255 47 243 
255 255 255 
224 99 255 
161 161 161 
255 255 255 
255 255 255 
161 161 161 
161 161 161 
255 255 255 
161 161 161 
255 255 255 
255 179 255 
255 210 255 
255 255 255 
255 188 255 
0 0 0 
255 255 255 
255 255 255 
255 255 255 
161 161 161 
255 28 92 
144 144 255 
247 77 77 
255 255 255 
255 255 255 
137 60 194 
255 206 206 
0 0 0 
255 255 255 
255 255 255 
255 255 255 
255 255 255 
255 255 255 
161 161 161 
0 0 0 
161 161 161 
221 221 221 
255 255 255 
255 231 255 
0 0 0 
0 0 0 
221 221 221 
255 255 255 
161 161 161 
255 255 255 
0 0 0 
126 126 255 
255 127 127 
255 255 255 
0 0 0 
161 161 161 
255 60 136 
255 255 255 
233 122 255 
255 255 255 
255 255 255 
255 136 224 
0 0 0 
161 161 161 
255 237 255 
161 161 161 
231 231 255 
194 164 194 
0 0 0 
161 161 161 
0 0 0 
255 255 255 
163 163 255 
174 77 255 
0 0 0 
161 161 161 
174 77 255 
255 255 255 
0 0 0 
116 22 234 
255 255 255 
0 0 0 
255 255 255 
0 0 0 
255 255 255 
144 144 255 
0 0 0 
255 160 255 
77 77 247 
0 0 0 
118 36 118 
0 0 0 
255 255 255 
255 166 215 
205 170 245 
0 0 0 
255 216 255 
64 64 207 
0 0 0 
193 60 193 
146 78 252 
255 210 255 
94 67 216 
193 60 193 
255 198 255 
60 60 255 
47 47 151 
83 66 255 
110 90 255 
102 79 255 
0 0 0 
255 47 255 
150 89 255 
0 0 0 
0 0 0 
212 4 133 
255 255 255 
0 0 0 
0 0 0 
72 22 72 
88 88 255 
77 77 249 
108 106 255 
107 42 135 
255 112 255 
0 0 0 
64 64 207 
72 22 72 
0 0 0 
56 47 255 
64 64 207 
47 47 151 
72 72 255 
255 94 255 
65 58 255 
47 47 151 
255 84 175 
255 72 72 
255 88 88 
255 79 255 
0 0 0 
151 47 47 
151 47 47 
0 0 0 
104 3 51 
151 47 47 
207 64 64 
255 126 126 
207 64 64 
255 37 37 
255 64 255 
151 47 47 
255 107 107 
255 126 129 
92 28 209 
255 22 51 
255 48 145 
255 88 88 
255 50 122 
119 37 83 
255 88 88 
255 139 255 
255 159 190 
151 47 47 
0 0 0 
255 39 70 
72 22 72 
255 133 147 
151 47 47 
255 88 88 
255 74 74 
72 22 72 
255 130 171 
255 208 208 
255 31 96 
207 207 255 
255 169 243 
255 110 153 
0 0 0 
0 0 0 
255 255 255 
255 138 255 
161 161 161 
193 60 193 
255 99 99 
255 255 255 
0 0 0 
161 161 161 
206 206 255 
0 0 0 
255 255 255 
255 227 227 
161 161 161 
255 175 175 
255 255 255 
221 221 221 
255 244 244 
161 161 161 
255 255 255 
161 161 161 
255 255 255 
255 255 255 
255 255 255 
0 0 0 
255 188 255 
255 255 255 
255 255 255 
0 0 0 
255 170 170 
255 255 255 
162 162 255 
161 161 161 
255 126 126 
247 77 77 
255 255 255 
255 235 255 
255 98 98 
255 255 255 
255 83 137 
0 0 0 
255 225 255 
255 255 255 
255 249 249 
255 255 255 
255 255 255 
0 0 0 
199 199 255 
255 199 255 
255 255 255 
0 0 0 
255 173 173 
255 126 126 
255 255 255 
255 184 255 
255 160 255 
255 199 199 
255 255 255 
0 0 0 
255 159 159 
161 161 161 
0 0 0 
221 221 221 
255 105 105 
255 129 167 
0 0 0 
255 255 255 
0 0 0 
199 199 255 
127 127 255 
255 255 255 
255 255 255 
255 255 255 
255 121 255 
0 0 0 
0 0 0 
161 161 161 
247 77 77 
161 161 161 
255 255 255 
188 166 255 
255 255 255 
255 162 255 
161 161 161 
127 127 255 
255 207 207 
255 255 255 
161 161 161 
0 0 0 
255 255 255 
213 207 255 
161 161 161 
0 0 0 
255 175 255 
0 0 0 
0 0 0 
221 221 221 
255 255 255 
254 254 255 
255 169 245 
161 161 161 
255 199 255 
161 161 161 
255 144 144 
161 161 161 
255 255 255 
255 255 255 
255 207 207 
255 255 255 
161 161 161 
161 161 161 
161 161 161 
255 255 255 
255 255 255 
255 255 255 
255 156 255 
0 0 0 
255 255 255 
0 0 0 
255 255 255 
0 0 0 
0 0 0 
161 161 161 
0 0 0 
255 255 255 
255 144 144 
255 255 255 
255 255 255 
221 221 221 
255 126 126 
161 161 161 
0 0 0 
255 233 255 
255 255 255 
174 77 255 
161 161 161 
205 170 245 
255 255 255 
255 166 214 
255 255 255 
160 65 255 
0 0 0 
188 166 255 
99 99 255 
255 255 255 
0 0 0 
161 161 161 
255 122 255 
161 161 161 
0 0 0 
255 255 255 
244 170 244 
255 255 255 
255 238 255 
255 255 255 
255 238 255 
255 255 255 
65 28 255 
255 255 255 
255 126 255 
255 255 255 
254 254 255 
161 161 161 
255 216 216 
255 255 255 
255 255 255 
255 255 255 
255 255 255 
234 153 255 
255 254 255 
249 249 255 
0 0 0 
161 161 161 
0 0 0 
0 0 0 
77 77 247 
142 142 255 
77 77 247 
88 88 255 
224 99 255 
77 77 247 
47 47 151 
153 6 67 
89 69 255 
0 0 0 
0 0 0 
0 0 0 
255 160 255 
255 77 248 
255 85 255 
0 0 0 
52 40 255 
53 47 255 
0 0 0 
58 58 255 
53 47 255 
97 59 255 
200 105 255 
64 64 207 
102 79 255 
47 47 151 
47 47 151 
0 0 0 
255 226 255 
200 61 255 
56 17 181 
47 47 151 
126 126 255 
84 51 164 
40 17 182 
220 68 220 
255 255 255 
92 78 255 
151 47 47 
255 64 64 
0 0 0 
92 28 209 
151 47 47 
255 116 232 
247 77 77 
182 17 40 
255 145 255 
255 126 126 
255 152 233 
247 77 77 
0 0 0 
151 47 47 
0 0 0 
151 47 47 
255 104 104 
255 17 127 
253 77 112 
151 47 47 
0 0 0 
255 85 85 
255 99 99 
255 105 105 
0 0 0 
207 64 64 
255 58 193 
255 124 234 
255 113 255 
255 132 221 
255 88 88 
192 49 71 
255 204 255 
255 255 255 
255 97 97 
255 95 243 
255 105 105 
255 114 192 
255 131 255 
255 175 175 
255 218 255 
255 255 255 
255 105 105 
255 255 255 
255 255 255 
161 161 161 
255 255 255 
0 0 0 
161 161 161 
0 0 0 
247 77 77 
255 218 255 
0 0 0 
255 144 144 
191 132 255 
255 255 255 
255 145 255 
161 161 161 
0 0 0 
247 77 77 
255 126 126 
221 221 221 
0 0 0 
0 0 0 
255 255 255 
161 161 161 
255 175 175 
161 161 161 
255 255 255 
255 255 255 
77 77 247 
255 46 150 
0 0 0 
0 0 0 
255 255 255 
247 77 77 
255 255 255 
255 83 204 
255 170 170 
255 162 255 
255 218 255 
0 0 0 
0 0 0 
0 0 0 
255 255 255 
0 0 0 
255 255 255 
161 161 161 
0 0 0 
161 161 161 
255 255 255 
255 183 255 
161 161 161 
255 255 255 
255 255 255 
181 17 56 
0 0 0 
255 255 255 
255 175 175 
92 28 209 
255 255 255 
0 0 0 
0 0 0 
0 0 0 
255 255 255 
255 170 170 
161 161 161 
255 255 255 
245 170 205 
255 255 255 
221 221 221 
221 221 221 
161 161 161 
0 0 0 
161 161 161 
0 0 0 
0 0 0 
0 0 0 
255 255 255 
255 255 255 
255 255 255 
255 207 207 
161 161 161 
221 221 221 
255 255 255 
255 175 175 
255 255 255 
255 255 255 
221 221 221 
0 0 0 
161 161 161 
0 0 0 
0 0 0 
161 161 161 
0 0 0 
255 180 255 
255 222 225 
255 127 127 
161 161 161 
255 255 255 
255 255 255 
255 206 206 
255 126 126 
255 255 255 
255 233 255 
99 99 255 
255 22 162 
0 0 0 
255 255 255 
175 175 255 
255 175 175 
0 0 0 
255 255 255 
255 255 255 
255 255 255 
255 255 255 
0 0 0 
255 255 255 
255 255 255 
255 255 255 
255 172 201 
60 60 255 
255 255 255 
255 255 255 
255 212 212 
214 166 255 
184 184 255 
255 231 231 
255 255 255 
0 0 0 
0 0 0 
0 0 0 
0 0 0 
255 175 175 
161 161 161 
161 161 161 
255 255 255 
255 119 216 
255 182 255 
255 133 192 
83 37 119 
255 227 255 
255 161 161 
255 214 255 
175 77 77 
255 185 255 
0 0 0 
241 106 106 
255 127 255 
255 255 255 
255 157 255 
175 77 77 
255 255 255 
255 255 255 
255 126 255 
0 0 0 
118 36 118 
221 221 221 
255 184 184 
161 161 161 
0 0 0 
0 0 0 
255 255 255 
224 99 255 
77 77 247 
126 126 255 
255 208 208 
255 255 255 
210 210 255 
0 0 0 
161 161 161 
161 161 161 
0 0 0 
255 166 214 
255 194 255 
0 0 0 
255 255 255 
77 77 247 
149 38 255 
238 116 255 
255 69 255 
46 46 255 
56 17 181 
74 66 255 
151 63 204 
47 47 151 
0 0 0 
40 17 182 
83 37 119 
0 0 0 
149 149 255 
60 60 255 
150 4 134 
0 0 0 
0 0 0 
151 47 255 
124 102 255 
83 37 119 
255 88 255 
0 0 0 
34 10 110 
77 77 249 
227 107 255 
64 64 207 
0 0 0 
78 10 255 
47 47 151 
102 72 233 
64 64 207 
47 47 151 
0 0 0 
0 0 0 
47 47 151 
209 28 92 
0 0 0 
47 47 151 
255 108 227 
255 84 138 
187 58 93 
255 98 149 
151 47 47 
207 64 64 
0 0 0 
0 0 0 
255 103 103 
175 54 132 
151 47 47 
255 42 79 
255 145 255 
255 69 255 
255 104 166 
255 95 159 
255 83 110 
255 103 208 
151 47 47 
255 36 36 
0 0 0 
255 74 74 
247 77 77 
207 64 64 
0 0 0 
255 88 255 
181 17 56 
255 74 74 
255 67 255 
247 77 77 
255 83 83 
0 0 0 
255 88 255 
255 126 126 
151 47 47 
0 0 0 
255 93 143 
0 0 0 
247 77 77 
161 161 161 
255 255 255 
0 0 0 
221 221 221 
161 161 161 
255 255 255 
0 0 0 
255 255 255 
255 255 255 
127 127 255 
255 160 160 
255 255 255 
255 136 136 
255 172 172 
161 161 161 
161 161 161 
161 161 161 
255 255 255 
247 77 77 
255 229 229 
255 60 60 
255 255 255 
0 0 0 
255 126 126 
249 249 255 
0 0 0 
255 255 255 
255 159 159 
221 221 221 
255 175 175 
0 0 0 
0 0 0 
255 255 255 
255 255 255 
255 255 255 
255 126 126 
255 224 255 
255 175 175 
255 255 255 
247 77 77 
255 175 175 
255 175 175 
0 0 0 
255 175 175 
255 206 206 
255 255 255 
161 161 161 
161 161 161 
255 100 230 
255 105 105 
249 249 255 
255 105 255 
175 175 255 
255 255 255 
255 105 255 
161 161 161 
221 221 221 
161 161 161 
255 184 255 
255 83 255 
255 170 170 
161 161 161 
255 255 255 
255 255 255 
0 0 0 
161 161 161 
0 0 0 
255 255 255 
221 221 221 
161 161 161 
255 255 255 
255 255 255 
161 161 161 
161 161 161 
255 249 249 
193 60 193 
0 0 0 
0 0 0 
161 161 161 
255 175 175 
255 255 255 
0 0 0 
255 255 255 
255 255 255 
0 0 0 
255 255 255 
161 161 161 
255 255 255 
255 255 255 
0 0 0 
255 255 255 
247 77 77 
255 255 255 
255 255 255 
255 255 255 
255 254 254 
255 255 255 
255 135 255 
255 255 255 
255 255 255 
255 255 255 
255 13 140 
255 222 255 
161 161 161 
0 0 0 
255 164 255 
255 255 255 
255 255 255 
238 238 255 
255 255 255 
0 0 0 
161 161 161 
255 255 255 
255 255 255 
255 255 255 
161 161 161 
255 255 255 
255 173 173 
161 161 161 
255 254 254 
255 255 255 
161 161 161 
255 255 255 
0 0 0 
161 161 161 
247 77 77 
255 163 255 
255 255 255 
255 164 255 
207 207 255 
255 255 255 
255 255 255 
255 255 255 
126 126 255 
255 128 128 
255 128 128 
255 84 84 
255 122 122 
175 77 77 
241 106 106 
255 167 197 
137 60 194 
255 119 255 
255 128 128 
255 111 111 
241 106 106 
184 81 255 
255 145 145 
255 128 128 
255 194 194 
255 122 122 
255 161 161 
255 128 128 
241 106 106 
255 207 207 
255 154 231 
251 111 155 
255 255 255 
161 161 161 
161 161 161 
199 199 255 
221 221 221 
161 161 161 
161 161 161 
249 222 255 
0 0 0 
255 255 255 
161 161 161 
161 161 161 
0 0 0 
0 0 0 
255 255 255 
77 77 247 
255 255 255 
0 0 0 
255 255 255 
0 0 0 
77 77 247 
236 128 255 
209 209 255 
0 0 0 
0 0 0 
64 64 207 
47 47 151 
102 79 255 
47 47 151 
255 88 255 
0 0 0 
88 88 255 
0 0 0 
255 101 255 
255 126 255 
44 13 255 
0 0 0 
218 208 255 
154 64 206 
54 24 250 
255 45 145 
64 64 207 
144 47 255 
160 77 248 
255 184 255 
88 88 255 
60 49 230 
255 99 255 
255 36 255 
84 51 164 
106 47 255 
64 64 207 
47 47 151 
83 37 119 
47 47 151 
47 47 151 
77 77 247 
47 47 151 
222 57 184 
84 51 164 
255 37 189 
255 97 97 
255 93 118 
255 84 142 
255 22 22 
151 47 47 
255 140 255 
255 96 165 
151 47 47 
255 51 51 
225 65 153 
255 81 180 
255 60 60 
186 58 125 
0 0 0 
208 28 255 
255 82 255 
255 88 88 
151 47 47 
247 77 77 
207 64 64 
255 111 228 
255 209 209 
255 93 143 
255 120 120 
255 157 172 
0 0 0 
255 13 141 
119 37 83 
247 77 77 
0 0 0 
255 64 113 
151 47 47 
0 0 0 
255 121 255 
255 99 207 
255 158 255 
0 0 0 
207 64 64 
255 104 247 
255 255 255 
161 161 161 
255 126 126 
255 255 255 
247 77 77 
0 0 0 
161 161 161 
161 161 161 
247 77 77 
181 17 56 
0 0 0 
255 255 255 
0 0 0 
255 184 184 
255 162 255 
161 161 161 
255 255 255 
161 161 161 
0 0 0 
118 36 118 
255 218 255 
255 98 255 
255 88 252 
161 161 161 
255 119 168 
0 0 0 
0 0 0 
0 0 0 
0 0 0 
255 183 255 
255 126 126 
161 161 161 
86 8 86 
255 138 138 
255 255 255 
255 159 159 
161 161 161 
0 0 0 
0 0 0 
221 221 221 
255 210 255 
255 163 171 
255 255 255 
0 0 0 
247 77 77 
255 175 175 
255 255 255 
0 0 0 
255 225 225 
0 0 0 
255 249 249 
255 126 126 
0 0 0 
226 202 255 
255 227 227 
161 161 161 
255 113 113 
255 255 255 
255 255 255 
255 112 213 
161 161 161 
77 77 247 
161 161 161 
255 255 255 
207 207 255 
255 255 255 
247 77 77 
255 217 255 
249 249 255 
255 47 47 
255 255 255 
161 161 161 
238 222 255 
0 0 0 
255 255 255 
0 0 0 
255 255 255 
255 170 170 
255 255 255 
161 161 161 
176 78 255 
0 0 0 
255 255 255 
161 161 161 
221 221 221 
195 195 255 
161 161 161 
255 210 210 
161 161 161 
255 227 227 
255 255 255 
255 255 255 
221 221 221 
255 208 208 
255 255 255 
0 0 0 
255 196 255 
255 255 255 
161 161 161 
0 0 0 
255 224 255 
247 77 77 
0 0 0 
255 255 255 
0 0 0 
255 222 255 
255 255 255 
255 155 155 
255 255 255 
255 255 255 
255 184 184 
153 95 255 
0 0 0 
235 122 255 
255 255 255 
255 255 255 
255 255 255 
77 77 247 
0 0 0 
255 129 255 
0 0 0 
161 161 161 
0 0 0 
255 99 99 
255 127 127 
255 255 255 
255 175 175 
255 162 255 
161 161 161 
0 0 0 
241 106 106 
255 212 255 
255 128 128 
255 83 148 
255 141 255 
175 77 77 
255 118 184 
255 122 255 
255 166 255 
255 115 158 
255 142 250 
255 122 231 
175 77 77 
255 167 222 
255 190 216 
175 77 77 
255 128 128 
255 255 255 
255 238 255 
190 84 138 
255 129 255 
175 77 77 
241 106 106 
0 0 0 
175 77 77 
247 109 231 
255 114 255 
216 95 206 
255 107 172 
0 0 0 
255 255 255 
0 0 0 
255 159 255 
0 0 0 
247 77 77 
255 255 255 
0 0 0 
255 255 255 
92 28 255 
0 0 0 
0 0 0 
255 207 207 
161 161 161 
255 255 255 
206 206 255 
98 98 255 
255 255 255 
255 50 255 
215 150 255 
127 126 255 
255 88 255 
47 47 151 
132 132 255 
88 88 255 
0 0 0 
0 0 0 
64 64 207 
88 88 255 
72 22 72 
47 47 151 
92 28 209 
47 47 151 
47 47 151 
255 31 255 
0 0 0 
77 77 247 
255 93 255 
47 6 217 
0 0 0 
77 77 247 
0 0 0 
0 0 0 
255 58 186 
47 47 151 
224 50 255 
255 255 255 
0 0 0 
88 88 255 
0 0 0 
64 64 207 
0 0 0 
47 47 151 
84 84 255 
47 47 151 
255 111 255 
47 47 151 
207 64 64 
0 0 0 
255 72 72 
255 121 195 
255 36 36 
99 9 255 
255 97 97 
255 97 97 
255 139 255 
255 128 151 
255 206 215 
207 64 64 
255 54 78 
255 89 101 
0 0 0 
247 77 77 
151 47 47 
0 0 0 
0 0 0 
255 223 255 
0 0 0 
255 255 255 
255 97 97 
255 58 58 
255 87 87 
255 57 103 
255 132 222 
255 95 95 
255 88 88 
151 47 47 
0 0 0 
151 47 47 
255 36 36 
255 131 255 
151 47 47 
0 0 0 
255 77 77 
255 91 167 
255 95 95 
0 0 0 
161 161 161 
255 255 255 
255 127 255 
0 0 0 
0 0 0 
255 199 199 
255 99 224 
255 255 255 
255 174 255 
247 77 77 
255 97 255 
247 77 77 
0 0 0 
0 0 0 
255 47 151 
255 126 255 
255 255 255 
255 255 255 
255 255 255 
255 125 255 
255 255 255 
222 222 255 
161 161 161 
255 255 255 
0 0 0 
255 255 255 
0 0 0 
245 170 205 
255 199 199 
161 161 161 
0 0 0 
255 255 255 
255 13 255 
255 98 255 
0 0 0 
255 255 255 
161 161 161 
255 255 255 
194 164 255 
161 161 161 
0 0 0 
255 255 255 
255 126 255 
255 255 255 
255 207 207 
161 161 161 
255 22 72 
255 46 150 
255 59 191 
255 255 255 
247 77 77 
0 0 0 
255 172 172 
255 255 255 
0 0 0 
161 161 161 
161 161 161 
255 199 199 
0 0 0 
221 221 221 
255 255 255 
255 238 238 
255 178 205 
255 255 255 
255 255 255 
247 77 77 
255 184 255 
255 255 255 
255 255 255 
221 221 221 
0 0 0 
255 255 255 
221 221 221 
255 206 206 
0 0 0 
0 0 0 
0 0 0 
126 126 255 
0 0 0 
0 0 0 
255 227 227 
255 255 255 
0 0 0 
221 221 221 
255 255 255 
0 0 0 
0 0 0 
255 255 255 
255 145 255 
255 255 255 
255 255 255 
255 105 255 
255 227 227 
255 255 255 
255 199 199 
161 161 161 
77 77 247 
255 163 255 
255 255 255 
255 180 255 
0 0 0 
255 255 255 
231 231 255 
0 0 0 
0 0 0 
255 215 255 
199 199 255 
245 170 205 
255 255 255 
161 161 161 
244 231 255 
0 0 0 
255 199 199 
255 207 207 
161 161 161 
255 199 199 
0 0 0 
255 255 255 
255 255 255 
0 0 0 
255 126 126 
255 255 255 
161 161 161 
255 255 255 
171 163 255 
255 99 99 
175 175 255 
175 77 77 
255 156 156 
255 174 174 
255 218 218 
255 107 113 
83 37 119 
241 106 106 
255 171 171 
255 188 188 
255 119 216 
175 77 77 
255 100 255 
255 132 169 
175 77 77 
83 37 119 
255 146 146 
255 126 255 
255 139 227 
255 170 255 
255 255 255 
255 128 128 
255 251 255 
175 77 77 
175 77 77 
255 128 128 
175 77 77 
255 246 246 
255 144 179 
255 141 141 
0 0 0 
255 128 128 
175 77 77 
241 106 106 
255 39 151 
83 37 119 
0 0 0 
255 255 255 
255 162 255 
255 255 255 
255 126 126 
60 60 255 
204 95 255 
236 236 255 
131 45 255 
161 161 161 
0 0 0 
255 184 255 
255 255 255 
255 221 255 
0 0 0 
47 47 151 
255 83 255 
151 138 255 
0 0 0 
0 0 0 
64 64 207 
210 210 255 
255 206 255 
126 126 255 
47 47 151 
47 47 151 
0 0 0 
0 0 0 
0 0 0 
93 58 187 
147 130 255 
255 102 255 
255 116 255 
255 101 255 
0 0 0 
117 20 247 
255 255 255 
163 112 255 
47 47 151 
255 94 255 
127 127 255 
47 47 151 
88 88 255 
47 47 151 
255 60 206 
255 107 255 
47 47 151 
77 77 249 
0 0 0 
132 101 255 
71 65 230 
255 109 255 
132 132 255 
47 47 151 
255 106 255 
216 67 94 
182 17 40 
247 77 77 
255 137 180 
255 74 142 
255 88 88 
118 36 118 
255 49 255 
255 28 65 
255 141 255 
151 47 47 
255 45 120 
0 0 0 
255 28 92 
0 0 0 
255 105 255 
255 175 255 
255 47 255 
151 47 47 
0 0 0 
255 107 107 
0 0 0 
207 64 64 
255 106 106 
255 78 85 
255 88 88 
255 98 98 
255 98 98 
255 64 155 
255 88 88 
0 0 0 
247 77 77 
239 74 142 
247 77 77 
255 77 82 
255 111 111 
255 160 255 
255 126 126 
255 170 170 
161 161 161 
161 161 161 
0 0 0 
247 77 77 
255 255 255 
255 255 255 
255 162 255 
0 0 0 
0 0 0 
0 0 0 
255 166 214 
161 161 161 
255 223 228 
255 255 255 
255 199 199 
255 216 255 
255 98 255 
255 255 255 
0 0 0 
0 0 0 
255 175 175 
255 255 255 
0 0 0 
0 0 0 
161 161 161 
255 255 255 
0 0 0 
0 0 0 
194 164 194 
238 238 255 
255 126 126 
255 255 255 
0 0 0 
255 255 255 
221 221 221 
255 255 255 
255 199 199 
161 161 161 
255 126 126 
255 255 255 
255 255 255 
255 255 255 
255 175 175 
194 164 194 
0 0 0 
0 0 0 
207 207 255 
255 255 255 
255 159 159 
247 77 77 
255 255 255 
255 255 255 
255 255 255 
255 255 255 
221 221 221 
255 255 255 
247 77 77 
205 170 245 
255 255 255 
255 255 255 
255 255 255 
255 160 255 
0 0 0 
161 161 161 
255 255 255 
255 175 175 
137 60 194 
161 161 161 
0 0 0 
181 17 255 
255 255 255 
0 0 0 
255 255 255 
255 255 255 
255 255 255 
255 255 255 
255 255 255 
161 161 161 
161 161 161 
161 161 161 
247 77 77 
247 77 77 
0 0 0 
161 161 161 
221 221 221 
0 0 0 
161 161 161 
255 255 255 
161 161 161 
199 199 255 
161 161 161 
0 0 0 
171 163 255 
247 77 77 
126 126 255 
161 161 161 
255 255 255 
255 227 255 
0 0 0 
255 127 127 
255 175 175 
255 255 255 
161 161 161 
255 255 255 
255 255 255 
255 231 231 
255 255 255 
175 175 255 
247 77 77 
0 0 0 
221 221 221 
255 231 231 
0 0 0 
255 255 255 
77 77 247 
255 255 255 
255 255 255 
255 255 255 
161 161 161 
255 255 255 
77 77 247 
0 0 0 
0 0 0 
161 161 161 
0 0 0 
255 175 175 
255 155 155 
241 106 106 
175 77 77 
241 106 106 
255 119 216 
255 149 149 
83 37 119 
255 255 255 
241 106 106 
255 99 111 
255 111 111 
175 77 77 
255 128 128 
255 107 118 
255 128 128 
255 188 255 
255 139 255 
175 77 77 
241 106 106 
255 255 255 
255 128 128 
175 77 77 
255 146 146 
241 106 106 
241 106 106 
255 195 255 
255 127 127 
197 78 158 
255 146 146 
175 77 77 
255 146 146 
255 161 255 
255 113 255 
0 0 0 
251 111 155 
175 77 77 
255 146 146 
216 95 206 
137 60 194 
255 255 255 
171 161 255 
231 231 255 
255 175 255 
77 77 247 
255 255 255 
241 164 255 
255 255 255 
222 222 255 
194 164 194 
161 161 161 
254 254 255 
53 53 255 
219 207 255 
235 78 255 
118 36 118 
60 49 230 
72 22 72 
137 60 194 
78 10 255 
83 83 255 
0 0 0 
239 140 255 
72 72 255 
255 162 255 
64 64 207 
40 17 182 
220 220 255 
54 24 250 
0 0 0 
0 0 0 
153 95 255 
140 69 255 
255 49 230 
0 0 0 
47 47 151 
255 103 255 
47 47 151 
177 10 111 
40 2 186 
64 64 207 
102 79 255 
0 0 0 
255 176 255 
47 47 151 
129 108 255 
115 61 197 
255 255 255 
102 72 233 
0 0 0 
189 177 255 
255 106 255 
151 47 47 
151 47 47 
99 30 99 
255 88 88 
151 47 47 
255 142 142 
0 0 0 
151 47 47 
255 160 255 
255 88 88 
255 85 85 
255 74 74 
255 115 241 
255 58 58 
255 255 255 
249 77 77 
0 0 0 
255 126 126 
255 74 74 
255 64 155 
0 0 0 
0 0 0 
151 47 47 
0 0 0 
255 88 88 
151 47 47 
0 0 0 
151 47 47 
0 0 0 
238 74 197 
207 64 64 
151 47 47 
151 47 47 
247 77 77 
255 130 130 
151 47 47 
72 22 72 
255 86 148 
126 126 255 
255 255 255 
0 0 0 
255 98 98 
0 0 0 
255 206 206 
0 0 0 
255 126 126 
0 0 0 
255 255 255 
0 0 0 
255 255 255 
255 216 216 
255 255 255 
255 121 121 
255 255 255 
161 161 161 
255 255 255 
255 36 83 
255 126 126 
0 0 0 
255 36 36 
255 255 255 
0 0 0 
0 0 0 
0 0 0 
161 161 161 
161 161 161 
255 255 255 
255 255 255 
255 105 255 
221 221 221 
255 206 206 
0 0 0 
161 161 161 
0 0 0 
255 144 144 
0 0 0 
0 0 0 
255 255 255 
255 206 206 
118 36 118 
255 227 255 
255 255 255 
0 0 0 
255 235 235 
194 164 194 
255 255 255 
161 161 161 
0 0 0 
161 161 161 
255 95 206 
255 177 255 
255 175 175 
255 255 255 
0 0 0 
255 255 255 
255 255 255 
255 255 255 
255 255 255 
255 163 181 
0 0 0 
255 222 255 
255 255 255 
161 161 161 
255 255 255 
255 255 255 
0 0 0 
255 255 255 
255 255 255 
255 204 255 
205 178 255 
221 221 221 
221 221 221 
255 175 175 
161 161 161 
255 255 255 
161 161 161 
0 0 0 
255 184 184 
255 207 207 
0 0 0 
255 255 255 
255 221 227 
255 255 255 
161 161 161 
161 161 161 
255 99 224 
255 255 255 
255 144 144 
244 170 244 
255 255 255 
247 77 77 
255 184 184 
255 255 255 
255 144 144 
0 0 0 
255 255 255 
193 60 193 
77 77 247 
255 255 255 
0 0 0 
0 0 0 
0 0 0 
161 161 161 
0 0 0 
161 161 161 
161 161 161 
255 255 255 
0 0 0 
255 255 255 
255 255 255 
255 255 255 
233 210 255 
255 255 255 
255 255 255 
255 255 255 
255 207 207 
255 255 255 
0 0 0 
255 184 255 
206 206 255 
60 60 255 
255 255 255 
0 0 0 
255 132 132 
175 77 77 
255 111 111 
255 175 255 
255 246 255 
255 145 145 
255 171 255 
200 88 255 
255 192 192 
255 199 199 
241 106 106 
255 199 255 
255 146 146 
175 77 77 
255 151 151 
255 65 147 
228 101 232 
241 106 106 
255 255 255 
255 138 255 
175 77 77 
255 218 218 
255 146 146 
255 119 119 
241 106 106 
255 95 95 
241 106 106 
199 88 246 
255 132 132 
0 0 0 
255 134 255 
255 146 154 
255 107 150 
190 84 138 
175 77 77 
0 0 0 
255 132 169 
255 128 128 
51 22 255 
211 79 93 
255 132 169 
83 37 119 
180 180 255 
105 105 255 
247 77 77 
161 161 161 
255 172 255 
175 175 255 
255 161 255 
255 143 255 
161 161 161 
126 126 255 
205 170 245 
255 46 150 
77 77 247 
0 0 0 
77 77 247 
249 87 255 
0 0 0 
255 255 255 
72 22 72 
64 64 207 
109 69 255 
67 55 255 
0 0 0 
46 46 255 
255 171 255 
77 77 247 
72 72 255 
86 77 255 
47 47 151 
232 119 255 
47 47 151 
88 88 255 
86 56 255 
47 47 151 
78 54 255 
0 0 0 
93 58 187 
64 64 207 
47 47 151 
88 88 255 
255 28 255 
84 51 164 
0 0 0 
47 47 151 
47 47 151 
83 37 119 
134 72 255 
255 47 151 
203 61 255 
84 51 164 
151 47 47 
255 81 81 
255 119 119 
164 51 84 
255 97 97 
255 50 140 
255 46 150 
233 72 131 
255 164 255 
186 58 125 
233 72 102 
255 100 157 
255 113 113 
255 237 237 
255 22 51 
230 49 60 
255 210 255 
255 88 88 
0 0 0 
249 77 77 
207 64 64 
207 64 64 
255 81 101 
255 72 72 
247 77 77 
255 255 255 
151 47 47 
255 126 126 
255 77 248 
255 112 112 
0 0 0 
0 0 0 
255 113 255 
0 0 0 
247 77 77 
0 0 0 
255 121 169 
151 47 47 
255 206 206 
255 198 255 
0 0 0 
161 161 161 
0 0 0 
255 255 255 
255 130 147 
0 0 0 
0 0 0 
0 0 0 
255 255 255 
255 227 255 
0 0 0 
126 126 255 
255 255 255 
255 22 255 
246 76 255 
255 175 175 
255 206 255 
255 255 255 
0 0 0 
127 127 255 
0 0 0 
255 175 255 
255 255 255 
255 199 199 
255 206 206 
255 255 255 
161 161 161 
194 164 194 
255 254 254 
255 206 206 
161 161 161 
255 126 126 
255 47 47 
255 126 126 
161 161 161 
255 175 175 
255 255 255 
234 22 116 
255 145 145 
161 161 161 
255 160 255 
0 0 0 
255 126 126 
0 0 0 
255 155 255 
255 199 199 
255 175 175 
255 76 246 
161 161 161 
255 255 255 
255 255 255 
0 0 0 
255 95 255 
0 0 0 
0 0 0 
255 255 255 
247 77 77 
255 121 255 
255 255 255 
255 255 255 
255 255 255 
255 255 255 
255 255 255 
255 253 253 
0 0 0 
255 206 206 
255 237 237 
0 0 0 
255 255 255 
0 0 0 
0 0 0 
255 255 255 
221 221 221 
221 221 221 
255 255 255 
255 28 65 
175 175 255 
255 255 255 
255 255 255 
0 0 0 
255 126 126 
255 255 255 
255 255 255 
221 221 221 
247 77 77 
0 0 0 
255 160 160 
255 255 255 
161 161 161 
175 175 255 
0 0 0 
161 161 161 
255 162 162 
0 0 0 
255 28 92 
255 255 255 
0 0 0 
77 77 247 
255 149 255 
255 36 118 
255 255 255 
255 175 175 
0 0 0 
255 207 207 
255 255 255 
221 221 221 
161 161 161 
0 0 0 
161 161 161 
175 175 255 
255 255 255 
255 255 255 
255 177 255 
255 255 255 
255 255 255 
255 184 255 
255 255 255 
255 255 255 
161 161 161 
0 0 0 
255 210 255 
255 207 207 
255 146 255 
255 157 255 
255 154 154 
255 175 175 
255 154 255 
255 132 132 
0 0 0 
255 78 78 
255 206 255 
255 148 148 
241 106 106 
255 189 255 
175 77 77 
255 119 216 
175 77 77 
255 149 183 
241 106 106 
175 77 77 
255 119 216 
255 155 236 
255 145 145 
255 109 137 
0 0 0 
255 128 128 
175 77 77 
241 106 106 
255 95 255 
190 84 138 
0 0 0 
255 95 95 
255 145 255 
255 163 182 
255 128 128 
255 189 189 
175 77 77 
175 77 77 
0 0 0 
255 128 128 
251 111 155 
255 89 129 
255 128 128 
255 108 250 
0 0 0 
159 54 226 
0 0 0 
255 174 255 
221 221 221 
161 161 161 
255 255 255 
0 0 0 
132 132 255 
255 144 255 
161 161 161 
98 98 255 
255 255 255 
77 77 247 
77 77 247 
0 0 0 
118 36 118 
119 100 255 
77 77 247 
255 255 255 
47 47 151 
72 22 72 
0 0 0 
172 67 255 
88 88 255 
47 47 151 
47 47 151 
254 226 255 
0 0 0 
0 0 0 
80 27 193 
47 47 151 
72 22 72 
255 255 255 
255 42 255 
0 0 0 
60 60 255 
47 47 151 
255 86 255 
64 64 207 
255 131 255 
255 83 255 
40 17 182 
131 72 233 
0 0 0 
47 47 151 
151 47 255 
90 50 255 
64 64 207 
77 77 249 
94 67 216 
47 47 151 
151 47 47 
0 0 0 
247 77 77 
72 22 72 
255 89 89 
255 74 143 
247 77 77 
255 98 98 
247 77 77 
151 47 47 
72 22 72 
255 64 64 
151 47 47 
255 72 72 
255 90 132 
255 126 126 
255 104 158 
0 0 0 
0 0 0 
0 0 0 
0 0 0 
255 79 135 
255 65 99 
255 79 102 
92 28 255 
255 111 111 
164 51 84 
255 65 76 
0 0 0 
247 77 77 
242 55 255 
151 47 47 
0 0 0 
0 0 0 
255 47 47 
255 212 217 
0 0 0 
151 47 47 
0 0 0 
255 255 255 
255 98 98 
0 0 0 
255 162 190 
255 206 255 
255 124 234 
255 206 206 
135 126 255 
255 126 126 
161 161 161 
255 112 212 
255 163 171 
255 166 215 
255 255 255 
0 0 0 
126 126 255 
255 83 137 
255 255 255 
255 255 255 
255 254 254 
255 77 77 
255 231 231 
0 0 0 
0 0 0 
255 255 255 
255 255 255 
161 161 161 
255 199 199 
255 255 255 
255 188 188 
255 255 255 
255 249 249 
255 255 255 
255 255 255 
247 77 77 
255 255 255 
0 0 0 
161 161 161 
161 161 161 
0 0 0 
255 234 249 
255 255 255 
255 236 255 
255 255 255 
233 210 255 
255 255 255 
247 77 77 
255 255 255 
255 175 175 
255 136 255 
255 255 255 
199 199 255 
255 255 255 
255 255 255 
0 0 0 
0 0 0 
255 175 175 
255 17 127 
255 175 175 
255 255 255 
0 0 0 
247 77 77 
0 0 0 
255 255 255 
255 207 207 
255 98 255 
161 161 161 
255 175 175 
194 60 137 
255 212 212 
0 0 0 
209 28 92 
255 255 255 
246 6 220 
255 255 255 
0 0 0 
0 0 0 
255 255 255 
255 201 255 
0 0 0 
255 175 175 
255 255 255 
255 126 126 
221 221 221 
255 187 255 
255 255 255 
215 166 255 
255 47 106 
221 221 221 
0 0 0 
0 0 0 
255 230 230 
255 217 217 
255 255 255 
255 255 255 
0 0 0 
255 127 127 
247 77 77 
249 249 255 
194 164 194 
161 161 161 
0 0 0 
255 255 255 
255 255 255 
255 255 255 
255 255 255 
228 223 255 
255 255 255 
0 0 0 
255 255 255 
199 199 255 
255 255 255 
0 0 0 
161 161 161 
255 255 255 
0 0 0 
0 0 0 
0 0 0 
255 255 255 
255 127 255 
199 199 255 
255 249 249 
255 199 199 
255 127 127 
255 157 157 
255 141 141 
255 166 172 
255 119 119 
255 255 255 
255 161 161 
241 106 106 
251 111 155 
255 128 128 
251 111 155 
175 77 77 
255 162 255 
255 149 149 
255 174 174 
255 132 169 
255 149 149 
241 106 106 
255 123 163 
255 47 107 
255 109 109 
255 146 146 
0 0 0 
255 84 84 
255 90 142 
255 146 146 
175 77 77 
255 128 128 
241 106 106 
175 77 77 
255 218 218 
241 106 106 
255 128 128 
0 0 0 
255 119 119 
165 22 165 
255 178 206 
186 78 159 
255 114 255 
255 228 228 
255 122 122 
0 0 0 
255 255 255 
255 207 207 
255 146 146 
175 77 77 
241 106 106 
0 0 0 
0 0 0 
161 161 161 
255 199 199 
255 255 255 
0 0 0 
0 0 0 
161 161 161 
77 77 247 
88 88 255 
64 64 207 
133 133 255 
97 97 255 
47 47 151 
140 140 255 
0 0 0 
153 95 255 
47 47 151 
255 146 255 
85 78 255 
255 255 255 
47 47 151 
77 77 247 
0 0 0 
77 77 247 
255 112 255 
47 6 217 
137 60 194 
47 47 151 
47 47 151 
166 127 255 
47 47 151 
193 60 193 
77 77 247 
65 47 255 
93 65 245 
0 0 0 
0 0 0 
0 0 0 
47 47 151 
105 105 255 
189 37 255 
255 168 255 
110 90 255 
72 22 72 
124 102 255 
127 82 255 
255 81 146 
0 0 0 
255 17 17 
255 149 149 
255 36 36 
0 0 0 
151 47 47 
255 138 138 
255 68 96 
255 113 113 
255 77 111 
216 67 94 
255 117 158 
255 83 137 
255 60 64 
255 47 229 
255 59 71 
0 0 0 
0 0 0 
193 60 193 
255 83 110 
255 83 118 
255 47 152 
255 36 36 
151 47 47 
255 83 83 
255 182 255 
196 61 141 
255 60 60 
255 129 164 
0 0 0 
194 60 137 
0 0 0 
0 0 0 
255 37 119 
255 120 151 
255 66 83 
72 22 72 
255 118 118 
255 219 225 
255 175 175 
0 0 0 
255 216 216 
0 0 0 
161 161 161 
0 0 0 
77 77 247 
0 0 0 
255 162 190 
255 255 255 
255 255 255 
255 144 144 
0 0 0 
255 172 255 
161 161 161 
247 77 77 
161 161 161 
0 0 0 
255 255 255 
247 77 77 
0 0 0 
0 0 0 
255 246 255 
0 0 0 
247 77 77 
221 221 221 
161 161 161 
0 0 0 
255 223 228 
221 221 221 
0 0 0 
255 255 255 
0 0 0 
178 164 255 
255 255 255 
255 255 255 
255 255 255 
255 205 235 
255 255 255 
0 0 0 
255 255 255 
255 255 255 
161 161 161 
255 126 126 
161 161 161 
255 166 166 
255 175 175 
255 225 225 
184 184 255 
255 236 236 
255 255 255 
0 0 0 
199 199 255 
255 255 255 
0 0 0 
0 0 0 
255 255 255 
255 255 255 
0 0 0 
255 28 92 
0 0 0 
255 255 255 
247 77 77 
161 161 161 
255 255 255 
255 184 255 
255 255 255 
161 161 161 
0 0 0 
0 0 0 
255 198 255 
161 161 161 
221 221 221 
255 255 255 
255 199 199 
255 255 255 
161 161 161 
77 77 247 
206 206 255 
161 161 161 
255 255 255 
0 0 0 
161 161 161 
161 161 161 
255 254 254 
255 255 255 
0 0 0 
161 161 161 
0 0 0 
0 0 0 
0 0 0 
221 221 221 
255 255 255 
255 255 255 
0 0 0 
161 161 161 
247 77 77 
0 0 0 
255 255 255 
255 255 255 
255 255 255 
161 161 161 
255 61 151 
255 254 254 
255 254 254 
255 255 255 
221 221 221 
255 230 255 
255 255 255 
0 0 0 
184 184 255 
234 234 255 
255 255 255 
0 0 0 
167 129 255 
255 255 255 
255 255 255 
161 161 161 
255 255 255 
255 171 218 
175 77 77 
255 155 155 
175 77 77 
241 106 106 
255 228 228 
255 128 128 
255 135 135 
255 130 153 
0 0 0 
241 106 106 
0 0 0 
255 243 255 
255 161 161 
255 146 146 
255 255 255 
175 77 77 
241 106 106 
255 148 148 
255 135 171 
255 149 183 
255 132 132 
255 128 128 
255 175 175 
255 128 128 
255 175 175 
0 0 0 
255 95 95 
251 111 155 
255 128 128 
255 95 95 
251 111 155 
255 142 142 
255 126 255 
241 106 106 
251 111 155 
255 128 128 
255 128 128 
255 183 255 
0 0 0 
148 29 93 
0 0 0 
175 77 77 
255 189 255 
83 37 119 
255 84 255 
255 122 255 
223 85 147 
0 0 0 
241 106 106 
175 77 77 
161 161 161 
137 60 194 
98 98 255 
255 255 255 
255 175 175 
255 255 255 
77 77 247 
0 0 0 
83 36 255 
77 77 247 
0 0 0 
70 31 255 
77 77 247 
0 0 0 
0 0 0 
225 63 204 
0 0 0 
84 51 164 
255 255 255 
113 35 255 
225 87 255 
47 47 151 
197 74 238 
0 0 0 
64 64 207 
47 47 151 
153 41 248 
47 47 151 
204 95 255 
197 71 255 
83 37 119 
0 0 0 
47 47 151 
47 47 151 
109 68 255 
0 0 0 
255 255 255 
88 88 255 
77 77 249 
145 107 255 
193 60 193 
89 50 255 
64 64 207 
0 0 0 
64 64 207 
255 255 255 
0 0 0 
247 77 77 
164 51 84 
249 77 77 
0 0 0 
182 48 56 
255 155 155 
255 83 205 
255 206 206 
255 126 126 
255 255 255 
255 47 47 
255 88 88 
255 74 74 
249 77 77 
151 47 47 
0 0 0 
255 88 88 
0 0 0 
247 77 77 
247 77 77 
255 28 92 
207 64 64 
118 36 118 
255 36 36 
118 36 118 
255 66 255 
151 47 47 
255 88 88 
0 0 0 
255 81 116 
151 47 47 
255 36 36 
255 61 153 
255 60 60 
0 0 0 
207 64 64 
255 99 255 
255 155 255 
0 0 0 
255 210 210 
255 255 255 
255 206 255 
0 0 0 
161 161 161 
0 0 0 
0 0 0 
255 175 175 
255 255 255 
0 0 0 
255 255 255 
0 0 0 
255 222 255 
255 255 255 
0 0 0 
255 255 255 
161 161 161 
245 170 205 
255 255 255 
255 126 143 
255 28 255 
255 255 255 
255 255 255 
161 161 161 
255 255 255 
255 255 255 
0 0 0 
255 255 255 
255 175 175 
221 221 221 
255 255 255 
0 0 0 
161 161 161 
0 0 0 
0 0 0 
255 255 255 
255 184 184 
255 255 255 
161 161 161 
255 163 163 
255 156 156 
255 199 199 
255 255 255 
126 126 255 
255 255 255 
0 0 0 
255 199 255 
161 161 161 
0 0 0 
255 254 255 
0 0 0 
221 221 221 
255 255 255 
118 36 118 
255 255 255 
255 22 255 
0 0 0 
0 0 0 
255 255 255 
0 0 0 
255 255 255 
161 161 161 
161 161 161 
255 255 255 
255 60 60 
255 255 255 
161 161 161 
255 255 255 
255 184 184 
255 199 199 
255 231 255 
255 210 233 
255 255 255 
168 162 235 
255 162 255 
255 255 255 
0 0 0 
126 126 255 
255 255 255 
221 221 221 
255 255 255 
255 196 255 
255 255 255 
255 255 255 
255 207 207 
255 170 255 
0 0 0 
255 210 255 
255 166 166 
255 255 255 
255 255 255 
221 221 221 
0 0 0 
255 127 127 
255 255 255 
255 255 255 
0 0 0 
255 47 106 
0 0 0 
255 127 127 
161 161 161 
175 175 255 
255 126 126 
255 184 255 
161 161 161 
255 255 255 
255 198 255 
255 255 255 
0 0 0 
161 161 161 
255 255 255 
77 77 247 
199 199 255 
255 255 255 
221 221 221 
255 175 175 
0 0 0 
161 161 161 
255 148 148 
0 0 0 
255 141 244 
255 174 174 
175 77 77 
255 146 146 
241 106 106 
255 128 128 
255 218 218 
255 119 215 
255 111 111 
255 162 168 
241 106 106 
255 166 215 
255 146 146 
255 161 161 
255 145 145 
216 95 206 
255 175 175 
255 142 142 
255 126 187 
255 187 187 
241 106 106 
255 255 255 
175 77 77 
255 139 182 
255 207 207 
255 131 131 
255 128 128 
255 141 141 
255 132 137 
255 128 255 
255 161 161 
255 123 241 
175 77 77 
241 106 106 
241 106 106 
255 146 146 
241 106 106 
255 37 37 
175 77 77 
255 255 255 
175 77 77 
255 128 128 
0 0 0 
83 37 119 
255 112 186 
255 171 255 
137 60 194 
255 127 127 
255 128 128 
175 77 77 
175 77 77 
0 0 0 
255 255 255 
255 255 255 
255 210 255 
224 99 255 
224 99 255 
137 60 194 
106 47 255 
0 0 0 
77 77 247 
0 0 0 
65 39 255 
0 0 0 
255 29 210 
40 17 182 
255 126 255 
47 47 151 
222 208 255 
64 64 207 
187 105 255 
47 47 151 
255 255 255 
60 49 230 
47 47 151 
0 0 0 
0 0 0 
0 0 0 
47 47 151 
47 47 151 
143 27 255 
255 88 255 
0 0 0 
77 77 247 
0 0 0 
255 98 255 
93 58 187 
77 77 249 
131 72 233 
255 101 255 
0 0 0 
0 0 0 
0 0 0 
40 17 182 
77 77 249 
83 37 119 
255 113 113 
255 32 167 
255 162 165 
255 83 110 
151 47 47 
182 17 40 
0 0 0 
255 72 72 
255 161 255 
255 36 36 
72 22 72 
151 47 47 
255 13 228 
0 0 0 
151 47 47 
255 140 255 
255 73 245 
246 51 151 
255 95 95 
0 0 0 
255 68 129 
255 175 175 
230 49 60 
255 215 238 
255 64 71 
255 42 232 
255 95 114 
255 255 255 
255 60 60 
255 72 172 
0 0 0 
255 88 88 
255 98 98 
0 0 0 
151 47 47 
255 105 105 
255 84 255 
255 36 36 
255 50 122 
255 60 60 
0 0 0 
221 221 221 
255 221 221 
255 255 255 
255 255 255 
255 171 255 
193 60 193 
161 161 161 
255 144 144 
161 161 161 
255 255 255 
0 0 0 
255 127 127 
0 0 0 
255 229 229 
221 221 221 
0 0 0 
255 255 255 
255 185 185 
255 255 255 
255 255 255 
161 161 161 
0 0 0 
255 255 255 
255 214 255 
255 199 199 
255 98 255 
255 206 206 
255 255 255 
255 199 199 
0 0 0 
0 0 0 
0 0 0 
127 127 255 
255 126 126 
161 161 161 
161 161 161 
255 172 255 
255 255 255 
161 161 161 
0 0 0 
161 161 161 
255 255 255 
255 255 255 
247 77 77 
255 255 255 
255 255 255 
255 164 255 
0 0 0 
255 187 202 
255 126 126 
0 0 0 
255 137 137 
255 255 255 
247 77 77 
255 255 255 
255 175 175 
255 255 255 
255 207 207 
0 0 0 
255 255 255 
255 231 231 
161 161 161 
161 161 161 
0 0 0 
0 0 0 
0 0 0 
255 98 255 
0 0 0 
0 0 0 
0 0 0 
255 218 255 
255 216 255 
0 0 0 
0 0 0 
221 221 221 
255 249 255 
255 255 255 
0 0 0 
0 0 0 
255 255 255 
161 161 161 
0 0 0 
255 255 255 
0 0 0 
0 0 0 
255 255 255 
255 255 255 
0 0 0 
161 161 161 
0 0 0 
255 255 255 
255 255 255 
77 77 247 
0 0 0 
221 221 221 
255 255 255 
161 161 161 
255 187 255 
255 255 255 
255 255 255 
255 175 175 
255 255 255 
247 77 77 
255 255 255 
0 0 0 
255 223 255 
0 0 0 
255 233 255 
196 196 255 
221 221 221 
255 255 255 
161 161 161 
255 255 255 
255 170 170 
255 60 60 
92 28 255 
255 157 157 
255 157 253 
255 161 161 
241 106 106 
255 255 255 
255 128 128 
175 77 77 
175 77 77 
241 106 106 
175 77 77 
0 0 0 
255 183 183 
255 120 169 
224 99 255 
175 77 77 
255 84 84 
255 128 128 
241 106 106 
255 164 164 
255 200 255 
0 0 0 
175 77 77 
255 146 146 
255 163 194 
175 77 77 
255 221 255 
255 119 119 
255 95 95 
241 106 106 
255 146 146 
175 77 77 
255 228 228 
255 122 122 
255 120 192 
241 106 106 
255 132 169 
0 0 0 
175 77 77 
255 130 240 
216 95 206 
255 146 146 
175 77 77 
216 95 206 
190 84 138 
255 114 255 
251 111 255 
255 130 153 
175 77 77 
175 77 77 
241 106 106 
0 0 0 
0 0 0 
255 255 255 
255 128 128 
255 140 236 
255 60 60 
255 130 255 
0 0 0 
0 0 0 
0 0 0 
120 103 255 
118 36 118 
77 77 247 
105 105 255 
0 0 0 
125 58 186 
166 3 237 
255 93 255 
105 105 255 
44 13 255 
47 47 151 
80 27 193 
36 36 255 
93 58 187 
64 64 207 
255 206 255 
255 255 255 
47 47 151 
47 47 151 
77 77 247 
100 60 253 
75 22 255 
0 0 0 
74 66 255 
136 133 255 
0 0 0 
129 106 255 
0 0 0 
77 77 247 
255 255 255 
165 165 255 
60 60 255 
0 0 0 
0 0 0 
0 0 0 
150 46 255 
159 69 224 
0 0 0 
0 0 0 
0 0 0 
255 66 74 
151 47 47 
255 127 255 
255 49 183 
255 64 114 
164 51 84 
255 95 95 
0 0 0 
0 0 0 
151 47 47 
207 64 64 
255 85 115 
0 0 0 
255 54 155 
255 126 126 
255 138 138 
255 88 88 
255 95 204 
255 255 255 
255 27 235 
255 99 224 
255 111 190 
255 74 74 
255 60 60 
255 64 255 
247 77 77 
0 0 0 
249 77 77 
255 126 126 
255 111 111 
255 175 255 
255 110 130 
255 159 159 
0 0 0 
0 0 0 
255 126 126 
0 0 0 
247 77 77 
0 0 0 
161 161 161 
0 0 0 
255 255 255 
255 255 255 
0 0 0 
255 60 60 
255 255 255 
255 126 126 
255 230 255 
255 231 231 
255 255 255 
0 0 0 
255 249 249 
0 0 0 
255 113 212 
0 0 0 
255 95 153 
255 197 255 
0 0 0 
0 0 0 
0 0 0 
255 255 255 
255 60 60 
0 0 0 
255 207 207 
255 216 255 
255 175 175 
255 255 255 
255 255 255 
255 255 255 
255 229 229 
126 126 255 
0 0 0 
255 255 255 
161 161 161 
161 161 161 
255 255 255 
255 255 255 
161 161 161 
255 255 255 
247 77 77 
255 224 255 
255 255 255 
255 126 126 
77 77 247 
0 0 0 
255 255 255 
255 255 255 
255 255 255 
255 233 254 
255 255 255 
255 255 255 
255 255 255 
255 255 255 
255 255 255 
0 0 0 
255 255 255 
0 0 0 
255 126 126 
255 255 255 
255 255 255 
245 170 205 
0 0 0 
255 163 255 
221 221 221 
255 255 255 
255 255 255 
255 238 255 
247 77 77 
255 255 255 
255 126 255 
255 255 255 
161 161 161 
255 255 255 
0 0 0 
255 255 255 
161 161 161 
221 221 221 
255 255 255 
0 0 0 
0 0 0 
153 47 255 
255 207 207 
255 255 255 
221 221 221 
161 161 161 
255 175 175 
255 255 255 
182 163 255 
255 255 255 
255 164 195 
255 255 255 
0 0 0 
255 255 255 
221 221 221 
255 255 255 
255 255 255 
244 170 244 
255 255 255 
77 77 247 
255 255 255 
77 77 247 
255 175 175 
161 161 161 
161 161 161 
255 255 255 
0 0 0 
0 0 0 
255 255 255 
175 175 255 
255 254 254 
0 0 0 
175 175 255 
161 161 161 
255 255 255 
255 255 255 
255 210 210 
255 111 111 
241 106 106 
255 191 255 
0 0 0 
255 191 191 
220 77 79 
255 81 98 
255 128 255 
255 207 207 
241 106 106 
255 128 128 
241 106 106 
255 112 129 
0 0 0 
175 77 77 
251 111 155 
255 119 216 
255 161 161 
255 132 169 
255 139 139 
175 77 77 
0 0 0 
255 128 128 
255 146 146 
255 128 128 
184 81 222 
255 84 84 
137 60 194 
190 84 138 
247 109 231 
255 133 255 
255 221 255 
255 157 157 
175 77 77 
255 119 216 
241 106 106 
175 77 77 
175 77 77 
255 122 122 
255 255 255 
255 128 128 
255 146 146 
241 106 106 
175 77 77 
255 175 255 
255 121 228 
241 106 106 
116 22 234 
241 106 106 
241 106 106 
255 225 255 
255 198 255 
255 99 255 
0 0 0 
0 0 0 
255 132 169 
255 179 255 
255 255 255 
0 0 0 
0 0 0 
255 92 255 
84 51 164 
47 47 151 
60 60 255 
28 28 255 
88 88 255 
0 0 0 
76 76 255 
0 0 0 
197 63 255 
173 60 255 
0 0 0 
155 64 255 
216 66 255 
47 47 151 
74 66 255 
64 64 207 
0 0 0 
255 38 124 
65 28 255 
171 61 255 
64 64 207 
0 0 0 
64 64 207 
77 77 247 
0 0 0 
97 97 255 
47 47 151 
193 60 193 
74 66 255 
0 0 0 
75 47 170 
93 58 187 
125 58 186 
47 47 151 
77 77 247 
0 0 0 
104 58 209 
47 47 151 
163 50 115 
151 47 47 
0 0 0 
0 0 0 
255 54 54 
255 88 102 
255 213 213 
207 64 64 
207 64 64 
255 87 255 
164 51 84 
255 165 255 
0 0 0 
255 145 157 
0 0 0 
0 0 0 
0 0 0 
255 28 65 
255 60 60 
151 47 47 
255 84 84 
0 0 0 
255 255 255 
255 133 136 
255 255 255 
255 170 170 
151 47 47 
249 77 77 
0 0 0 
151 47 47 
247 77 77 
151 47 47 
186 58 125 
255 92 190 
151 47 47 
255 36 36 
0 0 0 
0 0 0 
151 47 47 
0 0 0 
255 255 255 
255 200 255 
255 255 255 
255 255 255 
194 164 194 
231 231 255 
255 99 99 
0 0 0 
194 60 137 
0 0 0 
255 255 255 
255 126 255 
255 160 160 
247 77 77 
255 255 255 
255 255 255 
255 255 255 
255 62 105 
255 126 126 
77 77 247 
0 0 0 
0 0 0 
255 99 224 
126 126 255 
255 218 255 
0 0 0 
255 199 255 
255 169 198 
161 161 161 
0 0 0 
255 255 255 
255 255 255 
255 82 255 
255 160 160 
255 236 236 
161 161 161 
255 255 255 
255 255 255 
255 255 255 
255 255 255 
161 161 161 
255 255 255 
255 255 255 
255 255 255 
255 255 255 
255 255 255 
255 255 255 
247 77 77 
255 255 255 
161 161 161 
255 255 255 
255 255 255 
255 144 144 
255 254 255 
255 98 255 
255 199 199 
255 255 255 
0 0 0 
161 161 161 
0 0 0 
0 0 0 
255 98 98 
255 255 255 
255 255 255 
255 83 137 
0 0 0 
0 0 0 
0 0 0 
255 206 206 
255 255 255 
255 255 255 
0 0 0 
255 231 255 
0 0 0 
0 0 0 
221 221 221 
127 127 255 
255 175 175 
0 0 0 
0 0 0 
161 161 161 
221 221 221 
255 255 255 
255 255 255 
255 255 255 
161 161 161 
255 255 255 
221 221 221 
255 255 255 
255 255 255 
255 255 255 
194 164 194 
0 0 0 
255 254 254 
255 255 255 
77 77 247 
255 255 255 
255 255 255 
221 221 221 
255 237 255 
255 255 255 
255 255 255 
255 206 206 
255 222 255 
255 255 255 
0 0 0 
254 254 255 
255 28 92 
255 208 255 
255 255 255 
127 127 255 
255 132 255 
255 255 255 
161 161 161 
255 255 255 
255 162 171 
255 128 128 
255 163 163 
255 154 255 
255 132 132 
255 255 255 
175 77 77 
241 106 106 
255 128 128 
255 148 148 
241 106 106 
175 77 77 
175 77 77 
255 77 248 
175 77 77 
0 0 0 
255 145 145 
255 84 84 
255 139 227 
255 145 145 
190 84 138 
175 77 77 
175 77 77 
175 77 77 
175 77 77 
255 119 119 
255 128 128 
241 106 106 
175 77 77 
175 77 77 
255 128 128 
255 183 217 
175 77 77 
255 228 228 
241 106 106 
190 84 138 
241 106 106 
241 106 106 
0 0 0 
255 111 111 
175 77 77 
255 100 100 
175 77 77 
0 0 0 
255 156 156 
175 77 77 
255 139 139 
255 146 146 
0 0 0 
255 109 186 
255 132 169 
255 106 255 
241 106 106 
255 255 255 
255 131 255 
175 77 77 
255 115 189 
0 0 0 
190 84 138 
0 0 0 
255 98 255 
0 0 0 
47 47 151 
255 145 255 
255 85 255 
220 68 220 
0 0 0 
132 132 255 
97 97 255 
47 47 151 
0 0 0 
142 74 239 
88 88 255 
255 255 255 
88 88 255 
47 47 151 
0 0 0 
47 47 151 
65 47 255 
140 50 162 
228 150 255 
109 69 255 
180 137 255 
78 54 255 
255 89 255 
0 0 0 
47 47 151 
40 17 182 
88 88 255 
0 0 0 
0 0 0 
71 49 229 
0 0 0 
99 49 255 
91 40 212 
255 85 255 
47 47 151 
218 210 255 
119 5 169 
230 22 230 
84 51 164 
0 0 0 
255 87 255 
255 116 131 
0 0 0 
255 126 126 
255 255 255 
0 0 0 
255 225 255 
207 64 255 
0 0 0 
151 47 47 
255 255 255 
255 132 132 
208 65 246 
255 82 82 
255 255 255 
255 37 37 
0 0 0 
247 77 77 
151 47 47 
255 221 221 
151 47 47 
255 126 126 
255 83 137 
255 128 128 
255 88 128 
255 135 240 
255 60 60 
247 77 77 
0 0 0 
247 77 77 
255 88 88 
0 0 0 
255 63 156 
255 79 102 
0 0 0 
247 77 77 
193 60 193 
164 51 84 
255 206 228 
255 68 129 
255 178 205 
0 0 0 
255 255 255 
255 255 255 
255 126 126 
247 77 77 
255 199 199 
175 175 255 
77 77 175 
161 161 255 
146 146 255 
77 77 175 
138 84 190 
0 0 0 
194 163 255 
77 77 175 
77 77 175 
106 106 241 
119 37 83 
181 175 255 
128 128 255 
228 228 255 
218 218 255 
77 77 175 
0 0 0 
146 146 255 
194 163 255 
0 0 0 
0 0 0 
255 126 126 
255 255 255 
0 0 0 
0 0 0 
0 0 0 
255 175 175 
161 161 161 
255 255 255 
161 161 161 
161 161 161 
0 0 0 
0 0 0 
255 255 255 
255 211 255 
0 0 0 
255 255 255 
255 223 255 
255 162 168 
161 161 161 
126 126 255 
241 221 255 
247 77 77 
255 255 255 
255 216 255 
161 161 161 
255 221 255 
168 162 235 
255 255 255 
255 255 255 
255 255 255 
255 60 60 
221 221 221 
161 161 161 
0 0 0 
247 77 77 
255 255 255 
161 161 161 
247 77 77 
255 255 255 
255 175 175 
0 0 0 
255 255 255 
161 161 161 
255 255 255 
255 255 255 
255 255 255 
0 0 0 
255 199 199 
183 183 255 
193 60 193 
255 255 255 
255 37 119 
255 202 255 
221 221 221 
0 0 0 
0 0 0 
0 0 0 
255 255 255 
255 255 255 
221 221 221 
255 222 255 
255 255 255 
255 160 255 
161 161 161 
255 255 255 
224 99 255 
193 60 193 
255 210 255 
255 255 255 
0 0 0 
0 0 0 
0 0 0 
255 126 126 
255 171 255 
255 255 255 
221 221 221 
182 163 255 
0 0 0 
255 255 255 
255 255 255 
0 0 0 
255 255 255 
255 222 255 
255 255 255 
255 148 148 
255 155 195 
255 111 111 
241 106 106 
255 166 255 
0 0 0 
255 111 255 
255 161 161 
255 128 128 
255 128 128 
255 128 128 
255 255 255 
255 187 220 
255 95 95 
0 0 0 
255 111 111 
241 106 106 
255 157 255 
255 174 255 
255 80 103 
251 111 155 
0 0 0 
255 160 192 
175 77 77 
255 248 255 
255 146 146 
255 204 204 
255 100 100 
255 132 169 
255 124 172 
255 141 255 
255 111 111 
255 175 175 
175 77 77 
241 106 106 
175 77 77 
255 114 180 
255 128 128 
255 255 255 
255 187 187 
83 37 119 
241 106 106 
200 89 255 
0 0 0 
0 0 0 
103 45 255 
0 0 0 
175 77 77 
190 84 138 
175 77 77 
0 0 0 
255 128 136 
83 37 119 
175 77 77 
175 77 77 
255 47 47 
255 101 148 
255 145 255 
0 0 0 
255 146 167 
96 37 153 
216 95 206 
167 129 255 
137 83 255 
98 98 255 
47 47 151 
0 0 0 
189 110 255 
0 0 0 
217 115 255 
0 0 0 
222 63 255 
0 0 0 
88 88 255 
141 127 255 
255 122 255 
255 255 255 
64 64 207 
193 58 255 
224 99 255 
64 64 207 
94 89 255 
0 0 0 
84 51 164 
97 97 255 
85 30 255 
255 135 255 
47 47 151 
84 11 119 
86 72 255 
47 47 151 
97 97 255 
150 89 255 
97 97 255 
64 64 207 
64 64 207 
255 255 255 
81 81 255 
0 0 0 
88 88 255 
93 58 187 
0 0 0 
255 89 255 
255 50 89 
72 22 72 
255 106 106 
151 47 47 
255 79 157 
181 17 56 
255 98 255 
255 67 99 
207 64 64 
255 54 54 
255 69 89 
255 50 50 
0 0 0 
247 77 77 
247 77 77 
0 0 0 
0 0 0 
151 47 47 
151 47 47 
255 78 85 
255 8 26 
255 88 88 
255 106 106 
255 127 255 
255 60 60 
247 77 77 
0 0 0 
255 36 36 
255 58 58 
255 60 78 
255 124 163 
0 0 0 
255 126 126 
255 98 255 
255 111 154 
255 126 126 
255 119 119 
247 77 77 
255 254 255 
255 129 167 
0 0 0 
161 161 161 
0 0 0 
119 37 83 
122 122 255 
77 77 175 
210 210 255 
127 127 255 
255 134 255 
106 106 241 
128 128 255 
195 164 255 
227 139 255 
146 146 255 
255 82 255 
255 255 255 
106 106 241 
77 77 175 
255 132 255 
238 238 255 
106 106 241 
77 77 175 
128 128 255 
137 109 255 
216 119 255 
255 255 255 
106 106 241 
187 187 255 
128 128 255 
255 162 255 
255 114 255 
255 255 255 
255 255 255 
255 255 255 
0 0 0 
255 255 255 
255 255 255 
255 255 255 
255 255 255 
255 173 255 
0 0 0 
255 255 255 
255 47 106 
255 255 255 
255 255 255 
255 255 255 
255 255 255 
255 199 199 
255 255 255 
255 207 207 
255 47 106 
255 255 255 
161 161 161 
255 212 255 
77 77 247 
0 0 0 
0 0 0 
161 161 161 
255 105 254 
161 161 161 
255 255 255 
255 126 126 
161 161 161 
161 161 161 
255 255 255 
255 255 255 
255 255 255 
255 255 255 
255 164 178 
255 255 255 
0 0 0 
255 207 207 
255 255 255 
255 76 246 
255 249 249 
0 0 0 
193 60 193 
255 126 126 
255 199 199 
247 77 77 
255 255 255 
0 0 0 
255 255 255 
255 185 255 
0 0 0 
0 0 0 
255 255 255 
255 237 255 
255 255 255 
0 0 0 
255 255 255 
255 178 255 
255 255 255 
255 230 230 
255 177 193 
161 161 161 
255 255 255 
0 0 0 
161 161 161 
255 184 184 
0 0 0 
255 255 255 
0 0 0 
0 0 0 
255 255 255 
255 255 255 
0 0 0 
0 0 0 
255 184 184 
255 255 255 
255 255 255 
161 161 161 
255 200 255 
255 167 167 
0 0 0 
255 191 191 
255 84 84 
255 182 216 
255 84 84 
255 118 255 
255 81 81 
0 0 0 
255 112 182 
255 128 128 
255 128 128 
255 47 151 
255 119 119 
255 128 128 
241 106 106 
175 77 77 
255 161 161 
175 77 77 
255 166 255 
255 146 146 
255 128 128 
255 254 255 
175 77 77 
0 0 0 
241 106 106 
255 163 255 
255 176 176 
255 122 122 
255 238 238 
255 128 128 
211 79 93 
241 106 106 
241 106 106 
255 114 180 
255 176 176 
255 223 255 
175 77 77 
255 161 161 
175 77 77 
175 77 77 
190 84 138 
0 0 0 
0 0 0 
175 77 77 
83 37 119 
175 77 77 
251 111 155 
255 101 148 
255 130 255 
175 77 77 
0 0 0 
83 37 119 
241 106 106 
83 37 119 
0 0 0 
175 77 77 
255 139 139 
175 77 77 
0 0 0 
197 78 123 
0 0 0 
255 228 228 
247 104 255 
255 127 255 
77 77 249 
0 0 0 
52 40 255 
94 67 216 
58 58 255 
84 51 164 
227 107 255 
255 98 255 
255 174 255 
0 0 0 
0 0 0 
0 0 0 
213 54 173 
255 190 255 
255 38 255 
87 87 255 
0 0 0 
64 64 207 
255 255 255 
77 77 247 
246 78 252 
64 64 207 
0 0 0 
47 47 151 
101 96 255 
71 19 198 
0 0 0 
47 47 151 
255 95 255 
255 255 255 
47 47 151 
47 47 151 
84 84 255 
47 47 151 
84 51 164 
99 30 99 
209 28 92 
255 162 255 
247 77 77 
0 0 0 
255 85 85 
151 47 47 
0 0 0 
255 98 98 
0 0 0 
151 47 47 
255 88 88 
207 64 64 
0 0 0 
255 98 255 
151 47 47 
151 47 47 
247 77 77 
255 62 209 
255 127 138 
207 64 64 
255 10 55 
255 111 111 
207 64 64 
255 85 85 
255 88 88 
255 166 255 
0 0 0 
255 162 255 
151 47 47 
0 0 0 
0 0 0 
255 95 206 
249 77 77 
255 83 137 
207 64 64 
255 119 168 
255 106 160 
255 28 28 
151 47 47 
0 0 0 
255 60 101 
0 0 0 
175 175 255 
106 106 241 
163 50 115 
77 77 175 
255 245 255 
255 234 255 
158 115 255 
190 166 255 
238 238 255 
169 132 255 
106 106 241 
77 77 175 
128 128 255 
119 37 83 
119 37 83 
106 106 241 
77 77 175 
146 146 255 
128 128 255 
255 171 255 
106 106 241 
77 77 175 
77 77 175 
255 255 255 
207 136 255 
170 89 255 
155 155 255 
106 106 241 
182 163 255 
106 106 241 
180 114 255 
161 161 255 
255 186 255 
0 0 0 
255 255 255 
255 255 255 
161 161 161 
0 0 0 
247 77 77 
255 199 199 
0 0 0 
0 0 0 
255 255 255 
255 255 255 
255 169 255 
255 231 255 
255 235 235 
0 0 0 
247 77 77 
255 255 255 
255 255 255 
255 199 199 
247 77 77 
255 249 249 
255 255 255 
255 255 255 
255 255 255 
0 0 0 
0 0 0 
255 254 255 
255 126 255 
255 255 255 
255 36 255 
255 255 255 
247 77 77 
255 255 255 
255 206 206 
255 255 255 
255 255 255 
255 199 199 
161 161 161 
255 255 255 
255 162 255 
255 175 175 
247 77 77 
255 255 255 
0 0 0 
161 161 161 
255 255 255 
221 221 221 
247 77 77 
0 0 0 
255 206 206 
255 207 207 
247 77 77 
0 0 0 
221 221 221 
247 77 77 
255 60 60 
255 255 255 
255 255 255 
255 255 255 
0 0 0 
0 0 0 
255 255 255 
0 0 0 
0 0 0 
255 199 199 
221 221 221 
255 162 255 
255 255 255 
161 161 161 
0 0 0 
161 161 161 
184 184 255 
255 173 255 
255 255 255 
0 0 0 
199 199 255 
255 255 255 
255 219 255 
255 255 255 
233 61 255 
255 45 45 
0 0 0 
175 77 77 
255 98 98 
255 132 132 
0 0 0 
255 84 84 
255 107 118 
255 146 146 
255 187 187 
255 161 161 
217 96 154 
255 163 163 
0 0 0 
0 0 0 
255 119 216 
241 106 106 
241 106 106 
255 148 255 
255 128 128 
255 128 128 
255 130 153 
175 77 77 
255 161 161 
255 168 168 
175 77 77 
255 129 135 
255 146 255 
255 128 128 
217 96 154 
175 77 77 
241 106 106 
241 106 106 
241 106 106 
255 230 251 
175 77 77 
255 106 255 
241 106 106 
175 77 77 
255 255 255 
175 77 77 
0 0 0 
0 0 0 
241 106 106 
0 0 0 
241 106 106 
175 77 77 
241 106 106 
175 77 77 
255 128 128 
0 0 0 
0 0 0 
175 77 77 
175 77 77 
255 114 255 
255 88 150 
255 218 218 
255 141 255 
0 0 0 
255 69 255 
255 78 177 
241 106 106 
255 39 255 
0 0 0 
88 88 255 
58 58 255 
255 255 255 
0 0 0 
123 106 255 
255 255 255 
129 129 255 
125 58 186 
126 126 255 
255 166 255 
0 0 0 
137 60 194 
0 0 0 
97 97 255 
47 47 151 
64 64 207 
255 82 255 
74 66 255 
209 209 255 
47 47 151 
255 77 248 
52 47 255 
0 0 0 
40 17 182 
0 0 0 
0 0 0 
94 67 216 
72 22 72 
181 17 56 
0 0 0 
86 29 255 
67 24 249 
0 0 0 
75 47 170 
83 37 119 
208 53 170 
0 0 0 
113 93 255 
255 50 121 
0 0 0 
255 74 142 
255 66 74 
0 0 0 
0 0 0 
255 211 240 
119 37 83 
0 0 0 
255 163 255 
0 0 0 
255 81 192 
255 126 218 
255 121 125 
255 88 89 
255 255 255 
0 0 0 
247 77 77 
0 0 0 
255 65 70 
255 88 88 
118 36 118 
255 69 109 
255 8 61 
0 0 0 
255 255 255 
255 255 255 
255 19 61 
0 0 0 
255 206 206 
255 83 137 
207 64 64 
255 144 153 
0 0 0 
255 132 132 
247 77 77 
255 160 160 
255 78 115 
167 112 255 
128 128 255 
255 130 255 
233 210 255 
155 111 251 
255 148 255 
106 106 241 
206 107 255 
206 95 216 
255 80 181 
162 112 255 
0 0 0 
194 60 137 
243 220 255 
77 77 175 
77 77 175 
128 128 255 
232 180 255 
138 84 190 
251 230 255 
106 106 241 
255 104 255 
189 115 255 
203 138 255 
128 128 255 
119 119 255 
178 178 255 
77 77 175 
151 146 255 
227 139 255 
137 109 255 
146 146 255 
118 107 255 
128 128 255 
106 106 241 
255 112 255 
77 77 175 
255 255 255 
77 77 175 
106 106 241 
207 207 255 
0 0 0 
221 221 221 
255 175 175 
255 126 126 
255 126 126 
255 255 255 
0 0 0 
0 0 0 
0 0 0 
255 255 255 
255 144 144 
255 255 255 
221 221 221 
161 161 161 
255 255 255 
255 255 255 
161 161 161 
0 0 0 
255 255 255 
0 0 0 
255 255 255 
161 161 161 
0 0 0 
255 250 255 
255 249 249 
255 255 255 
255 207 207 
161 161 161 
255 255 255 
255 255 255 
255 255 255 
255 227 255 
0 0 0 
161 161 161 
255 255 255 
161 161 161 
255 199 199 
255 255 255 
255 255 255 
255 126 126 
255 255 255 
0 0 0 
255 238 238 
255 77 77 
255 47 106 
0 0 0 
255 255 255 
255 255 255 
255 255 255 
77 77 247 
255 255 255 
161 161 161 
255 255 255 
255 255 255 
221 221 221 
255 255 255 
255 255 255 
255 255 255 
255 255 255 
175 175 255 
0 0 0 
0 0 0 
255 255 255 
255 255 255 
0 0 0 
255 255 255 
255 255 255 
207 207 255 
255 255 255 
161 161 161 
162 162 255 
161 161 161 
255 255 255 
175 77 77 
255 255 255 
0 0 0 
217 96 154 
255 122 122 
241 106 106 
255 123 207 
255 92 149 
175 77 77 
255 42 80 
255 247 255 
255 146 146 
138 61 138 
241 106 106 
241 106 106 
255 180 255 
255 95 95 
255 161 161 
241 106 106 
0 0 0 
255 122 147 
255 106 109 
175 77 77 
255 95 95 
255 84 84 
241 106 106 
255 42 42 
255 128 128 
255 128 128 
255 248 248 
255 161 161 
241 106 106 
0 0 0 
255 90 142 
0 0 0 
241 106 106 
255 128 128 
175 77 77 
255 128 128 
255 127 127 
175 77 77 
0 0 0 
241 106 106 
255 146 146 
175 77 77 
175 77 77 
255 141 141 
175 77 77 
190 84 138 
255 154 255 
255 146 146 
255 128 128 
255 132 217 
175 77 77 
83 37 119 
0 0 0 
175 77 77 
0 0 0 
175 77 77 
241 106 106 
241 106 106 
0 0 0 
83 37 119 
190 84 138 
0 0 0 
137 60 194 
0 0 0 
0 0 0 
255 98 255 
0 0 0 
180 128 255 
255 59 255 
136 60 255 
137 60 194 
47 47 151 
88 88 255 
65 28 255 
206 206 255 
255 28 92 
255 17 182 
164 84 255 
109 98 255 
88 88 255 
64 64 207 
148 86 255 
0 0 0 
64 64 207 
0 0 0 
78 10 255 
47 47 151 
255 255 255 
0 0 0 
132 132 255 
0 0 0 
255 175 255 
118 36 118 
65 28 255 
88 88 255 
47 47 151 
89 69 255 
123 55 255 
255 140 255 
180 68 251 
125 58 186 
255 37 37 
255 93 255 
255 72 103 
0 0 0 
255 80 138 
0 0 0 
255 99 224 
0 0 0 
255 67 80 
0 0 0 
255 66 142 
207 64 64 
255 99 255 
255 105 217 
0 0 0 
151 47 47 
255 81 116 
186 58 125 
255 87 255 
230 49 60 
255 119 232 
255 88 88 
255 93 93 
255 58 127 
255 126 218 
0 0 0 
255 88 179 
119 37 83 
0 0 0 
255 255 255 
255 126 126 
255 146 166 
0 0 0 
0 0 0 
255 78 255 
255 98 255 
155 111 251 
246 76 173 
175 175 255 
255 90 255 
128 128 255 
255 239 255 
255 99 224 
0 0 0 
146 146 255 
255 239 255 
216 119 255 
183 149 255 
169 132 255 
106 106 241 
77 77 175 
119 37 83 
119 119 255 
255 158 255 
241 123 255 
255 149 255 
255 200 255 
128 128 255 
128 128 255 
128 128 255 
146 146 255 
255 37 84 
0 0 0 
0 0 0 
77 77 175 
106 106 241 
244 141 255 
106 106 241 
206 95 216 
106 106 241 
255 152 255 
255 108 244 
255 144 255 
175 175 255 
255 231 255 
106 106 241 
128 128 255 
128 128 255 
175 175 255 
255 255 255 
255 13 31 
0 0 0 
255 255 255 
255 255 255 
255 255 255 
161 161 161 
161 161 161 
255 255 255 
255 255 255 
0 0 0 
255 126 126 
255 255 255 
255 255 255 
221 221 221 
255 207 207 
255 255 255 
0 0 0 
255 159 159 
0 0 0 
255 255 255 
161 161 161 
255 255 255 
255 255 255 
161 161 161 
77 77 247 
255 255 255 
255 255 255 
255 255 255 
0 0 0 
207 207 255 
161 161 161 
161 161 161 
255 255 255 
221 221 221 
255 255 255 
255 255 255 
238 238 255 
161 161 161 
0 0 0 
255 255 255 
255 255 255 
161 161 161 
161 161 161 
0 0 0 
221 221 221 
161 161 161 
255 206 206 
255 255 255 
255 99 99 
127 127 255 
0 0 0 
161 161 161 
255 126 126 
255 255 255 
161 161 161 
0 0 0 
0 0 0 
255 255 255 
255 222 255 
255 255 255 
161 161 161 
0 0 0 
255 255 255 
0 0 0 
255 255 255 
255 255 255 
255 227 255 
255 255 255 
255 162 255 
255 255 255 
175 175 255 
175 77 77 
209 28 92 
0 0 0 
175 77 77 
255 128 128 
175 77 77 
128 17 56 
255 228 245 
0 0 0 
255 96 255 
255 149 149 
241 106 106 
255 37 37 
175 77 77 
0 0 0 
175 77 77 
255 128 128 
255 107 118 
241 106 106 
255 128 128 
251 111 155 
255 161 161 
217 96 154 
175 77 77 
241 106 106 
255 169 169 
255 111 255 
0 0 0 
241 106 106 
241 106 106 
241 106 106 
241 106 106 
255 95 95 
0 0 0 
255 127 127 
241 106 106 
255 161 161 
190 84 138 
255 145 145 
241 106 106 
175 77 77 
0 0 0 
255 128 128 
0 0 0 
255 160 160 
175 77 77 
175 77 77 
0 0 0 
241 106 106 
0 0 0 
0 0 0 
241 106 106 
241 106 106 
241 106 106 
0 0 0 
175 77 77 
175 77 77 
175 77 77 
236 104 255 
175 77 77 
148 65 255 
241 106 106 
148 29 93 
175 77 77 
137 60 194 
227 85 247 
0 0 0 
255 128 255 
190 84 138 
128 24 255 
77 77 247 
0 0 0 
0 0 0 
255 102 255 
0 0 0 
255 255 255 
77 77 247 
77 77 247 
193 60 193 
0 0 0 
0 0 0 
255 255 255 
255 106 255 
255 255 255 
139 133 255 
151 23 255 
77 77 247 
187 105 255 
78 54 255 
115 107 255 
0 0 0 
47 47 151 
174 174 255 
0 0 0 
77 77 249 
72 22 72 
47 47 151 
92 78 255 
184 171 255 
110 110 255 
0 0 0 
187 47 168 
255 255 255 
0 0 0 
72 22 72 
0 0 0 
255 81 98 
255 126 126 
255 104 255 
118 36 118 
151 47 47 
193 60 193 
0 0 0 
164 51 84 
255 138 177 
0 0 0 
0 0 0 
255 47 106 
156 25 120 
255 106 106 
255 119 119 
255 30 98 
255 95 204 
255 143 255 
0 0 0 
0 0 0 
255 90 110 
247 77 77 
255 242 255 
0 0 0 
247 77 77 
255 128 128 
0 0 0 
255 8 86 
244 65 152 
255 77 130 
0 0 0 
255 97 186 
207 96 217 
154 146 255 
77 77 175 
106 106 241 
77 77 175 
176 176 255 
138 84 190 
128 128 255 
255 107 245 
119 37 83 
106 106 241 
106 106 241 
246 124 255 
77 77 175 
243 220 255 
0 0 0 
60 60 255 
193 134 255 
251 230 255 
155 111 251 
255 170 255 
128 128 255 
216 119 255 
77 77 175 
138 84 190 
106 106 241 
0 0 0 
255 255 255 
37 37 255 
255 132 255 
128 128 255 
222 69 156 
77 77 175 
106 106 241 
183 149 255 
255 255 255 
77 77 175 
0 0 0 
255 168 255 
149 149 255 
175 175 255 
77 77 175 
145 145 255 
128 128 255 
132 132 255 
145 145 255 
122 122 255 
255 197 255 
187 187 255 
255 220 255 
255 255 255 
255 255 255 
255 255 255 
255 255 255 
161 161 161 
161 161 161 
255 255 255 
255 255 255 
255 255 255 
255 199 199 
161 161 161 
255 175 175 
0 0 0 
0 0 0 
255 255 255 
0 0 0 
255 144 144 
0 0 0 
161 161 161 
255 255 255 
0 0 0 
255 255 255 
255 206 206 
255 255 255 
255 255 255 
255 255 255 
255 255 255 
0 0 0 
255 249 249 
255 206 206 
255 255 255 
255 255 255 
255 255 255 
255 249 249 
255 255 255 
255 255 255 
255 255 255 
255 255 255 
161 161 161 
247 77 77 
255 216 255 
255 255 255 
255 225 255 
225 100 225 
0 0 0 
255 223 255 
255 255 255 
255 255 255 
0 0 0 
255 255 255 
255 255 255 
175 175 255 
0 0 0 
255 222 222 
161 161 161 
255 255 255 
221 221 221 
255 207 207 
255 255 255 
255 255 255 
255 255 255 
255 255 255 
255 255 255 
255 255 255 
255 255 255 
255 214 255 
255 212 255 
255 90 90 
0 0 0 
255 132 132 
255 120 169 
255 81 98 
255 109 137 
241 106 106 
0 0 0 
175 77 77 
255 239 251 
0 0 0 
255 128 128 
175 77 77 
255 151 255 
255 123 235 
241 106 106 
255 194 255 
255 255 255 
197 78 123 
175 77 77 
255 128 128 
0 0 0 
241 106 106 
175 77 77 
0 0 0 
255 128 128 
0 0 0 
241 106 106 
241 106 106 
241 106 106 
175 77 77 
255 128 128 
255 123 218 
241 106 106 
0 0 0 
175 77 77 
241 106 106 
255 81 81 
175 77 77 
255 128 128 
241 106 106 
255 128 128 
255 128 128 
175 77 77 
255 8 86 
241 106 106 
175 77 77 
190 84 138 
190 84 138 
255 142 250 
241 106 106 
175 77 77 
241 106 106 
175 77 77 
0 0 0 
0 0 0 
175 77 77 
175 77 77 
175 77 77 
190 84 138 
255 116 255 
175 77 77 
241 106 106 
175 77 77 
241 106 106 
255 119 216 
255 145 145 
137 60 194 
255 145 145 
0 0 0 
255 255 255 
77 77 247 
0 0 0 
255 58 255 
84 51 164 
77 77 247 
72 22 72 
114 64 255 
227 107 255 
92 87 255 
255 90 255 
47 47 151 
77 77 247 
189 37 255 
71 65 230 
0 0 0 
47 47 151 
114 15 162 
111 107 255 
47 47 151 
109 69 255 
213 54 173 
85 85 255 
47 47 151 
47 47 151 
47 47 151 
0 0 0 
53 47 255 
67 24 249 
0 0 0 
105 105 255 
0 0 0 
0 0 0 
132 132 255 
47 47 151 
47 47 151 
255 83 83 
0 0 0 
255 68 191 
255 174 255 
255 88 88 
247 77 77 
255 212 255 
255 83 83 
255 69 153 
255 74 74 
0 0 0 
255 54 78 
255 88 88 
151 47 47 
0 0 0 
119 37 83 
247 77 77 
255 88 165 
255 88 88 
0 0 0 
255 239 255 
255 83 137 
0 0 0 
249 77 77 
151 47 47 
255 217 217 
118 36 118 
0 0 0 
151 47 47 
207 64 64 
0 0 0 
151 47 47 
106 106 241 
138 84 190 
137 109 255 
246 128 255 
255 129 255 
233 210 255 
225 100 225 
77 77 175 
106 106 241 
185 128 255 
255 255 255 
77 77 175 
255 150 255 
106 106 241 
77 77 175 
255 157 255 
169 132 255 
138 84 190 
119 119 255 
77 77 175 
255 124 255 
232 22 163 
255 249 255 
161 161 255 
255 218 255 
146 146 255 
155 111 251 
0 0 0 
77 77 175 
106 106 241 
77 77 175 
85 79 255 
146 146 255 
77 77 175 
77 77 175 
77 77 175 
0 0 0 
77 77 175 
128 128 255 
183 149 255 
128 128 255 
128 128 255 
128 128 255 
77 77 175 
119 119 255 
192 188 255 
106 106 241 
255 236 255 
77 77 175 
255 255 255 
145 145 255 
77 77 175 
0 0 0 
247 77 77 
255 255 255 
0 0 0 
255 255 255 
255 222 235 
161 161 161 
247 77 77 
255 255 255 
161 161 161 
0 0 0 
255 175 175 
0 0 0 
255 255 255 
194 164 194 
255 255 255 
255 255 255 
255 255 255 
127 17 255 
255 177 255 
0 0 0 
255 255 255 
206 206 255 
255 163 255 
161 161 161 
255 255 255 
255 162 255 
161 161 161 
0 0 0 
161 161 161 
161 161 161 
0 0 0 
0 0 0 
255 255 255 
161 161 161 
221 221 221 
255 255 255 
255 199 199 
161 161 161 
0 0 0 
0 0 0 
255 255 255 
255 175 175 
0 0 0 
255 255 255 
255 255 255 
255 255 255 
255 220 255 
247 77 77 
0 0 0 
77 77 247 
255 255 255 
0 0 0 
255 255 255 
255 255 255 
255 255 255 
0 0 0 
127 127 255 
255 255 255 
255 255 255 
255 184 255 
255 198 255 
0 0 0 
255 1 39 
0 0 0 
255 255 255 
175 77 77 
241 106 106 
255 111 111 
0 0 0 
255 149 149 
217 96 154 
255 100 100 
175 77 77 
0 0 0 
241 106 106 
255 128 128 
241 106 106 
255 128 128 
255 128 128 
255 111 111 
175 77 77 
255 142 142 
255 207 207 
255 132 132 
241 106 106 
255 128 128 
255 120 169 
255 134 192 
175 77 77 
241 106 106 
255 128 128 
255 107 107 
241 106 106 
137 60 194 
255 149 149 
255 128 128 
175 77 77 
138 61 138 
255 123 123 
255 120 169 
255 84 84 
255 128 128 
241 106 106 
255 128 128 
255 141 255 
255 146 146 
175 77 77 
241 106 106 
175 77 77 
61 8 87 
255 146 146 
175 77 77 
251 111 155 
175 77 77 
255 128 128 
0 0 0 
255 146 146 
0 0 0 
241 106 106 
175 77 77 
175 77 77 
190 84 138 
119 5 169 
175 77 77 
0 0 0 
241 106 106 
222 45 146 
175 77 77 
0 0 0 
241 106 106 
215 95 255 
255 127 127 
0 0 0 
175 77 77 
255 37 255 
255 84 255 
77 77 247 
171 97 255 
0 0 0 
0 0 0 
0 0 0 
0 0 0 
88 88 255 
209 209 255 
255 114 255 
61 8 87 
233 51 255 
202 75 255 
47 47 151 
246 76 255 
64 64 207 
0 0 0 
97 97 255 
106 47 255 
255 255 255 
60 49 230 
147 94 255 
0 0 0 
0 0 0 
0 0 0 
47 47 151 
0 0 0 
255 97 255 
0 0 0 
47 47 151 
111 90 255 
193 58 255 
0 0 0 
78 54 255 
153 95 255 
47 47 151 
255 78 85 
201 48 108 
255 53 101 
238 74 197 
255 28 65 
255 82 255 
0 0 0 
255 138 165 
164 51 84 
0 0 0 
255 65 65 
255 66 74 
255 110 255 
255 132 160 
239 74 142 
255 39 89 
151 47 47 
255 91 123 
247 77 77 
255 97 97 
0 0 0 
0 0 0 
0 0 0 
255 69 75 
255 22 51 
255 113 113 
255 102 113 
255 106 140 
255 136 152 
0 0 0 
138 84 190 
155 111 251 
155 111 251 
255 119 255 
106 106 241 
106 106 241 
130 69 255 
77 77 175 
241 80 232 
150 128 255 
183 149 255 
77 77 175 
106 106 241 
155 111 251 
56 17 128 
232 181 255 
123 123 255 
106 106 241 
77 77 175 
255 153 255 
77 77 175 
237 237 255 
169 132 255 
255 255 255 
77 77 175 
155 111 251 
255 145 255 
255 255 255 
106 106 241 
77 77 175 
161 161 255 
238 158 255 
0 0 0 
173 107 248 
106 106 241 
106 106 241 
128 128 255 
0 0 0 
255 219 255 
77 77 175 
175 175 255 
183 149 255 
132 132 255 
77 77 175 
161 161 255 
139 139 255 
77 77 175 
255 255 255 
106 106 255 
187 187 255 
255 211 255 
255 161 255 
115 115 255 
232 83 188 
118 107 255 
0 0 0 
255 255 255 
255 255 255 
255 199 199 
255 255 255 
255 255 255 
255 255 255 
255 255 255 
0 0 0 
161 161 161 
255 255 255 
255 175 175 
255 255 255 
255 255 255 
255 255 255 
161 161 161 
255 255 255 
255 255 255 
0 0 0 
255 201 255 
0 0 0 
255 255 255 
0 0 0 
221 221 221 
255 105 255 
250 78 255 
255 125 255 
255 255 255 
161 161 161 
255 255 255 
255 127 127 
0 0 0 
255 255 255 
255 160 160 
255 255 255 
255 255 255 
255 126 126 
0 0 0 
255 160 255 
255 255 255 
255 255 255 
161 161 161 
255 255 255 
255 250 250 
127 127 255 
255 255 255 
118 36 118 
255 255 255 
0 0 0 
255 255 255 
247 77 77 
0 0 0 
255 255 255 
161 161 161 
0 0 0 
0 0 0 
255 255 255 
255 255 255 
255 172 255 
255 255 255 
126 126 255 
255 255 255 
255 207 207 
255 255 255 
255 141 255 
255 110 110 
255 255 255 
255 158 158 
255 138 182 
0 0 0 
255 119 119 
255 122 122 
255 111 111 
255 243 255 
255 37 37 
241 106 106 
255 127 127 
225 100 225 
255 84 84 
255 99 255 
255 120 169 
255 139 182 
0 0 0 
183 78 113 
175 77 77 
255 119 119 
255 146 146 
255 111 111 
255 96 108 
0 0 0 
241 106 106 
255 187 187 
241 106 106 
175 77 77 
241 106 106 
0 0 0 
0 0 0 
255 152 255 
255 150 255 
255 47 151 
175 77 77 
255 122 255 
255 128 128 
175 77 77 
255 128 128 
175 77 77 
0 0 0 
241 106 106 
241 106 106 
241 106 106 
255 161 161 
175 77 77 
0 0 0 
175 77 77 
175 77 77 
241 106 106 
0 0 0 
175 77 77 
175 77 77 
175 77 77 
190 84 138 
190 84 138 
241 106 106 
0 0 0 
255 13 44 
241 106 106 
255 153 255 
83 37 119 
0 0 0 
235 104 255 
0 0 0 
255 122 255 
175 77 77 
115 50 163 
0 0 0 
255 69 175 
0 0 0 
122 54 255 
74 74 255 
193 60 193 
77 77 247 
0 0 0 
210 96 255 
88 88 255 
0 0 0 
215 78 255 
58 58 255 
47 47 151 
47 47 151 
255 36 255 
181 78 255 
0 0 0 
0 0 0 
113 113 255 
43 8 255 
94 89 255 
56 17 181 
47 47 151 
144 47 255 
0 0 0 
97 69 255 
64 64 207 
255 67 255 
255 213 255 
197 8 197 
0 0 0 
64 64 207 
47 47 151 
47 47 151 
255 78 255 
255 88 255 
0 0 0 
255 106 106 
255 218 228 
186 58 125 
151 47 47 
0 0 0 
0 0 0 
151 47 47 
255 226 228 
255 126 126 
255 255 255 
255 61 90 
255 47 47 
255 117 255 
255 62 79 
118 36 118 
216 67 94 
255 89 94 
255 88 88 
255 60 60 
255 77 248 
151 47 47 
255 48 55 
255 49 71 
255 109 190 
151 47 47 
0 0 0 
255 165 255 
155 111 251 
119 37 83 
168 148 255 
77 77 175 
255 255 255 
77 77 175 
77 77 175 
151 89 255 
0 0 0 
77 77 175 
77 77 175 
106 106 241 
119 37 83 
194 112 255 
138 84 190 
0 0 0 
162 112 255 
0 0 0 
161 161 255 
77 77 175 
146 146 255 
106 106 241 
163 50 115 
128 128 255 
255 255 255 
251 230 255 
192 160 255 
169 132 255 
145 145 255 
77 77 175 
206 95 216 
0 0 0 
0 0 0 
187 187 255 
0 0 0 
106 106 241 
155 155 255 
77 77 175 
255 255 255 
106 106 241 
139 139 255 
0 0 0 
0 0 0 
139 139 255 
0 0 0 
77 77 175 
77 77 175 
255 171 255 
0 0 0 
111 111 255 
77 77 175 
172 124 255 
106 106 241 
77 77 175 
152 152 255 
106 106 241 
255 237 255 
218 218 255 
146 146 255 
255 255 255 
255 175 175 
0 0 0 
255 113 255 
255 255 255 
255 255 255 
245 170 205 
255 255 255 
255 251 255 
255 255 255 
255 255 255 
175 175 255 
255 255 255 
255 255 255 
0 0 0 
255 255 255 
0 0 0 
255 164 255 
0 0 0 
247 77 77 
255 186 255 
255 255 255 
255 255 255 
255 254 254 
255 255 255 
0 0 0 
221 221 221 
255 255 255 
255 255 255 
255 255 255 
255 255 255 
255 98 255 
0 0 0 
255 162 255 
255 105 105 
161 161 161 
161 161 161 
255 217 255 
255 199 199 
0 0 0 
255 255 255 
175 175 255 
255 255 255 
255 147 255 
161 161 161 
255 173 173 
255 255 255 
255 255 255 
255 254 254 
221 221 221 
255 255 255 
255 255 255 
255 126 255 
255 207 207 
0 0 0 
255 255 255 
255 255 255 
230 22 230 
255 255 255 
255 255 255 
255 255 255 
255 255 255 
241 106 106 
175 77 77 
241 106 106 
255 84 84 
255 104 255 
255 95 95 
0 0 0 
175 77 77 
0 0 0 
241 106 106 
255 138 226 
255 128 255 
255 128 128 
255 45 213 
255 84 84 
247 109 231 
255 139 227 
0 0 0 
209 28 92 
255 119 119 
255 99 99 
255 190 255 
0 0 0 
255 128 128 
255 146 146 
241 106 106 
255 163 163 
255 128 128 
175 77 77 
0 0 0 
255 171 171 
175 77 77 
241 106 106 
0 0 0 
255 128 128 
0 0 0 
255 161 161 
175 77 77 
241 106 106 
255 255 255 
241 106 106 
255 128 128 
255 108 252 
241 106 106 
255 109 137 
0 0 0 
175 77 77 
255 84 84 
175 77 77 
241 106 106 
241 106 106 
138 61 138 
255 161 161 
0 0 0 
241 106 106 
241 106 106 
255 255 255 
175 77 77 
0 0 0 
175 77 77 
255 47 151 
255 126 255 
0 0 0 
255 60 195 
0 0 0 
0 0 0 
83 37 119 
175 77 77 
0 0 0 
0 0 0 
0 0 0 
0 0 0 
255 67 119 
137 60 194 
0 0 0 
0 0 0 
58 58 255 
65 28 255 
255 227 255 
238 238 255 
47 47 151 
60 49 230 
140 106 255 
64 64 207 
255 121 255 
160 160 255 
0 0 0 
229 102 255 
0 0 0 
47 47 151 
47 47 151 
60 49 230 
52 47 255 
203 91 255 
65 28 255 
98 81 255 
71 13 143 
64 64 207 
0 0 0 
77 77 249 
71 13 143 
93 58 187 
36 36 255 
0 0 0 
88 88 255 
0 0 0 
77 77 249 
255 55 111 
255 88 88 
0 0 0 
255 88 88 
255 126 126 
187 58 93 
255 103 255 
255 54 169 
255 66 74 
182 17 40 
0 0 0 
0 0 0 
255 58 58 
0 0 0 
255 108 200 
207 64 64 
255 104 104 
255 68 195 
255 104 104 
255 88 88 
255 144 144 
255 126 126 
207 64 64 
255 54 237 
0 0 0 
151 47 47 
255 104 115 
0 0 0 
0 0 0 
255 119 255 
0 0 0 
155 111 251 
0 0 0 
77 77 175 
106 106 241 
0 0 0 
77 77 175 
106 106 241 
255 255 255 
206 95 216 
255 99 224 
0 0 0 
77 77 175 
227 139 255 
255 128 255 
231 231 255 
255 122 255 
177 90 204 
155 111 251 
255 141 255 
253 182 255 
0 0 0 
0 0 0 
106 106 241 
106 106 241 
128 128 255 
0 0 0 
119 37 83 
77 77 175 
77 77 175 
188 188 255 
77 77 175 
245 169 255 
255 151 255 
128 128 255 
132 132 255 
106 106 241 
128 128 255 
255 255 255 
119 37 83 
106 106 241 
175 175 255 
106 106 241 
0 0 0 
128 128 255 
146 146 255 
128 128 255 
175 175 255 
255 255 255 
77 77 175 
106 106 241 
247 247 255 
128 128 255 
175 175 255 
77 77 175 
128 128 255 
255 255 255 
119 119 255 
255 221 255 
255 173 255 
246 76 255 
255 255 255 
255 22 115 
255 255 255 
161 161 161 
255 175 175 
255 185 255 
161 161 161 
162 22 255 
255 255 255 
126 126 255 
255 255 255 
161 161 161 
255 162 255 
221 221 221 
0 0 0 
255 255 255 
255 255 255 
175 175 255 
255 199 199 
255 255 255 
255 255 255 
161 161 161 
0 0 0 
255 255 255 
255 255 255 
255 255 255 
255 126 126 
255 255 255 
0 0 0 
255 255 255 
255 98 255 
255 255 255 
0 0 0 
255 61 255 
255 255 255 
255 255 255 
0 0 0 
255 255 255 
255 199 199 
161 161 161 
161 161 161 
255 255 255 
255 231 231 
255 175 175 
255 35 172 
255 207 207 
255 199 199 
255 255 255 
0 0 0 
255 255 255 
0 0 0 
255 255 255 
0 0 0 
221 221 221 
0 0 0 
255 255 255 
255 217 255 
175 77 77 
255 135 163 
255 189 189 
241 106 106 
241 33 84 
255 187 187 
255 128 128 
0 0 0 
0 0 0 
255 182 216 
241 106 106 
255 141 141 
175 77 77 
255 106 255 
255 146 146 
255 84 84 
255 139 182 
255 255 255 
255 84 84 
255 148 148 
241 106 106 
255 128 128 
255 137 165 
255 219 241 
0 0 0 
175 77 77 
255 111 111 
241 106 106 
255 47 107 
175 77 77 
241 106 106 
255 120 169 
255 128 128 
241 106 106 
255 218 219 
255 218 218 
255 255 255 
255 128 128 
175 77 77 
255 123 123 
175 77 77 
175 77 77 
190 84 138 
241 106 106 
255 220 243 
255 161 255 
175 77 77 
255 145 145 
255 174 255 
175 77 77 
175 77 77 
175 77 77 
0 0 0 
255 119 216 
0 0 0 
255 127 127 
241 106 106 
0 0 0 
241 106 106 
83 37 119 
190 84 138 
190 84 138 
241 106 255 
255 131 222 
175 77 77 
83 37 119 
0 0 0 
175 77 77 
0 0 0 
0 0 0 
175 77 77 
0 0 0 
0 0 0 
83 37 119 
0 0 0 
215 215 255 
203 63 203 
0 0 0 
47 47 151 
85 78 255 
62 27 255 
40 17 182 
0 0 0 
64 64 207 
98 81 255 
72 22 72 
40 17 182 
0 0 0 
255 234 255 
83 37 119 
47 47 151 
108 83 255 
47 47 151 
88 88 255 
255 17 255 
0 0 0 
47 47 151 
206 206 255 
47 47 151 
47 47 151 
255 100 255 
60 49 230 
64 64 207 
105 105 255 
40 17 182 
0 0 0 
97 97 255 
47 47 151 
255 33 74 
0 0 0 
255 36 36 
255 217 226 
0 0 0 
151 47 47 
255 48 51 
255 145 255 
118 36 118 
255 158 237 
255 93 118 
0 0 0 
255 68 195 
247 77 77 
222 69 175 
151 47 47 
255 88 92 
255 88 88 
255 88 251 
186 58 125 
255 165 213 
151 47 47 
255 80 255 
255 105 105 
255 76 100 
255 39 89 
150 104 255 
77 77 175 
255 159 255 
163 50 115 
155 111 251 
106 106 241 
0 0 0 
189 115 255 
77 77 175 
77 77 175 
106 106 241 
255 255 255 
255 122 255 
162 134 255 
0 0 0 
77 77 175 
210 210 255 
77 77 175 
77 77 175 
179 144 255 
77 77 175 
255 81 184 
77 77 175 
0 0 0 
77 77 175 
106 106 241 
77 77 175 
0 0 0 
77 77 175 
77 77 175 
0 0 0 
106 106 241 
106 106 241 
128 128 255 
106 106 241 
0 0 0 
77 77 175 
228 228 255 
0 0 0 
128 128 255 
228 228 255 
111 111 255 
175 175 255 
77 77 175 
0 0 0 
99 99 255 
149 149 255 
77 77 175 
106 106 241 
137 109 255 
77 77 175 
84 84 255 
141 141 255 
227 139 255 
146 146 255 
146 146 255 
128 128 255 
77 77 175 
123 123 255 
77 77 175 
255 255 255 
138 61 138 
228 228 255 
255 255 255 
255 238 255 
0 0 0 
255 126 126 
255 162 223 
255 60 60 
255 255 255 
255 255 255 
255 255 255 
255 98 255 
174 77 255 
161 161 161 
161 161 161 
255 255 255 
255 255 255 
0 0 0 
255 255 255 
255 255 255 
255 255 255 
255 255 255 
161 161 161 
0 0 0 
255 207 207 
161 161 161 
0 0 0 
0 0 0 
255 227 227 
255 255 255 
0 0 0 
255 255 255 
255 249 255 
255 222 255 
161 161 161 
0 0 0 
255 162 255 
0 0 0 
161 161 161 
175 175 255 
161 161 161 
0 0 0 
0 0 0 
161 161 161 
255 255 255 
255 60 60 
255 255 255 
0 0 0 
255 255 255 
255 255 255 
255 255 255 
0 0 0 
255 126 126 
255 189 232 
0 0 0 
255 99 255 
161 161 161 
0 0 0 
255 255 255 
255 255 255 
255 36 118 
255 60 60 
0 0 0 
255 183 217 
255 128 128 
255 128 128 
209 28 92 
175 77 77 
255 122 178 
0 0 0 
255 238 238 
175 77 77 
175 77 77 
255 85 223 
175 77 77 
255 166 189 
255 140 209 
0 0 0 
241 106 106 
255 84 84 
175 77 77 
0 0 0 
255 128 128 
175 77 77 
241 106 106 
255 84 84 
255 200 200 
255 128 128 
255 13 44 
175 77 77 
175 77 77 
255 120 169 
175 77 77 
175 77 77 
255 162 255 
241 106 106 
255 128 128 
190 84 138 
241 106 106 
241 106 106 
241 106 106 
241 106 106 
0 0 0 
255 175 175 
255 128 128 
0 0 0 
255 234 234 
255 128 128 
241 106 106 
241 106 106 
241 106 106 
255 139 182 
251 111 155 
0 0 0 
175 77 77 
241 106 106 
175 77 77 
0 0 0 
224 99 255 
0 0 0 
0 0 0 
0 0 0 
0 0 0 
0 0 0 
0 0 0 
241 106 106 
175 77 77 
255 47 255 
0 0 0 
0 0 0 
175 77 77 
156 69 222 
83 37 119 
106 47 255 
0 0 0 
0 0 0 
106 39 181 
60 60 255 
98 81 255 
255 109 255 
126 126 255 
106 47 255 
255 236 255 
77 77 247 
36 36 255 
232 100 255 
102 72 233 
0 0 0 
77 63 255 
0 0 0 
40 17 182 
77 64 255 
0 0 0 
60 60 255 
255 92 255 
115 65 255 
0 0 0 
154 97 255 
144 134 255 
0 0 0 
64 64 207 
94 89 255 
151 63 204 
199 88 255 
213 207 255 
47 47 151 
0 0 0 
181 17 56 
47 47 151 
255 162 255 
255 110 131 
0 0 0 
0 0 0 
255 85 115 
151 47 47 
255 255 255 
255 144 255 
151 47 47 
249 77 77 
255 72 72 
0 0 0 
255 60 255 
151 47 47 
186 58 125 
255 119 255 
255 118 255 
151 47 47 
255 93 143 
151 47 47 
247 77 77 
255 121 121 
151 47 47 
0 0 0 
77 77 175 
77 77 175 
255 255 255 
123 123 255 
212 152 255 
119 37 83 
106 106 241 
128 128 255 
194 60 137 
147 45 166 
0 0 0 
77 77 175 
155 111 251 
77 77 175 
106 106 241 
138 84 190 
106 106 241 
0 0 0 
77 77 175 
255 106 240 
128 128 255 
0 0 0 
128 128 255 
106 106 241 
255 122 255 
77 77 175 
106 106 241 
77 77 175 
77 77 175 
77 77 175 
127 127 255 
0 0 0 
106 106 241 
0 0 0 
206 128 255 
146 146 255 
119 37 83 
77 77 175 
77 77 175 
146 146 255 
77 77 175 
84 84 255 
77 77 175 
77 77 175 
106 106 241 
127 127 255 
77 77 175 
0 0 0 
128 128 255 
241 156 255 
77 77 175 
106 106 241 
191 191 255 
123 78 197 
255 88 255 
255 255 255 
166 115 255 
106 106 241 
106 106 241 
77 77 175 
128 128 255 
77 77 175 
169 132 255 
128 128 255 
146 146 255 
255 127 255 
158 115 255 
255 179 255 
255 184 184 
255 231 231 
193 60 193 
0 0 0 
255 255 255 
161 161 161 
247 77 77 
255 255 255 
161 161 161 
0 0 0 
255 206 206 
221 221 221 
247 77 77 
255 255 255 
255 255 255 
0 0 0 
255 231 231 
255 255 255 
255 207 207 
255 255 255 
161 161 161 
255 199 199 
255 255 255 
255 199 199 
255 255 255 
255 255 255 
126 126 255 
255 255 255 
255 255 255 
255 255 255 
255 163 181 
0 0 0 
247 77 77 
255 236 236 
0 0 0 
0 0 0 
255 255 255 
255 255 255 
0 0 0 
161 161 161 
255 255 255 
255 255 255 
255 255 255 
255 255 255 
255 255 255 
0 0 0 
221 221 221 
161 161 161 
255 255 255 
255 255 255 
161 161 161 
255 214 255 
255 207 207 
255 255 255 
255 255 255 
255 138 182 
255 157 157 
211 79 93 
241 106 106 
255 84 84 
255 143 255 
255 132 132 
255 118 182 
0 0 0 
255 177 255 
0 0 0 
255 255 255 
251 84 255 
255 37 37 
175 77 77 
255 162 255 
175 77 77 
175 77 77 
175 77 77 
175 77 77 
255 255 255 
255 81 117 
255 141 141 
255 128 128 
241 106 106 
241 106 106 
241 106 106 
255 136 209 
255 128 128 
241 106 106 
0 0 0 
255 122 122 
241 106 106 
255 128 128 
241 106 106 
0 0 0 
255 128 128 
209 28 92 
175 77 77 
0 0 0 
255 84 84 
255 146 146 
175 77 77 
175 77 77 
0 0 0 
241 106 106 
83 37 119 
255 128 128 
255 109 137 
0 0 0 
255 255 255 
255 81 81 
83 37 119 
175 77 77 
241 106 106 
241 106 106 
175 77 77 
175 77 77 
0 0 0 
255 127 140 
0 0 0 
241 106 106 
175 77 77 
0 0 0 
106 47 255 
255 161 161 
241 106 106 
241 106 106 
71 13 143 
0 0 0 
0 0 0 
197 8 197 
129 57 255 
0 0 0 
115 50 163 
0 0 0 
0 0 0 
47 47 151 
0 0 0 
77 77 247 
98 98 255 
205 49 255 
77 77 247 
255 255 255 
255 95 255 
47 47 151 
193 60 193 
0 0 0 
147 94 255 
64 64 207 
168 51 255 
0 0 0 
224 99 255 
255 132 255 
255 173 255 
47 47 151 
70 48 255 
74 74 255 
74 66 255 
0 0 0 
47 47 151 
116 22 234 
93 58 187 
64 64 207 
91 40 212 
241 47 255 
158 69 255 
0 0 0 
227 107 255 
255 206 206 
99 30 99 
187 58 93 
0 0 0 
255 178 255 
207 64 64 
249 77 77 
255 121 125 
0 0 0 
255 106 193 
110 10 34 
0 0 0 
255 133 255 
230 49 60 
255 107 107 
255 28 65 
176 48 147 
0 0 0 
255 104 158 
255 80 255 
255 105 105 
255 47 47 
128 17 56 
255 57 129 
119 37 83 
138 138 255 
0 0 0 
232 148 255 
255 77 174 
0 0 0 
255 255 255 
77 77 175 
77 77 175 
207 207 255 
106 106 241 
77 77 175 
0 0 0 
106 106 241 
216 119 255 
146 146 255 
194 60 137 
77 77 175 
77 77 175 
77 77 175 
77 77 175 
77 77 175 
119 37 83 
60 60 255 
106 106 241 
106 106 241 
106 106 241 
77 77 175 
255 202 255 
155 111 251 
119 37 83 
0 0 0 
77 77 175 
77 77 175 
158 78 197 
0 0 0 
146 146 255 
119 37 83 
0 0 0 
77 77 175 
106 106 241 
106 106 241 
0 0 0 
0 0 0 
77 77 175 
161 161 255 
255 255 255 
106 106 241 
77 77 175 
0 0 0 
163 163 255 
106 106 241 
0 0 0 
146 146 255 
106 106 241 
228 228 255 
161 161 255 
199 199 255 
106 106 241 
255 188 255 
161 161 255 
77 77 175 
77 77 175 
175 175 255 
255 171 255 
132 132 255 
0 0 0 
128 128 255 
255 255 255 
255 255 255 
255 255 255 
255 255 255 
255 255 255 
255 206 206 
255 255 255 
255 255 255 
255 255 255 
247 77 77 
231 175 255 
161 161 161 
255 255 255 
255 255 255 
255 255 255 
255 255 255 
255 126 255 
255 255 255 
255 255 255 
255 255 255 
255 76 246 
247 77 77 
255 126 126 
255 255 255 
0 0 0 
207 207 255 
255 255 255 
0 0 0 
161 161 161 
255 126 126 
161 161 161 
255 122 233 
0 0 0 
221 221 221 
161 161 161 
255 215 255 
161 161 161 
175 175 255 
255 255 255 
255 255 255 
221 221 221 
255 255 255 
161 161 161 
255 254 254 
255 255 255 
255 255 255 
255 255 255 
255 162 223 
255 255 255 
255 255 255 
255 200 255 
255 255 255 
255 175 175 
194 164 194 
255 255 255 
175 77 77 
255 190 255 
255 111 111 
255 255 255 
255 169 255 
255 161 161 
255 84 84 
255 114 114 
255 128 128 
241 106 106 
255 37 37 
0 0 0 
0 0 0 
255 255 255 
255 111 131 
255 255 255 
255 176 176 
255 69 141 
255 129 129 
0 0 0 
175 77 77 
255 96 134 
217 96 154 
175 77 77 
255 81 81 
0 0 0 
255 146 146 
255 130 153 
0 0 0 
175 77 77 
175 77 77 
255 100 229 
255 128 142 
255 84 84 
255 128 128 
0 0 0 
224 99 255 
175 77 77 
0 0 0 
241 106 106 
175 77 77 
0 0 0 
255 218 218 
255 108 250 
0 0 0 
255 127 127 
175 77 77 
138 61 138 
241 106 106 
255 255 255 
0 0 0 
175 77 77 
0 0 0 
175 77 77 
175 77 77 
0 0 0 
0 0 0 
255 145 145 
175 77 77 
190 84 138 
175 77 77 
0 0 0 
0 0 0 
204 90 177 
255 17 182 
0 0 0 
0 0 0 
0 0 0 
83 37 119 
0 0 0 
190 84 138 
61 8 87 
255 255 255 
0 0 0 
228 101 232 
255 112 255 
115 50 163 
255 51 174 
47 47 151 
0 0 0 
30 1 255 
0 0 0 
144 144 255 
72 22 72 
255 165 255 
0 0 0 
97 97 255 
121 77 255 
0 0 0 
0 0 0 
134 40 224 
78 54 255 
54 24 250 
0 0 0 
0 0 0 
255 127 255 
72 22 72 
86 31 255 
0 0 0 
98 81 255 
255 211 255 
47 47 151 
47 47 151 
255 123 255 
0 0 0 
64 64 207 
47 47 151 
47 47 151 
0 0 0 
0 0 0 
255 130 255 
0 0 0 
151 47 47 
151 47 47 
249 77 77 
0 0 0 
255 145 255 
233 72 102 
0 0 0 
255 255 255 
0 0 0 
247 77 77 
182 17 40 
255 97 97 
0 0 0 
0 0 0 
0 0 0 
151 47 47 
151 47 47 
0 0 0 
0 0 0 
106 106 241 
194 60 137 
0 0 0 
129 40 149 
138 84 190 
255 124 255 
163 50 115 
77 77 175 
169 132 255 
77 77 175 
137 109 255 
128 128 255 
0 0 0 
138 84 190 
77 77 175 
150 105 255 
77 77 175 
77 77 175 
77 77 175 
119 37 83 
106 106 241 
128 128 255 
77 77 175 
0 0 0 
106 106 241 
77 77 175 
106 106 241 
106 106 241 
77 77 175 
128 128 255 
106 106 241 
106 106 241 
77 77 175 
77 77 175 
169 132 255 
128 128 255 
0 0 0 
251 230 255 
194 60 137 
0 0 0 
146 146 255 
0 0 0 
77 77 175 
155 111 251 
77 77 175 
106 106 241 
77 77 175 
106 106 241 
255 255 255 
106 106 241 
106 106 241 
227 139 255 
169 132 255 
111 111 255 
206 170 255 
123 123 255 
218 218 255 
128 128 255 
141 141 255 
106 106 241 
128 128 255 
0 0 0 
128 128 255 
0 0 0 
244 244 255 
106 106 241 
0 0 0 
185 142 255 
115 115 255 
255 255 255 
169 132 255 
255 255 255 
0 0 0 
161 161 161 
0 0 0 
0 0 0 
118 36 118 
255 255 255 
255 255 255 
255 255 255 
255 255 255 
0 0 0 
0 0 0 
255 255 255 
255 255 255 
255 47 47 
245 170 205 
255 255 255 
161 161 161 
255 255 255 
255 255 255 
255 128 255 
255 199 255 
0 0 0 
255 255 255 
255 255 255 
255 255 255 
0 0 0 
0 0 0 
255 113 212 
255 255 255 
255 221 221 
194 60 137 
206 206 255 
0 0 0 
161 161 161 
255 255 255 
0 0 0 
255 255 255 
161 161 161 
0 0 0 
161 161 161 
255 105 105 
0 0 0 
0 0 0 
255 84 255 
255 255 255 
161 161 161 
255 255 255 
255 255 255 
0 0 0 
255 255 255 
161 161 161 
161 161 161 
255 111 111 
175 77 77 
255 127 129 
255 95 95 
138 61 138 
175 77 77 
0 0 0 
241 106 106 
255 255 255 
175 77 77 
255 146 146 
175 77 77 
175 77 77 
255 128 128 
0 0 0 
175 77 77 
255 149 149 
255 162 181 
255 162 255 
175 77 77 
138 61 138 
255 29 210 
138 61 138 
255 192 192 
0 0 0 
0 0 0 
255 128 128 
241 106 106 
175 77 77 
255 134 134 
0 0 0 
175 77 77 
255 235 255 
241 106 106 
255 120 169 
241 106 106 
255 78 250 
255 175 175 
255 146 146 
175 77 77 
255 161 161 
175 77 77 
255 151 151 
241 106 106 
175 77 77 
241 106 106 
255 111 111 
255 111 111 
175 77 77 
0 0 0 
0 0 0 
255 255 255 
190 84 138 
241 106 106 
175 77 77 
255 95 95 
132 58 255 
175 77 77 
255 81 117 
0 0 0 
216 95 206 
128 17 56 
255 81 117 
175 77 77 
190 84 138 
241 106 106 
251 111 155 
251 111 155 
0 0 0 
255 144 255 
241 106 106 
0 0 0 
255 127 255 
0 0 0 
224 99 255 
0 0 0 
183 77 185 
0 0 0 
0 0 0 
77 77 247 
255 255 255 
47 47 151 
255 163 255 
74 74 255 
83 37 119 
47 47 151 
64 64 207 
255 255 255 
0 0 0 
226 13 255 
151 127 255 
66 20 255 
83 37 119 
60 49 230 
40 17 182 
158 47 162 
120 26 255 
93 65 245 
95 89 255 
138 138 255 
64 64 207 
0 0 0 
47 47 151 
102 79 255 
33 6 219 
88 88 255 
77 77 247 
107 65 255 
77 77 247 
47 47 151 
242 37 94 
0 0 0 
255 79 171 
182 17 40 
151 47 47 
255 155 255 
157 37 121 
255 97 97 
255 74 89 
255 22 71 
181 17 56 
151 47 47 
255 145 145 
255 99 99 
255 107 241 
0 0 0 
255 79 102 
255 196 196 
0 0 0 
151 47 47 
147 45 166 
0 0 0 
87 78 255 
138 84 190 
77 77 175 
206 95 216 
240 240 255 
163 50 115 
232 101 228 
189 115 255 
0 0 0 
255 174 255 
255 106 240 
194 60 137 
77 77 175 
138 84 190 
128 128 255 
187 187 255 
189 115 255 
128 128 255 
255 162 255 
128 128 255 
119 37 83 
106 106 241 
0 0 0 
77 77 175 
0 0 0 
106 106 241 
255 47 106 
77 77 175 
0 0 0 
187 187 255 
175 175 255 
155 111 251 
155 111 251 
145 145 255 
161 161 255 
77 77 175 
216 129 255 
84 84 255 
169 132 255 
155 111 251 
146 146 255 
137 129 255 
77 77 175 
106 106 241 
255 255 255 
106 106 241 
146 146 255 
77 77 175 
106 106 241 
161 161 255 
228 228 255 
77 77 175 
171 171 255 
157 157 255 
183 149 255 
164 164 255 
77 77 175 
146 146 255 
77 77 175 
77 77 175 
106 106 241 
119 119 255 
77 77 175 
255 211 255 
106 106 241 
77 77 175 
106 106 241 
228 228 255 
206 95 216 
255 243 255 
77 77 175 
255 255 255 
255 255 255 
207 207 255 
193 60 193 
0 0 0 
255 255 255 
255 155 255 
161 161 161 
0 0 0 
255 255 255 
0 0 0 
255 255 255 
255 255 255 
255 126 126 
255 175 175 
255 81 163 
193 60 193 
0 0 0 
0 0 0 
255 255 255 
255 255 255 
255 255 255 
255 255 255 
255 255 255 
199 199 255 
255 22 51 
255 254 254 
255 255 255 
255 255 255 
0 0 0 
0 0 0 
0 0 0 
161 161 161 
255 102 230 
255 255 255 
161 161 161 
255 255 255 
255 255 255 
255 122 233 
0 0 0 
255 188 255 
127 127 255 
255 255 255 
255 255 255 
255 77 77 
255 255 255 
255 255 255 
0 0 0 
255 255 255 
207 207 255 
0 0 0 
255 255 255 
206 206 255 
255 182 216 
255 123 235 
245 48 108 
255 101 157 
255 148 148 
255 69 69 
0 0 0 
255 123 255 
217 96 154 
255 60 60 
241 106 106 
175 77 77 
241 106 106 
255 255 255 
255 80 103 
255 114 114 
255 128 128 
255 106 161 
255 142 185 
175 77 77 
241 106 106 
255 134 134 
255 50 50 
217 96 154 
0 0 0 
255 207 207 
241 106 106 
175 77 77 
0 0 0 
255 161 161 
175 77 77 
255 161 161 
0 0 0 
175 77 77 
175 77 77 
175 77 77 
175 77 77 
255 81 117 
175 77 77 
255 127 127 
255 115 189 
0 0 0 
0 0 0 
0 0 0 
255 128 128 
255 162 162 
255 106 106 
255 217 255 
175 77 77 
0 0 0 
0 0 0 
255 146 146 
241 106 106 
175 77 77 
175 77 77 
184 81 255 
175 77 77 
255 146 146 
0 0 0 
175 77 77 
241 106 106 
255 146 146 
175 77 77 
175 77 77 
216 95 206 
137 60 194 
175 77 77 
241 106 106 
175 77 77 
0 0 0 
0 0 0 
255 255 255 
175 77 77 
190 84 138 
0 0 0 
103 45 255 
126 10 112 
200 85 193 
83 37 119 
0 0 0 
47 47 151 
0 0 0 
255 73 255 
255 255 255 
65 28 255 
84 51 164 
0 0 0 
137 60 194 
0 0 0 
255 133 255 
36 36 255 
213 54 173 
83 66 255 
255 136 255 
137 60 194 
74 66 255 
84 51 164 
40 17 182 
255 55 255 
77 77 249 
47 47 151 
255 255 255 
0 0 0 
0 0 0 
47 47 151 
0 0 0 
0 0 0 
84 51 164 
47 47 151 
227 107 255 
255 45 213 
0 0 0 
255 99 118 
255 132 132 
255 88 88 
247 77 77 
255 106 255 
255 62 255 
255 255 255 
255 178 178 
255 82 164 
119 37 83 
151 47 47 
255 42 79 
72 22 72 
255 98 121 
255 158 158 
255 99 99 
247 77 77 
187 58 255 
106 106 241 
138 84 190 
255 141 255 
106 106 241 
138 84 190 
138 84 190 
119 37 83 
77 77 175 
119 37 83 
77 77 175 
119 37 83 
119 37 83 
119 37 83 
155 111 251 
138 84 190 
0 0 0 
155 111 251 
0 0 0 
77 77 175 
138 84 190 
0 0 0 
128 128 255 
0 0 0 
77 77 175 
228 228 255 
106 106 241 
119 37 83 
106 106 241 
0 0 0 
77 77 175 
77 77 175 
0 0 0 
0 0 0 
77 77 175 
183 149 255 
232 101 228 
0 0 0 
119 37 83 
77 77 175 
128 128 255 
77 77 175 
106 106 241 
77 77 175 
245 170 255 
77 77 175 
106 106 241 
101 101 255 
146 146 255 
128 128 255 
128 128 255 
106 106 241 
128 128 255 
106 106 241 
119 119 255 
155 111 251 
208 101 255 
111 111 255 
132 132 255 
77 77 175 
84 84 255 
144 144 255 
95 95 255 
169 120 255 
139 139 255 
106 106 241 
146 146 255 
77 77 175 
0 0 0 
106 106 241 
255 17 90 
118 107 255 
128 128 255 
106 106 241 
154 96 217 
106 106 241 
255 255 255 
255 255 255 
255 255 255 
161 161 161 
247 77 77 
199 199 255 
207 207 255 
161 161 161 
161 161 161 
255 255 255 
255 255 255 
255 127 255 
255 176 255 
255 60 137 
255 200 255 
255 255 255 
0 0 0 
161 161 161 
255 255 255 
255 255 255 
255 255 255 
255 255 255 
0 0 0 
255 255 255 
255 221 221 
255 255 255 
247 77 77 
255 255 255 
255 255 255 
255 126 126 
255 255 255 
247 77 77 
161 161 161 
255 79 239 
161 161 161 
161 161 161 
255 113 255 
248 77 255 
0 0 0 
255 78 176 
255 255 255 
0 0 0 
255 77 77 
255 255 255 
161 161 161 
255 255 255 
0 0 0 
255 126 126 
161 161 161 
255 255 255 
0 0 0 
255 84 84 
255 84 138 
255 120 169 
255 84 84 
175 77 77 
255 184 255 
0 0 0 
255 230 230 
255 128 128 
255 132 132 
244 106 182 
255 154 154 
255 141 141 
255 146 146 
241 106 106 
175 77 77 
255 95 95 
255 128 128 
255 60 60 
0 0 0 
255 108 108 
255 195 195 
255 81 117 
0 0 0 
175 77 77 
175 77 77 
255 145 145 
255 95 95 
255 95 95 
255 149 149 
255 161 255 
255 139 182 
0 0 0 
224 99 255 
255 128 128 
255 106 255 
255 255 255 
138 61 138 
0 0 0 
175 77 77 
255 255 255 
0 0 0 
175 77 77 
175 77 77 
255 123 235 
175 77 77 
255 60 60 
241 106 106 
0 0 0 
0 0 0 
0 0 0 
175 77 77 
175 77 77 
0 0 0 
137 60 194 
175 77 77 
83 37 119 
0 0 0 
224 99 255 
190 84 138 
175 77 77 
175 77 77 
0 0 0 
241 106 106 
0 0 0 
190 84 138 
175 77 77 
190 84 138 
175 77 77 
175 77 77 
0 0 0 
83 37 119 
0 0 0 
83 37 119 
0 0 0 
83 37 119 
233 57 183 
254 73 236 
175 77 77 
98 8 255 
137 60 194 
0 0 0 
0 0 0 
98 98 255 
64 64 207 
255 102 255 
47 47 151 
47 47 151 
0 0 0 
0 0 0 
88 88 255 
147 74 245 
64 64 207 
0 0 0 
0 0 0 
219 108 255 
54 24 250 
147 48 176 
255 214 255 
0 0 0 
0 0 0 
64 64 207 
64 64 207 
47 47 151 
72 22 72 
86 30 255 
120 120 255 
0 0 0 
0 0 0 
65 28 255 
0 0 0 
0 0 0 
255 104 158 
255 149 255 
255 79 102 
182 17 40 
0 0 0 
193 60 193 
255 78 78 
255 97 97 
255 36 36 
247 77 77 
151 47 47 
255 45 255 
255 74 255 
255 208 210 
151 47 47 
249 77 77 
77 77 175 
138 84 190 
255 236 255 
77 77 175 
0 0 0 
77 77 175 
155 111 251 
255 111 251 
255 96 255 
77 77 175 
77 77 175 
77 77 175 
0 0 0 
77 77 175 
0 0 0 
255 131 255 
128 128 255 
255 106 241 
255 78 188 
77 77 175 
0 0 0 
206 95 216 
106 106 241 
0 0 0 
218 218 255 
77 77 175 
77 77 175 
0 0 0 
245 169 255 
0 0 0 
0 0 0 
255 200 255 
77 77 175 
77 77 175 
0 0 0 
207 207 255 
128 128 255 
0 0 0 
106 106 241 
128 128 255 
255 150 255 
106 106 241 
142 90 255 
111 84 255 
0 0 0 
155 111 251 
128 128 255 
0 0 0 
0 0 0 
106 106 241 
77 77 175 
106 106 241 
77 77 175 
106 106 241 
106 106 241 
77 77 175 
106 106 241 
77 77 175 
0 0 0 
238 238 255 
0 0 0 
176 176 255 
77 77 175 
161 161 255 
128 128 255 
155 111 251 
255 141 255 
192 133 255 
128 128 255 
106 106 241 
106 106 241 
77 77 175 
128 128 255 
122 122 255 
0 0 0 
155 111 251 
0 0 0 
255 114 255 
255 255 255 
255 255 255 
247 77 77 
255 255 255 
255 204 255 
247 77 77 
0 0 0 
255 255 255 
221 221 221 
255 255 255 
255 163 255 
255 255 255 
0 0 0 
0 0 0 
0 0 0 
255 231 231 
161 161 161 
255 255 255 
206 206 255 
207 207 255 
161 161 161 
221 221 221 
255 255 255 
255 255 255 
255 255 255 
255 255 255 
161 161 161 
161 161 161 
161 161 161 
86 8 86 
255 255 255 
221 221 221 
0 0 0 
0 0 0 
255 255 255 
255 207 207 
0 0 0 
255 255 255 
255 255 255 
255 255 255 
255 255 255 
255 255 255 
255 255 255 
255 255 255 
255 255 255 
255 214 255 
255 255 255 
161 161 161 
255 255 255 
255 88 88 
255 150 150 
255 69 255 
255 28 28 
255 60 60 
0 0 0 
241 106 106 
255 132 132 
175 77 77 
255 84 84 
0 0 0 
255 175 255 
255 84 84 
255 255 255 
255 128 128 
241 106 106 
255 85 196 
0 0 0 
255 179 179 
175 77 77 
0 0 0 
255 255 255 
255 151 233 
255 84 84 
255 97 186 
255 255 255 
255 60 60 
255 111 111 
175 77 77 
241 106 106 
175 77 77 
175 77 77 
255 146 146 
175 77 77 
255 84 84 
175 77 77 
255 128 150 
255 128 128 
175 77 77 
175 77 77 
175 77 77 
255 4 29 
175 77 77 
255 60 60 
0 0 0 
175 77 77 
255 109 109 
255 123 235 
241 106 106 
175 77 77 
175 77 77 
175 77 77 
0 0 0 
211 79 93 
0 0 0 
0 0 0 
175 77 77 
175 77 77 
190 84 138 
0 0 0 
0 0 0 
255 255 255 
241 106 106 
0 0 0 
211 79 93 
0 0 0 
0 0 0 
137 60 194 
255 107 113 
0 0 0 
175 77 77 
175 77 77 
0 0 0 
0 0 0 
175 77 77 
83 37 119 
255 207 207 
0 0 0 
255 255 255 
0 0 0 
83 37 119 
0 0 0 
77 77 247 
181 115 255 
83 51 255 
255 91 255 
231 148 255 
0 0 0 
255 99 255 
77 77 247 
142 74 239 
166 67 215 
255 115 255 
255 74 255 
64 64 207 
47 47 151 
47 47 151 
0 0 0 
47 47 151 
86 56 255 
74 66 255 
40 17 182 
127 47 188 
125 58 186 
0 0 0 
0 0 0 
47 47 151 
47 47 151 
0 0 0 
47 47 151 
83 37 119 
255 60 150 
0 0 0 
255 198 255 
255 56 86 
151 47 47 
255 17 90 
255 217 255 
151 47 47 
255 212 255 
0 0 0 
255 88 88 
255 88 88 
0 0 0 
255 88 90 
255 74 74 
255 255 255 
255 97 97 
119 37 83 
77 77 175 
138 84 190 
163 50 115 
137 109 255 
77 77 175 
0 0 0 
222 69 156 
0 0 0 
119 37 83 
77 77 175 
0 0 0 
222 167 255 
138 84 190 
77 77 175 
255 84 191 
128 128 255 
216 119 255 
0 0 0 
106 106 241 
255 145 255 
194 60 137 
187 187 255 
77 77 175 
0 0 0 
77 77 175 
194 60 137 
146 146 255 
0 0 0 
77 77 175 
106 106 241 
77 77 175 
119 37 83 
211 118 255 
0 0 0 
77 77 175 
255 122 255 
106 106 241 
106 106 241 
77 77 175 
0 0 0 
0 0 0 
161 161 255 
127 127 255 
255 170 255 
128 128 255 
77 77 175 
106 106 241 
77 77 175 
128 128 255 
128 128 255 
161 161 255 
104 3 51 
106 106 241 
128 128 255 
255 255 255 
77 77 175 
138 84 190 
77 77 175 
0 0 0 
255 255 255 
123 123 255 
0 0 0 
127 127 255 
255 77 255 
0 0 0 
77 77 175 
77 77 175 
106 106 241 
235 123 255 
255 145 255 
77 77 175 
139 139 255 
0 0 0 
77 77 175 
84 84 255 
77 77 175 
116 112 255 
77 77 175 
184 184 255 
0 0 0 
255 255 255 
255 145 145 
255 255 255 
255 255 255 
247 77 77 
255 175 175 
0 0 0 
255 175 199 
255 255 255 
255 98 98 
247 77 77 
255 255 255 
255 255 255 
255 255 255 
0 0 0 
175 69 222 
0 0 0 
255 233 255 
0 0 0 
161 161 161 
0 0 0 
221 221 221 
255 255 255 
255 107 255 
255 255 255 
255 255 255 
255 255 255 
161 161 161 
255 255 255 
255 255 255 
255 222 255 
161 161 161 
0 0 0 
0 0 0 
0 0 0 
216 161 172 
255 162 255 
0 0 0 
255 231 231 
218 218 255 
255 255 255 
255 255 255 
255 162 255 
161 161 161 
255 99 224 
0 0 0 
255 255 255 
175 77 77 
255 255 255 
255 64 145 
255 127 127 
217 96 154 
0 0 0 
255 84 84 
225 100 225 
255 151 234 
255 29 255 
255 128 128 
175 77 77 
255 176 255 
241 106 106 
0 0 0 
0 0 0 
255 81 81 
255 115 158 
255 128 128 
255 128 128 
255 145 145 
255 255 255 
255 128 128 
175 77 77 
255 132 132 
255 77 248 
0 0 0 
255 122 178 
175 77 77 
255 84 84 
175 77 77 
255 145 145 
241 106 106 
217 96 154 
255 128 128 
255 218 255 
0 0 0 
217 96 154 
255 78 250 
0 0 0 
241 106 106 
211 79 93 
255 228 228 
255 106 188 
190 84 138 
175 77 77 
255 106 221 
241 106 106 
78 10 255 
255 88 166 
241 106 106 
175 77 77 
241 106 106 
241 106 106 
175 77 77 
255 119 216 
0 0 0 
0 0 0 
175 77 77 
175 77 77 
255 107 118 
175 77 77 
110 48 255 
255 127 127 
0 0 0 
0 0 0 
0 0 0 
0 0 0 
0 0 0 
0 0 0 
175 77 77 
83 37 119 
175 77 77 
0 0 0 
255 13 143 
255 84 185 
0 0 0 
0 0 0 
0 0 0 
177 10 111 
0 0 0 
55 10 255 
77 77 249 
83 37 119 
224 99 255 
198 86 255 
174 77 255 
0 0 0 
47 47 151 
0 0 0 
0 0 0 
172 17 255 
47 47 151 
47 47 151 
114 71 255 
101 53 255 
64 64 207 
116 81 255 
0 0 0 
88 88 255 
126 126 255 
60 49 230 
0 0 0 
88 88 255 
75 47 170 
0 0 0 
0 0 0 
125 90 255 
64 64 207 
47 47 151 
181 17 56 
151 47 47 
255 54 84 
179 47 68 
255 216 255 
255 98 255 
255 99 118 
207 64 64 
255 211 235 
255 88 255 
255 66 74 
230 22 230 
247 77 77 
209 28 92 
0 0 0 
181 17 56 
255 58 58 
119 37 83 
0 0 0 
163 50 115 
119 37 83 
0 0 0 
255 255 255 
119 37 83 
77 77 175 
0 0 0 
106 106 241 
77 77 175 
106 106 241 
56 17 128 
56 17 128 
77 77 175 
77 77 175 
106 106 241 
0 0 0 
77 77 175 
123 123 255 
255 17 255 
0 0 0 
216 119 255 
106 106 241 
77 77 175 
77 77 175 
77 77 175 
77 77 175 
0 0 0 
106 106 241 
77 77 175 
0 0 0 
106 106 241 
77 77 175 
0 0 0 
0 0 0 
128 128 255 
0 0 0 
146 146 255 
77 77 175 
77 77 175 
127 127 255 
77 77 175 
77 77 175 
0 0 0 
77 77 175 
218 218 255 
0 0 0 
106 106 241 
106 106 241 
0 0 0 
77 77 175 
77 77 175 
0 0 0 
77 77 175 
106 106 241 
77 77 175 
77 77 175 
0 0 0 
0 0 0 
77 77 175 
106 106 241 
155 111 251 
155 111 251 
77 77 175 
77 77 175 
106 106 255 
207 207 255 
238 238 255 
255 255 255 
227 139 255 
84 84 255 
182 138 255 
106 106 241 
0 0 0 
0 0 0 
98 96 255 
0 0 0 
128 128 255 
84 84 255 
208 173 255 
161 161 161 
0 0 0 
161 161 161 
0 0 0 
255 255 255 
255 255 255 
255 121 255 
0 0 0 
255 255 255 
255 162 255 
255 255 255 
161 161 161 
255 207 207 
255 255 255 
255 206 206 
255 209 255 
255 255 255 
255 255 255 
0 0 0 
255 255 255 
255 255 255 
255 255 255 
161 161 161 
255 255 255 
255 255 255 
126 126 255 
255 255 255 
0 0 0 
255 255 255 
161 161 161 
255 255 255 
255 199 199 
255 255 255 
255 216 216 
255 22 51 
255 255 255 
255 175 255 
175 175 255 
255 255 255 
255 255 255 
0 0 0 
255 255 255 
0 0 0 
255 165 255 
161 161 161 
255 255 255 
255 255 255 
149 46 255 
255 106 106 
255 150 159 
255 177 177 
255 177 255 
255 37 119 
255 128 128 
255 157 239 
175 77 77 
255 255 255 
147 65 255 
255 208 255 
175 77 77 
0 0 0 
211 29 65 
241 106 106 
241 106 106 
0 0 0 
241 106 106 
175 77 77 
175 77 77 
255 139 182 
255 132 132 
0 0 0 
255 84 84 
241 106 106 
0 0 0 
175 77 77 
241 106 106 
255 128 128 
175 77 77 
0 0 0 
0 0 0 
175 77 77 
175 77 77 
0 0 0 
255 84 84 
255 171 171 
241 106 106 
224 99 255 
241 106 106 
0 0 0 
175 77 77 
0 0 0 
0 0 0 
255 37 37 
0 0 0 
255 255 255 
255 60 60 
0 0 0 
255 128 128 
0 0 0 
0 0 0 
255 60 60 
0 0 0 
255 129 153 
175 77 77 
175 77 77 
0 0 0 
0 0 0 
241 106 106 
175 77 77 
0 0 0 
241 78 255 
255 119 216 
175 77 77 
0 0 0 
255 81 117 
0 0 0 
0 0 0 
255 97 216 
0 0 0 
0 0 0 
0 0 0 
216 95 206 
175 77 77 
175 77 77 
83 37 119 
0 0 0 
0 0 0 
212 84 255 
83 37 119 
255 47 151 
0 0 0 
255 13 226 
0 0 0 
0 0 0 
255 128 255 
61 8 87 
47 47 151 
47 47 151 
255 17 255 
125 58 186 
64 64 207 
47 47 151 
0 0 0 
77 77 249 
40 17 182 
77 77 247 
47 47 151 
125 58 186 
85 78 255 
82 47 255 
0 0 0 
0 0 0 
255 131 255 
0 0 0 
64 64 207 
137 60 194 
0 0 0 
0 0 0 
88 88 255 
151 47 47 
119 37 83 
0 0 0 
151 47 47 
255 64 114 
255 108 125 
255 255 255 
0 0 0 
0 0 0 
255 255 255 
255 68 68 
255 207 213 
255 22 22 
255 163 193 
255 149 149 
77 77 175 
255 81 255 
77 77 175 
77 77 175 
77 77 175 
77 77 175 
194 60 137 
77 77 175 
119 37 83 
138 84 190 
0 0 0 
0 0 0 
77 77 175 
77 77 175 
77 77 175 
56 17 128 
255 86 217 
138 84 190 
106 106 241 
77 77 175 
77 77 175 
106 106 241 
255 214 255 
60 60 255 
0 0 0 
255 45 103 
93 79 211 
77 77 175 
0 0 0 
106 106 241 
194 60 137 
128 128 255 
77 77 175 
77 77 175 
155 111 251 
128 128 255 
77 77 175 
77 77 175 
77 77 175 
77 77 175 
255 107 255 
77 77 175 
77 77 175 
255 37 255 
167 52 249 
77 77 175 
128 128 255 
106 106 241 
225 100 225 
87 78 255 
106 106 241 
106 106 241 
0 0 0 
77 77 175 
0 0 0 
77 77 175 
141 130 255 
0 0 0 
77 77 175 
0 0 0 
77 77 175 
228 228 255 
77 77 175 
106 106 241 
146 146 255 
77 77 175 
106 106 241 
106 106 241 
0 0 0 
77 77 175 
146 146 255 
0 0 0 
114 114 255 
168 148 255 
137 132 255 
106 106 241 
106 106 241 
106 106 241 
106 106 241 
255 131 255 
106 106 241 
0 0 0 
247 231 255 
161 161 161 
255 232 255 
255 254 254 
255 162 255 
255 255 255 
206 206 255 
255 255 255 
0 0 0 
255 126 126 
161 161 161 
161 161 161 
255 255 255 
255 160 255 
255 98 255 
255 255 255 
206 206 255 
255 255 255 
255 222 255 
255 199 199 
255 216 255 
255 255 255 
255 255 255 
255 255 255 
0 0 0 
161 161 161 
255 255 255 
255 255 255 
184 184 255 
161 161 161 
0 0 0 
0 0 0 
255 255 255 
255 255 255 
0 0 0 
255 255 255 
255 255 255 
255 222 255 
0 0 0 
255 126 255 
255 255 255 
0 0 0 
137 60 194 
0 0 0 
255 255 255 
0 0 0 
255 255 255 
255 255 255 
241 106 106 
255 119 119 
255 37 37 
0 0 0 
255 115 236 
255 120 169 
255 176 176 
0 0 0 
0 0 0 
0 0 0 
175 77 77 
211 79 93 
0 0 0 
0 0 0 
255 162 162 
255 37 37 
0 0 0 
255 37 37 
175 77 77 
175 77 77 
175 77 77 
0 0 0 
0 0 0 
255 128 128 
175 77 77 
255 107 128 
0 0 0 
0 0 0 
175 77 77 
255 106 255 
175 77 77 
241 106 106 
241 106 106 
255 60 60 
0 0 0 
255 163 163 
0 0 0 
0 0 0 
0 0 0 
255 111 111 
175 77 77 
0 0 0 
0 0 0 
255 128 128 
0 0 0 
255 65 217 
255 95 255 
0 0 0 
175 77 77 
0 0 0 
241 106 106 
241 106 106 
175 77 77 
255 123 235 
255 161 161 
0 0 0 
174 77 255 
241 106 106 
241 106 106 
65 29 211 
228 101 232 
0 0 0 
255 236 255 
0 0 0 
175 77 77 
0 0 0 
241 106 106 
0 0 0 
83 37 119 
0 0 0 
175 77 77 
128 17 56 
0 0 0 
190 84 138 
212 4 133 
83 3 255 
83 37 119 
167 53 170 
255 58 126 
83 37 119 
0 0 0 
0 0 0 
149 40 129 
255 81 255 
125 58 186 
255 155 255 
40 17 182 
47 47 151 
88 88 255 
64 64 207 
65 47 255 
47 47 151 
0 0 0 
207 101 255 
47 47 151 
255 51 255 
0 0 0 
0 0 0 
47 6 217 
77 77 247 
125 58 186 
81 81 255 
0 0 0 
33 6 219 
47 47 151 
0 0 0 
255 112 255 
31 13 255 
148 144 255 
40 17 182 
64 64 207 
255 114 191 
151 47 47 
151 47 47 
151 47 47 
143 27 89 
151 47 47 
247 77 77 
247 77 77 
0 0 0 
151 47 47 
247 77 77 
255 88 88 
247 77 77 
0 0 0 
0 0 0 
194 60 137 
106 106 241 
92 28 209 
176 113 255 
0 0 0 
255 81 255 
106 106 241 
119 37 83 
255 22 51 
77 77 175 
206 95 216 
0 0 0 
194 60 137 
77 77 175 
0 0 0 
106 106 241 
119 37 83 
106 106 241 
138 84 190 
255 255 255 
77 77 175 
163 50 115 
77 77 175 
206 95 216 
212 208 255 
106 106 241 
0 0 0 
0 0 0 
77 77 175 
77 77 175 
106 106 241 
77 77 175 
106 106 241 
77 77 175 
77 77 175 
106 106 241 
0 0 0 
0 0 0 
145 145 255 
0 0 0 
0 0 0 
207 207 255 
77 77 175 
0 0 0 
0 0 0 
106 106 241 
0 0 0 
77 77 175 
0 0 0 
0 0 0 
128 128 255 
255 85 255 
93 79 211 
77 77 175 
0 0 0 
127 127 255 
0 0 0 
255 163 255 
77 77 175 
196 65 255 
255 255 255 
77 77 175 
145 145 255 
106 106 241 
95 95 255 
77 77 175 
106 106 241 
0 0 0 
132 132 255 
255 255 255 
100 100 255 
0 0 0 
169 131 255 
255 157 255 
84 84 255 
84 84 255 
106 106 241 
0 0 0 
0 0 0 
128 128 255 
146 146 255 
139 139 255 
77 77 175 
106 106 241 
255 255 255 
255 255 255 
255 199 199 
255 255 255 
255 255 255 
255 255 255 
255 255 255 
0 0 0 
255 255 255 
255 207 207 
255 36 255 
255 255 255 
255 255 255 
255 175 175 
255 255 255 
0 0 0 
0 0 0 
255 81 116 
255 255 255 
0 0 0 
255 78 250 
255 184 255 
255 207 207 
255 255 255 
255 255 255 
161 161 161 
255 255 255 
255 255 255 
255 60 60 
161 161 161 
255 255 255 
255 255 255 
255 255 255 
255 255 255 
0 0 0 
0 0 0 
161 161 161 
255 112 255 
118 36 118 
255 255 255 
255 255 255 
194 60 137 
255 175 255 
255 255 255 
0 0 0 
255 141 141 
255 94 255 
255 51 90 
255 255 255 
255 157 253 
255 145 145 
255 187 255 
255 255 255 
255 146 147 
0 0 0 
175 77 77 
175 77 77 
255 37 37 
255 84 84 
0 0 0 
0 0 0 
241 106 106 
255 141 141 
175 77 77 
241 106 106 
255 146 146 
255 90 90 
0 0 0 
255 208 255 
217 96 154 
175 77 77 
175 77 77 
175 77 77 
233 80 178 
241 106 106 
241 106 106 
175 77 77 
241 106 106 
0 0 0 
0 0 0 
241 106 106 
0 0 0 
175 77 77 
175 77 77 
138 61 138 
0 0 0 
175 77 77 
175 77 77 
0 0 0 
0 0 0 
0 0 0 
0 0 0 
0 0 0 
255 77 248 
175 77 77 
255 128 128 
175 77 77 
241 106 106 
175 77 77 
0 0 0 
0 0 0 
0 0 0 
175 77 77 
175 77 77 
0 0 0 
0 0 0 
175 77 77 
0 0 0 
0 0 0 
0 0 0 
255 141 141 
255 128 128 
0 0 0 
255 95 255 
255 128 128 
0 0 0 
0 0 0 
0 0 0 
83 37 119 
156 69 222 
204 90 177 
0 0 0 
175 77 77 
0 0 0 
83 37 119 
51 23 255 
83 37 119 
156 69 222 
255 47 151 
172 172 255 
0 0 0 
78 54 255 
60 60 255 
179 88 255 
0 0 0 
255 97 255 
0 0 0 
243 50 255 
0 0 0 
47 47 151 
0 0 0 
0 0 0 
137 60 194 
0 0 0 
51 22 255 
137 60 194 
60 49 230 
47 47 151 
0 0 0 
0 0 0 
47 47 151 
88 88 255 
121 83 255 
64 64 207 
47 47 151 
47 47 151 
60 49 230 
0 0 0 
151 47 47 
255 88 88 
182 17 40 
255 162 255 
0 0 0 
151 47 47 
255 169 255 
0 0 0 
230 49 60 
207 64 64 
151 47 47 
255 104 255 
255 88 255 
177 90 204 
255 69 255 
119 37 83 
77 77 175 
0 0 0 
0 0 0 
77 77 175 
147 85 223 
106 106 241 
0 0 0 
0 0 0 
119 37 83 
0 0 0 
77 77 175 
138 84 190 
0 0 0 
119 37 83 
255 255 255 
202 40 142 
106 106 241 
0 0 0 
0 0 0 
163 50 115 
119 37 83 
77 77 175 
0 0 0 
77 77 175 
77 77 175 
250 78 255 
163 50 115 
106 106 241 
0 0 0 
77 77 175 
77 77 175 
106 106 241 
119 37 83 
0 0 0 
0 0 0 
128 128 255 
128 128 255 
134 134 255 
77 77 175 
237 145 255 
0 0 0 
77 77 175 
77 77 175 
119 37 83 
106 106 241 
77 77 175 
255 141 255 
106 106 241 
77 77 175 
0 0 0 
0 0 0 
106 106 241 
77 77 175 
106 106 241 
84 84 255 
77 77 175 
77 77 175 
95 95 255 
60 60 255 
106 106 241 
146 146 255 
128 128 255 
106 106 241 
255 241 255 
77 77 175 
77 77 175 
106 106 241 
77 77 175 
77 77 175 
255 217 255 
123 123 255 
128 128 255 
0 0 0 
0 0 0 
77 77 175 
255 146 255 
95 95 255 
238 238 255 
77 77 175 
216 119 255 
154 96 217 
106 106 241 
255 175 175 
161 161 161 
255 255 255 
255 164 194 
255 255 255 
255 28 92 
255 255 255 
255 199 255 
0 0 0 
255 255 255 
255 255 255 
0 0 0 
221 221 221 
255 255 255 
255 245 255 
255 162 162 
0 0 0 
255 255 255 
255 255 255 
161 161 161 
161 161 161 
199 199 255 
255 255 255 
161 161 161 
255 184 255 
161 161 161 
0 0 0 
0 0 0 
255 216 255 
161 161 161 
0 0 0 
221 221 221 
255 155 255 
255 255 255 
244 170 244 
255 255 255 
255 145 255 
255 255 255 
255 255 255 
0 0 0 
255 203 255 
255 126 126 
0 0 0 
255 162 255 
255 255 255 
0 0 0 
255 105 227 
175 77 77 
255 106 255 
175 77 77 
175 77 77 
255 126 156 
175 77 77 
175 77 77 
0 0 0 
255 122 255 
255 106 255 
175 77 77 
0 0 0 
255 102 115 
0 0 0 
0 0 0 
0 0 0 
175 77 77 
255 128 128 
255 200 200 
175 77 77 
255 128 128 
175 77 77 
255 84 84 
255 111 111 
241 106 106 
0 0 0 
241 106 106 
255 128 255 
255 119 119 
241 106 106 
138 61 138 
0 0 0 
0 0 0 
125 10 255 
0 0 0 
175 77 77 
175 77 77 
255 129 238 
83 37 119 
0 0 0 
190 84 138 
0 0 0 
0 0 0 
0 0 0 
255 88 162 
175 77 77 
0 0 0 
255 37 37 
241 106 106 
255 107 149 
175 77 77 
0 0 0 
175 77 77 
0 0 0 
175 77 77 
225 100 225 
175 77 77 
0 0 0 
175 77 77 
0 0 0 
0 0 0 
0 0 0 
175 77 77 
0 0 0 
83 37 119 
175 77 77 
175 77 77 
190 84 138 
255 162 255 
0 0 0 
241 106 106 
0 0 0 
0 0 0 
206 37 128 
0 0 0 
71 13 143 
83 37 119 
255 58 187 
177 78 255 
255 47 151 
161 31 166 
115 50 163 
47 47 151 
77 77 247 
0 0 0 
0 0 0 
255 78 250 
0 0 0 
0 0 0 
0 0 0 
72 72 255 
47 47 151 
0 0 0 
31 13 255 
0 0 0 
82 65 255 
158 81 255 
47 47 151 
255 50 255 
40 17 182 
64 64 207 
64 64 207 
77 77 249 
0 0 0 
0 0 0 
0 0 0 
60 49 230 
136 128 255 
255 64 255 
64 64 207 
249 77 77 
255 17 17 
151 47 47 
193 60 193 
255 94 118 
255 88 88 
72 22 72 
86 8 86 
255 54 78 
255 88 88 
0 0 0 
151 47 255 
255 67 128 
119 37 83 
255 255 255 
119 37 83 
77 77 175 
0 0 0 
0 0 0 
138 84 190 
0 0 0 
119 37 83 
106 106 241 
77 77 175 
0 0 0 
0 0 0 
77 77 175 
77 77 175 
77 77 175 
0 0 0 
255 58 132 
0 0 0 
0 0 0 
0 0 0 
0 0 0 
173 107 248 
106 106 241 
0 0 0 
0 0 0 
0 0 0 
77 77 175 
106 106 241 
0 0 0 
194 60 137 
151 47 255 
0 0 0 
127 127 255 
106 106 241 
77 77 175 
77 77 175 
138 84 190 
0 0 0 
147 114 255 
106 106 241 
0 0 0 
0 0 0 
0 0 0 
138 84 190 
106 106 241 
0 0 0 
106 106 241 
0 0 0 
0 0 0 
138 84 190 
194 60 137 
0 0 0 
216 119 255 
77 77 175 
0 0 0 
77 77 175 
60 60 255 
79 42 255 
106 106 241 
0 0 0 
0 0 0 
161 161 255 
106 106 241 
60 60 255 
128 128 255 
84 84 255 
77 77 175 
145 145 255 
106 106 241 
77 77 175 
0 0 0 
77 77 175 
255 255 255 
77 77 175 
77 77 175 
77 77 175 
77 77 175 
77 77 175 
106 106 241 
128 128 255 
128 128 255 
220 220 255 
146 146 255 
81 81 255 
255 255 255 
77 77 175 
161 161 161 
0 0 0 
255 255 255 
255 255 255 
161 161 161 
255 255 255 
255 255 255 
255 255 255 
0 0 0 
255 255 255 
255 255 255 
255 255 255 
255 207 207 
126 126 255 
255 255 255 
255 255 255 
255 237 255 
255 255 255 
255 255 255 
255 255 255 
255 175 175 
255 255 255 
161 161 161 
255 255 255 
255 17 56 
255 255 255 
255 255 255 
255 255 255 
255 198 198 
0 0 0 
214 166 255 
255 255 255 
255 255 255 
247 77 77 
92 28 255 
0 0 0 
0 0 0 
255 255 255 
221 221 221 
255 255 255 
255 255 255 
255 255 255 
255 255 255 
0 0 0 
255 37 37 
255 37 37 
175 77 77 
209 28 92 
255 163 255 
0 0 0 
175 77 77 
255 240 255 
175 77 77 
0 0 0 
255 111 111 
255 96 108 
138 61 138 
255 107 118 
241 106 106 
175 77 77 
0 0 0 
175 77 77 
175 77 77 
211 29 65 
241 106 106 
0 0 0 
175 77 77 
217 96 154 
0 0 0 
255 208 255 
241 106 106 
0 0 0 
138 61 138 
255 120 169 
175 77 77 
0 0 0 
0 0 0 
175 77 77 
255 50 123 
0 0 0 
0 0 0 
255 128 128 
175 77 77 
0 0 0 
0 0 0 
175 77 77 
0 0 0 
0 0 0 
0 0 0 
175 77 77 
175 77 77 
0 0 0 
175 77 77 
0 0 0 
0 0 0 
137 60 194 
175 77 77 
175 77 77 
255 120 169 
241 106 106 
0 0 0 
0 0 0 
190 84 138 
0 0 0 
0 0 0 
175 77 77 
175 77 77 
0 0 0 
0 0 0 
128 17 56 
175 77 77 
175 77 77 
0 0 0 
137 60 194 
0 0 0 
241 106 106 
0 0 0 
0 0 0 
85 5 121 
0 0 0 
0 0 0 
0 0 0 
0 0 0 
0 0 0 
175 77 77 
106 39 181 
255 52 167 
0 0 0 
177 177 255 
255 188 255 
218 218 255 
88 88 255 
26 8 255 
97 97 255 
255 95 255 
0 0 0 
0 0 0 
0 0 0 
0 0 0 
255 40 255 
60 49 230 
0 0 0 
188 105 255 
0 0 0 
72 72 255 
72 72 255 
255 244 255 
0 0 0 
47 47 151 
255 58 255 
255 74 255 
102 80 255 
64 59 255 
0 0 0 
125 51 255 
47 47 151 
255 132 132 
207 64 64 
0 0 0 
0 0 0 
255 79 191 
151 47 47 
255 60 193 
72 22 72 
255 83 137 
247 77 77 
248 77 255 
255 255 255 
119 37 83 
0 0 0 
0 0 0 
138 84 190 
207 207 255 
77 77 175 
0 0 0 
119 37 83 
77 77 175 
138 84 190 
119 37 83 
77 77 175 
77 77 175 
77 77 175 
77 77 175 
117 81 255 
0 0 0 
77 77 175 
255 65 148 
255 81 184 
0 0 0 
146 146 255 
106 106 241 
0 0 0 
0 0 0 
168 89 255 
119 37 83 
106 106 241 
77 77 175 
206 95 216 
77 77 175 
77 77 175 
0 0 0 
100 100 255 
0 0 0 
216 119 255 
77 77 175 
77 77 175 
77 77 175 
106 106 241 
146 146 255 
106 106 241 
127 127 255 
0 0 0 
106 106 241 
194 60 137 
128 128 255 
128 128 255 
0 0 0 
0 0 0 
255 219 255 
77 77 175 
206 95 216 
0 0 0 
106 106 241 
99 99 255 
128 128 255 
0 0 0 
77 77 175 
180 114 255 
194 60 137 
106 106 241 
0 0 0 
77 77 175 
77 77 175 
106 106 241 
106 106 241 
127 127 255 
146 146 255 
0 0 0 
84 84 255 
146 45 222 
77 77 175 
106 106 241 
77 77 175 
171 171 255 
0 0 0 
193 134 255 
0 0 0 
128 128 255 
161 161 255 
128 128 255 
161 161 255 
84 84 255 
77 77 175 
77 77 175 
0 0 0 
145 145 255 
106 106 241 
255 255 255 
255 129 255 
255 255 255 
255 255 255 
255 222 222 
247 77 77 
255 255 255 
161 161 161 
0 0 0 
161 161 161 
0 0 0 
247 77 77 
255 255 255 
255 255 255 
255 231 231 
160 160 255 
0 0 0 
255 173 255 
255 255 255 
0 0 0 
255 255 255 
0 0 0 
0 0 0 
255 255 255 
255 255 255 
255 234 255 
0 0 0 
199 199 255 
255 255 255 
0 0 0 
175 175 255 
255 155 155 
255 255 255 
247 77 77 
255 255 255 
255 255 255 
161 161 161 
255 207 207 
255 255 255 
161 161 161 
255 255 255 
255 255 255 
255 255 255 
0 0 0 
138 61 138 
175 77 77 
255 101 101 
255 134 255 
255 101 157 
255 17 63 
0 0 0 
175 77 77 
255 65 65 
0 0 0 
255 138 144 
175 77 77 
0 0 0 
255 166 255 
255 89 129 
101 13 101 
255 37 37 
217 96 154 
175 77 77 
0 0 0 
175 77 77 
255 128 128 
255 127 127 
175 77 77 
255 148 148 
175 77 77 
255 37 37 
255 76 255 
0 0 0 
0 0 0 
175 77 77 
175 77 77 
175 77 77 
255 110 163 
255 106 156 
0 0 0 
175 77 77 
241 106 106 
255 22 72 
175 77 77 
175 77 77 
175 77 77 
255 255 255 
0 0 0 
255 37 37 
241 106 106 
0 0 0 
0 0 0 
0 0 0 
0 0 0 
0 0 0 
175 77 77 
255 175 175 
241 106 106 
0 0 0 
175 77 77 
255 106 116 
255 127 255 
175 77 77 
190 84 138 
175 77 77 
175 77 77 
255 131 169 
175 77 77 
224 99 255 
0 0 0 
0 0 0 
175 77 77 
137 60 194 
175 77 77 
0 0 0 
241 106 106 
0 0 0 
251 111 155 
0 0 0 
0 0 0 
0 0 0 
0 0 0 
71 13 143 
65 29 211 
255 75 255 
83 37 119 
88 39 255 
255 173 255 
209 209 255 
0 0 0 
0 0 0 
167 91 255 
255 114 255 
77 77 247 
34 10 255 
255 113 255 
47 47 151 
47 47 151 
255 17 182 
208 28 255 
58 58 255 
64 64 207 
0 0 0 
0 0 0 
47 47 151 
51 22 255 
88 88 255 
114 12 255 
125 58 186 
60 49 230 
60 60 255 
47 47 151 
255 99 255 
40 17 182 
255 98 255 
255 59 255 
0 0 0 
255 27 120 
255 153 153 
255 100 206 
151 47 47 
0 0 0 
207 64 64 
72 22 72 
0 0 0 
255 90 111 
0 0 0 
0 0 0 
155 111 251 
77 77 175 
0 0 0 
0 0 0 
77 77 175 
77 77 175 
77 77 175 
0 0 0 
255 42 179 
0 0 0 
0 0 0 
77 77 175 
0 0 0 
77 77 175 
77 77 175 
77 77 175 
138 84 190 
138 84 190 
0 0 0 
77 77 175 
77 77 175 
141 141 255 
255 160 255 
194 60 137 
77 77 175 
0 0 0 
119 37 83 
0 0 0 
255 114 255 
77 77 175 
232 22 163 
138 84 190 
77 77 175 
106 106 241 
0 0 0 
128 128 255 
0 0 0 
77 77 175 
151 47 255 
77 77 175 
37 37 255 
0 0 0 
106 106 241 
145 145 255 
106 106 241 
77 77 175 
0 0 0 
77 77 175 
106 106 241 
106 106 241 
106 106 241 
106 106 241 
106 106 241 
0 0 0 
128 128 255 
128 128 255 
161 161 255 
106 106 241 
145 145 255 
77 77 175 
77 77 175 
106 106 241 
0 0 0 
0 0 0 
119 37 83 
106 106 241 
132 132 255 
77 77 175 
106 106 241 
81 81 255 
206 95 216 
77 77 175 
255 109 255 
238 238 255 
77 77 175 
77 77 175 
146 146 255 
0 0 0 
133 133 255 
0 0 0 
106 106 241 
77 77 175 
77 77 175 
218 218 255 
106 106 241 
0 0 0 
211 29 65 
37 37 255 
0 0 0 
0 0 0 
0 0 0 
0 0 0 
161 161 161 
255 99 99 
255 255 255 
255 253 255 
0 0 0 
126 126 255 
0 0 0 
255 173 255 
255 255 255 
255 255 255 
77 77 247 
255 231 255 
255 255 255 
161 161 161 
255 163 255 
247 77 77 
255 8 98 
255 255 255 
0 0 0 
181 17 56 
255 255 255 
255 222 255 
255 255 255 
255 121 255 
255 60 60 
0 0 0 
77 77 247 
255 255 255 
255 255 255 
161 161 161 
255 255 255 
255 255 255 
255 255 255 
255 255 255 
255 255 255 
161 161 161 
0 0 0 
255 255 255 
255 255 255 
255 157 253 
255 107 173 
255 96 185 
255 255 255 
175 77 77 
217 96 154 
175 77 77 
0 0 0 
175 77 77 
175 77 77 
255 218 218 
255 60 60 
0 0 0 
255 124 172 
175 77 77 
175 77 77 
255 175 175 
175 77 77 
241 106 106 
241 106 106 
255 28 28 
255 37 37 
217 96 154 
175 77 77 
255 128 128 
0 0 0 
233 80 178 
255 47 151 
255 115 226 
241 106 106 
0 0 0 
0 0 0 
217 96 154 
0 0 0 
0 0 0 
175 77 77 
0 0 0 
175 77 77 
0 0 0 
0 0 0 
0 0 0 
255 145 255 
0 0 0 
255 207 207 
175 77 77 
255 149 255 
255 128 128 
0 0 0 
0 0 0 
0 0 0 
0 0 0 
190 84 138 
175 77 77 
175 77 77 
175 77 77 
175 77 77 
255 128 128 
175 77 77 
0 0 0 
255 131 169 
0 0 0 
83 37 119 
0 0 0 
0 0 0 
0 0 0 
175 77 77 
0 0 0 
175 77 77 
0 0 0 
0 0 0 
0 0 0 
175 77 77 
65 29 211 
0 0 0 
175 77 77 
137 60 194 
0 0 0 
0 0 0 
137 60 194 
83 37 119 
83 37 119 
83 37 119 
128 17 56 
0 0 0 
191 84 255 
133 49 255 
0 0 0 
78 54 255 
179 88 255 
122 122 255 
0 0 0 
255 98 255 
47 47 151 
90 51 255 
0 0 0 
0 0 0 
0 0 0 
58 58 255 
47 47 151 
255 124 255 
0 0 0 
90 79 255 
189 37 255 
0 0 0 
78 23 228 
65 28 255 
64 64 207 
93 93 255 
0 0 0 
47 47 151 
36 36 255 
0 0 0 
255 97 111 
255 61 141 
255 129 255 
151 47 47 
255 58 131 
255 97 97 
255 113 113 
255 41 115 
255 68 122 
0 0 0 
119 37 83 
93 29 148 
0 0 0 
119 37 83 
0 0 0 
0 0 0 
255 114 255 
172 5 60 
0 0 0 
0 0 0 
255 99 224 
0 0 0 
0 0 0 
0 0 0 
0 0 0 
194 60 137 
0 0 0 
0 0 0 
0 0 0 
77 77 175 
0 0 0 
0 0 0 
177 90 204 
77 77 175 
138 84 190 
255 37 255 
0 0 0 
119 37 83 
106 106 241 
138 84 190 
0 0 0 
119 37 83 
77 77 175 
106 106 241 
77 77 175 
0 0 0 
255 99 224 
77 77 175 
119 37 83 
255 10 178 
128 128 255 
77 77 175 
77 77 175 
0 0 0 
77 77 175 
77 77 175 
77 77 175 
106 106 241 
106 106 241 
0 0 0 
77 77 175 
106 106 241 
128 128 255 
106 106 241 
0 0 0 
106 106 241 
128 128 255 
0 0 0 
77 77 175 
0 0 0 
111 111 255 
77 77 175 
0 0 0 
128 128 255 
77 77 175 
0 0 0 
77 77 175 
0 0 0 
255 190 255 
161 161 255 
106 106 241 
37 37 255 
255 255 255 
0 0 0 
77 77 175 
77 77 175 
106 106 241 
106 106 241 
77 77 175 
128 128 255 
145 145 255 
77 77 175 
77 77 175 
157 157 255 
119 119 255 
77 77 175 
77 77 175 
77 77 175 
128 128 255 
80 77 255 
84 84 255 
0 0 0 
255 255 255 
255 255 255 
255 127 127 
0 0 0 
255 255 255 
77 77 247 
0 0 0 
0 0 0 
0 0 0 
255 255 255 
161 161 161 
223 162 255 
255 255 255 
247 77 77 
255 255 255 
255 207 207 
255 255 255 
221 221 221 
255 126 126 
0 0 0 
0 0 0 
255 255 255 
0 0 0 
255 198 255 
255 255 255 
255 207 207 
161 161 161 
161 161 161 
255 255 255 
0 0 0 
255 255 255 
255 255 255 
255 174 255 
255 255 255 
221 221 221 
255 255 255 
255 255 255 
0 0 0 
255 255 255 
255 255 255 
255 255 255 
255 170 255 
255 37 37 
255 255 255 
255 141 244 
255 60 60 
241 106 106 
175 77 77 
255 78 255 
0 0 0 
246 66 150 
255 96 155 
255 37 37 
175 77 77 
0 0 0 
255 120 169 
0 0 0 
0 0 0 
175 77 77 
255 47 151 
175 77 77 
255 37 37 
175 77 77 
0 0 0 
0 0 0 
0 0 0 
253 84 204 
175 77 77 
255 128 128 
255 115 158 
255 163 163 
175 77 77 
255 37 37 
255 128 128 
0 0 0 
175 77 77 
0 0 0 
175 77 77 
0 0 0 
255 128 128 
255 99 99 
0 0 0 
0 0 0 
0 0 0 
83 37 119 
0 0 0 
0 0 0 
175 77 77 
241 106 106 
255 127 127 
0 0 0 
0 0 0 
175 77 77 
175 77 77 
175 77 77 
241 106 106 
127 17 255 
0 0 0 
0 0 0 
0 0 0 
175 77 77 
0 0 0 
255 37 37 
0 0 0 
0 0 0 
175 77 77 
128 17 56 
255 145 145 
0 0 0 
0 0 0 
175 77 77 
0 0 0 
223 98 255 
0 0 0 
0 0 0 
0 0 0 
0 0 0 
0 0 0 
61 8 87 
0 0 0 
0 0 0 
0 0 0 
255 156 255 
0 0 0 
137 60 194 
0 0 0 
0 0 0 
47 47 151 
0 0 0 
125 58 186 
77 77 247 
142 74 239 
142 74 239 
47 47 151 
255 255 255 
0 0 0 
74 47 222 
214 210 255 
255 88 255 
0 0 0 
54 24 250 
255 89 255 
157 115 255 
60 49 230 
60 49 230 
47 47 151 
132 132 255 
0 0 0 
67 49 255 
47 47 151 
88 88 255 
0 0 0 
0 0 0 
47 47 151 
255 28 65 
179 38 150 
255 132 132 
72 22 255 
151 47 47 
193 60 193 
113 35 255 
255 224 255 
255 107 255 
247 77 77 
77 77 175 
0 0 0 
77 77 175 
0 0 0 
0 0 0 
0 0 0 
106 106 241 
255 84 250 
119 37 83 
207 118 255 
194 60 137 
233 210 255 
0 0 0 
87 78 255 
77 77 175 
77 77 175 
92 28 209 
0 0 0 
0 0 0 
0 0 0 
106 106 241 
0 0 0 
106 106 241 
0 0 0 
0 0 0 
77 77 175 
106 106 241 
0 0 0 
0 0 0 
0 0 0 
77 77 175 
0 0 0 
194 60 137 
106 106 241 
106 106 241 
0 0 0 
0 0 0 
128 128 255 
93 79 211 
155 111 251 
106 106 241 
0 0 0 
106 106 241 
255 141 255 
0 0 0 
128 128 255 
175 175 255 
0 0 0 
0 0 0 
0 0 0 
169 132 255 
77 77 175 
77 77 175 
255 128 255 
0 0 0 
0 0 0 
77 77 175 
0 0 0 
77 77 175 
0 0 0 
106 106 241 
255 154 255 
128 128 255 
77 77 175 
0 0 0 
77 77 175 
0 0 0 
77 77 175 
0 0 0 
77 77 175 
77 77 175 
77 77 175 
111 111 255 
77 77 175 
77 77 175 
77 77 175 
255 255 255 
100 100 255 
255 99 224 
77 77 175 
175 175 255 
84 84 255 
77 77 175 
255 176 255 
0 0 0 
106 106 241 
128 128 255 
77 77 175 
77 77 175 
255 146 255 
0 0 0 
77 77 175 
255 144 255 
255 47 151 
0 0 0 
221 221 221 
255 255 255 
255 47 47 
255 255 255 
0 0 0 
255 255 255 
255 255 255 
255 255 255 
255 255 255 
0 0 0 
221 221 221 
255 170 205 
255 255 255 
215 166 255 
255 255 255 
0 0 0 
255 255 255 
255 255 255 
255 255 255 
255 60 60 
0 0 0 
0 0 0 
161 161 161 
255 174 255 
255 255 255 
206 206 255 
194 164 194 
181 163 255 
255 255 255 
255 255 255 
255 255 255 
0 0 0 
255 162 255 
255 255 255 
255 255 255 
255 254 255 
255 255 255 
255 255 255 
161 161 161 
0 0 0 
255 162 162 
255 37 37 
0 0 0 
255 102 102 
255 60 60 
138 61 138 
175 77 77 
175 77 77 
255 113 255 
175 77 77 
138 61 138 
0 0 0 
175 77 77 
255 37 37 
175 77 77 
0 0 0 
0 0 0 
0 0 0 
138 61 138 
255 128 128 
175 77 77 
255 60 255 
0 0 0 
0 0 0 
0 0 0 
255 81 81 
137 60 194 
255 127 127 
175 77 77 
0 0 0 
175 77 77 
175 77 77 
0 0 0 
0 0 0 
255 149 190 
0 0 0 
0 0 0 
175 77 77 
0 0 0 
0 0 0 
0 0 0 
0 0 0 
138 61 138 
0 0 0 
0 0 0 
255 128 128 
241 106 106 
175 77 77 
0 0 0 
0 0 0 
175 77 77 
0 0 0 
175 77 77 
83 37 119 
0 0 0 
200 88 255 
175 77 77 
241 106 106 
205 80 243 
190 84 138 
175 77 77 
0 0 0 
0 0 0 
255 255 255 
0 0 0 
0 0 0 
0 0 0 
100 13 142 
83 37 119 
0 0 0 
0 0 0 
0 0 0 
211 79 93 
0 0 0 
0 0 0 
0 0 0 
0 0 0 
0 0 0 
0 0 0 
0 0 0 
243 47 153 
0 0 0 
243 47 153 
149 40 129 
47 47 151 
172 172 255 
118 36 118 
123 40 211 
126 126 255 
0 0 0 
0 0 0 
60 60 255 
47 47 151 
255 127 255 
47 47 151 
255 51 255 
81 20 255 
0 0 0 
112 49 255 
47 47 151 
0 0 0 
122 47 255 
47 47 151 
255 78 255 
47 47 151 
56 47 255 
93 58 187 
72 22 72 
40 17 182 
0 0 0 
0 0 0 
252 60 134 
230 49 60 
0 0 0 
255 88 101 
255 212 255 
182 48 56 
0 0 0 
255 132 132 
255 212 255 
181 39 106 
159 78 186 
56 17 128 
0 0 0 
77 77 175 
106 106 241 
77 77 175 
56 17 128 
77 77 175 
255 127 255 
56 17 128 
0 0 0 
0 0 0 
77 77 175 
0 0 0 
119 37 83 
0 0 0 
177 90 204 
163 50 115 
0 0 0 
0 0 0 
77 77 175 
77 77 175 
0 0 0 
106 106 241 
77 77 175 
106 106 241 
77 77 175 
128 128 255 
77 77 175 
77 77 175 
77 77 175 
77 77 175 
77 77 175 
77 77 175 
77 77 175 
77 77 175 
206 95 216 
0 0 0 
106 106 241 
106 106 241 
0 0 0 
106 106 241 
0 0 0 
77 77 175 
37 37 255 
77 77 175 
0 0 0 
0 0 0 
106 106 241 
77 77 175 
56 17 128 
77 77 175 
216 119 255 
0 0 0 
128 128 255 
77 77 175 
0 0 0 
0 0 0 
77 77 175 
77 77 175 
77 77 175 
77 77 175 
56 17 128 
77 77 175 
0 0 0 
77 77 175 
0 0 0 
106 106 241 
77 77 175 
0 0 0 
106 106 241 
77 77 175 
128 128 255 
128 128 255 
255 28 65 
169 78 180 
77 77 175 
106 106 241 
100 78 201 
255 79 211 
77 77 175 
106 106 241 
0 0 0 
0 0 0 
77 77 175 
106 106 241 
0 0 0 
77 77 175 
0 0 0 
255 114 255 
126 126 255 
111 111 255 
255 169 255 
255 255 255 
0 0 0 
255 255 255 
255 255 255 
255 255 255 
255 255 255 
255 255 255 
0 0 0 
0 0 0 
255 60 60 
255 255 255 
255 255 255 
255 185 255 
0 0 0 
255 255 255 
255 255 255 
255 206 206 
255 255 255 
255 255 255 
255 255 255 
255 255 255 
255 137 180 
221 221 221 
161 161 161 
0 0 0 
255 255 255 
255 255 255 
0 0 0 
0 0 0 
255 255 255 
0 0 0 
255 255 255 
0 0 0 
161 161 161 
255 255 255 
255 28 65 
255 184 184 
255 255 255 
255 144 144 
224 99 255 
255 255 255 
255 166 255 
255 157 253 
0 0 0 
255 208 255 
255 144 255 
0 0 0 
0 0 0 
0 0 0 
255 88 88 
255 101 101 
175 77 77 
0 0 0 
241 106 106 
184 81 222 
255 28 28 
175 77 77 
175 77 77 
175 77 77 
255 85 99 
255 163 255 
175 77 77 
175 77 77 
0 0 0 
255 122 122 
255 37 37 
175 77 77 
138 61 138 
175 77 77 
175 77 77 
175 77 77 
0 0 0 
175 77 77 
0 0 0 
0 0 0 
255 114 147 
255 111 111 
255 128 128 
241 106 106 
175 77 77 
0 0 0 
175 77 77 
175 77 77 
83 37 119 
190 84 138 
0 0 0 
128 17 56 
190 84 138 
0 0 0 
0 0 0 
0 0 0 
255 128 128 
0 0 0 
0 0 0 
83 37 119 
175 77 77 
0 0 0 
0 0 0 
0 0 0 
0 0 0 
0 0 0 
0 0 0 
0 0 0 
255 128 128 
175 77 77 
0 0 0 
0 0 0 
0 0 0 
103 45 255 
0 0 0 
0 0 0 
0 0 0 
83 37 119 
0 0 0 
0 0 0 
0 0 0 
0 0 0 
0 0 0 
0 0 0 
175 77 77 
0 0 0 
0 0 0 
83 37 119 
0 0 0 
83 37 119 
0 0 0 
0 0 0 
77 77 247 
255 60 255 
72 22 72 
0 0 0 
0 0 0 
255 121 255 
0 0 0 
47 47 151 
77 77 247 
228 105 255 
47 47 151 
40 17 182 
76 6 255 
64 64 207 
77 77 249 
47 47 151 
91 40 212 
0 0 0 
56 47 255 
110 83 255 
47 47 151 
64 64 207 
58 58 255 
40 17 182 
47 47 151 
74 74 255 
0 0 0 
255 135 145 
255 36 36 
255 88 88 
255 97 134 
255 140 188 
247 77 77 
255 151 167 
119 37 83 
248 77 255 
255 79 211 
0 0 0 
0 0 0 
119 37 83 
0 0 0 
0 0 0 
222 69 156 
0 0 0 
0 0 0 
0 0 0 
204 37 100 
0 0 0 
138 84 190 
106 106 241 
0 0 0 
232 101 228 
0 0 0 
0 0 0 
138 84 190 
119 37 83 
77 77 175 
77 77 175 
0 0 0 
0 0 0 
0 0 0 
0 0 0 
77 77 175 
163 50 115 
77 77 175 
77 77 175 
0 0 0 
0 0 0 
0 0 0 
255 99 224 
138 84 190 
192 134 255 
56 17 128 
0 0 0 
77 77 175 
0 0 0 
207 207 255 
0 0 0 
77 77 175 
0 0 0 
128 128 255 
255 160 255 
0 0 0 
77 77 175 
0 0 0 
128 128 255 
255 188 255 
128 128 255 
106 106 241 
0 0 0 
106 106 241 
0 0 0 
94 77 247 
132 132 255 
0 0 0 
0 0 0 
128 128 255 
77 77 175 
106 106 241 
128 128 255 
106 106 241 
77 77 175 
128 128 255 
106 106 241 
128 128 255 
77 77 175 
106 106 241 
0 0 0 
106 106 241 
128 128 255 
77 77 175 
137 84 255 
77 77 175 
128 128 255 
255 36 255 
106 106 241 
255 154 255 
106 106 241 
106 106 241 
98 81 255 
95 95 255 
104 104 255 
37 37 255 
0 0 0 
77 77 175 
77 77 175 
77 77 175 
0 0 0 
169 120 255 
0 0 0 
255 255 255 
255 255 255 
255 255 255 
255 255 255 
0 0 0 
161 161 161 
0 0 0 
255 255 255 
255 255 255 
255 255 255 
126 126 255 
255 172 172 
77 77 247 
247 77 77 
255 255 255 
255 255 255 
0 0 0 
255 255 255 
255 255 255 
255 255 255 
255 255 255 
0 0 0 
255 255 255 
0 0 0 
255 255 255 
0 0 0 
0 0 0 
255 255 255 
0 0 0 
0 0 0 
161 161 161 
255 255 255 
255 199 255 
255 255 255 
206 206 255 
255 255 255 
255 255 255 
255 255 255 
0 0 0 
255 255 255 
255 60 60 
255 138 251 
255 120 120 
255 138 255 
175 77 77 
0 0 0 
175 77 77 
0 0 0 
175 77 77 
0 0 0 
0 0 0 
255 84 84 
255 145 145 
0 0 0 
0 0 0 
0 0 0 
217 96 154 
255 154 194 
0 0 0 
241 106 106 
255 77 248 
0 0 0 
0 0 0 
175 77 77 
0 0 0 
0 0 0 
0 0 0 
0 0 0 
0 0 0 
175 77 77 
175 77 77 
241 106 106 
0 0 0 
255 101 208 
241 106 106 
241 106 106 
241 106 106 
83 37 119 
0 0 0 
175 77 77 
175 77 77 
0 0 0 
0 0 0 
175 77 77 
255 37 37 
0 0 0 
175 77 77 
0 0 0 
241 106 106 
241 106 106 
0 0 0 
175 77 77 
255 236 255 
175 77 77 
0 0 0 
138 61 138 
0 0 0 
0 0 0 
0 0 0 
0 0 0 
0 0 0 
83 37 119 
241 106 106 
175 77 77 
0 0 0 
0 0 0 
255 109 137 
0 0 0 
0 0 0 
190 84 138 
0 0 0 
83 37 119 
0 0 0 
128 17 56 
0 0 0 
0 0 0 
115 50 163 
255 60 60 
83 37 119 
0 0 0 
0 0 0 
83 37 119 
137 60 194 
0 0 0 
253 58 188 
0 0 0 
105 105 255 
255 130 255 
47 47 151 
255 136 255 
184 75 255 
0 0 0 
64 64 207 
0 0 0 
64 64 207 
106 47 255 
224 99 255 
47 47 151 
255 77 248 
88 88 255 
72 72 255 
65 28 255 
88 88 255 
74 74 255 
0 0 0 
47 47 151 
71 49 229 
64 64 207 
36 36 255 
47 47 151 
40 17 182 
201 85 255 
182 17 40 
255 86 86 
0 0 0 
247 77 77 
0 0 0 
0 0 0 
255 159 159 
0 0 0 
255 87 255 
222 69 156 
77 77 175 
77 77 175 
255 45 255 
0 0 0 
106 106 241 
162 88 234 
0 0 0 
56 17 128 
77 77 175 
0 0 0 
0 0 0 
0 0 0 
119 37 83 
0 0 0 
93 29 148 
142 13 100 
216 119 255 
245 208 255 
0 0 0 
0 0 0 
129 40 149 
207 207 255 
77 77 175 
0 0 0 
0 0 0 
77 77 175 
119 37 83 
0 0 0 
0 0 0 
0 0 0 
100 100 255 
0 0 0 
0 0 0 
106 106 241 
0 0 0 
0 0 0 
194 60 137 
0 0 0 
0 0 0 
106 106 241 
106 106 241 
128 128 255 
77 77 175 
77 77 175 
77 77 175 
0 0 0 
0 0 0 
77 77 175 
77 77 175 
77 77 175 
0 0 0 
0 0 0 
106 106 241 
0 0 0 
119 37 83 
0 0 0 
0 0 0 
95 95 255 
84 84 255 
106 106 241 
0 0 0 
0 0 0 
206 95 216 
77 77 175 
0 0 0 
255 123 255 
77 77 175 
145 145 255 
77 77 175 
235 123 255 
106 106 241 
127 127 255 
0 0 0 
0 0 0 
0 0 0 
255 96 217 
106 106 241 
77 77 175 
107 100 255 
77 77 175 
0 0 0 
128 128 255 
77 77 175 
255 255 255 
77 77 175 
128 128 255 
37 37 255 
0 0 0 
77 77 175 
0 0 0 
106 106 241 
161 161 255 
0 0 0 
113 106 255 
255 255 255 
255 255 255 
255 255 255 
255 255 255 
255 255 255 
161 161 161 
255 103 255 
126 126 255 
0 0 0 
0 0 0 
255 255 255 
0 0 0 
224 99 255 
255 255 255 
221 221 221 
0 0 0 
255 184 184 
0 0 0 
0 0 0 
214 166 255 
255 255 255 
161 161 161 
0 0 0 
0 0 0 
255 209 215 
0 0 0 
255 255 255 
255 255 255 
255 249 249 
255 255 255 
255 255 255 
255 255 255 
255 255 255 
0 0 0 
255 255 255 
0 0 0 
255 255 255 
0 0 0 
255 207 207 
214 166 255 
255 104 226 
255 145 145 
138 61 138 
255 127 127 
255 176 176 
0 0 0 
255 94 132 
0 0 0 
224 99 255 
255 60 137 
241 106 106 
0 0 0 
175 77 77 
255 53 74 
0 0 0 
0 0 0 
0 0 0 
255 60 60 
255 175 175 
241 106 106 
255 84 84 
255 163 255 
241 106 106 
0 0 0 
0 0 0 
150 66 246 
0 0 0 
175 77 77 
175 77 77 
241 106 106 
175 77 77 
255 155 255 
0 0 0 
225 100 225 
175 77 77 
0 0 0 
255 89 129 
175 77 77 
175 77 77 
175 77 77 
0 0 0 
0 0 0 
0 0 0 
175 77 77 
0 0 0 
0 0 0 
0 0 0 
255 84 84 
0 0 0 
255 95 95 
0 0 0 
175 77 77 
0 0 0 
0 0 0 
0 0 0 
175 77 77 
0 0 0 
0 0 0 
0 0 0 
0 0 0 
0 0 0 
175 77 77 
137 60 194 
0 0 0 
137 60 194 
0 0 0 
175 77 77 
175 77 77 
0 0 0 
0 0 0 
190 84 138 
0 0 0 
83 37 119 
0 0 0 
0 0 0 
0 0 0 
0 0 0 
0 0 0 
83 37 119 
149 40 129 
0 0 0 
0 0 0 
0 0 0 
0 0 0 
0 0 0 
0 0 0 
255 98 255 
0 0 0 
108 48 201 
101 88 255 
47 47 151 
47 47 151 
145 61 255 
255 90 255 
159 159 255 
255 255 255 
40 17 182 
0 0 0 
97 97 255 
125 58 186 
54 24 250 
47 47 151 
40 17 182 
0 0 0 
80 67 255 
0 0 0 
89 39 255 
24 1 160 
77 77 247 
0 0 0 
36 36 255 
47 47 151 
255 33 74 
255 93 118 
255 36 83 
182 17 40 
151 47 47 
255 67 237 
255 47 107 
222 69 156 
77 77 175 
234 22 116 
0 0 0 
73 22 255 
56 17 128 
0 0 0 
0 0 0 
0 0 0 
119 37 83 
0 0 0 
0 0 0 
0 0 0 
0 0 0 
0 0 0 
0 0 0 
0 0 0 
77 77 175 
0 0 0 
0 0 0 
0 0 0 
0 0 0 
163 50 115 
0 0 0 
56 17 128 
255 126 255 
0 0 0 
119 37 83 
0 0 0 
106 106 241 
77 77 175 
77 77 175 
106 106 241 
0 0 0 
77 77 175 
77 77 175 
0 0 0 
0 0 0 
77 77 175 
77 77 175 
128 128 255 
155 111 251 
255 145 255 
56 17 128 
155 111 251 
106 106 241 
77 77 175 
255 255 255 
0 0 0 
77 77 175 
0 0 0 
0 0 0 
0 0 0 
77 77 175 
77 77 175 
77 77 175 
106 106 241 
77 77 175 
0 0 0 
0 0 0 
77 77 175 
0 0 0 
0 0 0 
106 106 241 
77 77 175 
0 0 0 
104 104 255 
0 0 0 
0 0 0 
106 106 241 
255 81 255 
67 6 153 
128 128 255 
127 127 255 
255 122 255 
106 106 241 
128 128 255 
0 0 0 
0 0 0 
77 77 175 
77 77 175 
182 139 255 
77 77 175 
84 84 255 
106 106 241 
141 141 255 
77 77 175 
255 111 255 
37 37 255 
106 106 241 
0 0 0 
77 77 175 
77 77 175 
0 0 0 
255 79 193 
77 77 175 
77 77 175 
0 0 0 
255 98 98 
255 47 47 
255 255 255 
255 255 255 
161 161 161 
247 77 77 
221 221 221 
255 255 255 
161 161 161 
255 255 255 
255 255 255 
255 255 255 
206 206 255 
255 255 255 
161 161 161 
207 207 255 
255 105 255 
255 255 255 
255 255 255 
0 0 0 
0 0 0 
0 0 0 
255 239 255 
0 0 0 
221 221 221 
161 161 161 
255 255 255 
255 184 255 
255 255 255 
0 0 0 
0 0 0 
0 0 0 
255 205 255 
255 255 255 
255 255 255 
255 255 255 
0 0 0 
0 0 0 
255 255 255 
255 6 248 
255 107 107 
0 0 0 
255 255 255 
255 122 255 
241 106 106 
0 0 0 
255 144 144 
0 0 0 
255 105 255 
255 89 168 
175 77 77 
255 94 133 
255 255 255 
255 47 107 
255 141 244 
0 0 0 
0 0 0 
241 106 106 
255 255 255 
175 77 77 
0 0 0 
0 0 0 
255 123 235 
255 47 47 
0 0 0 
255 128 250 
0 0 0 
175 77 77 
241 106 106 
0 0 0 
255 37 37 
225 100 225 
0 0 0 
0 0 0 
175 77 77 
175 77 77 
175 77 77 
0 0 0 
0 0 0 
107 47 255 
175 77 77 
0 0 0 
0 0 0 
175 77 77 
0 0 0 
175 77 77 
175 77 77 
0 0 0 
175 77 77 
0 0 0 
0 0 0 
0 0 0 
0 0 0 
0 0 0 
0 0 0 
0 0 0 
83 37 119 
255 113 255 
255 60 60 
255 138 226 
0 0 0 
0 0 0 
0 0 0 
175 77 77 
255 78 250 
175 77 77 
0 0 0 
83 37 119 
83 37 119 
255 127 127 
0 0 0 
0 0 0 
0 0 0 
83 37 119 
126 39 255 
0 0 0 
0 0 0 
0 0 0 
0 0 0 
0 0 0 
255 77 77 
0 0 0 
255 96 255 
83 37 119 
65 28 255 
0 0 0 
193 60 193 
72 72 255 
118 88 255 
47 47 151 
47 47 151 
71 13 143 
255 211 255 
64 64 207 
88 88 255 
47 47 151 
47 47 151 
64 64 207 
0 0 0 
99 90 255 
77 77 247 
47 47 151 
0 0 0 
47 47 151 
0 0 0 
0 0 0 
0 0 0 
0 0 0 
0 0 0 
75 47 170 
88 88 255 
255 86 148 
255 88 88 
255 73 98 
255 76 246 
255 37 84 
255 80 240 
255 132 132 
0 0 0 
128 17 255 
0 0 0 
119 37 83 
0 0 0 
0 0 0 
0 0 0 
255 36 255 
255 84 250 
0 0 0 
234 22 116 
0 0 0 
56 17 128 
119 37 83 
0 0 0 
77 77 175 
0 0 0 
180 114 255 
77 77 175 
0 0 0 
77 77 175 
0 0 0 
255 126 255 
77 77 175 
0 0 0 
0 0 0 
77 77 175 
255 36 255 
77 77 175 
194 60 137 
0 0 0 
106 106 241 
0 0 0 
93 29 148 
255 65 148 
0 0 0 
151 47 255 
255 122 255 
77 77 175 
0 0 0 
0 0 0 
77 77 175 
77 77 175 
0 0 0 
84 84 255 
0 0 0 
0 0 0 
228 228 255 
106 106 241 
77 77 175 
77 77 175 
0 0 0 
0 0 0 
0 0 0 
0 0 0 
0 0 0 
77 77 175 
106 106 241 
0 0 0 
77 77 175 
0 0 0 
56 17 128 
0 0 0 
77 77 175 
106 106 241 
0 0 0 
106 106 241 
218 218 255 
106 106 241 
37 37 255 
77 77 175 
0 0 0 
0 0 0 
77 77 175 
255 255 255 
169 162 255 
88 88 255 
77 77 175 
77 77 175 
106 106 241 
81 81 255 
0 0 0 
128 128 255 
37 37 255 
77 77 175 
77 77 175 
77 77 175 
106 106 241 
0 0 0 
128 128 255 
0 0 0 
128 128 255 
0 0 0 
0 0 0 
77 77 175 
0 0 0 
106 106 241 
77 77 175 
221 221 221 
255 255 255 
118 36 118 
161 161 161 
255 255 255 
0 0 0 
247 77 77 
255 255 255 
255 255 255 
255 162 255 
255 255 255 
0 0 0 
255 255 255 
255 255 255 
255 255 255 
161 161 161 
255 255 255 
0 0 0 
0 0 0 
255 255 255 
0 0 0 
255 227 255 
255 255 255 
255 255 255 
255 255 255 
0 0 0 
255 255 255 
255 255 255 
161 161 161 
0 0 0 
255 255 255 
0 0 0 
255 255 255 
161 161 161 
255 255 255 
255 255 255 
0 0 0 
255 255 255 
255 165 255 
255 127 127 
255 94 94 
0 0 0 
255 145 211 
175 77 77 
175 77 77 
0 0 0 
0 0 0 
241 106 106 
255 188 188 
0 0 0 
0 0 0 
241 106 106 
255 95 95 
255 5 16 
241 106 106 
255 207 207 
255 139 182 
0 0 0 
255 134 255 
255 199 199 
175 77 77 
0 0 0 
0 0 0 
175 77 77 
0 0 0 
0 0 0 
175 77 77 
0 0 0 
251 111 255 
0 0 0 
0 0 0 
0 0 0 
0 0 0 
0 0 0 
241 106 106 
0 0 0 
255 120 169 
0 0 0 
0 0 0 
175 77 77 
175 77 77 
0 0 0 
0 0 0 
0 0 0 
0 0 0 
175 77 77 
175 77 77 
175 77 77 
0 0 0 
0 0 0 
0 0 0 
0 0 0 
175 77 77 
0 0 0 
255 127 127 
0 0 0 
0 0 0 
0 0 0 
0 0 0 
0 0 0 
0 0 0 
175 77 77 
0 0 0 
0 0 0 
0 0 0 
0 0 0 
0 0 0 
255 207 207 
0 0 0 
83 37 119 
83 37 119 
0 0 0 
0 0 0 
115 50 163 
255 60 60 
0 0 0 
0 0 0 
0 0 0 
0 0 0 
0 0 0 
55 10 254 
0 0 0 
0 0 0 
137 60 194 
83 37 119 
0 0 0 
47 47 151 
0 0 0 
122 78 255 
47 47 151 
47 47 151 
0 0 0 
0 0 0 
0 0 0 
0 0 0 
77 77 247 
255 255 255 
77 77 249 
0 0 0 
244 64 255 
40 17 182 
97 97 255 
36 36 255 
77 77 247 
64 64 207 
47 47 151 
0 0 0 
255 166 255 
224 99 255 
0 0 0 
77 77 249 
255 95 205 
194 60 137 
0 0 0 
247 77 77 
0 0 0 
255 62 147 
163 50 115 
0 0 0 
119 37 83 
255 35 255 
163 50 115 
0 0 0 
0 0 0 
119 37 83 
0 0 0 
77 77 175 
93 29 148 
77 77 175 
0 0 0 
0 0 0 
0 0 0 
0 0 0 
129 40 149 
0 0 0 
0 0 0 
255 37 84 
0 0 0 
0 0 0 
0 0 0 
119 37 83 
0 0 0 
138 84 190 
207 207 255 
106 106 241 
255 36 255 
0 0 0 
0 0 0 
194 60 137 
0 0 0 
77 77 175 
0 0 0 
106 106 241 
0 0 0 
0 0 0 
92 28 209 
77 77 175 
77 77 175 
0 0 0 
77 77 175 
77 77 175 
0 0 0 
0 0 0 
255 255 255 
119 37 83 
106 106 241 
77 77 175 
0 0 0 
0 0 0 
0 0 0 
0 0 0 
106 106 241 
77 77 175 
106 106 241 
106 106 241 
128 128 255 
77 77 175 
77 77 175 
0 0 0 
77 77 175 
0 0 0 
106 106 241 
77 77 175 
106 106 241 
228 228 255 
163 163 255 
77 77 175 
77 77 175 
77 77 175 
0 0 0 
106 106 241 
77 77 175 
95 95 255 
77 77 175 
0 0 0 
0 0 0 
56 17 128 
0 0 0 
0 0 0 
0 0 0 
128 128 255 
206 95 216 
77 77 175 
111 111 255 
255 84 255 
77 77 175 
255 163 255 
0 0 0 
82 78 255 
77 77 175 
255 163 255 
0 0 0 
0 0 0 
77 77 175 
84 84 255 
146 146 255 
255 255 255 
255 255 255 
161 161 161 
255 255 255 
255 254 254 
255 255 255 
175 175 255 
0 0 0 
255 255 255 
255 210 255 
255 255 255 
0 0 0 
0 0 0 
255 255 255 
255 255 255 
221 221 221 
255 255 255 
255 254 254 
255 255 255 
255 255 255 
255 175 175 
255 255 255 
0 0 0 
247 77 77 
0 0 0 
255 175 255 
161 161 161 
161 161 161 
0 0 0 
255 255 255 
118 36 118 
0 0 0 
255 255 255 
0 0 0 
255 255 255 
161 161 161 
0 0 0 
255 255 255 
0 0 0 
255 105 227 
255 54 111 
175 77 77 
0 0 0 
255 99 99 
255 42 61 
0 0 0 
175 77 77 
175 77 77 
255 84 84 
255 17 128 
225 100 225 
175 77 77 
0 0 0 
0 0 0 
217 96 154 
255 114 255 
0 0 0 
0 0 0 
0 0 0 
0 0 0 
0 0 0 
175 77 77 
175 77 77 
0 0 0 
255 88 121 
175 77 77 
0 0 0 
255 78 87 
0 0 0 
0 0 0 
255 95 95 
175 77 77 
241 106 106 
175 77 77 
255 255 255 
0 0 0 
0 0 0 
175 77 77 
255 126 255 
0 0 0 
175 77 77 
0 0 0 
0 0 0 
175 77 77 
165 22 165 
0 0 0 
255 99 165 
0 0 0 
0 0 0 
241 106 106 
0 0 0 
255 127 127 
0 0 0 
0 0 0 
0 0 0 
0 0 0 
0 0 0 
0 0 0 
0 0 0 
190 84 138 
0 0 0 
0 0 0 
241 106 106 
175 77 77 
255 145 145 
0 0 0 
0 0 0 
175 77 77 
0 0 0 
0 0 0 
0 0 0 
0 0 0 
255 127 127 
0 0 0 
0 0 0 
83 37 119 
255 77 248 
0 0 0 
0 0 0 
0 0 0 
150 61 235 
83 37 119 
0 0 0 
83 37 119 
0 0 0 
60 60 255 
64 64 207 
77 77 249 
255 18 187 
255 206 255 
105 105 255 
47 47 151 
0 0 0 
180 137 255 
163 22 232 
100 13 142 
195 60 255 
47 47 151 
255 162 255 
0 0 0 
0 0 0 
47 47 151 
60 60 255 
255 77 248 
0 0 0 
153 95 255 
64 64 207 
171 81 255 
64 64 207 
106 47 255 
64 64 207 
255 88 88 
207 64 64 
72 22 72 
255 255 255 
255 166 166 
0 0 0 
77 77 175 
0 0 0 
255 42 95 
119 37 83 
0 0 0 
0 0 0 
0 0 0 
143 13 71 
0 0 0 
0 0 0 
0 0 0 
0 0 0 
119 37 83 
0 0 0 
255 109 247 
0 0 0 
0 0 0 
0 0 0 
181 39 106 
194 60 137 
0 0 0 
0 0 0 
0 0 0 
0 0 0 
255 218 255 
77 77 175 
77 77 175 
0 0 0 
0 0 0 
0 0 0 
0 0 0 
218 218 255 
255 99 224 
0 0 0 
0 0 0 
119 37 83 
77 77 175 
77 77 175 
106 106 241 
0 0 0 
77 77 175 
255 81 184 
77 77 175 
0 0 0 
0 0 0 
0 0 0 
119 37 83 
0 0 0 
77 77 175 
0 0 0 
0 0 0 
0 0 0 
0 0 0 
106 106 241 
77 77 175 
0 0 0 
88 88 255 
145 145 255 
77 77 175 
0 0 0 
0 0 0 
0 0 0 
0 0 0 
77 77 175 
127 127 255 
0 0 0 
106 106 241 
0 0 0 
0 0 0 
77 77 175 
0 0 0 
77 77 175 
0 0 0 
0 0 0 
225 100 225 
128 128 255 
255 255 255 
81 81 255 
0 0 0 
77 77 175 
77 77 175 
106 106 241 
77 77 175 
77 77 175 
0 0 0 
0 0 0 
77 77 175 
106 106 241 
28 28 255 
0 0 0 
255 77 255 
28 28 255 
0 0 0 
106 106 241 
180 114 255 
106 106 241 
77 77 175 
77 77 175 
47 47 255 
77 77 247 
0 0 0 
255 209 255 
255 255 255 
255 216 255 
255 255 255 
255 255 255 
161 161 161 
0 0 0 
255 255 255 
255 255 255 
255 126 126 
0 0 0 
255 255 255 
221 221 221 
161 161 161 
161 161 161 
255 127 255 
0 0 0 
255 255 255 
255 255 255 
255 255 255 
255 255 255 
255 255 255 
255 255 255 
255 255 255 
255 255 255 
255 255 255 
0 0 0 
255 255 255 
255 188 188 
255 237 244 
255 221 255 
255 255 255 
255 255 255 
255 255 255 
0 0 0 
161 161 161 
255 255 255 
0 0 0 
255 127 127 
0 0 0 
0 0 0 
0 0 0 
255 61 138 
175 77 77 
0 0 0 
0 0 0 
255 157 253 
0 0 0 
0 0 0 
0 0 0 
255 218 218 
255 37 37 
211 29 65 
0 0 0 
0 0 0 
255 37 37 
0 0 0 
241 106 106 
175 77 77 
0 0 0 
0 0 0 
175 77 77 
0 0 0 
211 79 93 
0 0 0 
0 0 0 
0 0 0 
0 0 0 
255 127 127 
255 37 37 
241 106 106 
138 61 138 
138 61 138 
0 0 0 
241 106 106 
0 0 0 
0 0 0 
175 77 77 
255 60 195 
255 37 37 
0 0 0 
241 106 106 
0 0 0 
0 0 0 
175 77 77 
0 0 0 
0 0 0 
0 0 0 
255 162 255 
0 0 0 
175 77 77 
0 0 0 
0 0 0 
0 0 0 
0 0 0 
175 77 77 
0 0 0 
47 6 217 
0 0 0 
0 0 0 
137 60 194 
190 84 138 
255 255 255 
0 0 0 
0 0 0 
83 37 119 
128 17 56 
0 0 0 
0 0 0 
0 0 0 
0 0 0 
255 141 250 
65 29 211 
137 60 194 
0 0 0 
0 0 0 
255 133 255 
0 0 0 
0 0 0 
83 37 119 
0 0 0 
255 127 127 
115 50 163 
47 47 151 
0 0 0 
255 127 255 
255 175 255 
126 126 255 
0 0 0 
108 0 195 
154 78 255 
33 6 255 
93 37 255 
47 47 151 
0 0 0 
0 0 0 
36 36 255 
47 47 151 
37 5 255 
255 95 255 
0 0 0 
125 52 255 
0 0 0 
0 0 0 
33 6 219 
187 78 255 
47 47 151 
98 98 255 
94 89 255 
255 10 55 
255 60 60 
255 62 195 
0 0 0 
247 77 77 
163 50 115 
0 0 0 
119 37 83 
0 0 0 
0 0 0 
0 0 0 
0 0 0 
0 0 0 
119 37 83 
0 0 0 
0 0 0 
0 0 0 
0 0 0 
0 0 0 
0 0 0 
0 0 0 
127 127 255 
194 60 137 
0 0 0 
0 0 0 
119 37 83 
106 106 241 
119 37 83 
119 37 83 
77 77 175 
77 77 175 
0 0 0 
77 77 175 
0 0 0 
0 0 0 
0 0 0 
0 0 0 
0 0 0 
0 0 0 
0 0 0 
207 207 255 
0 0 0 
77 77 175 
0 0 0 
77 77 175 
0 0 0 
100 100 255 
206 95 216 
77 77 175 
77 77 175 
0 0 0 
0 0 0 
0 0 0 
77 77 175 
106 106 241 
255 122 255 
106 106 241 
128 128 255 
0 0 0 
77 77 175 
77 77 175 
77 77 175 
0 0 0 
106 106 241 
77 77 175 
77 77 175 
77 77 175 
255 208 255 
77 77 175 
255 122 255 
0 0 0 
77 77 175 
0 0 0 
0 0 0 
0 0 0 
77 77 175 
106 106 241 
255 255 255 
0 0 0 
0 0 0 
0 0 0 
0 0 0 
0 0 0 
77 77 175 
77 77 175 
77 77 175 
137 60 255 
0 0 0 
77 77 175 
106 106 241 
210 210 255 
0 0 0 
77 77 175 
180 114 255 
106 106 241 
128 128 255 
77 77 175 
0 0 0 
84 84 255 
0 0 0 
170 170 255 
145 145 255 
84 84 255 
154 96 217 
0 0 0 
132 132 255 
255 255 255 
0 0 0 
255 255 255 
0 0 0 
255 244 255 
161 161 161 
255 206 206 
255 255 255 
255 255 255 
255 255 255 
255 255 255 
0 0 0 
161 161 161 
255 255 255 
255 255 255 
255 184 255 
255 255 255 
255 222 222 
126 126 255 
255 255 255 
255 59 255 
255 255 255 
255 231 231 
255 255 255 
255 255 255 
255 255 255 
77 77 247 
0 0 0 
255 255 255 
255 162 255 
255 255 255 
255 255 255 
255 255 255 
161 161 161 
255 255 255 
255 255 255 
255 255 255 
255 255 255 
0 0 0 
0 0 0 
0 0 0 
255 201 255 
255 51 255 
0 0 0 
0 0 0 
0 0 0 
217 96 154 
138 61 138 
0 0 0 
0 0 0 
255 102 102 
0 0 0 
0 0 0 
255 37 37 
0 0 0 
255 111 111 
241 106 106 
65 29 211 
211 29 65 
255 255 255 
0 0 0 
255 17 128 
138 61 138 
0 0 0 
255 37 84 
175 77 77 
225 100 225 
175 77 77 
0 0 0 
0 0 0 
175 77 77 
175 77 77 
0 0 0 
175 77 77 
217 96 154 
0 0 0 
245 48 108 
0 0 0 
175 77 77 
0 0 0 
255 78 250 
0 0 0 
0 0 0 
175 77 77 
0 0 0 
0 0 0 
175 77 77 
0 0 0 
0 0 0 
0 0 0 
0 0 0 
0 0 0 
175 77 77 
175 77 77 
0 0 0 
0 0 0 
0 0 0 
0 0 0 
138 61 196 
0 0 0 
83 37 119 
0 0 0 
0 0 0 
0 0 0 
0 0 0 
0 0 0 
0 0 0 
175 77 77 
0 0 0 
85 5 121 
83 37 119 
255 49 178 
0 0 0 
0 0 0 
0 0 0 
0 0 0 
255 49 174 
205 71 255 
0 0 0 
0 0 0 
0 0 0 
83 37 119 
83 37 119 
71 13 143 
65 28 255 
0 0 0 
255 99 255 
186 100 255 
77 77 247 
47 47 151 
0 0 0 
0 0 0 
60 60 255 
78 10 255 
255 18 255 
93 58 255 
77 77 247 
165 88 255 
0 0 0 
0 0 0 
47 47 151 
130 126 255 
0 0 0 
77 77 247 
0 0 0 
40 17 182 
83 37 119 
255 255 255 
47 47 151 
74 66 255 
255 28 65 
207 64 64 
255 23 181 
151 47 47 
255 65 201 
0 0 0 
92 28 209 
143 13 71 
0 0 0 
0 0 0 
0 0 0 
0 0 0 
119 37 83 
194 60 137 
119 37 83 
0 0 0 
119 37 83 
77 77 175 
0 0 0 
138 84 190 
0 0 0 
0 0 0 
0 0 0 
0 0 0 
0 0 0 
77 77 175 
119 37 83 
255 255 255 
0 0 0 
0 0 0 
77 77 175 
0 0 0 
0 0 0 
119 37 83 
222 81 184 
0 0 0 
0 0 0 
0 0 0 
0 0 0 
207 207 255 
255 77 174 
0 0 0 
0 0 0 
0 0 0 
119 37 83 
77 77 175 
77 77 175 
77 77 175 
106 106 241 
0 0 0 
0 0 0 
0 0 0 
0 0 0 
0 0 0 
106 106 241 
77 77 175 
0 0 0 
128 128 255 
0 0 0 
77 77 175 
0 0 0 
0 0 0 
77 77 175 
77 77 175 
106 106 241 
77 77 175 
106 106 241 
77 77 175 
77 77 175 
0 0 0 
0 0 0 
77 77 175 
0 0 0 
28 28 255 
0 0 0 
0 0 0 
77 77 175 
127 127 255 
110 10 250 
0 0 0 
128 128 255 
0 0 0 
77 77 175 
31 13 255 
77 77 175 
0 0 0 
77 77 175 
0 0 0 
0 0 0 
77 77 175 
128 128 255 
0 0 0 
77 77 175 
0 0 0 
147 114 255 
255 255 255 
77 77 175 
0 0 0 
0 0 0 
77 77 175 
106 106 241 
106 106 241 
77 77 175 
0 0 0 
81 81 255 
82 77 255 
255 255 255 
255 255 255 
255 255 255 
255 162 255 
255 255 255 
255 255 255 
0 0 0 
0 0 0 
255 255 255 
0 0 0 
0 0 0 
0 0 0 
255 255 255 
161 161 161 
255 255 255 
255 255 255 
0 0 0 
0 0 0 
0 0 0 
0 0 0 
126 126 255 
0 0 0 
255 255 255 
255 199 199 
77 77 247 
0 0 0 
206 206 255 
255 255 255 
221 221 221 
0 0 0 
0 0 0 
255 255 255 
205 170 245 
0 0 0 
255 255 255 
255 255 255 
230 22 230 
0 0 0 
175 77 77 
255 72 148 
255 33 141 
0 0 0 
0 0 0 
175 77 77 
0 0 0 
0 0 0 
225 100 225 
0 0 0 
255 111 111 
0 0 0 
255 138 182 
0 0 0 
128 17 56 
0 0 0 
255 210 255 
0 0 0 
0 0 0 
0 0 0 
65 29 211 
175 77 77 
255 178 255 
0 0 0 
0 0 0 
0 0 0 
0 0 0 
0 0 0 
175 77 77 
255 37 37 
0 0 0 
0 0 0 
255 123 240 
175 77 77 
138 61 138 
0 0 0 
175 77 77 
0 0 0 
175 77 77 
0 0 0 
0 0 0 
175 77 77 
0 0 0 
0 0 0 
0 0 0 
175 77 77 
0 0 0 
0 0 0 
0 0 0 
0 0 0 
175 77 77 
0 0 0 
175 77 77 
0 0 0 
175 77 77 
0 0 0 
163 22 232 
0 0 0 
0 0 0 
0 0 0 
0 0 0 
0 0 0 
0 0 0 
0 0 0 
0 0 0 
0 0 0 
255 131 169 
0 0 0 
255 74 239 
0 0 0 
255 74 255 
0 0 0 
0 0 0 
255 162 255 
255 22 73 
255 162 255 
83 37 119 
0 0 0 
0 0 0 
255 78 255 
241 47 255 
65 28 255 
174 63 255 
177 10 111 
83 37 119 
222 45 146 
0 0 0 
106 47 255 
79 69 255 
58 58 255 
0 0 0 
150 140 255 
255 255 255 
0 0 0 
47 47 151 
0 0 0 
126 126 255 
47 47 151 
0 0 0 
177 78 255 
82 75 255 
82 77 255 
0 0 0 
0 0 0 
172 172 255 
0 0 0 
0 0 0 
0 0 0 
47 47 151 
0 0 0 
47 47 151 
102 79 255 
230 49 60 
255 97 97 
207 64 64 
255 105 105 
0 0 0 
119 37 83 
0 0 0 
0 0 0 
56 17 128 
0 0 0 
0 0 0 
255 255 255 
77 77 175 
0 0 0 
0 0 0 
0 0 0 
162 88 234 
0 0 0 
0 0 0 
0 0 0 
138 84 190 
207 207 255 
106 106 241 
0 0 0 
0 0 0 
0 0 0 
0 0 0 
0 0 0 
0 0 0 
0 0 0 
77 77 175 
119 37 83 
194 60 137 
0 0 0 
0 0 0 
77 77 175 
77 77 175 
0 0 0 
77 77 175 
0 0 0 
0 0 0 
0 0 0 
77 77 175 
0 0 0 
0 0 0 
0 0 0 
0 0 0 
77 77 175 
77 77 175 
0 0 0 
0 0 0 
77 77 175 
77 77 175 
255 28 65 
0 0 0 
0 0 0 
0 0 0 
0 0 0 
0 0 0 
0 0 0 
0 0 0 
77 77 175 
0 0 0 
0 0 0 
0 0 0 
106 106 241 
0 0 0 
77 77 175 
0 0 0 
0 0 0 
128 128 255 
106 106 241 
77 77 175 
0 0 0 
0 0 0 
0 0 0 
0 0 0 
77 77 175 
0 0 0 
0 0 0 
51 22 255 
106 106 241 
0 0 0 
106 106 241 
0 0 0 
77 77 175 
77 77 175 
255 157 255 
77 77 175 
255 75 170 
0 0 0 
77 77 175 
0 0 0 
0 0 0 
0 0 0 
255 255 255 
255 190 255 
60 60 255 
77 77 175 
84 84 255 
145 145 255 
0 0 0 
77 77 175 
60 60 255 
77 77 175 
156 126 255 
255 255 255 
255 255 255 
255 77 77 
221 221 221 
0 0 0 
0 0 0 
255 255 255 
0 0 0 
255 255 255 
255 255 255 
255 255 255 
161 161 161 
0 0 0 
0 0 0 
0 0 0 
255 155 250 
255 255 255 
255 175 175 
255 255 255 
255 255 255 
255 255 255 
255 255 255 
255 255 255 
255 255 255 
255 255 255 
255 255 255 
0 0 0 
0 0 0 
0 0 0 
255 255 255 
255 255 255 
161 161 161 
255 255 255 
0 0 0 
255 255 255 
255 255 255 
255 255 255 
255 175 175 
255 88 96 
255 255 255 
0 0 0 
0 0 0 
255 122 122 
255 223 255 
241 106 106 
175 77 77 
255 83 148 
175 77 77 
255 110 163 
0 0 0 
175 77 77 
255 37 37 
245 48 108 
138 61 138 
225 100 225 
0 0 0 
0 0 0 
138 61 138 
255 145 145 
0 0 0 
0 0 0 
175 77 77 
0 0 0 
175 77 77 
0 0 0 
0 0 0 
0 0 0 
0 0 0 
0 0 0 
0 0 0 
0 0 0 
255 127 127 
0 0 0 
0 0 0 
0 0 0 
175 77 77 
0 0 0 
0 0 0 
175 77 77 
0 0 0 
175 77 77 
0 0 0 
0 0 0 
0 0 0 
0 0 0 
0 0 0 
0 0 0 
175 77 77 
175 77 77 
175 77 77 
0 0 0 
0 0 0 
0 0 0 
0 0 0 
0 0 0 
175 77 77 
0 0 0 
0 0 0 
0 0 0 
0 0 0 
0 0 0 
0 0 0 
0 0 0 
255 77 255 
0 0 0 
0 0 0 
0 0 0 
83 37 119 
128 17 56 
65 29 211 
0 0 0 
0 0 0 
83 37 119 
255 127 127 
137 60 194 
156 69 222 
255 22 72 
0 0 0 
83 37 119 
83 37 119 
0 0 0 
83 37 119 
83 37 119 
83 37 119 
255 255 255 
255 45 255 
60 60 255 
106 47 255 
137 60 194 
36 36 255 
153 95 255 
78 54 255 
0 0 0 
70 62 255 
0 0 0 
211 144 255 
185 97 255 
142 74 239 
136 24 255 
255 135 255 
60 49 230 
47 47 151 
47 47 151 
47 47 151 
60 49 230 
60 49 230 
0 0 0 
132 132 255 
89 69 255 
0 0 0 
255 88 88 
0 0 0 
255 58 58 
255 88 88 
0 0 0 
0 0 0 
92 28 209 
147 45 166 
0 0 0 
0 0 0 
77 77 175 
119 37 83 
0 0 0 
0 0 0 
0 0 0 
0 0 0 
0 0 0 
0 0 0 
77 77 175 
0 0 0 
0 0 0 
0 0 0 
119 37 83 
211 29 65 
0 0 0 
0 0 0 
0 0 0 
0 0 0 
0 0 0 
0 0 0 
0 0 0 
0 0 0 
119 37 83 
0 0 0 
77 77 175 
106 106 241 
0 0 0 
0 0 0 
0 0 0 
0 0 0 
0 0 0 
77 77 175 
119 37 83 
93 29 148 
0 0 0 
0 0 0 
0 0 0 
0 0 0 
194 60 137 
0 0 0 
0 0 0 
0 0 0 
77 77 175 
77 77 175 
0 0 0 
77 77 175 
77 77 175 
0 0 0 
0 0 0 
0 0 0 
0 0 0 
77 77 175 
0 0 0 
0 0 0 
0 0 0 
77 77 175 
0 0 0 
194 60 137 
77 77 175 
0 0 0 
77 77 175 
77 77 175 
162 162 255 
77 77 175 
77 77 175 
77 77 175 
77 77 175 
0 0 0 
128 128 255 
106 106 241 
77 77 175 
0 0 0 
106 106 241 
106 106 241 
77 77 175 
0 0 0 
0 0 0 
106 106 241 
106 106 241 
0 0 0 
77 77 175 
137 84 255 
0 0 0 
0 0 0 
0 0 0 
77 77 175 
146 146 255 
0 0 0 
77 77 175 
148 148 255 
128 128 255 
28 28 255 
0 0 0 
77 77 175 
118 107 255 
0 0 0 
37 37 255 
255 77 77 
255 255 255 
255 255 255 
255 255 255 
161 161 161 
255 255 255 
255 255 255 
161 161 161 
255 255 255 
225 100 225 
0 0 0 
255 255 255 
255 255 255 
255 255 255 
255 77 248 
255 255 255 
255 255 255 
255 255 255 
255 255 255 
0 0 0 
255 255 255 
0 0 0 
161 161 161 
0 0 0 
255 255 255 
255 255 255 
255 255 255 
255 255 255 
255 255 255 
255 255 255 
255 255 255 
0 0 0 
255 255 255 
255 255 255 
255 255 255 
255 255 255 
255 255 255 
255 255 255 
255 202 255 
0 0 0 
255 163 255 
255 88 166 
0 0 0 
255 22 51 
225 100 225 
138 61 138 
138 61 138 
255 40 66 
0 0 0 
255 88 166 
255 29 29 
0 0 0 
0 0 0 
209 28 92 
0 0 0 
0 0 0 
175 77 77 
0 0 0 
175 77 77 
175 77 77 
0 0 0 
175 77 77 
0 0 0 
0 0 0 
0 0 0 
175 77 77 
0 0 0 
138 61 138 
251 100 255 
175 77 77 
0 0 0 
175 77 77 
0 0 0 
0 0 0 
0 0 0 
255 60 60 
0 0 0 
211 29 65 
0 0 0 
175 77 77 
0 0 0 
175 77 77 
0 0 0 
0 0 0 
0 0 0 
0 0 0 
0 0 0 
0 0 0 
255 22 51 
0 0 0 
255 122 255 
0 0 0 
255 99 99 
0 0 0 
0 0 0 
0 0 0 
83 37 119 
255 145 145 
0 0 0 
0 0 0 
0 0 0 
0 0 0 
0 0 0 
0 0 0 
115 50 163 
106 47 255 
0 0 0 
0 0 0 
0 0 0 
83 37 119 
0 0 0 
0 0 0 
0 0 0 
255 138 226 
0 0 0 
0 0 0 
0 0 0 
0 0 0 
0 0 0 
83 37 119 
106 47 255 
255 39 180 
0 0 0 
136 136 255 
162 162 255 
47 47 151 
40 17 182 
0 0 0 
0 0 0 
0 0 0 
255 42 255 
40 17 182 
82 68 255 
0 0 0 
78 54 255 
33 6 219 
88 88 255 
47 47 151 
0 0 0 
71 64 255 
0 0 0 
0 0 0 
83 66 255 
0 0 0 
162 162 255 
0 0 0 
0 0 0 
0 0 0 
0 0 0 
182 17 40 
0 0 0 
151 47 47 
119 37 83 
0 0 0 
0 0 0 
0 0 0 
143 13 71 
93 29 148 
0 0 0 
115 35 255 
0 0 0 
163 50 115 
0 0 0 
0 0 0 
77 77 175 
0 0 0 
0 0 0 
0 0 0 
106 106 241 
73 22 255 
77 77 175 
0 0 0 
0 0 0 
0 0 0 
0 0 0 
119 37 83 
0 0 0 
0 0 0 
0 0 0 
0 0 0 
0 0 0 
0 0 0 
0 0 0 
0 0 0 
0 0 0 
0 0 0 
77 77 175 
0 0 0 
77 77 175 
0 0 0 
0 0 0 
0 0 0 
77 77 175 
77 77 175 
0 0 0 
0 0 0 
0 0 0 
194 60 137 
0 0 0 
0 0 0 
77 77 175 
0 0 0 
0 0 0 
0 0 0 
77 77 175 
159 78 186 
0 0 0 
77 77 175 
0 0 0 
0 0 0 
77 77 175 
0 0 0 
0 0 0 
0 0 0 
106 106 241 
0 0 0 
77 77 175 
77 77 175 
0 0 0 
0 0 0 
0 0 0 
0 0 0 
37 37 255 
77 77 175 
0 0 0 
0 0 0 
106 106 241 
0 0 0 
146 146 255 
0 0 0 
77 77 175 
77 77 175 
0 0 0 
77 77 175 
0 0 0 
84 84 255 
77 77 175 
106 106 241 
0 0 0 
0 0 0 
0 0 0 
0 0 0 
111 111 255 
0 0 0 
77 77 175 
0 0 0 
0 0 0 
138 61 138 
0 0 0 
0 0 0 
65 29 211 
255 255 255 
77 77 175 
37 37 255 
0 0 0 
127 127 255 
255 255 255 
255 255 255 
255 235 255 
255 255 255 
255 199 199 
255 255 255 
0 0 0 
255 255 255 
161 161 161 
0 0 0 
0 0 0 
255 255 255 
255 255 255 
161 161 161 
161 161 161 
255 255 255 
255 255 255 
255 255 255 
0 0 0 
0 0 0 
255 255 255 
0 0 0 
161 161 161 
255 94 251 
255 207 207 
255 255 255 
255 255 255 
255 255 255 
161 161 161 
0 0 0 
0 0 0 
255 46 150 
255 255 255 
255 255 255 
255 255 255 
255 255 255 
255 255 255 
161 161 161 
0 0 0 
255 170 255 
255 51 51 
255 142 245 
255 50 255 
255 84 84 
255 255 255 
0 0 0 
175 77 77 
0 0 0 
0 0 0 
0 0 0 
0 0 0 
0 0 0 
0 0 0 
0 0 0 
255 133 240 
0 0 0 
0 0 0 
255 37 37 
0 0 0 
255 37 37 
255 114 231 
255 163 255 
0 0 0 
0 0 0 
175 77 77 
0 0 0 
255 101 157 
0 0 0 
0 0 0 
241 106 106 
0 0 0 
255 37 37 
255 127 127 
225 100 225 
255 145 145 
0 0 0 
255 29 210 
175 77 77 
255 127 127 
0 0 0 
0 0 0 
107 47 255 
255 28 28 
0 0 0 
0 0 0 
0 0 0 
0 0 0 
137 60 194 
0 0 0 
0 0 0 
0 0 0 
175 77 77 
0 0 0 
0 0 0 
0 0 0 
255 161 255 
137 60 194 
83 37 119 
0 0 0 
0 0 0 
137 60 194 
0 0 0 
0 0 0 
0 0 0 
0 0 0 
209 28 92 
0 0 0 
0 0 0 
0 0 0 
0 0 0 
0 0 0 
83 37 119 
0 0 0 
0 0 0 
0 0 0 
83 37 119 
0 0 0 
137 60 194 
0 0 0 
65 29 211 
0 0 0 
0 0 0 
47 47 151 
153 110 255 
77 77 247 
0 0 0 
36 36 255 
83 83 255 
0 0 0 
0 0 0 
86 56 255 
77 77 247 
54 24 250 
85 78 255 
77 77 247 
110 10 255 
52 47 255 
142 74 239 
0 0 0 
65 28 255 
255 98 255 
40 17 182 
54 24 250 
0 0 0 
47 47 151 
47 47 151 
0 0 0 
0 0 0 
83 48 202 
255 138 255 
255 75 202 
159 49 185 
119 37 83 
93 29 148 
255 133 255 
255 28 65 
0 0 0 
163 50 115 
119 37 83 
0 0 0 
0 0 0 
0 0 0 
0 0 0 
0 0 0 
0 0 0 
0 0 0 
0 0 0 
0 0 0 
93 79 211 
77 77 175 
119 37 83 
255 255 255 
0 0 0 
0 0 0 
0 0 0 
77 77 175 
0 0 0 
0 0 0 
106 106 241 
0 0 0 
106 106 241 
0 0 0 
0 0 0 
0 0 0 
0 0 0 
0 0 0 
0 0 0 
0 0 0 
0 0 0 
0 0 0 
0 0 0 
77 77 175 
145 145 255 
0 0 0 
0 0 0 
161 161 255 
127 127 255 
106 106 241 
0 0 0 
77 77 175 
77 77 175 
0 0 0 
0 0 0 
0 0 0 
0 0 0 
0 0 0 
77 77 175 
0 0 0 
0 0 0 
106 106 241 
60 60 255 
138 84 190 
77 77 175 
0 0 0 
0 0 0 
0 0 0 
0 0 0 
77 77 175 
77 77 175 
106 106 241 
0 0 0 
0 0 0 
106 106 241 
128 128 255 
128 128 255 
255 77 174 
77 77 175 
0 0 0 
77 77 175 
0 0 0 
0 0 0 
0 0 0 
0 0 0 
0 0 0 
77 77 175 
132 132 255 
0 0 0 
0 0 0 
77 77 175 
0 0 0 
0 0 0 
0 0 0 
0 0 0 
77 77 175 
106 106 241 
114 114 255 
0 0 0 
77 77 175 
77 77 175 
77 77 175 
211 146 255 
77 77 175 
154 96 217 
146 146 255 
154 96 217 
236 154 255 
255 255 255 
255 255 255 
255 255 255 
255 255 255 
0 0 0 
161 161 161 
0 0 0 
0 0 0 
0 0 0 
255 255 255 
161 161 161 
255 255 255 
161 161 161 
255 255 255 
100 13 142 
255 154 234 
193 60 193 
255 199 199 
255 162 162 
255 255 255 
255 170 170 
255 155 255 
0 0 0 
255 13 226 
0 0 0 
255 255 255 
147 29 255 
255 255 255 
255 255 255 
255 255 255 
255 255 255 
255 154 255 
255 255 255 
0 0 0 
0 0 0 
255 255 255 
255 175 175 
161 161 161 
0 0 0 
0 0 0 
0 0 0 
255 99 99 
0 0 0 
255 37 84 
255 145 255 
255 255 255 
175 77 77 
0 0 0 
0 0 0 
0 0 0 
175 77 77 
0 0 0 
255 163 255 
0 0 0 
175 77 77 
255 95 95 
0 0 0 
65 29 211 
0 0 0 
0 0 0 
0 0 0 
225 100 225 
175 77 77 
0 0 0 
0 0 0 
255 78 177 
255 218 218 
255 37 37 
0 0 0 
0 0 0 
175 77 77 
0 0 0 
0 0 0 
0 0 0 
0 0 0 
0 0 0 
0 0 0 
0 0 0 
0 0 0 
0 0 0 
0 0 0 
0 0 0 
0 0 0 
0 0 0 
0 0 0 
0 0 0 
255 127 127 
175 77 77 
175 77 77 
0 0 0 
0 0 0 
0 0 0 
0 0 0 
255 37 37 
0 0 0 
0 0 0 
0 0 0 
0 0 0 
0 0 0 
0 0 0 
0 0 0 
0 0 0 
0 0 0 
177 10 111 
0 0 0 
149 40 129 
83 37 119 
224 99 255 
0 0 0 
0 0 0 
0 0 0 
0 0 0 
83 37 119 
128 17 56 
83 37 119 
0 0 0 
0 0 0 
83 37 119 
255 129 153 
255 10 255 
0 0 0 
43 8 255 
0 0 0 
0 0 0 
40 17 182 
64 64 207 
0 0 0 
0 0 0 
0 0 0 
191 5 255 
65 28 255 
47 47 151 
255 65 255 
255 255 255 
77 77 247 
96 29 255 
114 64 255 
70 13 255 
55 48 255 
0 0 0 
47 47 151 
0 0 0 
0 0 0 
88 88 255 
0 0 0 
47 47 151 
0 0 0 
88 88 255 
47 47 151 
255 88 88 
151 47 47 
143 13 71 
255 208 255 
119 37 83 
119 37 83 
0 0 0 
0 0 0 
0 0 0 
163 50 115 
0 0 0 
0 0 0 
0 0 0 
0 0 0 
119 37 83 
0 0 0 
77 77 175 
143 13 71 
0 0 0 
194 60 137 
0 0 0 
77 77 175 
0 0 0 
119 37 83 
0 0 0 
0 0 0 
119 37 83 
77 77 175 
0 0 0 
0 0 0 
0 0 0 
0 0 0 
138 84 190 
106 106 241 
77 77 175 
0 0 0 
0 0 0 
0 0 0 
77 77 175 
77 77 175 
0 0 0 
0 0 0 
77 77 175 
106 106 241 
255 10 55 
0 0 0 
0 0 0 
77 77 175 
119 37 83 
60 60 255 
0 0 0 
0 0 0 
0 0 0 
0 0 0 
77 77 175 
0 0 0 
0 0 0 
0 0 0 
0 0 0 
0 0 0 
0 0 0 
77 77 175 
0 0 0 
0 0 0 
0 0 0 
0 0 0 
0 0 0 
119 37 83 
37 37 255 
0 0 0 
0 0 0 
0 0 0 
0 0 0 
0 0 0 
0 0 0 
0 0 0 
84 84 255 
207 207 255 
77 77 175 
106 106 241 
77 77 175 
122 122 255 
0 0 0 
0 0 0 
0 0 0 
0 0 0 
0 0 0 
0 0 0 
77 77 175 
106 106 241 
0 0 0 
236 155 255 
0 0 0 
0 0 0 
132 132 255 
77 77 175 
84 84 255 
77 77 175 
255 111 255 
77 77 175 
188 188 255 
115 115 255 
0 0 0 
0 0 0 
37 37 255 
0 0 0 
255 160 255 
255 175 175 
255 208 231 
255 255 255 
255 255 255 
255 255 255 
161 161 161 
0 0 0 
255 255 255 
255 255 255 
255 255 255 
161 161 161 
77 77 247 
255 255 255 
255 255 255 
255 255 255 
255 255 255 
161 161 161 
255 255 255 
161 161 161 
255 202 255 
255 255 255 
255 255 255 
0 0 0 
0 0 0 
182 95 255 
0 0 0 
0 0 0 
255 255 255 
255 255 255 
255 255 255 
224 99 255 
255 255 255 
255 255 255 
255 207 207 
255 255 255 
255 255 255 
255 255 255 
255 88 255 
255 156 156 
0 0 0 
255 131 140 
0 0 0 
0 0 0 
255 47 107 
255 13 31 
0 0 0 
255 37 37 
0 0 0 
0 0 0 
0 0 0 
255 210 210 
255 60 60 
0 0 0 
0 0 0 
0 0 0 
0 0 0 
0 0 0 
0 0 0 
217 96 154 
0 0 0 
0 0 0 
253 77 255 
0 0 0 
0 0 0 
0 0 0 
175 77 77 
0 0 0 
225 100 225 
0 0 0 
0 0 0 
0 0 0 
175 77 77 
0 0 0 
241 106 106 
175 77 77 
0 0 0 
0 0 0 
175 77 77 
0 0 0 
0 0 0 
0 0 0 
0 0 0 
0 0 0 
0 0 0 
0 0 0 
175 77 77 
0 0 0 
0 0 0 
0 0 0 
255 148 182 
0 0 0 
137 60 194 
0 0 0 
0 0 0 
255 127 127 
0 0 0 
0 0 0 
0 0 0 
255 127 127 
175 77 77 
255 127 127 
0 0 0 
0 0 0 
0 0 0 
0 0 0 
0 0 0 
0 0 0 
0 0 0 
255 127 127 
0 0 0 
0 0 0 
0 0 0 
0 0 0 
0 0 0 
0 0 0 
83 37 119 
0 0 0 
0 0 0 
83 37 119 
156 69 222 
71 13 143 
0 0 0 
131 45 255 
0 0 0 
0 0 0 
0 0 0 
64 64 207 
47 47 151 
81 81 255 
47 47 151 
47 47 151 
40 17 182 
174 77 255 
160 160 255 
126 126 255 
65 28 255 
62 48 255 
47 47 151 
77 77 249 
110 83 255 
64 64 207 
255 54 255 
47 47 151 
60 49 230 
0 0 0 
64 64 207 
0 0 0 
40 17 182 
77 77 247 
151 47 47 
255 22 51 
0 0 0 
93 29 148 
211 65 244 
0 0 0 
93 29 148 
119 37 83 
179 38 255 
0 0 0 
0 0 0 
0 0 0 
77 77 175 
0 0 0 
0 0 0 
119 37 83 
0 0 0 
0 0 0 
119 37 83 
119 37 83 
0 0 0 
0 0 0 
0 0 0 
0 0 0 
0 0 0 
0 0 0 
0 0 0 
92 28 209 
77 77 175 
0 0 0 
77 77 175 
0 0 0 
77 77 175 
0 0 0 
0 0 0 
0 0 0 
0 0 0 
0 0 0 
0 0 0 
0 0 0 
77 77 175 
0 0 0 
77 77 175 
0 0 0 
0 0 0 
0 0 0 
0 0 0 
0 0 0 
0 0 0 
128 128 255 
0 0 0 
0 0 0 
0 0 0 
0 0 0 
0 0 0 
0 0 0 
0 0 0 
0 0 0 
0 0 0 
255 99 224 
106 106 241 
0 0 0 
77 77 175 
77 77 175 
106 106 241 
77 77 175 
84 84 255 
0 0 0 
106 106 241 
0 0 0 
77 77 175 
0 0 0 
0 0 0 
106 106 241 
77 77 175 
0 0 0 
0 0 0 
0 0 0 
77 77 175 
106 106 241 
77 77 175 
77 77 175 
218 218 255 
0 0 0 
0 0 0 
77 77 175 
0 0 0 
0 0 0 
138 61 138 
111 111 255 
0 0 0 
128 128 255 
77 77 175 
77 77 175 
123 123 255 
77 77 175 
37 37 255 
0 0 0 
0 0 0 
0 0 0 
127 127 255 
0 0 0 
235 235 255 
0 0 0 
0 0 0 
162 133 255 
84 84 255 
0 0 0 
255 255 255 
161 161 161 
244 170 244 
255 255 255 
255 255 255 
199 199 255 
255 255 255 
255 255 255 
255 136 255 
255 255 255 
161 161 161 
0 0 0 
161 161 161 
221 221 221 
161 161 161 
0 0 0 
255 255 255 
247 77 77 
255 99 224 
255 155 255 
255 126 126 
0 0 0 
188 166 255 
255 255 255 
255 255 255 
0 0 0 
255 255 255 
127 127 255 
92 28 209 
161 161 161 
0 0 0 
255 255 255 
255 255 255 
255 255 255 
255 255 255 
255 255 255 
255 175 175 
255 255 255 
255 127 127 
255 127 127 
0 0 0 
0 0 0 
0 0 0 
0 0 0 
0 0 0 
175 77 77 
0 0 0 
189 83 189 
0 0 0 
138 61 138 
255 160 254 
0 0 0 
255 127 127 
217 96 255 
0 0 0 
225 100 225 
255 45 213 
0 0 0 
0 0 0 
211 29 65 
175 77 77 
175 77 77 
0 0 0 
175 77 77 
0 0 0 
0 0 0 
255 37 37 
138 61 138 
0 0 0 
0 0 0 
0 0 0 
0 0 0 
175 77 77 
175 77 77 
175 77 77 
0 0 0 
0 0 0 
0 0 0 
0 0 0 
0 0 0 
175 77 77 
0 0 0 
0 0 0 
0 0 0 
0 0 0 
0 0 0 
0 0 0 
0 0 0 
190 84 138 
0 0 0 
107 47 255 
255 127 127 
0 0 0 
255 207 207 
0 0 0 
255 127 127 
0 0 0 
0 0 0 
255 138 226 
0 0 0 
0 0 0 
0 0 0 
0 0 0 
0 0 0 
0 0 0 
0 0 0 
0 0 0 
0 0 0 
0 0 0 
137 60 194 
137 60 194 
0 0 0 
0 0 0 
0 0 0 
255 36 255 
0 0 0 
243 47 153 
106 39 181 
255 81 255 
0 0 0 
146 59 255 
255 162 255 
174 77 255 
0 0 0 
132 132 255 
224 99 255 
0 0 0 
191 93 255 
0 0 0 
0 0 0 
0 0 0 
126 126 255 
22 1 255 
255 162 255 
255 180 255 
40 17 182 
0 0 0 
47 47 151 
0 0 0 
0 0 0 
255 162 255 
0 0 0 
47 47 151 
224 99 255 
60 49 230 
47 47 151 
0 0 0 
255 204 255 
255 95 153 
255 126 130 
0 0 0 
194 60 137 
119 37 83 
0 0 0 
159 38 147 
163 50 115 
119 37 83 
0 0 0 
119 37 83 
0 0 0 
0 0 0 
0 0 0 
92 28 209 
0 0 0 
0 0 0 
0 0 0 
0 0 0 
0 0 0 
0 0 0 
0 0 0 
119 37 83 
0 0 0 
0 0 0 
0 0 0 
0 0 0 
119 37 83 
0 0 0 
162 50 255 
0 0 0 
0 0 0 
77 77 175 
0 0 0 
0 0 0 
0 0 0 
194 60 137 
0 0 0 
0 0 0 
255 206 255 
0 0 0 
77 77 175 
0 0 0 
0 0 0 
0 0 0 
0 0 0 
0 0 0 
0 0 0 
60 60 255 
0 0 0 
0 0 0 
0 0 0 
0 0 0 
138 84 190 
0 0 0 
77 77 175 
0 0 0 
0 0 0 
111 111 255 
0 0 0 
0 0 0 
0 0 0 
0 0 0 
77 77 175 
0 0 0 
77 77 175 
0 0 0 
77 77 175 
77 77 175 
77 77 175 
77 77 175 
77 77 175 
0 0 0 
106 106 241 
77 77 175 
127 127 255 
77 77 175 
84 84 255 
77 77 175 
0 0 0 
0 0 0 
77 77 175 
0 0 0 
37 37 255 
0 0 0 
106 106 241 
205 95 255 
128 128 255 
0 0 0 
106 106 241 
132 94 255 
194 60 137 
0 0 0 
0 0 0 
0 0 0 
0 0 0 
0 0 0 
0 0 0 
0 0 0 
77 77 175 
0 0 0 
0 0 0 
0 0 0 
111 111 255 
77 77 175 
77 77 175 
77 77 175 
0 0 0 
247 77 77 
255 255 255 
255 255 255 
161 161 161 
255 76 246 
221 221 221 
255 255 255 
161 161 161 
255 255 255 
255 255 255 
255 255 255 
255 222 255 
207 207 255 
184 184 255 
255 255 255 
221 221 221 
221 221 221 
255 255 255 
255 255 255 
255 255 255 
161 161 161 
255 155 255 
255 255 255 
255 255 255 
221 221 221 
255 203 255 
254 183 255 
0 0 0 
255 255 255 
255 255 255 
255 255 255 
255 255 255 
255 255 255 
0 0 0 
255 166 188 
0 0 0 
255 255 255 
255 255 255 
255 60 60 
0 0 0 
255 128 255 
255 66 140 
0 0 0 
0 0 0 
65 29 211 
0 0 0 
0 0 0 
0 0 0 
0 0 0 
0 0 0 
138 61 138 
0 0 0 
0 0 0 
255 127 127 
0 0 0 
255 127 127 
0 0 0 
0 0 0 
255 127 127 
175 77 77 
0 0 0 
255 37 37 
0 0 0 
255 37 37 
255 255 255 
0 0 0 
0 0 0 
0 0 0 
0 0 0 
255 177 255 
0 0 0 
175 77 77 
175 77 77 
0 0 0 
138 61 138 
255 127 127 
0 0 0 
0 0 0 
175 77 77 
0 0 0 
0 0 0 
0 0 0 
0 0 0 
0 0 0 
0 0 0 
0 0 0 
0 0 0 
0 0 0 
0 0 0 
0 0 0 
0 0 0 
255 127 127 
0 0 0 
0 0 0 
0 0 0 
0 0 0 
0 0 0 
0 0 0 
0 0 0 
0 0 0 
83 37 119 
0 0 0 
0 0 0 
0 0 0 
255 127 127 
0 0 0 
0 0 0 
83 37 119 
0 0 0 
0 0 0 
128 17 56 
0 0 0 
61 8 255 
0 0 0 
0 0 0 
0 0 0 
137 60 194 
83 37 119 
115 50 163 
255 127 127 
83 37 119 
136 60 255 
144 144 255 
0 0 0 
141 61 255 
255 125 255 
255 255 255 
0 0 0 
47 47 151 
0 0 0 
77 77 247 
89 69 255 
36 36 255 
0 0 0 
88 88 255 
0 0 0 
47 47 151 
0 0 0 
47 47 151 
191 5 255 
0 0 0 
144 144 255 
0 0 0 
47 47 151 
0 0 0 
103 18 255 
142 74 239 
0 0 0 
255 132 132 
0 0 0 
119 37 83 
119 37 83 
119 37 83 
0 0 0 
0 0 0 
0 0 0 
0 0 0 
0 0 0 
255 81 184 
0 0 0 
0 0 0 
0 0 0 
77 77 175 
0 0 0 
0 0 0 
0 0 0 
248 77 255 
0 0 0 
172 5 60 
0 0 0 
119 37 83 
0 0 0 
119 37 83 
143 13 71 
0 0 0 
0 0 0 
0 0 0 
0 0 0 
77 77 175 
0 0 0 
0 0 0 
0 0 0 
77 77 175 
0 0 0 
0 0 0 
0 0 0 
0 0 0 
0 0 0 
0 0 0 
0 0 0 
0 0 0 
0 0 0 
77 77 175 
0 0 0 
0 0 0 
0 0 0 
0 0 0 
0 0 0 
0 0 0 
0 0 0 
0 0 0 
77 77 175 
77 77 175 
0 0 0 
0 0 0 
0 0 0 
0 0 0 
0 0 0 
106 106 241 
77 77 175 
0 0 0 
0 0 0 
0 0 0 
95 95 255 
145 145 255 
0 0 0 
255 141 255 
0 0 0 
77 77 175 
77 77 175 
0 0 0 
0 0 0 
128 128 255 
60 60 255 
77 77 175 
0 0 0 
0 0 0 
0 0 0 
77 77 175 
0 0 0 
0 0 0 
0 0 0 
37 37 255 
0 0 0 
60 60 255 
77 77 175 
0 0 0 
0 0 0 
0 0 0 
0 0 0 
77 77 175 
0 0 0 
255 162 255 
37 37 255 
84 84 255 
0 0 0 
255 162 255 
0 0 0 
0 0 0 
77 77 175 
255 232 255 
0 0 0 
111 84 255 
29 29 255 
0 0 0 
145 145 255 
255 255 255 
221 221 221 
255 255 255 
255 37 84 
255 255 255 
0 0 0 
161 161 161 
255 255 255 
255 175 175 
221 221 221 
144 144 255 
221 221 221 
255 254 254 
221 221 221 
161 161 161 
0 0 0 
255 255 255 
255 155 255 
255 255 255 
77 77 247 
255 255 255 
255 127 127 
255 254 254 
210 210 255 
255 232 255 
126 126 255 
161 161 161 
221 221 221 
206 206 255 
161 161 161 
0 0 0 
255 210 210 
255 255 255 
255 136 255 
255 255 255 
255 112 255 
161 161 161 
255 255 255 
0 0 0 
255 255 255 
255 163 255 
255 163 255 
209 28 92 
255 17 56 
0 0 0 
0 0 0 
0 0 0 
0 0 0 
0 0 0 
255 255 255 
255 129 240 
0 0 0 
0 0 0 
175 77 77 
0 0 0 
255 123 255 
0 0 0 
0 0 0 
255 37 37 
255 104 104 
128 17 56 
0 0 0 
0 0 0 
0 0 0 
0 0 0 
255 78 177 
255 127 127 
0 0 0 
0 0 0 
138 61 138 
0 0 0 
0 0 0 
224 99 255 
0 0 0 
0 0 0 
0 0 0 
0 0 0 
0 0 0 
0 0 0 
0 0 0 
0 0 0 
0 0 0 
175 77 77 
0 0 0 
255 81 225 
0 0 0 
0 0 0 
0 0 0 
0 0 0 
0 0 0 
175 77 77 
0 0 0 
255 99 99 
0 0 0 
0 0 0 
0 0 0 
255 127 127 
0 0 0 
0 0 0 
0 0 0 
0 0 0 
0 0 0 
0 0 0 
0 0 0 
255 163 163 
0 0 0 
255 79 255 
137 60 194 
0 0 0 
0 0 0 
0 0 0 
0 0 0 
0 0 0 
255 127 127 
224 99 255 
255 127 127 
0 0 0 
115 50 163 
255 138 226 
137 60 194 
253 58 188 
64 64 207 
0 0 0 
0 0 0 
0 0 0 
0 0 0 
0 0 0 
92 28 255 
0 0 0 
0 0 0 
40 17 182 
47 47 151 
255 99 255 
0 0 0 
0 0 0 
47 47 151 
88 88 255 
60 60 255 
255 167 255 
255 59 255 
44 13 255 
0 0 0 
47 47 151 
40 17 182 
64 64 207 
40 17 182 
47 47 151 
40 17 182 
255 47 151 
0 0 0 
255 63 174 
119 37 83 
0 0 0 
0 0 0 
0 0 0 
255 255 255 
0 0 0 
0 0 0 
0 0 0 
0 0 0 
0 0 0 
0 0 0 
0 0 0 
0 0 0 
119 37 83 
255 78 176 
0 0 0 
77 77 175 
0 0 0 
0 0 0 
0 0 0 
0 0 0 
0 0 0 
0 0 0 
0 0 0 
0 0 0 
0 0 0 
0 0 0 
0 0 0 
0 0 0 
77 77 175 
0 0 0 
0 0 0 
77 77 175 
0 0 0 
119 37 83 
0 0 0 
0 0 0 
77 77 175 
0 0 0 
0 0 0 
0 0 0 
0 0 0 
0 0 0 
0 0 0 
0 0 0 
0 0 0 
0 0 0 
0 0 0 
0 0 0 
77 77 175 
0 0 0 
0 0 0 
0 0 0 
77 77 175 
0 0 0 
0 0 0 
0 0 0 
0 0 0 
255 84 255 
0 0 0 
0 0 0 
0 0 0 
127 127 255 
0 0 0 
0 0 0 
77 77 175 
0 0 0 
0 0 0 
77 77 175 
0 0 0 
0 0 0 
194 60 137 
77 77 175 
0 0 0 
0 0 0 
0 0 0 
77 77 175 
0 0 0 
106 106 241 
77 77 175 
77 77 175 
77 77 175 
0 0 0 
0 0 0 
106 106 241 
0 0 0 
0 0 0 
77 77 175 
0 0 0 
92 28 209 
0 0 0 
77 77 175 
77 77 175 
0 0 0 
106 106 241 
182 138 255 
106 106 241 
0 0 0 
77 77 175 
255 99 224 
235 123 255 
0 0 0 
255 77 255 
0 0 0 
106 106 241 
255 255 255 
0 0 0 
161 161 161 
255 255 255 
255 255 255 
77 77 247 
255 255 255 
255 255 255 
255 255 255 
161 161 161 
255 255 255 
255 255 255 
161 161 161 
221 221 221 
0 0 0 
255 222 222 
255 255 255 
161 161 161 
255 255 255 
0 0 0 
255 255 255 
0 0 0 
255 255 255 
221 221 221 
255 255 255 
0 0 0 
255 255 255 
255 255 255 
0 0 0 
255 255 255 
255 255 255 
221 221 221 
221 221 221 
255 255 255 
221 221 221 
255 255 255 
255 255 255 
255 205 255 
225 100 225 
255 60 60 
0 0 0 
0 0 0 
0 0 0 
0 0 0 
255 166 255 
0 0 0 
0 0 0 
209 28 92 
255 99 99 
0 0 0 
0 0 0 
255 127 127 
255 47 47 
255 77 248 
0 0 0 
0 0 0 
255 99 99 
0 0 0 
0 0 0 
0 0 0 
0 0 0 
200 89 255 
0 0 0 
0 0 0 
0 0 0 
175 77 77 
0 0 0 
0 0 0 
0 0 0 
0 0 0 
0 0 0 
138 61 138 
0 0 0 
0 0 0 
175 77 77 
0 0 0 
0 0 0 
0 0 0 
0 0 0 
0 0 0 
0 0 0 
0 0 0 
0 0 0 
243 47 153 
0 0 0 
255 100 100 
0 0 0 
0 0 0 
0 0 0 
0 0 0 
137 60 194 
0 0 0 
0 0 0 
0 0 0 
0 0 0 
0 0 0 
255 127 127 
255 127 127 
255 60 60 
137 60 194 
0 0 0 
0 0 0 
0 0 0 
0 0 0 
214 4 94 
137 60 194 
0 0 0 
0 0 0 
0 0 0 
0 0 0 
0 0 0 
0 0 0 
0 0 0 
0 0 0 
83 37 119 
0 0 0 
83 37 119 
0 0 0 
137 60 194 
83 37 119 
67 6 216 
216 216 255 
255 118 255 
106 47 255 
137 60 194 
0 0 0 
0 0 0 
77 77 247 
0 0 0 
105 105 255 
126 126 255 
180 89 255 
0 0 0 
36 36 255 
189 37 255 
255 255 255 
93 93 255 
64 64 207 
233 51 255 
189 37 255 
47 47 151 
246 76 255 
227 107 255 
78 54 255 
226 100 255 
0 0 0 
109 94 255 
64 64 207 
0 0 0 
0 0 0 
0 0 0 
255 67 152 
255 45 103 
0 0 0 
0 0 0 
119 37 83 
119 37 83 
255 42 95 
0 0 0 
92 28 209 
0 0 0 
119 37 83 
87 8 61 
119 37 83 
142 13 100 
0 0 0 
0 0 0 
77 77 175 
0 0 0 
0 0 0 
0 0 0 
0 0 0 
0 0 0 
138 84 190 
0 0 0 
0 0 0 
0 0 0 
0 0 0 
0 0 0 
0 0 0 
0 0 0 
0 0 0 
0 0 0 
194 60 137 
0 0 0 
0 0 0 
0 0 0 
0 0 0 
0 0 0 
127 127 255 
0 0 0 
0 0 0 
0 0 0 
0 0 0 
0 0 0 
0 0 0 
0 0 0 
0 0 0 
0 0 0 
0 0 0 
0 0 0 
77 77 175 
0 0 0 
0 0 0 
0 0 0 
77 77 175 
0 0 0 
119 37 83 
106 106 241 
0 0 0 
0 0 0 
0 0 0 
0 0 0 
0 0 0 
0 0 0 
0 0 0 
106 106 241 
106 106 241 
119 37 83 
77 77 175 
77 77 175 
0 0 0 
60 60 255 
106 106 241 
0 0 0 
77 77 175 
106 106 241 
0 0 0 
0 0 0 
77 77 175 
77 77 175 
0 0 0 
0 0 0 
77 77 175 
106 106 241 
47 47 255 
0 0 0 
0 0 0 
77 77 175 
106 106 241 
0 0 0 
0 0 0 
0 0 0 
77 77 175 
0 0 0 
127 127 255 
255 255 255 
128 17 255 
0 0 0 
248 77 255 
0 0 0 
60 60 255 
106 106 241 
77 77 175 
255 255 255 
77 77 175 
255 237 237 
247 77 77 
0 0 0 
255 255 255 
161 161 161 
0 0 0 
255 255 255 
255 255 255 
0 0 0 
161 161 161 
0 0 0 
0 0 0 
255 255 255 
255 206 206 
255 255 255 
255 255 255 
255 236 255 
255 255 255 
255 155 155 
255 255 255 
255 144 255 
255 255 255 
255 255 255 
255 28 92 
255 255 255 
254 254 255 
0 0 0 
255 126 126 
255 230 255 
161 161 161 
255 255 255 
255 127 255 
255 255 255 
77 77 247 
255 205 255 
255 160 255 
0 0 0 
255 222 222 
0 0 0 
0 0 0 
255 37 255 
0 0 0 
0 0 0 
255 58 112 
0 0 0 
0 0 0 
0 0 0 
255 106 193 
255 163 255 
255 123 255 
0 0 0 
65 29 211 
255 162 162 
0 0 0 
175 77 77 
0 0 0 
0 0 0 
0 0 0 
175 77 77 
0 0 0 
0 0 0 
0 0 0 
0 0 0 
0 0 0 
255 45 213 
255 47 107 
0 0 0 
0 0 0 
0 0 0 
0 0 0 
138 61 138 
0 0 0 
0 0 0 
0 0 0 
0 0 0 
0 0 0 
0 0 0 
0 0 0 
0 0 0 
51 22 255 
255 60 60 
0 0 0 
0 0 0 
0 0 0 
0 0 0 
0 0 0 
0 0 0 
0 0 0 
0 0 0 
0 0 0 
0 0 0 
0 0 0 
0 0 0 
0 0 0 
0 0 0 
0 0 0 
83 37 119 
0 0 0 
255 99 99 
255 127 127 
0 0 0 
0 0 0 
0 0 0 
0 0 0 
255 162 255 
255 10 34 
176 78 255 
255 127 127 
255 129 255 
0 0 0 
0 0 0 
0 0 0 
0 0 0 
0 0 0 
0 0 0 
255 131 169 
83 37 119 
151 23 255 
224 99 255 
255 138 226 
255 255 255 
209 206 255 
0 0 0 
47 47 151 
47 47 151 
77 77 247 
126 126 255 
0 0 0 
255 223 255 
98 98 255 
83 36 255 
0 0 0 
0 0 0 
47 47 151 
0 0 0 
83 83 255 
86 65 221 
65 28 255 
0 0 0 
0 0 0 
64 64 207 
114 64 255 
40 17 182 
0 0 0 
64 64 207 
0 0 0 
0 0 0 
60 49 230 
255 5 37 
194 60 137 
163 50 115 
0 0 0 
0 0 0 
0 0 0 
56 17 128 
0 0 0 
119 37 83 
0 0 0 
119 37 83 
0 0 0 
147 45 166 
0 0 0 
0 0 0 
0 0 0 
0 0 0 
0 0 0 
0 0 0 
163 50 115 
0 0 0 
0 0 0 
0 0 0 
0 0 0 
0 0 0 
0 0 0 
0 0 0 
119 37 83 
119 37 83 
0 0 0 
172 5 60 
0 0 0 
0 0 0 
0 0 0 
0 0 0 
0 0 0 
0 0 0 
206 95 216 
0 0 0 
0 0 0 
0 0 0 
0 0 0 
0 0 0 
0 0 0 
0 0 0 
0 0 0 
0 0 0 
0 0 0 
77 77 175 
0 0 0 
0 0 0 
0 0 0 
0 0 0 
100 100 255 
77 77 175 
0 0 0 
77 77 175 
119 37 83 
0 0 0 
0 0 0 
77 77 175 
0 0 0 
77 77 175 
0 0 0 
77 77 175 
0 0 0 
0 0 0 
0 0 0 
0 0 0 
0 0 0 
0 0 0 
0 0 0 
0 0 0 
0 0 0 
0 0 0 
0 0 0 
0 0 0 
0 0 0 
0 0 0 
0 0 0 
0 0 0 
0 0 0 
0 0 0 
128 128 255 
77 77 175 
77 77 175 
0 0 0 
0 0 0 
0 0 0 
0 0 0 
0 0 0 
0 0 0 
127 127 255 
0 0 0 
157 101 255 
0 0 0 
60 60 255 
0 0 0 
0 0 0 
77 77 175 
0 0 0 
175 175 255 
77 77 175 
0 0 0 
65 29 211 
77 77 175 
0 0 0 
0 0 0 
193 60 193 
255 255 255 
255 218 218 
255 255 255 
246 76 255 
255 255 255 
161 161 161 
255 255 255 
255 255 255 
221 221 221 
0 0 0 
255 255 255 
255 255 255 
255 255 255 
255 255 255 
127 17 255 
255 255 255 
255 126 126 
161 161 161 
255 255 255 
255 199 208 
206 206 255 
255 255 255 
255 255 255 
255 255 255 
255 254 254 
255 255 255 
255 126 126 
255 255 255 
0 0 0 
255 255 255 
161 161 161 
255 212 255 
161 161 161 
255 255 255 
0 0 0 
255 255 255 
255 126 126 
255 255 255 
0 0 0 
255 175 255 
0 0 0 
255 255 255 
255 127 127 
255 134 134 
255 22 73 
0 0 0 
0 0 0 
0 0 0 
0 0 0 
255 145 145 
0 0 0 
0 0 0 
0 0 0 
0 0 0 
255 37 37 
0 0 0 
0 0 0 
0 0 0 
0 0 0 
255 29 125 
138 61 138 
0 0 0 
0 0 0 
175 77 77 
0 0 0 
0 0 0 
0 0 0 
0 0 0 
0 0 0 
0 0 0 
255 37 255 
0 0 0 
0 0 0 
0 0 0 
0 0 0 
0 0 0 
0 0 0 
0 0 0 
0 0 0 
0 0 0 
0 0 0 
0 0 0 
0 0 0 
83 37 119 
0 0 0 
0 0 0 
0 0 0 
0 0 0 
0 0 0 
0 0 0 
0 0 0 
0 0 0 
0 0 0 
0 0 0 
0 0 0 
0 0 0 
138 61 138 
0 0 0 
0 0 0 
255 129 255 
128 17 56 
0 0 0 
0 0 0 
0 0 0 
83 37 119 
183 81 255 
137 60 194 
0 0 0 
83 37 119 
255 127 127 
255 63 204 
0 0 0 
255 47 255 
0 0 0 
224 99 255 
255 13 44 
255 177 255 
83 37 119 
156 69 222 
246 76 255 
78 54 255 
0 0 0 
0 0 0 
255 255 255 
98 98 255 
0 0 0 
56 17 181 
0 0 0 
0 0 0 
255 80 255 
0 0 0 
255 10 255 
0 0 0 
47 47 151 
0 0 0 
92 28 255 
36 36 255 
70 48 255 
0 0 0 
0 0 0 
0 0 0 
47 47 151 
0 0 0 
47 47 151 
0 0 0 
0 0 0 
0 0 0 
163 50 115 
163 50 115 
0 0 0 
232 22 163 
0 0 0 
119 37 83 
0 0 0 
0 0 0 
0 0 0 
0 0 0 
0 0 0 
176 17 188 
0 0 0 
119 37 83 
0 0 0 
151 47 255 
93 29 148 
0 0 0 
119 37 83 
0 0 0 
56 17 128 
0 0 0 
77 77 175 
127 127 255 
77 77 175 
0 0 0 
0 0 0 
0 0 0 
143 13 71 
0 0 0 
119 37 83 
0 0 0 
0 0 0 
0 0 0 
0 0 0 
77 77 175 
0 0 0 
77 77 175 
0 0 0 
0 0 0 
0 0 0 
0 0 0 
0 0 0 
0 0 0 
0 0 0 
0 0 0 
0 0 0 
0 0 0 
0 0 0 
0 0 0 
77 77 175 
0 0 0 
77 77 175 
0 0 0 
0 0 0 
0 0 0 
0 0 0 
163 163 255 
77 77 175 
0 0 0 
0 0 0 
0 0 0 
0 0 0 
0 0 0 
0 0 0 
0 0 0 
0 0 0 
77 77 175 
0 0 0 
77 77 175 
106 106 241 
0 0 0 
0 0 0 
0 0 0 
0 0 0 
0 0 0 
0 0 0 
0 0 0 
0 0 0 
77 77 175 
0 0 0 
37 37 255 
77 77 175 
77 77 175 
0 0 0 
77 77 175 
0 0 0 
0 0 0 
99 99 255 
77 77 175 
0 0 0 
0 0 0 
77 77 175 
0 0 0 
77 77 175 
77 77 175 
77 77 175 
106 106 241 
77 77 175 
138 61 138 
0 0 0 
0 0 0 
77 77 175 
0 0 0 
77 77 175 
77 77 175 
0 0 0 
0 0 0 
255 161 255 
0 0 0 
255 255 255 
255 255 255 
255 69 255 
255 255 255 
247 77 77 
221 221 221 
255 255 255 
255 255 255 
255 231 231 
255 255 255 
255 255 255 
255 255 255 
0 0 0 
255 162 167 
0 0 0 
255 255 255 
255 255 255 
255 231 231 
255 255 255 
255 162 255 
255 199 199 
0 0 0 
255 255 255 
199 199 255 
255 255 255 
255 255 255 
0 0 0 
255 255 255 
161 161 161 
255 255 255 
221 221 221 
255 206 206 
0 0 0 
255 255 255 
255 255 255 
255 155 255 
0 0 0 
255 255 255 
255 145 255 
255 54 138 
0 0 0 
0 0 0 
0 0 0 
255 157 253 
0 0 0 
255 174 174 
255 134 255 
175 77 77 
65 29 211 
0 0 0 
0 0 0 
0 0 0 
0 0 0 
0 0 0 
0 0 0 
0 0 0 
255 85 255 
0 0 0 
0 0 0 
255 29 93 
0 0 0 
175 77 77 
0 0 0 
255 138 182 
175 77 77 
0 0 0 
0 0 0 
0 0 0 
0 0 0 
0 0 0 
255 163 163 
255 127 127 
255 127 127 
0 0 0 
0 0 0 
0 0 0 
0 0 0 
0 0 0 
0 0 0 
0 0 0 
0 0 0 
0 0 0 
0 0 0 
0 0 0 
0 0 0 
0 0 0 
0 0 0 
0 0 0 
0 0 0 
0 0 0 
0 0 0 
0 0 0 
0 0 0 
0 0 0 
0 0 0 
0 0 0 
255 131 169 
116 22 234 
0 0 0 
255 127 127 
0 0 0 
0 0 0 
0 0 0 
255 131 169 
0 0 0 
0 0 0 
255 78 78 
83 37 119 
137 60 194 
0 0 0 
0 0 0 
0 0 0 
209 28 92 
0 0 0 
0 0 0 
224 99 255 
0 0 0 
0 0 0 
255 102 255 
0 0 0 
28 28 255 
106 47 255 
92 28 255 
235 235 255 
0 0 0 
0 0 0 
47 47 151 
144 144 255 
137 60 194 
0 0 0 
0 0 0 
0 0 0 
147 29 255 
64 64 207 
0 0 0 
0 0 0 
0 0 0 
0 0 0 
64 64 207 
47 47 151 
0 0 0 
47 47 151 
144 141 255 
141 62 255 
0 0 0 
77 77 247 
0 0 0 
0 0 0 
119 37 83 
0 0 0 
255 50 255 
150 105 255 
119 37 83 
0 0 0 
0 0 0 
0 0 0 
119 37 83 
0 0 0 
0 0 0 
0 0 0 
143 13 71 
93 29 148 
0 0 0 
0 0 0 
0 0 0 
0 0 0 
0 0 0 
0 0 0 
0 0 0 
0 0 0 
0 0 0 
0 0 0 
0 0 0 
0 0 0 
0 0 0 
119 37 83 
0 0 0 
255 99 224 
0 0 0 
0 0 0 
0 0 0 
0 0 0 
0 0 0 
0 0 0 
0 0 0 
0 0 0 
0 0 0 
119 37 83 
93 29 148 
0 0 0 
0 0 0 
0 0 0 
0 0 0 
0 0 0 
0 0 0 
77 77 175 
0 0 0 
0 0 0 
0 0 0 
0 0 0 
77 77 175 
138 84 190 
0 0 0 
0 0 0 
0 0 0 
0 0 0 
0 0 0 
0 0 0 
0 0 0 
0 0 0 
0 0 0 
0 0 0 
0 0 0 
77 77 175 
0 0 0 
0 0 0 
84 84 255 
77 77 175 
0 0 0 
207 207 255 
0 0 0 
0 0 0 
0 0 0 
0 0 0 
0 0 0 
0 0 0 
0 0 0 
0 0 0 
255 114 255 
0 0 0 
0 0 0 
77 77 175 
92 28 209 
60 60 255 
0 0 0 
77 77 175 
77 77 175 
0 0 0 
84 84 255 
0 0 0 
0 0 0 
0 0 0 
0 0 0 
0 0 0 
77 77 255 
77 77 175 
0 0 0 
65 29 211 
77 77 175 
95 95 255 
77 77 175 
154 6 48 
44 13 228 
207 207 255 
255 255 255 
255 255 255 
255 205 255 
161 161 161 
207 207 255 
255 199 199 
255 255 255 
255 255 255 
161 161 161 
161 161 161 
255 255 255 
255 255 255 
255 255 255 
255 223 223 
161 161 161 
161 161 161 
255 255 255 
255 255 255 
255 255 255 
255 205 255 
221 221 221 
0 0 0 
161 161 161 
255 255 255 
221 221 221 
255 255 255 
255 255 255 
161 161 161 
255 255 255 
255 255 255 
255 255 255 
255 255 255 
255 127 255 
255 220 255 
255 161 161 
255 255 255 
255 255 255 
221 221 221 
255 255 255 
255 255 255 
255 60 137 
255 127 127 
255 163 255 
255 162 162 
255 60 60 
255 128 136 
0 0 0 
0 0 0 
0 0 0 
0 0 0 
255 127 127 
0 0 0 
0 0 0 
175 77 77 
0 0 0 
0 0 0 
0 0 0 
255 168 190 
0 0 0 
0 0 0 
209 28 92 
0 0 0 
0 0 0 
0 0 0 
0 0 0 
0 0 0 
0 0 0 
0 0 0 
0 0 0 
0 0 0 
255 127 127 
0 0 0 
0 0 0 
255 127 255 
0 0 0 
0 0 0 
255 255 255 
0 0 0 
255 127 127 
0 0 0 
0 0 0 
0 0 0 
0 0 0 
0 0 0 
0 0 0 
245 48 108 
0 0 0 
83 37 119 
255 255 255 
0 0 0 
255 127 127 
255 127 127 
0 0 0 
0 0 0 
0 0 0 
0 0 0 
0 0 0 
0 0 0 
255 163 163 
0 0 0 
0 0 0 
255 127 127 
255 129 240 
255 127 127 
255 127 127 
255 165 255 
255 255 255 
0 0 0 
148 65 255 
0 0 0 
255 37 120 
137 60 194 
0 0 0 
150 61 235 
0 0 0 
115 50 163 
83 37 119 
106 47 255 
137 60 194 
77 77 247 
255 163 255 
138 63 255 
0 0 0 
163 48 255 
0 0 0 
255 13 255 
0 0 0 
174 77 255 
0 0 0 
0 0 0 
0 0 0 
255 255 255 
0 0 0 
0 0 0 
0 0 0 
74 74 255 
147 29 255 
0 0 0 
147 29 255 
64 64 207 
255 255 255 
70 48 255 
0 0 0 
44 1 63 
64 64 207 
0 0 0 
233 122 255 
0 0 0 
0 0 0 
0 0 0 
0 0 0 
255 45 165 
129 40 149 
0 0 0 
0 0 0 
0 0 0 
0 0 0 
0 0 0 
255 29 255 
0 0 0 
0 0 0 
0 0 0 
0 0 0 
0 0 0 
119 37 83 
255 99 224 
0 0 0 
255 99 224 
0 0 0 
0 0 0 
0 0 0 
0 0 0 
0 0 0 
0 0 0 
0 0 0 
0 0 0 
0 0 0 
0 0 0 
0 0 0 
0 0 0 
0 0 0 
0 0 0 
0 0 0 
0 0 0 
0 0 0 
0 0 0 
0 0 0 
194 60 137 
225 100 225 
0 0 0 
0 0 0 
77 77 175 
0 0 0 
0 0 0 
0 0 0 
0 0 0 
0 0 0 
77 77 175 
0 0 0 
0 0 0 
0 0 0 
0 0 0 
0 0 0 
77 77 175 
0 0 0 
0 0 0 
0 0 0 
0 0 0 
0 0 0 
0 0 0 
0 0 0 
218 218 255 
0 0 0 
0 0 0 
0 0 0 
0 0 0 
0 0 0 
77 77 175 
0 0 0 
0 0 0 
106 106 241 
0 0 0 
0 0 0 
0 0 0 
0 0 0 
0 0 0 
0 0 0 
0 0 0 
0 0 0 
127 127 255 
0 0 0 
0 0 0 
0 0 0 
77 77 175 
197 69 255 
0 0 0 
0 0 0 
77 77 175 
77 77 175 
77 77 175 
0 0 0 
0 0 0 
77 77 175 
0 0 0 
255 255 255 
0 0 0 
37 37 255 
0 0 0 
77 77 175 
106 106 241 
0 0 0 
146 79 255 
0 0 0 
77 77 175 
0 0 0 
154 96 217 
255 255 255 
0 0 0 
255 255 255 
0 0 0 
222 222 255 
255 207 207 
161 161 161 
255 255 255 
255 255 255 
255 231 231 
255 231 255 
92 28 209 
255 255 255 
255 255 255 
255 221 221 
0 0 0 
255 175 175 
255 255 255 
255 255 255 
0 0 0 
0 0 0 
221 221 221 
255 255 255 
255 255 255 
221 221 221 
0 0 0 
255 255 255 
255 255 255 
255 255 255 
0 0 0 
255 255 255 
161 161 161 
255 255 255 
161 161 161 
161 161 161 
255 255 255 
255 255 255 
255 255 255 
161 161 161 
255 255 255 
199 199 255 
255 127 127 
255 50 50 
0 0 0 
0 0 0 
0 0 0 
0 0 0 
0 0 0 
0 0 0 
0 0 0 
0 0 0 
0 0 0 
0 0 0 
255 37 37 
225 100 225 
0 0 0 
0 0 0 
255 100 226 
255 163 255 
255 35 220 
255 127 127 
0 0 0 
255 37 37 
0 0 0 
0 0 0 
0 0 0 
0 0 0 
0 0 0 
0 0 0 
0 0 0 
138 61 138 
0 0 0 
0 0 0 
0 0 0 
0 0 0 
0 0 0 
255 127 127 
0 0 0 
0 0 0 
0 0 0 
83 37 119 
0 0 0 
0 0 0 
0 0 0 
83 37 119 
0 0 0 
0 0 0 
0 0 0 
255 127 127 
0 0 0 
0 0 0 
83 37 119 
0 0 0 
255 127 127 
0 0 0 
0 0 0 
0 0 0 
156 69 222 
0 0 0 
0 0 0 
0 0 0 
0 0 0 
0 0 0 
255 131 169 
137 60 194 
0 0 0 
0 0 0 
0 0 0 
0 0 0 
0 0 0 
255 163 163 
255 77 255 
0 0 0 
0 0 0 
0 0 0 
71 13 143 
0 0 0 
255 127 127 
0 0 0 
100 13 142 
0 0 0 
255 98 255 
0 0 0 
0 0 0 
0 0 0 
0 0 0 
40 17 182 
126 126 255 
126 126 255 
0 0 0 
0 0 0 
36 36 255 
0 0 0 
0 0 0 
0 0 0 
0 0 0 
0 0 0 
47 47 151 
66 4 255 
47 47 151 
0 0 0 
148 144 255 
60 49 230 
47 47 151 
64 64 207 
0 0 0 
40 17 182 
0 0 0 
0 0 0 
92 28 255 
0 0 0 
0 0 0 
255 37 255 
119 37 83 
119 37 83 
0 0 0 
0 0 0 
0 0 0 
119 37 83 
0 0 0 
0 0 0 
0 0 0 
0 0 0 
0 0 0 
93 29 148 
0 0 0 
255 47 106 
0 0 0 
0 0 0 
0 0 0 
0 0 0 
119 37 83 
0 0 0 
0 0 0 
0 0 0 
0 0 0 
119 37 83 
0 0 0 
0 0 0 
0 0 0 
0 0 0 
0 0 0 
0 0 0 
0 0 0 
0 0 0 
0 0 0 
0 0 0 
0 0 0 
0 0 0 
77 77 175 
0 0 0 
0 0 0 
0 0 0 
0 0 0 
0 0 0 
0 0 0 
0 0 0 
0 0 0 
0 0 0 
77 77 175 
0 0 0 
60 60 255 
77 77 175 
0 0 0 
77 77 175 
0 0 0 
77 77 175 
0 0 0 
0 0 0 
0 0 0 
0 0 0 
77 77 175 
0 0 0 
0 0 0 
0 0 0 
0 0 0 
0 0 0 
0 0 0 
0 0 0 
84 84 255 
77 77 175 
0 0 0 
0 0 0 
0 0 0 
0 0 0 
0 0 0 
106 106 241 
106 106 241 
0 0 0 
0 0 0 
77 77 175 
0 0 0 
0 0 0 
0 0 0 
77 77 175 
0 0 0 
77 77 175 
180 114 255 
0 0 0 
0 0 0 
77 77 175 
0 0 0 
0 0 0 
77 77 175 
77 77 175 
0 0 0 
106 106 241 
106 106 241 
0 0 0 
0 0 0 
0 0 0 
0 0 0 
0 0 0 
77 77 175 
0 0 0 
255 220 255 
255 255 255 
221 221 221 
161 161 161 
0 0 0 
255 255 255 
255 255 255 
255 10 110 
255 255 255 
0 0 0 
255 255 255 
161 161 161 
255 255 255 
255 255 255 
255 255 255 
255 126 126 
255 255 255 
255 255 255 
221 221 221 
255 255 255 
255 255 255 
193 60 193 
255 255 255 
255 255 255 
255 144 255 
0 0 0 
0 0 0 
0 0 0 
255 255 255 
255 255 255 
255 162 162 
255 255 255 
255 255 255 
161 161 161 
255 255 255 
0 0 0 
161 161 161 
255 249 255 
184 184 255 
247 100 255 
255 255 255 
161 161 161 
0 0 0 
255 237 237 
0 0 0 
255 162 255 
0 0 0 
255 128 142 
0 0 0 
0 0 0 
255 37 37 
0 0 0 
255 127 127 
163 22 232 
255 60 255 
255 127 127 
255 255 255 
0 0 0 
0 0 0 
0 0 0 
0 0 0 
0 0 0 
255 127 127 
255 60 60 
255 37 37 
0 0 0 
0 0 0 
0 0 0 
0 0 0 
0 0 0 
0 0 0 
188 83 232 
255 37 37 
0 0 0 
0 0 0 
255 99 99 
0 0 0 
0 0 0 
0 0 0 
0 0 0 
0 0 0 
174 77 255 
0 0 0 
0 0 0 
255 127 127 
0 0 0 
0 0 0 
0 0 0 
0 0 0 
255 209 209 
0 0 0 
0 0 0 
0 0 0 
0 0 0 
0 0 0 
255 127 127 
255 127 127 
0 0 0 
0 0 0 
65 28 255 
141 48 255 
0 0 0 
0 0 0 
83 37 119 
0 0 0 
0 0 0 
0 0 0 
0 0 0 
0 0 0 
0 0 0 
189 37 255 
0 0 0 
243 47 153 
117 22 166 
255 127 127 
255 131 169 
83 37 119 
0 0 0 
0 0 0 
126 126 255 
36 36 255 
255 255 255 
126 126 255 
74 74 255 
159 74 255 
132 132 255 
126 126 255 
206 206 255 
255 74 255 
77 77 247 
0 0 0 
0 0 0 
60 49 230 
0 0 0 
126 126 255 
0 0 0 
255 38 255 
40 17 182 
65 28 255 
0 0 0 
0 0 0 
65 28 255 
100 13 142 
0 0 0 
0 0 0 
77 77 249 
234 23 255 
77 77 247 
208 28 255 
255 163 255 
143 37 100 
0 0 0 
0 0 0 
255 4 46 
151 47 255 
0 0 0 
0 0 0 
0 0 0 
0 0 0 
119 37 83 
0 0 0 
0 0 0 
0 0 0 
0 0 0 
119 37 83 
0 0 0 
0 0 0 
0 0 0 
0 0 0 
0 0 0 
0 0 0 
0 0 0 
0 0 0 
0 0 0 
0 0 0 
0 0 0 
0 0 0 
0 0 0 
0 0 0 
0 0 0 
0 0 0 
0 0 0 
0 0 0 
0 0 0 
0 0 0 
0 0 0 
0 0 0 
77 77 175 
0 0 0 
0 0 0 
0 0 0 
0 0 0 
0 0 0 
0 0 0 
0 0 0 
0 0 0 
0 0 0 
0 0 0 
77 77 175 
0 0 0 
0 0 0 
0 0 0 
0 0 0 
194 60 137 
0 0 0 
0 0 0 
0 0 0 
0 0 0 
0 0 0 
77 77 175 
0 0 0 
106 106 241 
77 77 175 
0 0 0 
0 0 0 
77 77 175 
77 77 175 
0 0 0 
0 0 0 
0 0 0 
0 0 0 
0 0 0 
0 0 0 
0 0 0 
106 106 241 
0 0 0 
77 77 175 
0 0 0 
0 0 0 
0 0 0 
0 0 0 
56 17 128 
0 0 0 
225 100 225 
0 0 0 
77 77 175 
0 0 0 
0 0 0 
127 127 255 
98 45 255 
0 0 0 
77 77 175 
0 0 0 
100 100 255 
0 0 0 
0 0 0 
77 77 175 
0 0 0 
77 77 175 
84 84 255 
0 0 0 
77 77 175 
0 0 0 
77 77 175 
0 0 0 
0 0 0 
106 106 241 
0 0 0 
255 255 255 
255 255 255 
255 255 255 
161 161 161 
224 99 255 
255 28 65 
255 255 255 
247 77 77 
255 249 249 
255 255 255 
0 0 0 
161 161 161 
207 207 255 
0 0 0 
161 161 161 
95 95 255 
255 255 255 
255 175 175 
255 255 255 
255 183 255 
161 161 161 
255 255 255 
221 221 221 
0 0 0 
161 161 161 
255 255 255 
255 175 175 
255 255 255 
255 251 255 
255 249 249 
161 161 161 
255 126 126 
161 161 161 
255 238 255 
255 175 175 
247 77 77 
255 126 126 
56 17 181 
0 0 0 
255 255 255 
255 255 255 
255 174 174 
255 187 255 
255 99 99 
128 17 56 
0 0 0 
0 0 0 
255 77 77 
245 48 108 
0 0 0 
0 0 0 
255 120 255 
255 255 255 
0 0 0 
255 37 37 
137 60 194 
0 0 0 
0 0 0 
255 37 37 
255 127 127 
138 61 138 
0 0 0 
101 13 101 
0 0 0 
0 0 0 
0 0 0 
138 61 138 
0 0 0 
0 0 0 
255 127 127 
255 127 127 
0 0 0 
0 0 0 
177 78 255 
0 0 0 
0 0 0 
0 0 0 
0 0 0 
0 0 0 
0 0 0 
0 0 0 
0 0 0 
0 0 0 
0 0 0 
0 0 0 
0 0 0 
0 0 0 
0 0 0 
0 0 0 
83 37 119 
0 0 0 
255 60 255 
0 0 0 
255 214 255 
83 37 119 
255 127 127 
0 0 0 
0 0 0 
0 0 0 
83 37 119 
83 37 119 
0 0 0 
0 0 0 
83 37 119 
0 0 0 
137 60 194 
0 0 0 
255 77 248 
0 0 0 
0 0 0 
255 77 248 
0 0 0 
255 127 127 
0 0 0 
0 0 0 
83 37 119 
0 0 0 
193 60 193 
97 97 255 
77 77 247 
144 144 255 
160 160 255 
98 98 255 
255 47 151 
117 36 255 
56 17 181 
255 156 255 
0 0 0 
54 24 250 
0 0 0 
0 0 0 
36 36 255 
0 0 0 
132 132 255 
0 0 0 
0 0 0 
47 47 151 
137 60 194 
0 0 0 
0 0 0 
146 76 255 
0 0 0 
60 49 230 
0 0 0 
0 0 0 
47 47 151 
0 0 0 
143 13 71 
119 37 83 
0 0 0 
0 0 0 
0 0 0 
119 37 83 
0 0 0 
0 0 0 
119 37 83 
0 0 0 
0 0 0 
0 0 0 
0 0 0 
0 0 0 
255 30 82 
0 0 0 
0 0 0 
0 0 0 
119 37 83 
0 0 0 
0 0 0 
0 0 0 
119 37 83 
0 0 0 
0 0 0 
0 0 0 
0 0 0 
0 0 0 
0 0 0 
153 47 243 
0 0 0 
0 0 0 
0 0 0 
0 0 0 
0 0 0 
0 0 0 
99 99 255 
127 127 255 
0 0 0 
0 0 0 
0 0 0 
0 0 0 
0 0 0 
0 0 0 
0 0 0 
0 0 0 
0 0 0 
0 0 0 
0 0 0 
0 0 0 
0 0 0 
0 0 0 
77 77 175 
0 0 0 
0 0 0 
0 0 0 
77 77 175 
0 0 0 
0 0 0 
0 0 0 
0 0 0 
0 0 0 
77 77 175 
0 0 0 
207 207 255 
0 0 0 
0 0 0 
0 0 0 
0 0 0 
77 77 175 
77 77 175 
0 0 0 
0 0 0 
0 0 0 
0 0 0 
182 17 255 
0 0 0 
0 0 0 
77 77 175 
0 0 0 
0 0 0 
0 0 0 
0 0 0 
111 111 255 
0 0 0 
0 0 0 
77 77 175 
0 0 0 
0 0 0 
0 0 0 
0 0 0 
0 0 0 
0 0 0 
0 0 0 
77 77 175 
77 77 175 
0 0 0 
77 77 175 
0 0 0 
255 255 255 
37 37 255 
0 0 0 
60 60 255 
77 77 175 
0 0 0 
0 0 0 
0 0 0 
77 77 175 
255 255 255 
255 126 126 
161 161 161 
255 255 255 
0 0 0 
255 255 255 
255 255 255 
255 170 244 
255 255 255 
161 161 161 
221 221 221 
255 255 255 
255 255 255 
255 99 224 
255 255 255 
255 255 255 
255 255 255 
0 0 0 
255 178 205 
255 255 255 
255 255 255 
255 255 255 
255 255 255 
255 255 255 
255 203 255 
255 240 255 
0 0 0 
255 249 249 
161 161 161 
161 161 161 
255 255 255 
0 0 0 
255 105 105 
255 255 255 
255 255 255 
255 255 255 
255 163 255 
126 126 255 
221 221 221 
255 255 255 
255 255 255 
255 255 255 
255 255 255 
0 0 0 
255 207 207 
0 0 0 
255 127 127 
0 0 0 
0 0 0 
0 0 0 
0 0 0 
0 0 0 
255 127 127 
255 37 37 
0 0 0 
0 0 0 
0 0 0 
0 0 0 
0 0 0 
255 99 99 
0 0 0 
0 0 0 
0 0 0 
0 0 0 
0 0 0 
0 0 0 
0 0 0 
0 0 0 
0 0 0 
0 0 0 
0 0 0 
255 207 207 
255 127 127 
0 0 0 
0 0 0 
0 0 0 
0 0 0 
0 0 0 
0 0 0 
0 0 0 
0 0 0 
0 0 0 
0 0 0 
0 0 0 
83 37 119 
0 0 0 
0 0 0 
0 0 0 
0 0 0 
0 0 0 
0 0 0 
0 0 0 
0 0 0 
0 0 0 
0 0 0 
0 0 0 
0 0 0 
0 0 0 
0 0 0 
255 73 255 
0 0 0 
0 0 0 
0 0 0 
255 99 99 
0 0 0 
255 171 255 
255 134 201 
83 37 119 
255 138 231 
0 0 0 
83 37 119 
0 0 0 
0 0 0 
0 0 0 
83 37 119 
255 127 127 
0 0 0 
0 0 0 
0 0 0 
34 10 110 
72 22 72 
0 0 0 
216 206 255 
0 0 0 
137 60 194 
60 60 255 
47 47 151 
0 0 0 
47 47 151 
51 22 255 
0 0 0 
0 0 0 
197 74 238 
92 77 255 
0 0 0 
148 100 255 
0 0 0 
47 47 151 
0 0 0 
0 0 0 
47 47 151 
0 0 0 
60 60 255 
0 0 0 
0 0 0 
114 64 255 
47 47 151 
0 0 0 
0 0 0 
255 47 107 
119 37 83 
0 0 0 
119 37 83 
0 0 0 
0 0 0 
0 0 0 
0 0 0 
0 0 0 
0 0 0 
0 0 0 
0 0 0 
0 0 0 
0 0 0 
0 0 0 
0 0 0 
0 0 0 
0 0 0 
0 0 0 
0 0 0 
0 0 0 
0 0 0 
0 0 0 
0 0 0 
0 0 0 
119 37 83 
0 0 0 
0 0 0 
0 0 0 
0 0 0 
0 0 0 
0 0 0 
0 0 0 
0 0 0 
0 0 0 
119 37 83 
153 47 243 
0 0 0 
0 0 0 
0 0 0 
0 0 0 
255 99 224 
0 0 0 
0 0 0 
0 0 0 
0 0 0 
0 0 0 
0 0 0 
0 0 0 
0 0 0 
77 77 175 
0 0 0 
119 37 83 
0 0 0 
0 0 0 
0 0 0 
0 0 0 
0 0 0 
0 0 0 
0 0 0 
0 0 0 
0 0 0 
0 0 0 
0 0 0 
0 0 0 
77 77 175 
0 0 0 
0 0 0 
0 0 0 
60 60 255 
77 77 175 
60 60 255 
0 0 0 
194 60 137 
0 0 0 
0 0 0 
106 106 241 
0 0 0 
127 127 255 
0 0 0 
0 0 0 
0 0 0 
0 0 0 
0 0 0 
77 77 175 
0 0 0 
0 0 0 
0 0 0 
0 0 0 
0 0 0 
0 0 0 
0 0 0 
0 0 0 
77 77 175 
0 0 0 
77 77 175 
77 77 175 
77 77 175 
127 127 255 
255 47 107 
0 0 0 
0 0 0 
0 0 0 
99 99 255 
0 0 0 
77 77 175 
0 0 0 
255 255 255 
255 255 255 
255 140 140 
161 161 161 
221 221 221 
118 36 118 
231 231 255 
255 255 255 
255 255 255 
255 175 175 
255 175 175 
161 161 161 
255 255 255 
255 231 231 
0 0 0 
255 170 170 
161 161 161 
255 255 255 
255 170 170 
0 0 0 
255 249 249 
255 255 255 
199 199 255 
226 202 255 
255 255 255 
255 255 255 
161 161 161 
255 255 255 
255 255 255 
255 255 255 
222 222 255 
255 161 172 
255 255 255 
255 184 184 
161 161 161 
255 59 255 
0 0 0 
255 255 255 
255 98 255 
255 98 98 
0 0 0 
255 255 255 
255 255 255 
255 95 255 
0 0 0 
0 0 0 
225 100 225 
255 60 60 
255 127 127 
255 165 255 
255 137 255 
0 0 0 
0 0 0 
0 0 0 
225 100 225 
0 0 0 
0 0 0 
0 0 0 
0 0 0 
255 37 37 
255 208 208 
0 0 0 
0 0 0 
0 0 0 
137 60 194 
0 0 0 
0 0 0 
0 0 0 
0 0 0 
0 0 0 
0 0 0 
255 127 127 
0 0 0 
0 0 0 
255 237 237 
0 0 0 
0 0 0 
255 127 127 
0 0 0 
0 0 0 
65 29 211 
0 0 0 
0 0 0 
0 0 0 
0 0 0 
83 37 119 
0 0 0 
255 174 255 
137 60 194 
0 0 0 
0 0 0 
0 0 0 
0 0 0 
83 37 119 
0 0 0 
255 127 127 
255 127 127 
0 0 0 
255 255 255 
0 0 0 
0 0 0 
0 0 0 
255 69 176 
0 0 0 
0 0 0 
255 131 169 
0 0 0 
0 0 0 
0 0 0 
0 0 0 
0 0 0 
255 127 127 
255 131 169 
255 127 127 
0 0 0 
255 131 169 
83 37 119 
161 161 161 
255 255 255 
60 60 255 
114 64 255 
126 126 255 
126 126 255 
209 209 255 
88 88 255 
0 0 0 
255 60 255 
255 255 255 
138 8 255 
65 28 255 
0 0 0 
0 0 0 
0 0 0 
31 13 255 
224 99 255 
0 0 0 
0 0 0 
46 4 255 
0 0 0 
43 8 255 
0 0 0 
140 60 255 
227 107 255 
72 72 255 
94 89 255 
40 17 182 
0 0 0 
0 0 0 
143 13 71 
0 0 0 
147 45 166 
153 47 243 
0 0 0 
143 13 71 
119 37 83 
0 0 0 
0 0 0 
0 0 0 
255 28 65 
0 0 0 
0 0 0 
0 0 0 
0 0 0 
0 0 0 
0 0 0 
0 0 0 
0 0 0 
0 0 0 
119 37 83 
255 47 106 
0 0 0 
0 0 0 
0 0 0 
0 0 0 
255 28 65 
0 0 0 
119 37 255 
0 0 0 
0 0 0 
255 65 148 
0 0 0 
0 0 0 
119 37 83 
0 0 0 
0 0 0 
0 0 0 
0 0 0 
0 0 0 
0 0 0 
0 0 0 
0 0 0 
0 0 0 
0 0 0 
0 0 0 
0 0 0 
0 0 0 
0 0 0 
0 0 0 
0 0 0 
0 0 0 
0 0 0 
0 0 0 
0 0 0 
0 0 0 
0 0 0 
0 0 0 
0 0 0 
0 0 0 
77 77 175 
0 0 0 
0 0 0 
0 0 0 
119 37 83 
0 0 0 
77 77 175 
77 77 175 
77 77 175 
0 0 0 
0 0 0 
0 0 0 
0 0 0 
0 0 0 
0 0 0 
0 0 0 
255 255 255 
0 0 0 
0 0 0 
0 0 0 
77 77 175 
0 0 0 
0 0 0 
0 0 0 
0 0 0 
0 0 0 
0 0 0 
0 0 0 
0 0 0 
0 0 0 
0 0 0 
0 0 0 
127 127 255 
0 0 0 
0 0 0 
0 0 0 
0 0 0 
0 0 0 
0 0 0 
77 77 175 
0 0 0 
0 0 0 
162 162 255 
127 127 255 
0 0 0 
0 0 0 
0 0 0 
138 61 138 
255 255 255 
161 161 161 
255 255 255 
221 221 221 
255 191 255 
255 255 255 
255 184 184 
255 199 199 
0 0 0 
255 255 255 
255 255 255 
231 231 255 
255 255 255 
161 161 161 
255 255 255 
255 254 254 
255 255 255 
255 255 255 
161 161 161 
0 0 0 
161 161 161 
161 161 161 
0 0 0 
255 255 255 
255 60 60 
161 161 161 
161 161 161 
255 255 255 
255 175 231 
255 175 175 
255 207 207 
0 0 0 
0 0 0 
255 255 255 
0 0 0 
255 255 255 
255 255 255 
255 255 255 
255 255 255 
255 255 255 
175 175 255 
255 255 255 
161 161 161 
0 0 0 
255 37 37 
255 255 255 
0 0 0 
0 0 0 
0 0 0 
255 127 127 
0 0 0 
255 127 127 
225 100 225 
0 0 0 
0 0 0 
0 0 0 
0 0 0 
0 0 0 
0 0 0 
0 0 0 
0 0 0 
255 127 127 
0 0 0 
255 163 163 
0 0 0 
0 0 0 
0 0 0 
0 0 0 
255 127 127 
0 0 0 
0 0 0 
0 0 0 
0 0 0 
0 0 0 
0 0 0 
0 0 0 
0 0 0 
0 0 0 
0 0 0 
0 0 0 
255 78 78 
0 0 0 
0 0 0 
0 0 0 
0 0 0 
0 0 0 
65 28 255 
255 127 127 
255 127 127 
0 0 0 
0 0 0 
209 28 92 
0 0 0 
0 0 0 
0 0 0 
0 0 0 
0 0 0 
0 0 0 
0 0 0 
243 47 153 
255 127 127 
0 0 0 
0 0 0 
0 0 0 
0 0 0 
0 0 0 
235 104 255 
137 60 194 
83 37 119 
137 60 194 
0 0 0 
0 0 0 
0 0 0 
255 127 127 
83 37 119 
90 17 255 
255 255 255 
0 0 0 
255 255 255 
255 47 255 
247 77 77 
0 0 0 
71 22 255 
237 74 255 
0 0 0 
255 140 255 
36 36 255 
106 47 255 
47 47 151 
255 112 255 
161 53 255 
0 0 0 
0 0 0 
227 209 255 
0 0 0 
47 47 151 
0 0 0 
86 78 255 
126 126 255 
0 0 0 
170 162 255 
84 52 255 
0 0 0 
255 13 255 
36 36 255 
64 64 207 
255 22 71 
137 60 194 
0 0 0 
119 37 83 
0 0 0 
143 13 71 
119 37 83 
0 0 0 
0 0 0 
0 0 0 
0 0 0 
119 37 83 
0 0 0 
0 0 0 
0 0 0 
0 0 0 
0 0 0 
0 0 0 
0 0 0 
0 0 0 
0 0 0 
0 0 0 
0 0 0 
0 0 0 
0 0 0 
119 37 83 
0 0 0 
0 0 0 
255 255 255 
0 0 0 
0 0 0 
0 0 0 
0 0 0 
0 0 0 
0 0 0 
0 0 0 
0 0 0 
0 0 0 
0 0 0 
0 0 0 
0 0 0 
0 0 0 
0 0 0 
0 0 0 
0 0 0 
0 0 0 
0 0 0 
0 0 0 
0 0 0 
0 0 0 
0 0 0 
0 0 0 
0 0 0 
0 0 0 
0 0 0 
0 0 0 
0 0 0 
0 0 0 
0 0 0 
0 0 0 
0 0 0 
0 0 0 
0 0 0 
0 0 0 
0 0 0 
0 0 0 
0 0 0 
0 0 0 
0 0 0 
0 0 0 
0 0 0 
0 0 0 
0 0 0 
0 0 0 
0 0 0 
0 0 0 
0 0 0 
0 0 0 
0 0 0 
77 77 175 
77 77 175 
0 0 0 
0 0 0 
0 0 0 
37 37 255 
0 0 0 
255 60 255 
60 60 255 
37 37 255 
0 0 0 
0 0 0 
0 0 0 
0 0 0 
0 0 0 
0 0 0 
0 0 0 
0 0 0 
0 0 0 
0 0 0 
77 77 175 
37 37 255 
0 0 0 
77 77 175 
0 0 0 
186 82 255 
0 0 0 
0 0 0 
0 0 0 
0 0 0 
225 100 225 
194 60 137 
161 161 161 
207 207 255 
161 161 161 
161 161 161 
161 161 161 
255 199 199 
221 221 221 
0 0 0 
0 0 0 
255 255 255 
255 255 255 
255 249 249 
255 255 255 
126 126 255 
255 255 255 
255 255 255 
255 255 255 
255 184 184 
161 161 161 
255 255 255 
161 161 161 
255 240 240 
255 255 255 
255 255 255 
255 255 255 
255 255 255 
161 161 161 
255 216 255 
221 221 221 
221 221 221 
247 77 77 
255 255 255 
255 13 100 
255 254 254 
225 100 225 
255 207 207 
0 0 0 
207 207 255 
0 0 0 
199 199 255 
255 255 255 
247 77 77 
255 255 255 
0 0 0 
255 127 127 
0 0 0 
255 37 37 
255 127 127 
0 0 0 
255 136 255 
0 0 0 
0 0 0 
0 0 0 
0 0 0 
0 0 0 
0 0 0 
0 0 0 
255 127 127 
0 0 0 
0 0 0 
0 0 0 
255 37 37 
0 0 0 
0 0 0 
255 127 127 
0 0 0 
0 0 0 
0 0 0 
0 0 0 
0 0 0 
0 0 0 
0 0 0 
0 0 0 
0 0 0 
0 0 0 
0 0 0 
83 37 119 
0 0 0 
0 0 0 
0 0 0 
0 0 0 
0 0 0 
0 0 0 
137 60 194 
0 0 0 
0 0 0 
0 0 0 
0 0 0 
0 0 0 
0 0 0 
0 0 0 
255 127 127 
83 37 119 
0 0 0 
0 0 0 
255 127 127 
0 0 0 
0 0 0 
0 0 0 
0 0 0 
255 145 255 
0 0 0 
0 0 0 
83 37 119 
0 0 0 
71 13 143 
0 0 0 
137 60 194 
255 255 255 
255 174 174 
83 37 119 
255 127 127 
0 0 0 
255 127 127 
128 17 56 
0 0 0 
255 137 255 
0 0 0 
255 255 255 
161 161 161 
255 225 255 
60 60 255 
255 28 92 
0 0 0 
36 36 255 
255 21 255 
0 0 0 
0 0 0 
81 30 255 
255 77 255 
255 113 255 
128 88 255 
60 60 255 
255 60 255 
47 47 151 
0 0 0 
99 13 255 
64 64 207 
0 0 0 
0 0 0 
51 22 255 
0 0 0 
40 17 182 
0 0 0 
203 97 255 
98 81 255 
0 0 0 
119 37 83 
0 0 0 
119 37 83 
119 37 83 
0 0 0 
92 28 209 
0 0 0 
0 0 0 
0 0 0 
0 0 0 
147 45 166 
0 0 0 
0 0 0 
0 0 0 
0 0 0 
0 0 0 
0 0 0 
0 0 0 
0 0 0 
0 0 0 
0 0 0 
0 0 0 
0 0 0 
0 0 0 
0 0 0 
0 0 0 
0 0 0 
119 37 83 
0 0 0 
119 37 83 
0 0 0 
0 0 0 
119 37 83 
0 0 0 
0 0 0 
0 0 0 
0 0 0 
0 0 0 
0 0 0 
0 0 0 
0 0 0 
0 0 0 
0 0 0 
0 0 0 
0 0 0 
0 0 0 
0 0 0 
0 0 0 
0 0 0 
0 0 0 
0 0 0 
77 77 175 
0 0 0 
0 0 0 
0 0 0 
0 0 0 
0 0 0 
0 0 0 
0 0 0 
0 0 0 
0 0 0 
0 0 0 
0 0 0 
0 0 0 
0 0 0 
0 0 0 
77 77 175 
0 0 0 
0 0 0 
0 0 0 
0 0 0 
0 0 0 
0 0 0 
77 77 175 
106 106 241 
77 77 175 
0 0 0 
0 0 0 
0 0 0 
0 0 0 
0 0 0 
0 0 0 
0 0 0 
0 0 0 
0 0 0 
0 0 0 
0 0 0 
0 0 0 
0 0 0 
0 0 0 
84 84 255 
0 0 0 
0 0 0 
0 0 0 
0 0 0 
0 0 0 
0 0 0 
0 0 0 
0 0 0 
44 13 255 
84 84 255 
0 0 0 
0 0 0 
0 0 0 
72 22 255 
0 0 0 
0 0 0 
0 0 0 
0 0 0 
255 255 255 
255 255 255 
255 175 175 
0 0 0 
255 170 170 
255 246 255 
0 0 0 
161 161 161 
161 161 161 
255 255 255 
221 221 221 
161 161 161 
126 126 255 
0 0 0 
255 255 255 
255 255 255 
255 255 255 
238 238 255 
161 161 161 
255 255 255 
255 249 249 
0 0 0 
161 161 161 
161 161 161 
255 255 255 
255 166 166 
0 0 0 
161 161 161 
255 255 255 
255 255 255 
0 0 0 
255 238 255 
0 0 0 
255 255 255 
255 255 255 
161 161 161 
161 161 161 
255 255 255 
255 255 255 
255 255 255 
255 218 218 
255 255 255 
0 0 0 
0 0 0 
0 0 0 
0 0 0 
255 127 127 
255 127 127 
225 100 225 
255 60 60 
0 0 0 
255 47 151 
255 40 99 
0 0 0 
0 0 0 
255 37 37 
255 78 176 
0 0 0 
255 127 127 
0 0 0 
0 0 0 
0 0 0 
0 0 0 
0 0 0 
0 0 0 
0 0 0 
0 0 0 
0 0 0 
0 0 0 
0 0 0 
0 0 0 
0 0 0 
255 60 60 
255 127 127 
0 0 0 
0 0 0 
0 0 0 
0 0 0 
255 127 127 
0 0 0 
0 0 0 
137 60 194 
209 28 92 
0 0 0 
0 0 0 
0 0 0 
0 0 0 
255 255 255 
255 127 127 
0 0 0 
0 0 0 
255 138 226 
0 0 0 
0 0 0 
255 6 21 
255 174 174 
0 0 0 
0 0 0 
0 0 0 
255 255 255 
137 60 194 
174 77 255 
0 0 0 
255 127 127 
137 60 194 
83 37 119 
0 0 0 
0 0 0 
0 0 0 
0 0 0 
0 0 0 
0 0 0 
0 0 0 
0 0 0 
0 0 0 
0 0 0 
0 0 0 
255 255 255 
255 255 255 
77 77 247 
77 77 247 
0 0 0 
255 74 255 
0 0 0 
0 0 0 
51 22 255 
0 0 0 
255 184 255 
0 0 0 
255 98 255 
0 0 0 
89 39 255 
40 17 182 
106 84 255 
47 47 151 
197 74 238 
0 0 0 
0 0 0 
0 0 0 
47 47 151 
0 0 0 
47 47 151 
0 0 0 
0 0 0 
0 0 0 
0 0 0 
0 0 0 
0 0 0 
163 50 115 
0 0 0 
0 0 0 
0 0 0 
0 0 0 
0 0 0 
0 0 0 
0 0 0 
143 13 71 
0 0 0 
143 13 71 
0 0 0 
0 0 0 
0 0 0 
255 60 255 
0 0 0 
0 0 0 
0 0 0 
194 60 137 
0 0 0 
0 0 0 
0 0 0 
0 0 0 
0 0 0 
0 0 0 
0 0 0 
0 0 0 
0 0 0 
0 0 0 
0 0 0 
0 0 0 
0 0 0 
0 0 0 
0 0 0 
0 0 0 
0 0 0 
0 0 0 
0 0 0 
0 0 0 
0 0 0 
0 0 0 
0 0 0 
0 0 0 
0 0 0 
0 0 0 
0 0 0 
0 0 0 
0 0 0 
0 0 0 
0 0 0 
0 0 0 
0 0 0 
0 0 0 
0 0 0 
0 0 0 
0 0 0 
0 0 0 
225 100 225 
0 0 0 
0 0 0 
0 0 0 
95 95 255 
0 0 0 
0 0 0 
0 0 0 
0 0 0 
0 0 0 
0 0 0 
0 0 0 
0 0 0 
0 0 0 
127 127 255 
0 0 0 
0 0 0 
0 0 0 
0 0 0 
77 77 175 
0 0 0 
0 0 0 
0 0 0 
0 0 0 
0 0 0 
0 0 0 
0 0 0 
0 0 0 
0 0 0 
0 0 0 
0 0 0 
77 77 175 
37 37 255 
60 60 255 
37 37 255 
0 0 0 
77 77 175 
0 0 0 
0 0 0 
0 0 0 
255 255 255 
255 255 255 
0 0 0 
148 148 255 
127 127 255 
0 0 0 
0 0 0 
0 0 0 
127 127 255 
171 5 84 
255 255 255 
255 255 255 
255 255 255 
255 163 181 
255 255 255 
255 255 255 
255 255 255 
161 161 161 
255 255 255 
255 255 255 
255 255 255 
0 0 0 
161 161 161 
255 255 255 
255 255 255 
255 255 255 
255 255 255 
255 255 255 
255 255 255 
255 255 255 
0 0 0 
255 255 255 
255 255 255 
161 161 161 
0 0 0 
255 188 188 
255 255 255 
221 221 221 
255 255 255 
255 255 255 
199 199 255 
161 161 161 
161 161 161 
255 255 255 
255 255 255 
255 163 255 
255 255 255 
255 255 255 
161 161 161 
255 207 207 
0 0 0 
0 0 0 
255 255 255 
254 254 255 
0 0 0 
161 161 161 
0 0 0 
255 174 174 
0 0 0 
137 60 194 
255 255 255 
255 127 127 
255 127 127 
0 0 0 
0 0 0 
255 255 255 
0 0 0 
0 0 0 
255 255 255 
0 0 0 
138 61 138 
0 0 0 
255 127 127 
0 0 0 
0 0 0 
0 0 0 
0 0 0 
0 0 0 
0 0 0 
0 0 0 
0 0 0 
0 0 0 
0 0 0 
0 0 0 
0 0 0 
0 0 0 
0 0 0 
0 0 0 
137 60 194 
0 0 0 
0 0 0 
0 0 0 
0 0 0 
0 0 0 
255 127 127 
137 60 194 
0 0 0 
255 127 127 
0 0 0 
0 0 0 
225 100 225 
0 0 0 
138 61 138 
255 127 127 
0 0 0 
137 60 194 
189 37 255 
255 171 171 
116 22 234 
137 60 194 
137 60 194 
0 0 0 
0 0 0 
0 0 0 
106 47 255 
0 0 0 
83 37 119 
255 162 255 
255 69 222 
0 0 0 
255 127 127 
0 0 0 
0 0 0 
0 0 0 
0 0 0 
87 17 255 
255 160 255 
0 0 0 
0 0 0 
126 126 255 
0 0 0 
255 162 255 
161 161 161 
0 0 0 
198 198 255 
106 47 255 
255 255 255 
0 0 0 
0 0 0 
0 0 0 
36 36 255 
0 0 0 
255 35 255 
0 0 0 
33 6 219 
0 0 0 
177 78 255 
0 0 0 
40 17 182 
0 0 0 
122 89 255 
0 0 0 
0 0 0 
0 0 0 
255 255 255 
0 0 0 
0 0 0 
0 0 0 
0 0 0 
119 37 83 
0 0 0 
0 0 0 
0 0 0 
0 0 0 
255 37 84 
119 37 83 
119 37 83 
0 0 0 
0 0 0 
0 0 0 
0 0 0 
0 0 0 
0 0 0 
119 37 83 
0 0 0 
0 0 0 
0 0 0 
0 0 0 
0 0 0 
0 0 0 
0 0 0 
0 0 0 
0 0 0 
0 0 0 
0 0 0 
0 0 0 
0 0 0 
0 0 0 
0 0 0 
0 0 0 
0 0 0 
0 0 0 
0 0 0 
0 0 0 
0 0 0 
0 0 0 
0 0 0 
255 102 255 
0 0 0 
0 0 0 
0 0 0 
0 0 0 
0 0 0 
0 0 0 
0 0 0 
0 0 0 
0 0 0 
0 0 0 
0 0 0 
0 0 0 
0 0 0 
0 0 0 
0 0 0 
0 0 0 
0 0 0 
0 0 0 
0 0 0 
0 0 0 
0 0 0 
0 0 0 
0 0 0 
0 0 0 
0 0 0 
0 0 0 
0 0 0 
0 0 0 
0 0 0 
0 0 0 
0 0 0 
0 0 0 
0 0 0 
0 0 0 
0 0 0 
0 0 0 
0 0 0 
0 0 0 
0 0 0 
0 0 0 
0 0 0 
146 146 255 
0 0 0 
0 0 0 
0 0 0 
77 77 175 
138 61 138 
0 0 0 
77 77 175 
37 37 255 
77 77 175 
0 0 0 
0 0 0 
0 0 0 
0 0 0 
0 0 0 
0 0 0 
0 0 0 
106 106 241 
0 0 0 
0 0 0 
0 0 0 
0 0 0 
0 0 0 
0 0 0 
143 60 255 
37 37 255 
0 0 0 
255 255 255 
255 255 255 
0 0 0 
0 0 0 
221 221 221 
255 255 255 
221 221 221 
255 255 255 
255 60 60 
0 0 0 
255 186 255 
255 227 255 
0 0 0 
255 255 255 
0 0 0 
161 161 161 
255 255 255 
255 255 255 
255 255 255 
0 0 0 
247 77 77 
221 221 221 
221 221 221 
255 255 255 
255 164 194 
255 255 255 
255 255 255 
255 255 255 
255 255 255 
161 161 161 
255 255 255 
255 255 255 
0 0 0 
0 0 0 
0 0 0 
249 249 255 
0 0 0 
0 0 0 
254 254 255 
255 255 255 
0 0 0 
254 254 255 
255 255 255 
0 0 0 
0 0 0 
255 255 255 
255 176 255 
225 100 225 
0 0 0 
255 163 163 
255 207 207 
0 0 0 
0 0 0 
0 0 0 
0 0 0 
255 177 177 
0 0 0 
255 255 255 
0 0 0 
0 0 0 
0 0 0 
255 127 127 
0 0 0 
255 83 201 
255 127 127 
0 0 0 
0 0 0 
0 0 0 
255 47 47 
0 0 0 
0 0 0 
0 0 0 
0 0 0 
0 0 0 
0 0 0 
255 37 255 
0 0 0 
0 0 0 
0 0 0 
255 127 127 
0 0 0 
138 61 138 
0 0 0 
156 69 222 
0 0 0 
0 0 0 
0 0 0 
0 0 0 
0 0 0 
71 13 143 
0 0 0 
0 0 0 
0 0 0 
255 127 127 
255 127 127 
0 0 0 
0 0 0 
0 0 0 
0 0 0 
0 0 0 
0 0 0 
137 60 194 
0 0 0 
51 22 255 
0 0 0 
0 0 0 
0 0 0 
83 37 119 
255 127 127 
255 127 255 
83 37 119 
0 0 0 
255 138 226 
255 127 127 
0 0 0 
99 99 255 
255 255 255 
77 77 247 
255 255 255 
0 0 0 
224 99 255 
161 161 161 
99 99 255 
255 98 255 
255 255 255 
56 17 181 
0 0 0 
255 46 150 
83 36 255 
132 132 255 
47 47 151 
181 18 255 
36 36 255 
77 77 247 
0 0 0 
56 17 181 
64 64 207 
255 98 255 
84 37 255 
98 81 255 
0 0 0 
73 66 255 
52 47 255 
51 22 255 
64 64 207 
138 128 255 
47 47 151 
193 60 193 
92 28 209 
255 58 255 
0 0 0 
194 60 137 
119 37 83 
255 10 55 
119 37 83 
119 37 83 
0 0 0 
0 0 0 
0 0 0 
0 0 0 
119 37 83 
0 0 0 
0 0 0 
0 0 0 
119 37 83 
0 0 0 
194 60 137 
0 0 0 
0 0 0 
0 0 0 
0 0 0 
0 0 0 
142 13 100 
0 0 0 
0 0 0 
0 0 0 
0 0 0 
0 0 0 
0 0 0 
0 0 0 
119 37 83 
0 0 0 
0 0 0 
119 37 83 
0 0 0 
0 0 0 
0 0 0 
0 0 0 
0 0 0 
0 0 0 
211 29 65 
0 0 0 
0 0 0 
0 0 0 
0 0 0 
0 0 0 
0 0 0 
119 37 83 
0 0 0 
0 0 0 
0 0 0 
0 0 0 
0 0 0 
0 0 0 
0 0 0 
0 0 0 
0 0 0 
0 0 0 
77 77 175 
0 0 0 
0 0 0 
0 0 0 
0 0 0 
77 77 175 
77 77 175 
0 0 0 
0 0 0 
0 0 0 
0 0 0 
0 0 0 
0 0 0 
0 0 0 
0 0 0 
0 0 0 
0 0 0 
0 0 0 
0 0 0 
92 28 209 
151 47 255 
0 0 0 
0 0 0 
0 0 0 
0 0 0 
77 77 175 
77 77 175 
0 0 0 
77 77 175 
0 0 0 
0 0 0 
127 127 255 
106 106 241 
77 77 175 
0 0 0 
77 77 175 
0 0 0 
0 0 0 
77 77 175 
37 37 255 
0 0 0 
0 0 0 
77 77 175 
0 0 0 
0 0 0 
77 77 175 
0 0 0 
0 0 0 
255 255 255 
161 161 161 
0 0 0 
255 255 255 
255 255 255 
255 255 255 
255 249 249 
255 255 255 
255 199 255 
255 144 255 
255 255 255 
255 255 255 
254 254 255 
247 77 77 
255 60 60 
255 255 255 
255 255 255 
255 255 255 
161 161 161 
255 255 255 
255 255 255 
255 255 255 
255 255 255 
255 255 255 
161 161 161 
255 255 255 
255 207 207 
255 255 255 
255 255 255 
161 161 161 
161 161 161 
255 175 255 
0 0 0 
161 161 161 
0 0 0 
255 255 255 
255 255 255 
221 221 221 
255 255 255 
255 175 255 
255 206 206 
255 207 207 
0 0 0 
0 0 0 
161 161 161 
0 0 0 
255 162 255 
0 0 0 
0 0 0 
0 0 0 
255 210 210 
255 127 127 
0 0 0 
255 127 127 
255 156 156 
0 0 0 
0 0 0 
255 127 127 
255 60 60 
0 0 0 
255 127 127 
0 0 0 
0 0 0 
255 60 60 
0 0 0 
255 162 162 
0 0 0 
255 127 127 
0 0 0 
0 0 0 
0 0 0 
255 127 127 
0 0 0 
0 0 0 
0 0 0 
0 0 0 
255 127 127 
255 127 127 
0 0 0 
0 0 0 
0 0 0 
0 0 0 
0 0 0 
255 163 163 
0 0 0 
0 0 0 
0 0 0 
255 145 145 
0 0 0 
255 127 127 
0 0 0 
255 127 127 
255 127 127 
255 127 127 
0 0 0 
255 127 127 
0 0 0 
0 0 0 
0 0 0 
0 0 0 
255 128 255 
0 0 0 
0 0 0 
255 141 250 
0 0 0 
0 0 0 
255 127 127 
0 0 0 
255 127 185 
0 0 0 
255 138 226 
116 22 234 
255 133 255 
0 0 0 
0 0 0 
174 77 255 
0 0 0 
0 0 0 
0 0 0 
255 144 255 
0 0 0 
255 255 255 
0 0 0 
0 0 0 
0 0 0 
0 0 0 
60 60 255 
118 36 118 
0 0 0 
83 36 255 
0 0 0 
0 0 0 
0 0 0 
137 60 194 
0 0 0 
0 0 0 
0 0 0 
0 0 0 
0 0 0 
0 0 0 
65 28 255 
147 29 255 
129 68 255 
0 0 0 
0 0 0 
64 64 207 
0 0 0 
0 0 0 
0 0 0 
0 0 0 
119 37 83 
0 0 0 
0 0 0 
163 50 115 
0 0 0 
119 37 83 
0 0 0 
0 0 0 
0 0 0 
0 0 0 
0 0 0 
0 0 0 
0 0 0 
119 37 83 
0 0 0 
0 0 0 
0 0 0 
0 0 0 
172 5 60 
207 207 255 
0 0 0 
194 60 137 
0 0 0 
92 28 209 
0 0 0 
0 0 0 
0 0 0 
0 0 0 
0 0 0 
0 0 0 
0 0 0 
0 0 0 
0 0 0 
255 99 224 
0 0 0 
0 0 0 
0 0 0 
0 0 0 
0 0 0 
0 0 0 
0 0 0 
0 0 0 
0 0 0 
0 0 0 
0 0 0 
0 0 0 
0 0 0 
0 0 0 
0 0 0 
0 0 0 
0 0 0 
0 0 0 
0 0 0 
0 0 0 
0 0 0 
0 0 0 
0 0 0 
0 0 0 
0 0 0 
0 0 0 
0 0 0 
0 0 0 
0 0 0 
77 77 175 
0 0 0 
0 0 0 
0 0 0 
0 0 0 
0 0 0 
0 0 0 
0 0 0 
0 0 0 
0 0 0 
0 0 0 
77 77 175 
0 0 0 
0 0 0 
0 0 0 
0 0 0 
0 0 0 
0 0 0 
0 0 0 
37 37 255 
0 0 0 
0 0 0 
0 0 0 
0 0 0 
0 0 0 
0 0 0 
0 0 0 
255 23 255 
0 0 0 
77 77 175 
0 0 0 
0 0 0 
0 0 0 
0 0 0 
77 77 175 
0 0 0 
0 0 0 
0 0 0 
255 177 255 
0 0 0 
0 0 0 
0 0 0 
0 0 0 
255 175 175 
255 255 255 
255 203 255 
221 221 221 
255 255 255 
255 175 175 
255 224 255 
255 98 98 
221 221 221 
255 255 255 
161 161 161 
0 0 0 
255 255 255 
170 170 255 
255 222 255 
255 255 255 
255 255 255 
255 255 255 
161 161 161 
255 255 255 
199 199 255 
255 222 255 
255 255 255 
255 255 255 
255 194 194 
255 36 255 
0 0 0 
255 206 255 
0 0 0 
255 255 255 
255 209 255 
0 0 0 
255 255 255 
255 144 144 
255 255 255 
0 0 0 
221 221 221 
255 255 255 
255 13 44 
126 126 255 
255 199 199 
255 255 255 
255 255 255 
0 0 0 
0 0 0 
0 0 0 
255 255 255 
255 255 255 
255 127 127 
0 0 0 
138 61 138 
255 207 207 
0 0 0 
255 163 255 
0 0 0 
0 0 0 
0 0 0 
255 157 253 
0 0 0 
255 163 255 
0 0 0 
0 0 0 
0 0 0 
0 0 0 
0 0 0 
0 0 0 
255 138 182 
255 174 174 
216 95 255 
0 0 0 
0 0 0 
0 0 0 
0 0 0 
255 127 127 
0 0 0 
0 0 0 
0 0 0 
255 127 127 
0 0 0 
0 0 0 
0 0 0 
0 0 0 
0 0 0 
65 29 211 
0 0 0 
255 127 127 
255 128 142 
137 60 194 
0 0 0 
137 60 194 
0 0 0 
0 0 0 
0 0 0 
0 0 0 
0 0 0 
137 60 194 
137 60 194 
255 207 207 
106 47 255 
0 0 0 
0 0 0 
31 13 255 
0 0 0 
255 78 250 
255 174 174 
255 127 127 
0 0 0 
0 0 0 
137 60 194 
0 0 0 
255 127 127 
0 0 0 
0 0 0 
255 255 255 
0 0 0 
0 0 0 
255 125 255 
255 144 255 
126 126 255 
255 255 255 
255 255 255 
0 0 0 
255 255 255 
77 77 247 
137 60 194 
255 255 255 
47 47 151 
0 0 0 
0 0 0 
147 29 255 
106 47 255 
123 40 211 
28 2 255 
0 0 0 
106 47 255 
255 77 248 
53 28 255 
160 160 255 
36 36 255 
0 0 0 
0 0 0 
60 60 255 
40 17 182 
0 0 0 
0 0 0 
40 17 182 
47 47 151 
47 47 151 
0 0 0 
0 0 0 
0 0 0 
119 37 83 
0 0 0 
0 0 0 
194 60 137 
0 0 0 
0 0 0 
0 0 0 
0 0 0 
0 0 0 
0 0 0 
0 0 0 
0 0 0 
0 0 0 
0 0 0 
119 37 83 
0 0 0 
0 0 0 
0 0 0 
0 0 0 
0 0 0 
0 0 0 
0 0 0 
0 0 0 
0 0 0 
119 37 83 
0 0 0 
0 0 0 
0 0 0 
0 0 0 
0 0 0 
0 0 0 
0 0 0 
0 0 0 
0 0 0 
0 0 0 
0 0 0 
0 0 0 
119 37 83 
0 0 0 
78 78 255 
0 0 0 
0 0 0 
0 0 0 
194 60 137 
0 0 0 
0 0 0 
0 0 0 
0 0 0 
0 0 0 
0 0 0 
0 0 0 
0 0 0 
0 0 0 
0 0 0 
0 0 0 
77 77 175 
0 0 0 
0 0 0 
0 0 0 
0 0 0 
0 0 0 
0 0 0 
0 0 0 
0 0 0 
0 0 0 
0 0 0 
0 0 0 
0 0 0 
0 0 0 
0 0 0 
0 0 0 
0 0 0 
0 0 0 
0 0 0 
0 0 0 
0 0 0 
0 0 0 
0 0 0 
0 0 0 
0 0 0 
0 0 0 
0 0 0 
0 0 0 
0 0 0 
47 47 255 
0 0 0 
0 0 0 
0 0 0 
37 37 255 
37 37 255 
77 77 175 
0 0 0 
0 0 0 
77 77 175 
0 0 0 
0 0 0 
47 47 255 
0 0 0 
100 100 255 
0 0 0 
0 0 0 
92 28 209 
0 0 0 
0 0 0 
225 100 225 
255 255 255 
255 255 255 
0 0 0 
255 255 255 
161 161 161 
255 175 255 
255 255 255 
255 255 255 
255 255 255 
255 222 222 
255 199 199 
221 221 221 
247 77 77 
235 235 255 
161 161 161 
0 0 0 
255 255 255 
255 255 255 
255 255 255 
161 161 161 
255 225 255 
161 161 161 
161 161 161 
207 207 255 
255 255 255 
161 161 161 
255 231 231 
255 255 255 
255 184 184 
255 255 255 
221 221 221 
0 0 0 
255 255 255 
161 161 161 
161 161 161 
255 255 255 
255 77 77 
255 255 255 
161 161 161 
0 0 0 
255 255 255 
0 0 0 
255 255 255 
255 255 255 
255 76 246 
255 207 207 
0 0 0 
255 145 255 
0 0 0 
255 83 255 
0 0 0 
255 177 250 
0 0 0 
255 127 127 
0 0 0 
0 0 0 
0 0 0 
0 0 0 
0 0 0 
255 174 174 
0 0 0 
0 0 0 
0 0 0 
255 174 174 
255 127 127 
0 0 0 
255 61 138 
0 0 0 
0 0 0 
0 0 0 
0 0 0 
0 0 0 
255 174 174 
0 0 0 
255 127 127 
255 201 201 
0 0 0 
255 174 174 
0 0 0 
0 0 0 
209 28 92 
0 0 0 
0 0 0 
255 127 127 
0 0 0 
0 0 0 
0 0 0 
0 0 0 
255 60 255 
0 0 0 
255 127 127 
160 13 255 
255 127 127 
0 0 0 
0 0 0 
255 127 127 
255 127 127 
0 0 0 
255 207 207 
0 0 0 
255 138 226 
255 127 127 
147 29 255 
230 53 238 
0 0 0 
255 127 127 
83 37 119 
0 0 0 
0 0 0 
255 60 60 
0 0 0 
255 255 255 
0 0 0 
255 255 255 
255 37 255 
255 255 255 
0 0 0 
60 60 255 
0 0 0 
0 0 0 
255 255 255 
0 0 0 
0 0 0 
0 0 0 
106 47 255 
0 0 0 
0 0 0 
0 0 0 
0 0 0 
100 13 142 
255 37 255 
0 0 0 
83 36 255 
0 0 0 
0 0 0 
0 0 0 
77 77 247 
0 0 0 
36 36 255 
255 1 112 
151 47 255 
0 0 0 
65 28 255 
255 255 255 
77 77 247 
0 0 0 
255 133 255 
71 13 143 
0 0 0 
0 0 0 
119 37 83 
0 0 0 
0 0 0 
0 0 0 
0 0 0 
0 0 0 
119 37 83 
0 0 0 
92 28 209 
129 40 149 
0 0 0 
0 0 0 
0 0 0 
0 0 0 
0 0 0 
0 0 0 
0 0 0 
0 0 0 
255 8 98 
0 0 0 
0 0 0 
0 0 0 
119 37 83 
0 0 0 
0 0 0 
0 0 0 
255 37 189 
0 0 0 
0 0 0 
0 0 0 
0 0 0 
0 0 0 
0 0 0 
0 0 0 
0 0 0 
0 0 0 
0 0 0 
0 0 0 
0 0 0 
0 0 0 
0 0 0 
0 0 0 
0 0 0 
0 0 0 
0 0 0 
0 0 0 
0 0 0 
0 0 0 
0 0 0 
0 0 0 
0 0 0 
0 0 0 
0 0 0 
0 0 0 
0 0 0 
0 0 0 
0 0 0 
0 0 0 
0 0 0 
0 0 0 
0 0 0 
0 0 0 
0 0 0 
0 0 0 
0 0 0 
0 0 0 
0 0 0 
0 0 0 
0 0 0 
0 0 0 
0 0 0 
37 37 255 
0 0 0 
0 0 0 
0 0 0 
0 0 0 
0 0 0 
0 0 0 
37 37 255 
29 29 255 
0 0 0 
0 0 0 
0 0 0 
0 0 0 
0 0 0 
0 0 0 
0 0 0 
0 0 0 
77 77 175 
37 37 255 
77 77 175 
0 0 0 
0 0 0 
77 77 175 
0 0 0 
0 0 0 
77 77 175 
142 63 255 
0 0 0 
0 0 0 
77 77 175 
0 0 0 
0 0 0 
0 0 0 
0 0 0 
255 98 98 
255 195 195 
0 0 0 
255 255 255 
255 255 255 
255 255 255 
255 210 255 
255 255 255 
0 0 0 
161 161 161 
221 221 221 
0 0 0 
0 0 0 
255 255 255 
221 221 221 
255 255 255 
255 255 255 
255 173 255 
221 221 221 
255 255 255 
255 227 255 
193 60 193 
255 205 255 
255 255 255 
255 255 255 
255 255 255 
161 161 161 
255 255 255 
255 255 255 
255 255 255 
255 255 255 
255 225 255 
0 0 0 
255 255 255 
255 255 255 
255 255 255 
255 175 175 
247 77 77 
255 255 255 
255 207 207 
255 255 255 
255 255 255 
126 126 255 
0 0 0 
255 255 255 
0 0 0 
255 255 255 
255 237 237 
255 255 255 
0 0 0 
255 255 255 
255 127 127 
255 127 127 
255 127 127 
0 0 0 
0 0 0 
0 0 0 
0 0 0 
0 0 0 
0 0 0 
255 127 127 
255 127 255 
0 0 0 
0 0 0 
0 0 0 
0 0 0 
0 0 0 
255 185 255 
255 37 120 
255 60 60 
148 29 93 
0 0 0 
255 127 127 
0 0 0 
0 0 0 
0 0 0 
0 0 0 
255 127 127 
0 0 0 
0 0 0 
255 127 127 
255 255 255 
255 127 127 
0 0 0 
0 0 0 
255 127 127 
0 0 0 
83 37 119 
255 99 99 
255 127 127 
255 60 60 
0 0 0 
0 0 0 
255 255 255 
255 36 255 
0 0 0 
0 0 0 
83 37 119 
0 0 0 
0 0 0 
0 0 0 
0 0 0 
0 0 0 
255 127 127 
0 0 0 
0 0 0 
255 127 127 
0 0 0 
0 0 0 
0 0 0 
0 0 0 
0 0 0 
255 162 255 
255 255 255 
0 0 0 
0 0 0 
255 255 255 
255 145 255 
255 126 126 
0 0 0 
126 126 255 
0 0 0 
255 255 255 
0 0 0 
0 0 0 
77 77 247 
0 0 0 
216 216 255 
255 255 255 
33 6 219 
0 0 0 
255 255 255 
36 36 255 
0 0 0 
255 126 255 
77 77 247 
0 0 0 
0 0 0 
206 206 255 
0 0 0 
0 0 0 
224 99 255 
255 127 255 
0 0 0 
255 167 255 
0 0 0 
47 47 151 
47 47 151 
71 49 229 
