P3
256 256
255
255 255 255
255 255 255
255 255 255
255 255 255
255 255 255
255 255 255
255 255 255
255 255 255
255 255 255
255 255 255
255 255 255
255 255 255
255 255 255
255 255 255
255 255 255
255 255 255
255 255 255
255 255 255
255 255 255
255 255 255
255 255 255
255 255 255
255 255 255
255 255 255
255 255 255
255 255 255
255 255 255
255 255 255
255 255 255
255 255 255
255 255 255
255 255 255
200 50 50
200 50 50
200 50 50
200 50 50
200 50 50
200 50 50
200 50 50
200 50 50
200 50 50
200 50 50
200 50 50
200 50 50
200 50 50
200 50 50
200 50 50
200 50 50
200 50 50
200 50 50
200 50 50
200 50 50
200 50 50
200 50 50
200 50 50
200 50 50
200 50 50
200 50 50
200 50 50
200 50 50
200 50 50
200 50 50
200 50 50
200 50 50
255 255 255
255 255 255
255 255 255
255 255 255
255 255 255
255 255 255
255 255 255
255 255 255
255 255 255
255 255 255
255 255 255
255 255 255
255 255 255
255 255 255
255 255 255
255 255 255
255 255 255
255 255 255
255 255 255
255 255 255
255 255 255
255 255 255
255 255 255
255 255 255
255 255 255
255 255 255
255 255 255
255 255 255
255 255 255
255 255 255
255 255 255
255 255 255
200 50 50
200 50 50
200 50 50
200 50 50
200 50 50
200 50 50
200 50 50
200 50 50
200 50 50
200 50 50
200 50 50
200 50 50
200 50 50
200 50 50
200 50 50
200 50 50
200 50 50
200 50 50
200 50 50
200 50 50
200 50 50
200 50 50
200 50 50
200 50 50
200 50 50
200 50 50
200 50 50
200 50 50
200 50 50
200 50 50
200 50 50
200 50 50
255 255 255
255 255 255
255 255 255
255 255 255
255 255 255
255 255 255
255 255 255
255 255 255
255 255 255
255 255 255
255 255 255
255 255 255
255 255 255
255 255 255
255 255 255
255 255 255
255 255 255
255 255 255
255 255 255
255 255 255
255 255 255
255 255 255
255 255 255
255 255 255
255 255 255
255 255 255
255 255 255
255 255 255
255 255 255
255 255 255
255 255 255
255 255 255
200 50 50
200 50 50
200 50 50
200 50 50
200 50 50
200 50 50
200 50 50
200 50 50
200 50 50
200 50 50
200 50 50
200 50 50
200 50 50
200 50 50
200 50 50
200 50 50
200 50 50
200 50 50
200 50 50
200 50 50
200 50 50
200 50 50
200 50 50
200 50 50
200 50 50
200 50 50
200 50 50
200 50 50
200 50 50
200 50 50
200 50 50
200 50 50
255 255 255
255 255 255
255 255 255
255 255 255
255 255 255
255 255 255
255 255 255
255 255 255
255 255 255
255 255 255
255 255 255
255 255 255
255 255 255
255 255 255
255 255 255
255 255 255
255 255 255
255 255 255
255 255 255
255 255 255
255 255 255
255 255 255
255 255 255
255 255 255
255 255 255
255 255 255
255 255 255
255 255 255
255 255 255
255 255 255
255 255 255
255 255 255
200 50 50
200 50 50
200 50 50
200 50 50
200 50 50
200 50 50
200 50 50
200 50 50
200 50 50
200 50 50
200 50 50
200 50 50
200 50 50
200 50 50
200 50 50
200 50 50
200 50 50
200 50 50
200 50 50
200 50 50
200 50 50
200 50 50
200 50 50
200 50 50
200 50 50
200 50 50
200 50 50
200 50 50
200 50 50
200 50 50
200 50 50
200 50 50
255 255 255
255 255 255
255 255 255
255 255 255
255 255 255
255 255 255
255 255 255
255 255 255
255 255 255
255 255 255
255 255 255
255 255 255
255 255 255
255 255 255
255 255 255
255 255 255
255 255 255
255 255 255
255 255 255
255 255 255
255 255 255
255 255 255
255 255 255
255 255 255
255 255 255
255 255 255
255 255 255
255 255 255
255 255 255
255 255 255
255 255 255
255 255 255
200 50 50
200 50 50
200 50 50
200 50 50
200 50 50
200 50 50
200 50 50
200 50 50
200 50 50
200 50 50
200 50 50
200 50 50
200 50 50
200 50 50
200 50 50
200 50 50
200 50 50
200 50 50
200 50 50
200 50 50
200 50 50
200 50 50
200 50 50
200 50 50
200 50 50
200 50 50
200 50 50
200 50 50
200 50 50
200 50 50
200 50 50
200 50 50
255 255 255
255 255 255
255 255 255
255 255 255
255 255 255
255 255 255
255 255 255
255 255 255
255 255 255
255 255 255
255 255 255
255 255 255
255 255 255
255 255 255
255 255 255
255 255 255
255 255 255
255 255 255
255 255 255
255 255 255
255 255 255
255 255 255
255 255 255
255 255 255
255 255 255
255 255 255
255 255 255
255 255 255
255 255 255
255 255 255
255 255 255
255 255 255
200 50 50
200 50 50
200 50 50
200 50 50
200 50 50
200 50 50
200 50 50
200 50 50
200 50 50
200 50 50
200 50 50
200 50 50
200 50 50
200 50 50
200 50 50
200 50 50
200 50 50
200 50 50
200 50 50
200 50 50
200 50 50
200 50 50
200 50 50
200 50 50
200 50 50
200 50 50
200 50 50
200 50 50
200 50 50
200 50 50
200 50 50
200 50 50
255 255 255
255 255 255
255 255 255
255 255 255
255 255 255
255 255 255
255 255 255
255 255 255
255 255 255
255 255 255
255 255 255
255 255 255
255 255 255
255 255 255
255 255 255
255 255 255
255 255 255
255 255 255
255 255 255
255 255 255
255 255 255
255 255 255
255 255 255
255 255 255
255 255 255
255 255 255
255 255 255
255 255 255
255 255 255
255 255 255
255 255 255
255 255 255
200 50 50
200 50 50
200 50 50
200 50 50
200 50 50
200 50 50
200 50 50
200 50 50
200 50 50
200 50 50
200 50 50
200 50 50
200 50 50
200 50 50
200 50 50
200 50 50
200 50 50
200 50 50
200 50 50
200 50 50
200 50 50
200 50 50
200 50 50
200 50 50
200 50 50
200 50 50
200 50 50
200 50 50
200 50 50
200 50 50
200 50 50
200 50 50
255 255 255
255 255 255
255 255 255
255 255 255
255 255 255
255 255 255
255 255 255
255 255 255
255 255 255
255 255 255
255 255 255
255 255 255
255 255 255
255 255 255
255 255 255
255 255 255
255 255 255
255 255 255
255 255 255
255 255 255
255 255 255
255 255 255
255 255 255
255 255 255
255 255 255
255 255 255
255 255 255
255 255 255
255 255 255
255 255 255
255 255 255
255 255 255
200 50 50
200 50 50
200 50 50
200 50 50
200 50 50
200 50 50
200 50 50
200 50 50
200 50 50
200 50 50
200 50 50
200 50 50
200 50 50
200 50 50
200 50 50
200 50 50
200 50 50
200 50 50
200 50 50
200 50 50
200 50 50
200 50 50
200 50 50
200 50 50
200 50 50
200 50 50
200 50 50
200 50 50
200 50 50
200 50 50
200 50 50
200 50 50
255 255 255
255 255 255
255 255 255
255 255 255
255 255 255
255 255 255
255 255 255
255 255 255
255 255 255
255 255 255
255 255 255
255 255 255
255 255 255
255 255 255
255 255 255
255 255 255
255 255 255
255 255 255
255 255 255
255 255 255
255 255 255
255 255 255
255 255 255
255 255 255
255 255 255
255 255 255
255 255 255
255 255 255
255 255 255
255 255 255
255 255 255
255 255 255
200 50 50
200 50 50
200 50 50
200 50 50
200 50 50
200 50 50
200 50 50
200 50 50
200 50 50
200 50 50
200 50 50
200 50 50
200 50 50
200 50 50
200 50 50
200 50 50
200 50 50
200 50 50
200 50 50
200 50 50
200 50 50
200 50 50
200 50 50
200 50 50
200 50 50
200 50 50
200 50 50
200 50 50
200 50 50
200 50 50
200 50 50
200 50 50
255 255 255
255 255 255
255 255 255
255 255 255
255 255 255
255 255 255
255 255 255
255 255 255
255 255 255
255 255 255
255 255 255
255 255 255
255 255 255
255 255 255
255 255 255
255 255 255
255 255 255
255 255 255
255 255 255
255 255 255
255 255 255
255 255 255
255 255 255
255 255 255
255 255 255
255 255 255
255 255 255
255 255 255
255 255 255
255 255 255
255 255 255
255 255 255
200 50 50
200 50 50
200 50 50
200 50 50
200 50 50
200 50 50
200 50 50
200 50 50
200 50 50
200 50 50
200 50 50
200 50 50
200 50 50
200 50 50
200 50 50
200 50 50
200 50 50
200 50 50
200 50 50
200 50 50
200 50 50
200 50 50
200 50 50
200 50 50
200 50 50
200 50 50
200 50 50
200 50 50
200 50 50
200 50 50
200 50 50
200 50 50
255 255 255
255 255 255
255 255 255
255 255 255
255 255 255
255 255 255
255 255 255
255 255 255
255 255 255
255 255 255
255 255 255
255 255 255
255 255 255
255 255 255
255 255 255
255 255 255
255 255 255
255 255 255
255 255 255
255 255 255
255 255 255
255 255 255
255 255 255
255 255 255
255 255 255
255 255 255
255 255 255
255 255 255
255 255 255
255 255 255
255 255 255
255 255 255
200 50 50
200 50 50
200 50 50
200 50 50
200 50 50
200 50 50
200 50 50
200 50 50
200 50 50
200 50 50
200 50 50
200 50 50
200 50 50
200 50 50
200 50 50
200 50 50
200 50 50
200 50 50
200 50 50
200 50 50
200 50 50
200 50 50
200 50 50
200 50 50
200 50 50
200 50 50
200 50 50
200 50 50
200 50 50
200 50 50
200 50 50
200 50 50
255 255 255
255 255 255
255 255 255
255 255 255
255 255 255
255 255 255
255 255 255
255 255 255
255 255 255
255 255 255
255 255 255
255 255 255
255 255 255
255 255 255
255 255 255
255 255 255
255 255 255
255 255 255
255 255 255
255 255 255
255 255 255
255 255 255
255 255 255
255 255 255
255 255 255
255 255 255
255 255 255
255 255 255
255 255 255
255 255 255
255 255 255
255 255 255
200 50 50
200 50 50
200 50 50
200 50 50
200 50 50
200 50 50
200 50 50
200 50 50
200 50 50
200 50 50
200 50 50
200 50 50
200 50 50
200 50 50
200 50 50
200 50 50
200 50 50
200 50 50
200 50 50
200 50 50
200 50 50
200 50 50
200 50 50
200 50 50
200 50 50
200 50 50
200 50 50
200 50 50
200 50 50
200 50 50
200 50 50
200 50 50
255 255 255
255 255 255
255 255 255
255 255 255
255 255 255
255 255 255
255 255 255
255 255 255
255 255 255
255 255 255
255 255 255
255 255 255
255 255 255
255 255 255
255 255 255
255 255 255
255 255 255
255 255 255
255 255 255
255 255 255
255 255 255
255 255 255
255 255 255
255 255 255
255 255 255
255 255 255
255 255 255
255 255 255
255 255 255
255 255 255
255 255 255
255 255 255
200 50 50
200 50 50
200 50 50
200 50 50
200 50 50
200 50 50
200 50 50
200 50 50
200 50 50
200 50 50
200 50 50
200 50 50
200 50 50
200 50 50
200 50 50
200 50 50
200 50 50
200 50 50
200 50 50
200 50 50
200 50 50
200 50 50
200 50 50
200 50 50
200 50 50
200 50 50
200 50 50
200 50 50
200 50 50
200 50 50
200 50 50
200 50 50
255 255 255
255 255 255
255 255 255
255 255 255
255 255 255
255 255 255
255 255 255
255 255 255
255 255 255
255 255 255
255 255 255
255 255 255
255 255 255
255 255 255
255 255 255
255 255 255
255 255 255
255 255 255
255 255 255
255 255 255
255 255 255
255 255 255
255 255 255
255 255 255
255 255 255
255 255 255
255 255 255
255 255 255
255 255 255
255 255 255
255 255 255
255 255 255
200 50 50
200 50 50
200 50 50
200 50 50
200 50 50
200 50 50
200 50 50
200 50 50
200 50 50
200 50 50
200 50 50
200 50 50
200 50 50
200 50 50
200 50 50
200 50 50
200 50 50
200 50 50
200 50 50
200 50 50
200 50 50
200 50 50
200 50 50
200 50 50
200 50 50
200 50 50
200 50 50
200 50 50
200 50 50
200 50 50
200 50 50
200 50 50
255 255 255
255 255 255
255 255 255
255 255 255
255 255 255
255 255 255
255 255 255
255 255 255
255 255 255
255 255 255
255 255 255
255 255 255
255 255 255
255 255 255
255 255 255
255 255 255
255 255 255
255 255 255
255 255 255
255 255 255
255 255 255
255 255 255
255 255 255
255 255 255
255 255 255
255 255 255
255 255 255
255 255 255
255 255 255
255 255 255
255 255 255
255 255 255
200 50 50
200 50 50
200 50 50
200 50 50
200 50 50
200 50 50
200 50 50
200 50 50
200 50 50
200 50 50
200 50 50
200 50 50
200 50 50
200 50 50
200 50 50
200 50 50
200 50 50
200 50 50
200 50 50
200 50 50
200 50 50
200 50 50
200 50 50
200 50 50
200 50 50
200 50 50
200 50 50
200 50 50
200 50 50
200 50 50
200 50 50
200 50 50
255 255 255
255 255 255
255 255 255
255 255 255
255 255 255
255 255 255
255 255 255
255 255 255
255 255 255
255 255 255
255 255 255
255 255 255
255 255 255
255 255 255
255 255 255
255 255 255
255 255 255
255 255 255
255 255 255
255 255 255
255 255 255
255 255 255
255 255 255
255 255 255
255 255 255
255 255 255
255 255 255
255 255 255
255 255 255
255 255 255
255 255 255
255 255 255
200 50 50
200 50 50
200 50 50
200 50 50
200 50 50
200 50 50
200 50 50
200 50 50
200 50 50
200 50 50
200 50 50
200 50 50
200 50 50
200 50 50
200 50 50
200 50 50
200 50 50
200 50 50
200 50 50
200 50 50
200 50 50
200 50 50
200 50 50
200 50 50
200 50 50
200 50 50
200 50 50
200 50 50
200 50 50
200 50 50
200 50 50
200 50 50
255 255 255
255 255 255
255 255 255
255 255 255
255 255 255
255 255 255
255 255 255
255 255 255
255 255 255
255 255 255
255 255 255
255 255 255
255 255 255
255 255 255
255 255 255
255 255 255
255 255 255
255 255 255
255 255 255
255 255 255
255 255 255
255 255 255
255 255 255
255 255 255
255 255 255
255 255 255
255 255 255
255 255 255
255 255 255
255 255 255
255 255 255
255 255 255
200 50 50
200 50 50
200 50 50
200 50 50
200 50 50
200 50 50
200 50 50
200 50 50
200 50 50
200 50 50
200 50 50
200 50 50
200 50 50
200 50 50
200 50 50
200 50 50
200 50 50
200 50 50
200 50 50
200 50 50
200 50 50
200 50 50
200 50 50
200 50 50
200 50 50
200 50 50
200 50 50
200 50 50
200 50 50
200 50 50
200 50 50
200 50 50
255 255 255
255 255 255
255 255 255
255 255 255
255 255 255
255 255 255
255 255 255
255 255 255
255 255 255
255 255 255
255 255 255
255 255 255
255 255 255
255 255 255
255 255 255
255 255 255
255 255 255
255 255 255
255 255 255
255 255 255
255 255 255
255 255 255
255 255 255
255 255 255
255 255 255
255 255 255
255 255 255
255 255 255
255 255 255
255 255 255
255 255 255
255 255 255
200 50 50
200 50 50
200 50 50
200 50 50
200 50 50
200 50 50
200 50 50
200 50 50
200 50 50
200 50 50
200 50 50
200 50 50
200 50 50
200 50 50
200 50 50
200 50 50
200 50 50
200 50 50
200 50 50
200 50 50
200 50 50
200 50 50
200 50 50
200 50 50
200 50 50
200 50 50
200 50 50
200 50 50
200 50 50
200 50 50
200 50 50
200 50 50
255 255 255
255 255 255
255 255 255
255 255 255
255 255 255
255 255 255
255 255 255
255 255 255
255 255 255
255 255 255
255 255 255
255 255 255
255 255 255
255 255 255
255 255 255
255 255 255
255 255 255
255 255 255
255 255 255
255 255 255
255 255 255
255 255 255
255 255 255
255 255 255
255 255 255
255 255 255
255 255 255
255 255 255
255 255 255
255 255 255
255 255 255
255 255 255
200 50 50
200 50 50
200 50 50
200 50 50
200 50 50
200 50 50
200 50 50
200 50 50
200 50 50
200 50 50
200 50 50
200 50 50
200 50 50
200 50 50
200 50 50
200 50 50
200 50 50
200 50 50
200 50 50
200 50 50
200 50 50
200 50 50
200 50 50
200 50 50
200 50 50
200 50 50
200 50 50
200 50 50
200 50 50
200 50 50
200 50 50
200 50 50
255 255 255
255 255 255
255 255 255
255 255 255
255 255 255
255 255 255
255 255 255
255 255 255
255 255 255
255 255 255
255 255 255
255 255 255
255 255 255
255 255 255
255 255 255
255 255 255
255 255 255
255 255 255
255 255 255
255 255 255
255 255 255
255 255 255
255 255 255
255 255 255
255 255 255
255 255 255
255 255 255
255 255 255
255 255 255
255 255 255
255 255 255
255 255 255
200 50 50
200 50 50
200 50 50
200 50 50
200 50 50
200 50 50
200 50 50
200 50 50
200 50 50
200 50 50
200 50 50
200 50 50
200 50 50
200 50 50
200 50 50
200 50 50
200 50 50
200 50 50
200 50 50
200 50 50
200 50 50
200 50 50
200 50 50
200 50 50
200 50 50
200 50 50
200 50 50
200 50 50
200 50 50
200 50 50
200 50 50
200 50 50
255 255 255
255 255 255
255 255 255
255 255 255
255 255 255
255 255 255
255 255 255
255 255 255
255 255 255
255 255 255
255 255 255
255 255 255
255 255 255
255 255 255
255 255 255
255 255 255
255 255 255
255 255 255
255 255 255
255 255 255
255 255 255
255 255 255
255 255 255
255 255 255
255 255 255
255 255 255
255 255 255
255 255 255
255 255 255
255 255 255
255 255 255
255 255 255
200 50 50
200 50 50
200 50 50
200 50 50
200 50 50
200 50 50
200 50 50
200 50 50
200 50 50
200 50 50
200 50 50
200 50 50
200 50 50
200 50 50
200 50 50
200 50 50
200 50 50
200 50 50
200 50 50
200 50 50
200 50 50
200 50 50
200 50 50
200 50 50
200 50 50
200 50 50
200 50 50
200 50 50
200 50 50
200 50 50
200 50 50
200 50 50
255 255 255
255 255 255
255 255 255
255 255 255
255 255 255
255 255 255
255 255 255
255 255 255
255 255 255
255 255 255
255 255 255
255 255 255
255 255 255
255 255 255
255 255 255
255 255 255
255 255 255
255 255 255
255 255 255
255 255 255
255 255 255
255 255 255
255 255 255
255 255 255
255 255 255
255 255 255
255 255 255
255 255 255
255 255 255
255 255 255
255 255 255
255 255 255
200 50 50
200 50 50
200 50 50
200 50 50
200 50 50
200 50 50
200 50 50
200 50 50
200 50 50
200 50 50
200 50 50
200 50 50
200 50 50
200 50 50
200 50 50
200 50 50
200 50 50
200 50 50
200 50 50
200 50 50
200 50 50
200 50 50
200 50 50
200 50 50
200 50 50
200 50 50
200 50 50
200 50 50
200 50 50
200 50 50
200 50 50
200 50 50
255 255 255
255 255 255
255 255 255
255 255 255
255 255 255
255 255 255
255 255 255
255 255 255
255 255 255
255 255 255
255 255 255
255 255 255
255 255 255
255 255 255
255 255 255
255 255 255
255 255 255
255 255 255
255 255 255
255 255 255
255 255 255
255 255 255
255 255 255
255 255 255
255 255 255
255 255 255
255 255 255
255 255 255
255 255 255
255 255 255
255 255 255
255 255 255
200 50 50
200 50 50
200 50 50
200 50 50
200 50 50
200 50 50
200 50 50
200 50 50
200 50 50
200 50 50
200 50 50
200 50 50
200 50 50
200 50 50
200 50 50
200 50 50
200 50 50
200 50 50
200 50 50
200 50 50
200 50 50
200 50 50
200 50 50
200 50 50
200 50 50
200 50 50
200 50 50
200 50 50
200 50 50
200 50 50
200 50 50
200 50 50
255 255 255
255 255 255
255 255 255
255 255 255
255 255 255
255 255 255
255 255 255
255 255 255
255 255 255
255 255 255
255 255 255
255 255 255
255 255 255
255 255 255
255 255 255
255 255 255
255 255 255
255 255 255
255 255 255
255 255 255
255 255 255
255 255 255
255 255 255
255 255 255
255 255 255
255 255 255
255 255 255
255 255 255
255 255 255
255 255 255
255 255 255
255 255 255
200 50 50
200 50 50
200 50 50
200 50 50
200 50 50
200 50 50
200 50 50
200 50 50
200 50 50
200 50 50
200 50 50
200 50 50
200 50 50
200 50 50
200 50 50
200 50 50
200 50 50
200 50 50
200 50 50
200 50 50
200 50 50
200 50 50
200 50 50
200 50 50
200 50 50
200 50 50
200 50 50
200 50 50
200 50 50
200 50 50
200 50 50
200 50 50
255 255 255
255 255 255
255 255 255
255 255 255
255 255 255
255 255 255
255 255 255
255 255 255
255 255 255
255 255 255
255 255 255
255 255 255
255 255 255
255 255 255
255 255 255
255 255 255
255 255 255
255 255 255
255 255 255
255 255 255
255 255 255
255 255 255
255 255 255
255 255 255
255 255 255
255 255 255
255 255 255
255 255 255
255 255 255
255 255 255
255 255 255
255 255 255
200 50 50
200 50 50
200 50 50
200 50 50
200 50 50
200 50 50
200 50 50
200 50 50
200 50 50
200 50 50
200 50 50
200 50 50
200 50 50
200 50 50
200 50 50
200 50 50
200 50 50
200 50 50
200 50 50
200 50 50
200 50 50
200 50 50
200 50 50
200 50 50
200 50 50
200 50 50
200 50 50
200 50 50
200 50 50
200 50 50
200 50 50
200 50 50
255 255 255
255 255 255
255 255 255
255 255 255
255 255 255
255 255 255
255 255 255
255 255 255
255 255 255
255 255 255
255 255 255
255 255 255
255 255 255
255 255 255
255 255 255
255 255 255
255 255 255
255 255 255
255 255 255
255 255 255
255 255 255
255 255 255
255 255 255
255 255 255
255 255 255
255 255 255
255 255 255
255 255 255
255 255 255
255 255 255
255 255 255
255 255 255
200 50 50
200 50 50
200 50 50
200 50 50
200 50 50
200 50 50
200 50 50
200 50 50
200 50 50
200 50 50
200 50 50
200 50 50
200 50 50
200 50 50
200 50 50
200 50 50
200 50 50
200 50 50
200 50 50
200 50 50
200 50 50
200 50 50
200 50 50
200 50 50
200 50 50
200 50 50
200 50 50
200 50 50
200 50 50
200 50 50
200 50 50
200 50 50
255 255 255
255 255 255
255 255 255
255 255 255
255 255 255
255 255 255
255 255 255
255 255 255
255 255 255
255 255 255
255 255 255
255 255 255
255 255 255
255 255 255
255 255 255
255 255 255
255 255 255
255 255 255
255 255 255
255 255 255
255 255 255
255 255 255
255 255 255
255 255 255
255 255 255
255 255 255
255 255 255
255 255 255
255 255 255
255 255 255
255 255 255
255 255 255
200 50 50
200 50 50
200 50 50
200 50 50
200 50 50
200 50 50
200 50 50
200 50 50
200 50 50
200 50 50
200 50 50
200 50 50
200 50 50
200 50 50
200 50 50
200 50 50
200 50 50
200 50 50
200 50 50
200 50 50
200 50 50
200 50 50
200 50 50
200 50 50
200 50 50
200 50 50
200 50 50
200 50 50
200 50 50
200 50 50
200 50 50
200 50 50
255 255 255
255 255 255
255 255 255
255 255 255
255 255 255
255 255 255
255 255 255
255 255 255
255 255 255
255 255 255
255 255 255
255 255 255
255 255 255
255 255 255
255 255 255
255 255 255
255 255 255
255 255 255
255 255 255
255 255 255
255 255 255
255 255 255
255 255 255
255 255 255
255 255 255
255 255 255
255 255 255
255 255 255
255 255 255
255 255 255
255 255 255
255 255 255
200 50 50
200 50 50
200 50 50
200 50 50
200 50 50
200 50 50
200 50 50
200 50 50
200 50 50
200 50 50
200 50 50
200 50 50
200 50 50
200 50 50
200 50 50
200 50 50
200 50 50
200 50 50
200 50 50
200 50 50
200 50 50
200 50 50
200 50 50
200 50 50
200 50 50
200 50 50
200 50 50
200 50 50
200 50 50
200 50 50
200 50 50
200 50 50
255 255 255
255 255 255
255 255 255
255 255 255
255 255 255
255 255 255
255 255 255
255 255 255
255 255 255
255 255 255
255 255 255
255 255 255
255 255 255
255 255 255
255 255 255
255 255 255
255 255 255
255 255 255
255 255 255
255 255 255
255 255 255
255 255 255
255 255 255
255 255 255
255 255 255
255 255 255
255 255 255
255 255 255
255 255 255
255 255 255
255 255 255
255 255 255
200 50 50
200 50 50
200 50 50
200 50 50
200 50 50
200 50 50
200 50 50
200 50 50
200 50 50
200 50 50
200 50 50
200 50 50
200 50 50
200 50 50
200 50 50
200 50 50
200 50 50
200 50 50
200 50 50
200 50 50
200 50 50
200 50 50
200 50 50
200 50 50
200 50 50
200 50 50
200 50 50
200 50 50
200 50 50
200 50 50
200 50 50
200 50 50
255 255 255
255 255 255
255 255 255
255 255 255
255 255 255
255 255 255
255 255 255
255 255 255
255 255 255
255 255 255
255 255 255
255 255 255
255 255 255
255 255 255
255 255 255
255 255 255
255 255 255
255 255 255
255 255 255
255 255 255
255 255 255
255 255 255
255 255 255
255 255 255
255 255 255
255 255 255
255 255 255
255 255 255
255 255 255
255 255 255
255 255 255
255 255 255
200 50 50
200 50 50
200 50 50
200 50 50
200 50 50
200 50 50
200 50 50
200 50 50
200 50 50
200 50 50
200 50 50
200 50 50
200 50 50
200 50 50
200 50 50
200 50 50
200 50 50
200 50 50
200 50 50
200 50 50
200 50 50
200 50 50
200 50 50
200 50 50
200 50 50
200 50 50
200 50 50
200 50 50
200 50 50
200 50 50
200 50 50
200 50 50
255 255 255
255 255 255
255 255 255
255 255 255
255 255 255
255 255 255
255 255 255
255 255 255
255 255 255
255 255 255
255 255 255
255 255 255
255 255 255
255 255 255
255 255 255
255 255 255
255 255 255
255 255 255
255 255 255
255 255 255
255 255 255
255 255 255
255 255 255
255 255 255
255 255 255
255 255 255
255 255 255
255 255 255
255 255 255
255 255 255
255 255 255
255 255 255
200 50 50
200 50 50
200 50 50
200 50 50
200 50 50
200 50 50
200 50 50
200 50 50
200 50 50
200 50 50
200 50 50
200 50 50
200 50 50
200 50 50
200 50 50
200 50 50
200 50 50
200 50 50
200 50 50
200 50 50
200 50 50
200 50 50
200 50 50
200 50 50
200 50 50
200 50 50
200 50 50
200 50 50
200 50 50
200 50 50
200 50 50
200 50 50
255 255 255
255 255 255
255 255 255
255 255 255
255 255 255
255 255 255
255 255 255
255 255 255
255 255 255
255 255 255
255 255 255
255 255 255
255 255 255
255 255 255
255 255 255
255 255 255
255 255 255
255 255 255
255 255 255
255 255 255
255 255 255
255 255 255
255 255 255
255 255 255
255 255 255
255 255 255
255 255 255
255 255 255
255 255 255
255 255 255
255 255 255
255 255 255
200 50 50
200 50 50
200 50 50
200 50 50
200 50 50
200 50 50
200 50 50
200 50 50
200 50 50
200 50 50
200 50 50
200 50 50
200 50 50
200 50 50
200 50 50
200 50 50
200 50 50
200 50 50
200 50 50
200 50 50
200 50 50
200 50 50
200 50 50
200 50 50
200 50 50
200 50 50
200 50 50
200 50 50
200 50 50
200 50 50
200 50 50
200 50 50
255 255 255
255 255 255
255 255 255
255 255 255
255 255 255
255 255 255
255 255 255
255 255 255
255 255 255
255 255 255
255 255 255
255 255 255
255 255 255
255 255 255
255 255 255
255 255 255
255 255 255
255 255 255
255 255 255
255 255 255
255 255 255
255 255 255
255 255 255
255 255 255
255 255 255
255 255 255
255 255 255
255 255 255
255 255 255
255 255 255
255 255 255
255 255 255
200 50 50
200 50 50
200 50 50
200 50 50
200 50 50
200 50 50
200 50 50
200 50 50
200 50 50
200 50 50
200 50 50
200 50 50
200 50 50
200 50 50
200 50 50
200 50 50
200 50 50
200 50 50
200 50 50
200 50 50
200 50 50
200 50 50
200 50 50
200 50 50
200 50 50
200 50 50
200 50 50
200 50 50
200 50 50
200 50 50
200 50 50
200 50 50
255 255 255
255 255 255
255 255 255
255 255 255
255 255 255
255 255 255
255 255 255
255 255 255
255 255 255
255 255 255
255 255 255
255 255 255
255 255 255
255 255 255
255 255 255
255 255 255
255 255 255
255 255 255
255 255 255
255 255 255
255 255 255
255 255 255
255 255 255
255 255 255
255 255 255
255 255 255
255 255 255
255 255 255
255 255 255
255 255 255
255 255 255
255 255 255
200 50 50
200 50 50
200 50 50
200 50 50
200 50 50
200 50 50
200 50 50
200 50 50
200 50 50
200 50 50
200 50 50
200 50 50
200 50 50
200 50 50
200 50 50
200 50 50
200 50 50
200 50 50
200 50 50
200 50 50
200 50 50
200 50 50
200 50 50
200 50 50
200 50 50
200 50 50
200 50 50
200 50 50
200 50 50
200 50 50
200 50 50
200 50 50
255 255 255
255 255 255
255 255 255
255 255 255
255 255 255
255 255 255
255 255 255
255 255 255
255 255 255
255 255 255
255 255 255
255 255 255
255 255 255
255 255 255
255 255 255
255 255 255
255 255 255
255 255 255
255 255 255
255 255 255
255 255 255
255 255 255
255 255 255
255 255 255
255 255 255
255 255 255
255 255 255
255 255 255
255 255 255
255 255 255
255 255 255
255 255 255
200 50 50
200 50 50
200 50 50
200 50 50
200 50 50
200 50 50
200 50 50
200 50 50
200 50 50
200 50 50
200 50 50
200 50 50
200 50 50
200 50 50
200 50 50
200 50 50
200 50 50
200 50 50
200 50 50
200 50 50
200 50 50
200 50 50
200 50 50
200 50 50
200 50 50
200 50 50
200 50 50
200 50 50
200 50 50
200 50 50
200 50 50
200 50 50
255 255 255
255 255 255
255 255 255
255 255 255
255 255 255
255 255 255
255 255 255
255 255 255
255 255 255
255 255 255
255 255 255
255 255 255
255 255 255
255 255 255
255 255 255
255 255 255
255 255 255
255 255 255
255 255 255
255 255 255
255 255 255
255 255 255
255 255 255
255 255 255
255 255 255
255 255 255
255 255 255
255 255 255
255 255 255
255 255 255
255 255 255
255 255 255
200 50 50
200 50 50
200 50 50
200 50 50
200 50 50
200 50 50
200 50 50
200 50 50
200 50 50
200 50 50
200 50 50
200 50 50
200 50 50
200 50 50
200 50 50
200 50 50
200 50 50
200 50 50
200 50 50
200 50 50
200 50 50
200 50 50
200 50 50
200 50 50
200 50 50
200 50 50
200 50 50
200 50 50
200 50 50
200 50 50
200 50 50
200 50 50
255 255 255
255 255 255
255 255 255
255 255 255
255 255 255
255 255 255
255 255 255
255 255 255
255 255 255
255 255 255
255 255 255
255 255 255
255 255 255
255 255 255
255 255 255
255 255 255
255 255 255
255 255 255
255 255 255
255 255 255
255 255 255
255 255 255
255 255 255
255 255 255
255 255 255
255 255 255
255 255 255
255 255 255
255 255 255
255 255 255
255 255 255
255 255 255
200 50 50
200 50 50
200 50 50
200 50 50
200 50 50
200 50 50
200 50 50
200 50 50
200 50 50
200 50 50
200 50 50
200 50 50
200 50 50
200 50 50
200 50 50
200 50 50
200 50 50
200 50 50
200 50 50
200 50 50
200 50 50
200 50 50
200 50 50
200 50 50
200 50 50
200 50 50
200 50 50
200 50 50
200 50 50
200 50 50
200 50 50
200 50 50
255 255 255
255 255 255
255 255 255
255 255 255
255 255 255
255 255 255
255 255 255
255 255 255
255 255 255
255 255 255
255 255 255
255 255 255
255 255 255
255 255 255
255 255 255
255 255 255
255 255 255
255 255 255
255 255 255
255 255 255
255 255 255
255 255 255
255 255 255
255 255 255
255 255 255
255 255 255
255 255 255
255 255 255
255 255 255
255 255 255
255 255 255
255 255 255
200 50 50
200 50 50
200 50 50
200 50 50
200 50 50
200 50 50
200 50 50
200 50 50
200 50 50
200 50 50
200 50 50
200 50 50
200 50 50
200 50 50
200 50 50
200 50 50
200 50 50
200 50 50
200 50 50
200 50 50
200 50 50
200 50 50
200 50 50
200 50 50
200 50 50
200 50 50
200 50 50
200 50 50
200 50 50
200 50 50
200 50 50
200 50 50
255 255 255
255 255 255
255 255 255
255 255 255
255 255 255
255 255 255
255 255 255
255 255 255
255 255 255
255 255 255
255 255 255
255 255 255
255 255 255
255 255 255
255 255 255
255 255 255
255 255 255
255 255 255
255 255 255
255 255 255
255 255 255
255 255 255
255 255 255
255 255 255
255 255 255
255 255 255
255 255 255
255 255 255
255 255 255
255 255 255
255 255 255
255 255 255
200 50 50
200 50 50
200 50 50
200 50 50
200 50 50
200 50 50
200 50 50
200 50 50
200 50 50
200 50 50
200 50 50
200 50 50
200 50 50
200 50 50
200 50 50
200 50 50
200 50 50
200 50 50
200 50 50
200 50 50
200 50 50
200 50 50
200 50 50
200 50 50
200 50 50
200 50 50
200 50 50
200 50 50
200 50 50
200 50 50
200 50 50
200 50 50
255 255 255
255 255 255
255 255 255
255 255 255
255 255 255
255 255 255
255 255 255
255 255 255
255 255 255
255 255 255
255 255 255
255 255 255
255 255 255
255 255 255
255 255 255
255 255 255
255 255 255
255 255 255
255 255 255
255 255 255
255 255 255
255 255 255
255 255 255
255 255 255
255 255 255
255 255 255
255 255 255
255 255 255
255 255 255
255 255 255
255 255 255
255 255 255
200 50 50
200 50 50
200 50 50
200 50 50
200 50 50
200 50 50
200 50 50
200 50 50
200 50 50
200 50 50
200 50 50
200 50 50
200 50 50
200 50 50
200 50 50
200 50 50
200 50 50
200 50 50
200 50 50
200 50 50
200 50 50
200 50 50
200 50 50
200 50 50
200 50 50
200 50 50
200 50 50
200 50 50
200 50 50
200 50 50
200 50 50
200 50 50
255 255 255
255 255 255
255 255 255
255 255 255
255 255 255
255 255 255
255 255 255
255 255 255
255 255 255
255 255 255
255 255 255
255 255 255
255 255 255
255 255 255
255 255 255
255 255 255
255 255 255
255 255 255
255 255 255
255 255 255
255 255 255
255 255 255
255 255 255
255 255 255
255 255 255
255 255 255
255 255 255
255 255 255
255 255 255
255 255 255
255 255 255
255 255 255
200 50 50
200 50 50
200 50 50
200 50 50
200 50 50
200 50 50
200 50 50
200 50 50
200 50 50
200 50 50
200 50 50
200 50 50
200 50 50
200 50 50
200 50 50
200 50 50
200 50 50
200 50 50
200 50 50
200 50 50
200 50 50
200 50 50
200 50 50
200 50 50
200 50 50
200 50 50
200 50 50
200 50 50
200 50 50
200 50 50
200 50 50
200 50 50
255 255 255
255 255 255
255 255 255
255 255 255
255 255 255
255 255 255
255 255 255
255 255 255
255 255 255
255 255 255
255 255 255
255 255 255
255 255 255
255 255 255
255 255 255
255 255 255
255 255 255
255 255 255
255 255 255
255 255 255
255 255 255
255 255 255
255 255 255
255 255 255
255 255 255
255 255 255
255 255 255
255 255 255
255 255 255
255 255 255
255 255 255
255 255 255
200 50 50
200 50 50
200 50 50
200 50 50
200 50 50
200 50 50
200 50 50
200 50 50
200 50 50
200 50 50
200 50 50
200 50 50
200 50 50
200 50 50
200 50 50
200 50 50
200 50 50
200 50 50
200 50 50
200 50 50
200 50 50
200 50 50
200 50 50
200 50 50
200 50 50
200 50 50
200 50 50
200 50 50
200 50 50
200 50 50
200 50 50
200 50 50
255 255 255
255 255 255
255 255 255
255 255 255
255 255 255
255 255 255
255 255 255
255 255 255
255 255 255
255 255 255
255 255 255
255 255 255
255 255 255
255 255 255
255 255 255
255 255 255
255 255 255
255 255 255
255 255 255
255 255 255
255 255 255
255 255 255
255 255 255
255 255 255
255 255 255
255 255 255
255 255 255
255 255 255
255 255 255
255 255 255
255 255 255
255 255 255
200 50 50
200 50 50
200 50 50
200 50 50
200 50 50
200 50 50
200 50 50
200 50 50
200 50 50
200 50 50
200 50 50
200 50 50
200 50 50
200 50 50
200 50 50
200 50 50
200 50 50
200 50 50
200 50 50
200 50 50
200 50 50
200 50 50
200 50 50
200 50 50
200 50 50
200 50 50
200 50 50
200 50 50
200 50 50
200 50 50
200 50 50
200 50 50
255 255 255
255 255 255
255 255 255
255 255 255
255 255 255
255 255 255
255 255 255
255 255 255
255 255 255
255 255 255
255 255 255
255 255 255
255 255 255
255 255 255
255 255 255
255 255 255
255 255 255
255 255 255
255 255 255
255 255 255
255 255 255
255 255 255
255 255 255
255 255 255
255 255 255
255 255 255
255 255 255
255 255 255
255 255 255
255 255 255
255 255 255
255 255 255
200 50 50
200 50 50
200 50 50
200 50 50
200 50 50
200 50 50
200 50 50
200 50 50
200 50 50
200 50 50
200 50 50
200 50 50
200 50 50
200 50 50
200 50 50
200 50 50
200 50 50
200 50 50
200 50 50
200 50 50
200 50 50
200 50 50
200 50 50
200 50 50
200 50 50
200 50 50
200 50 50
200 50 50
200 50 50
200 50 50
200 50 50
200 50 50
255 255 255
255 255 255
255 255 255
255 255 255
255 255 255
255 255 255
255 255 255
255 255 255
255 255 255
255 255 255
255 255 255
255 255 255
255 255 255
255 255 255
255 255 255
255 255 255
255 255 255
255 255 255
255 255 255
255 255 255
255 255 255
255 255 255
255 255 255
255 255 255
255 255 255
255 255 255
255 255 255
255 255 255
255 255 255
255 255 255
255 255 255
255 255 255
200 50 50
200 50 50
200 50 50
200 50 50
200 50 50
200 50 50
200 50 50
200 50 50
200 50 50
200 50 50
200 50 50
200 50 50
200 50 50
200 50 50
200 50 50
200 50 50
200 50 50
200 50 50
200 50 50
200 50 50
200 50 50
200 50 50
200 50 50
200 50 50
200 50 50
200 50 50
200 50 50
200 50 50
200 50 50
200 50 50
200 50 50
200 50 50
255 255 255
255 255 255
255 255 255
255 255 255
255 255 255
255 255 255
255 255 255
255 255 255
255 255 255
255 255 255
255 255 255
255 255 255
255 255 255
255 255 255
255 255 255
255 255 255
255 255 255
255 255 255
255 255 255
255 255 255
255 255 255
255 255 255
255 255 255
255 255 255
255 255 255
255 255 255
255 255 255
255 255 255
255 255 255
255 255 255
255 255 255
255 255 255
200 50 50
200 50 50
200 50 50
200 50 50
200 50 50
200 50 50
200 50 50
200 50 50
200 50 50
200 50 50
200 50 50
200 50 50
200 50 50
200 50 50
200 50 50
200 50 50
200 50 50
200 50 50
200 50 50
200 50 50
200 50 50
200 50 50
200 50 50
200 50 50
200 50 50
200 50 50
200 50 50
200 50 50
200 50 50
200 50 50
200 50 50
200 50 50
255 255 255
255 255 255
255 255 255
255 255 255
255 255 255
255 255 255
255 255 255
255 255 255
255 255 255
255 255 255
255 255 255
255 255 255
255 255 255
255 255 255
255 255 255
255 255 255
255 255 255
255 255 255
255 255 255
255 255 255
255 255 255
255 255 255
255 255 255
255 255 255
255 255 255
255 255 255
255 255 255
255 255 255
255 255 255
255 255 255
255 255 255
255 255 255
200 50 50
200 50 50
200 50 50
200 50 50
200 50 50
200 50 50
200 50 50
200 50 50
200 50 50
200 50 50
200 50 50
200 50 50
200 50 50
200 50 50
200 50 50
200 50 50
200 50 50
200 50 50
200 50 50
200 50 50
200 50 50
200 50 50
200 50 50
200 50 50
200 50 50
200 50 50
200 50 50
200 50 50
200 50 50
200 50 50
200 50 50
200 50 50
255 255 255
255 255 255
255 255 255
255 255 255
255 255 255
255 255 255
255 255 255
255 255 255
255 255 255
255 255 255
255 255 255
255 255 255
255 255 255
255 255 255
255 255 255
255 255 255
255 255 255
255 255 255
255 255 255
255 255 255
255 255 255
255 255 255
255 255 255
255 255 255
255 255 255
255 255 255
255 255 255
255 255 255
255 255 255
255 255 255
255 255 255
255 255 255
200 50 50
200 50 50
200 50 50
200 50 50
200 50 50
200 50 50
200 50 50
200 50 50
200 50 50
200 50 50
200 50 50
200 50 50
200 50 50
200 50 50
200 50 50
200 50 50
200 50 50
200 50 50
200 50 50
200 50 50
200 50 50
200 50 50
200 50 50
200 50 50
200 50 50
200 50 50
200 50 50
200 50 50
200 50 50
200 50 50
200 50 50
200 50 50
255 255 255
255 255 255
255 255 255
255 255 255
255 255 255
255 255 255
255 255 255
255 255 255
255 255 255
255 255 255
255 255 255
255 255 255
255 255 255
255 255 255
255 255 255
255 255 255
255 255 255
255 255 255
255 255 255
255 255 255
255 255 255
255 255 255
255 255 255
255 255 255
255 255 255
255 255 255
255 255 255
255 255 255
255 255 255
255 255 255
255 255 255
255 255 255
200 50 50
200 50 50
200 50 50
200 50 50
200 50 50
200 50 50
200 50 50
200 50 50
200 50 50
200 50 50
200 50 50
200 50 50
200 50 50
200 50 50
200 50 50
200 50 50
200 50 50
200 50 50
200 50 50
200 50 50
200 50 50
200 50 50
200 50 50
200 50 50
200 50 50
200 50 50
200 50 50
200 50 50
200 50 50
200 50 50
200 50 50
200 50 50
255 255 255
255 255 255
255 255 255
255 255 255
255 255 255
255 255 255
255 255 255
255 255 255
255 255 255
255 255 255
255 255 255
255 255 255
255 255 255
255 255 255
255 255 255
255 255 255
255 255 255
255 255 255
255 255 255
255 255 255
255 255 255
255 255 255
255 255 255
255 255 255
255 255 255
255 255 255
255 255 255
255 255 255
255 255 255
255 255 255
255 255 255
255 255 255
200 50 50
200 50 50
200 50 50
200 50 50
200 50 50
200 50 50
200 50 50
200 50 50
200 50 50
200 50 50
200 50 50
200 50 50
200 50 50
200 50 50
200 50 50
200 50 50
200 50 50
200 50 50
200 50 50
200 50 50
200 50 50
200 50 50
200 50 50
200 50 50
200 50 50
200 50 50
200 50 50
200 50 50
200 50 50
200 50 50
200 50 50
200 50 50
255 255 255
255 255 255
255 255 255
255 255 255
255 255 255
255 255 255
255 255 255
255 255 255
255 255 255
255 255 255
255 255 255
255 255 255
255 255 255
255 255 255
255 255 255
255 255 255
255 255 255
255 255 255
255 255 255
255 255 255
255 255 255
255 255 255
255 255 255
255 255 255
255 255 255
255 255 255
255 255 255
255 255 255
255 255 255
255 255 255
255 255 255
255 255 255
200 50 50
200 50 50
200 50 50
200 50 50
200 50 50
200 50 50
200 50 50
200 50 50
200 50 50
200 50 50
200 50 50
200 50 50
200 50 50
200 50 50
200 50 50
200 50 50
200 50 50
200 50 50
200 50 50
200 50 50
200 50 50
200 50 50
200 50 50
200 50 50
200 50 50
200 50 50
200 50 50
200 50 50
200 50 50
200 50 50
200 50 50
200 50 50
255 255 255
255 255 255
255 255 255
255 255 255
255 255 255
255 255 255
255 255 255
255 255 255
255 255 255
255 255 255
255 255 255
255 255 255
255 255 255
255 255 255
255 255 255
255 255 255
255 255 255
255 255 255
255 255 255
255 255 255
255 255 255
255 255 255
255 255 255
255 255 255
255 255 255
255 255 255
255 255 255
255 255 255
255 255 255
255 255 255
255 255 255
255 255 255
200 50 50
200 50 50
200 50 50
200 50 50
200 50 50
200 50 50
200 50 50
200 50 50
200 50 50
200 50 50
200 50 50
200 50 50
200 50 50
200 50 50
200 50 50
200 50 50
200 50 50
200 50 50
200 50 50
200 50 50
200 50 50
200 50 50
200 50 50
200 50 50
200 50 50
200 50 50
200 50 50
200 50 50
200 50 50
200 50 50
200 50 50
200 50 50
255 255 255
255 255 255
255 255 255
255 255 255
255 255 255
255 255 255
255 255 255
255 255 255
255 255 255
255 255 255
255 255 255
255 255 255
255 255 255
255 255 255
255 255 255
255 255 255
255 255 255
255 255 255
255 255 255
255 255 255
255 255 255
255 255 255
255 255 255
255 255 255
255 255 255
255 255 255
255 255 255
255 255 255
255 255 255
255 255 255
255 255 255
255 255 255
200 50 50
200 50 50
200 50 50
200 50 50
200 50 50
200 50 50
200 50 50
200 50 50
200 50 50
200 50 50
200 50 50
200 50 50
200 50 50
200 50 50
200 50 50
200 50 50
200 50 50
200 50 50
200 50 50
200 50 50
200 50 50
200 50 50
200 50 50
200 50 50
200 50 50
200 50 50
200 50 50
200 50 50
200 50 50
200 50 50
200 50 50
200 50 50
255 255 255
255 255 255
255 255 255
255 255 255
255 255 255
255 255 255
255 255 255
255 255 255
255 255 255
255 255 255
255 255 255
255 255 255
255 255 255
255 255 255
255 255 255
255 255 255
255 255 255
255 255 255
255 255 255
255 255 255
255 255 255
255 255 255
255 255 255
255 255 255
255 255 255
255 255 255
255 255 255
255 255 255
255 255 255
255 255 255
255 255 255
255 255 255
200 50 50
200 50 50
200 50 50
200 50 50
200 50 50
200 50 50
200 50 50
200 50 50
200 50 50
200 50 50
200 50 50
200 50 50
200 50 50
200 50 50
200 50 50
200 50 50
200 50 50
200 50 50
200 50 50
200 50 50
200 50 50
200 50 50
200 50 50
200 50 50
200 50 50
200 50 50
200 50 50
200 50 50
200 50 50
200 50 50
200 50 50
200 50 50
255 255 255
255 255 255
255 255 255
255 255 255
255 255 255
255 255 255
255 255 255
255 255 255
255 255 255
255 255 255
255 255 255
255 255 255
255 255 255
255 255 255
255 255 255
255 255 255
255 255 255
255 255 255
255 255 255
255 255 255
255 255 255
255 255 255
255 255 255
255 255 255
255 255 255
255 255 255
255 255 255
255 255 255
255 255 255
255 255 255
255 255 255
255 255 255
200 50 50
200 50 50
200 50 50
200 50 50
200 50 50
200 50 50
200 50 50
200 50 50
200 50 50
200 50 50
200 50 50
200 50 50
200 50 50
200 50 50
200 50 50
200 50 50
200 50 50
200 50 50
200 50 50
200 50 50
200 50 50
200 50 50
200 50 50
200 50 50
200 50 50
200 50 50
200 50 50
200 50 50
200 50 50
200 50 50
200 50 50
200 50 50
255 255 255
255 255 255
255 255 255
255 255 255
255 255 255
255 255 255
255 255 255
255 255 255
255 255 255
255 255 255
255 255 255
255 255 255
255 255 255
255 255 255
255 255 255
255 255 255
255 255 255
255 255 255
255 255 255
255 255 255
255 255 255
255 255 255
255 255 255
255 255 255
255 255 255
255 255 255
255 255 255
255 255 255
255 255 255
255 255 255
255 255 255
255 255 255
200 50 50
200 50 50
200 50 50
200 50 50
200 50 50
200 50 50
200 50 50
200 50 50
200 50 50
200 50 50
200 50 50
200 50 50
200 50 50
200 50 50
200 50 50
200 50 50
200 50 50
200 50 50
200 50 50
200 50 50
200 50 50
200 50 50
200 50 50
200 50 50
200 50 50
200 50 50
200 50 50
200 50 50
200 50 50
200 50 50
200 50 50
200 50 50
255 255 255
255 255 255
255 255 255
255 255 255
255 255 255
255 255 255
255 255 255
255 255 255
255 255 255
255 255 255
255 255 255
255 255 255
255 255 255
255 255 255
255 255 255
255 255 255
255 255 255
255 255 255
255 255 255
255 255 255
255 255 255
255 255 255
255 255 255
255 255 255
255 255 255
255 255 255
255 255 255
255 255 255
255 255 255
255 255 255
255 255 255
255 255 255
200 50 50
200 50 50
200 50 50
200 50 50
200 50 50
200 50 50
200 50 50
200 50 50
200 50 50
200 50 50
200 50 50
200 50 50
200 50 50
200 50 50
200 50 50
200 50 50
200 50 50
200 50 50
200 50 50
200 50 50
200 50 50
200 50 50
200 50 50
200 50 50
200 50 50
200 50 50
200 50 50
200 50 50
200 50 50
200 50 50
200 50 50
200 50 50
255 255 255
255 255 255
255 255 255
255 255 255
255 255 255
255 255 255
255 255 255
255 255 255
255 255 255
255 255 255
255 255 255
255 255 255
255 255 255
255 255 255
255 255 255
255 255 255
255 255 255
255 255 255
255 255 255
255 255 255
255 255 255
255 255 255
255 255 255
255 255 255
255 255 255
255 255 255
255 255 255
255 255 255
255 255 255
255 255 255
255 255 255
255 255 255
200 50 50
200 50 50
200 50 50
200 50 50
200 50 50
200 50 50
200 50 50
200 50 50
200 50 50
200 50 50
200 50 50
200 50 50
200 50 50
200 50 50
200 50 50
200 50 50
200 50 50
200 50 50
200 50 50
200 50 50
200 50 50
200 50 50
200 50 50
200 50 50
200 50 50
200 50 50
200 50 50
200 50 50
200 50 50
200 50 50
200 50 50
200 50 50
255 255 255
255 255 255
255 255 255
255 255 255
255 255 255
255 255 255
255 255 255
255 255 255
255 255 255
255 255 255
255 255 255
255 255 255
255 255 255
255 255 255
255 255 255
255 255 255
255 255 255
255 255 255
255 255 255
255 255 255
255 255 255
255 255 255
255 255 255
255 255 255
255 255 255
255 255 255
255 255 255
255 255 255
255 255 255
255 255 255
255 255 255
255 255 255
200 50 50
200 50 50
200 50 50
200 50 50
200 50 50
200 50 50
200 50 50
200 50 50
200 50 50
200 50 50
200 50 50
200 50 50
200 50 50
200 50 50
200 50 50
200 50 50
200 50 50
200 50 50
200 50 50
200 50 50
200 50 50
200 50 50
200 50 50
200 50 50
200 50 50
200 50 50
200 50 50
200 50 50
200 50 50
200 50 50
200 50 50
200 50 50
255 255 255
255 255 255
255 255 255
255 255 255
255 255 255
255 255 255
255 255 255
255 255 255
255 255 255
255 255 255
255 255 255
255 255 255
255 255 255
255 255 255
255 255 255
255 255 255
255 255 255
255 255 255
255 255 255
255 255 255
255 255 255
255 255 255
255 255 255
255 255 255
255 255 255
255 255 255
255 255 255
255 255 255
255 255 255
255 255 255
255 255 255
255 255 255
200 50 50
200 50 50
200 50 50
200 50 50
200 50 50
200 50 50
200 50 50
200 50 50
200 50 50
200 50 50
200 50 50
200 50 50
200 50 50
200 50 50
200 50 50
200 50 50
200 50 50
200 50 50
200 50 50
200 50 50
200 50 50
200 50 50
200 50 50
200 50 50
200 50 50
200 50 50
200 50 50
200 50 50
200 50 50
200 50 50
200 50 50
200 50 50
255 255 255
255 255 255
255 255 255
255 255 255
255 255 255
255 255 255
255 255 255
255 255 255
255 255 255
255 255 255
255 255 255
255 255 255
255 255 255
255 255 255
255 255 255
255 255 255
255 255 255
255 255 255
255 255 255
255 255 255
255 255 255
255 255 255
255 255 255
255 255 255
255 255 255
255 255 255
255 255 255
255 255 255
255 255 255
255 255 255
255 255 255
255 255 255
200 50 50
200 50 50
200 50 50
200 50 50
200 50 50
200 50 50
200 50 50
200 50 50
200 50 50
200 50 50
200 50 50
200 50 50
200 50 50
200 50 50
200 50 50
200 50 50
200 50 50
200 50 50
200 50 50
200 50 50
200 50 50
200 50 50
200 50 50
200 50 50
200 50 50
200 50 50
200 50 50
200 50 50
200 50 50
200 50 50
200 50 50
200 50 50
255 255 255
255 255 255
255 255 255
255 255 255
255 255 255
255 255 255
255 255 255
255 255 255
255 255 255
255 255 255
255 255 255
255 255 255
255 255 255
255 255 255
255 255 255
255 255 255
255 255 255
255 255 255
255 255 255
255 255 255
255 255 255
255 255 255
255 255 255
255 255 255
255 255 255
255 255 255
255 255 255
255 255 255
255 255 255
255 255 255
255 255 255
255 255 255
200 50 50
200 50 50
200 50 50
200 50 50
200 50 50
200 50 50
200 50 50
200 50 50
200 50 50
200 50 50
200 50 50
200 50 50
200 50 50
200 50 50
200 50 50
200 50 50
200 50 50
200 50 50
200 50 50
200 50 50
200 50 50
200 50 50
200 50 50
200 50 50
200 50 50
200 50 50
200 50 50
200 50 50
200 50 50
200 50 50
200 50 50
200 50 50
255 255 255
255 255 255
255 255 255
255 255 255
255 255 255
255 255 255
255 255 255
255 255 255
255 255 255
255 255 255
255 255 255
255 255 255
255 255 255
255 255 255
255 255 255
255 255 255
255 255 255
255 255 255
255 255 255
255 255 255
255 255 255
255 255 255
255 255 255
255 255 255
255 255 255
255 255 255
255 255 255
255 255 255
255 255 255
255 255 255
255 255 255
255 255 255
200 50 50
200 50 50
200 50 50
200 50 50
200 50 50
200 50 50
200 50 50
200 50 50
200 50 50
200 50 50
200 50 50
200 50 50
200 50 50
200 50 50
200 50 50
200 50 50
200 50 50
200 50 50
200 50 50
200 50 50
200 50 50
200 50 50
200 50 50
200 50 50
200 50 50
200 50 50
200 50 50
200 50 50
200 50 50
200 50 50
200 50 50
200 50 50
255 255 255
255 255 255
255 255 255
255 255 255
255 255 255
255 255 255
255 255 255
255 255 255
255 255 255
255 255 255
255 255 255
255 255 255
255 255 255
255 255 255
255 255 255
255 255 255
255 255 255
255 255 255
255 255 255
255 255 255
255 255 255
255 255 255
255 255 255
255 255 255
255 255 255
255 255 255
255 255 255
255 255 255
255 255 255
255 255 255
255 255 255
255 255 255
200 50 50
200 50 50
200 50 50
200 50 50
200 50 50
200 50 50
200 50 50
200 50 50
200 50 50
200 50 50
200 50 50
200 50 50
200 50 50
200 50 50
200 50 50
200 50 50
200 50 50
200 50 50
200 50 50
200 50 50
200 50 50
200 50 50
200 50 50
200 50 50
200 50 50
200 50 50
200 50 50
200 50 50
200 50 50
200 50 50
200 50 50
200 50 50
255 255 255
255 255 255
255 255 255
255 255 255
255 255 255
255 255 255
255 255 255
255 255 255
255 255 255
255 255 255
255 255 255
255 255 255
255 255 255
255 255 255
255 255 255
255 255 255
255 255 255
255 255 255
255 255 255
255 255 255
255 255 255
255 255 255
255 255 255
255 255 255
255 255 255
255 255 255
255 255 255
255 255 255
255 255 255
255 255 255
255 255 255
255 255 255
200 50 50
200 50 50
200 50 50
200 50 50
200 50 50
200 50 50
200 50 50
200 50 50
200 50 50
200 50 50
200 50 50
200 50 50
200 50 50
200 50 50
200 50 50
200 50 50
200 50 50
200 50 50
200 50 50
200 50 50
200 50 50
200 50 50
200 50 50
200 50 50
200 50 50
200 50 50
200 50 50
200 50 50
200 50 50
200 50 50
200 50 50
200 50 50
255 255 255
255 255 255
255 255 255
255 255 255
255 255 255
255 255 255
255 255 255
255 255 255
255 255 255
255 255 255
255 255 255
255 255 255
255 255 255
255 255 255
255 255 255
255 255 255
255 255 255
255 255 255
255 255 255
255 255 255
255 255 255
255 255 255
255 255 255
255 255 255
255 255 255
255 255 255
255 255 255
255 255 255
255 255 255
255 255 255
255 255 255
255 255 255
200 50 50
200 50 50
200 50 50
200 50 50
200 50 50
200 50 50
200 50 50
200 50 50
200 50 50
200 50 50
200 50 50
200 50 50
200 50 50
200 50 50
200 50 50
200 50 50
200 50 50
200 50 50
200 50 50
200 50 50
200 50 50
200 50 50
200 50 50
200 50 50
200 50 50
200 50 50
200 50 50
200 50 50
200 50 50
200 50 50
200 50 50
200 50 50
255 255 255
255 255 255
255 255 255
255 255 255
255 255 255
255 255 255
255 255 255
255 255 255
255 255 255
255 255 255
255 255 255
255 255 255
255 255 255
255 255 255
255 255 255
255 255 255
255 255 255
255 255 255
255 255 255
255 255 255
255 255 255
255 255 255
255 255 255
255 255 255
255 255 255
255 255 255
255 255 255
255 255 255
255 255 255
255 255 255
255 255 255
255 255 255
200 50 50
200 50 50
200 50 50
200 50 50
200 50 50
200 50 50
200 50 50
200 50 50
200 50 50
200 50 50
200 50 50
200 50 50
200 50 50
200 50 50
200 50 50
200 50 50
200 50 50
200 50 50
200 50 50
200 50 50
200 50 50
200 50 50
200 50 50
200 50 50
200 50 50
200 50 50
200 50 50
200 50 50
200 50 50
200 50 50
200 50 50
200 50 50
255 255 255
255 255 255
255 255 255
255 255 255
255 255 255
255 255 255
255 255 255
255 255 255
255 255 255
255 255 255
255 255 255
255 255 255
255 255 255
255 255 255
255 255 255
255 255 255
255 255 255
255 255 255
255 255 255
255 255 255
255 255 255
255 255 255
255 255 255
255 255 255
255 255 255
255 255 255
255 255 255
255 255 255
255 255 255
255 255 255
255 255 255
255 255 255
200 50 50
200 50 50
200 50 50
200 50 50
200 50 50
200 50 50
200 50 50
200 50 50
200 50 50
200 50 50
200 50 50
200 50 50
200 50 50
200 50 50
200 50 50
200 50 50
200 50 50
200 50 50
200 50 50
200 50 50
200 50 50
200 50 50
200 50 50
200 50 50
200 50 50
200 50 50
200 50 50
200 50 50
200 50 50
200 50 50
200 50 50
200 50 50
255 255 255
255 255 255
255 255 255
255 255 255
255 255 255
255 255 255
255 255 255
255 255 255
255 255 255
255 255 255
255 255 255
255 255 255
255 255 255
255 255 255
255 255 255
255 255 255
255 255 255
255 255 255
255 255 255
255 255 255
255 255 255
255 255 255
255 255 255
255 255 255
255 255 255
255 255 255
255 255 255
255 255 255
255 255 255
255 255 255
255 255 255
255 255 255
200 50 50
200 50 50
200 50 50
200 50 50
200 50 50
200 50 50
200 50 50
200 50 50
200 50 50
200 50 50
200 50 50
200 50 50
200 50 50
200 50 50
200 50 50
200 50 50
200 50 50
200 50 50
200 50 50
200 50 50
200 50 50
200 50 50
200 50 50
200 50 50
200 50 50
200 50 50
200 50 50
200 50 50
200 50 50
200 50 50
200 50 50
200 50 50
255 255 255
255 255 255
255 255 255
255 255 255
255 255 255
255 255 255
255 255 255
255 255 255
255 255 255
255 255 255
255 255 255
255 255 255
255 255 255
255 255 255
255 255 255
255 255 255
255 255 255
255 255 255
255 255 255
255 255 255
255 255 255
255 255 255
255 255 255
255 255 255
255 255 255
255 255 255
255 255 255
255 255 255
255 255 255
255 255 255
255 255 255
255 255 255
200 50 50
200 50 50
200 50 50
200 50 50
200 50 50
200 50 50
200 50 50
200 50 50
200 50 50
200 50 50
200 50 50
200 50 50
200 50 50
200 50 50
200 50 50
200 50 50
200 50 50
200 50 50
200 50 50
200 50 50
200 50 50
200 50 50
200 50 50
200 50 50
200 50 50
200 50 50
200 50 50
200 50 50
200 50 50
200 50 50
200 50 50
200 50 50
255 255 255
255 255 255
255 255 255
255 255 255
255 255 255
255 255 255
255 255 255
255 255 255
255 255 255
255 255 255
255 255 255
255 255 255
255 255 255
255 255 255
255 255 255
255 255 255
255 255 255
255 255 255
255 255 255
255 255 255
255 255 255
255 255 255
255 255 255
255 255 255
255 255 255
255 255 255
255 255 255
255 255 255
255 255 255
255 255 255
255 255 255
255 255 255
200 50 50
200 50 50
200 50 50
200 50 50
200 50 50
200 50 50
200 50 50
200 50 50
200 50 50
200 50 50
200 50 50
200 50 50
200 50 50
200 50 50
200 50 50
200 50 50
200 50 50
200 50 50
200 50 50
200 50 50
200 50 50
200 50 50
200 50 50
200 50 50
200 50 50
200 50 50
200 50 50
200 50 50
200 50 50
200 50 50
200 50 50
200 50 50
255 255 255
255 255 255
255 255 255
255 255 255
255 255 255
255 255 255
255 255 255
255 255 255
255 255 255
255 255 255
255 255 255
255 255 255
255 255 255
255 255 255
255 255 255
255 255 255
255 255 255
255 255 255
255 255 255
255 255 255
255 255 255
255 255 255
255 255 255
255 255 255
255 255 255
255 255 255
255 255 255
255 255 255
255 255 255
255 255 255
255 255 255
255 255 255
200 50 50
200 50 50
200 50 50
200 50 50
200 50 50
200 50 50
200 50 50
200 50 50
200 50 50
200 50 50
200 50 50
200 50 50
200 50 50
200 50 50
200 50 50
200 50 50
200 50 50
200 50 50
200 50 50
200 50 50
200 50 50
200 50 50
200 50 50
200 50 50
200 50 50
200 50 50
200 50 50
200 50 50
200 50 50
200 50 50
200 50 50
200 50 50
255 255 255
255 255 255
255 255 255
255 255 255
255 255 255
255 255 255
255 255 255
255 255 255
255 255 255
255 255 255
255 255 255
255 255 255
255 255 255
255 255 255
255 255 255
255 255 255
255 255 255
255 255 255
255 255 255
255 255 255
255 255 255
255 255 255
255 255 255
255 255 255
255 255 255
255 255 255
255 255 255
255 255 255
255 255 255
255 255 255
255 255 255
255 255 255
200 50 50
200 50 50
200 50 50
200 50 50
200 50 50
200 50 50
200 50 50
200 50 50
200 50 50
200 50 50
200 50 50
200 50 50
200 50 50
200 50 50
200 50 50
200 50 50
200 50 50
200 50 50
200 50 50
200 50 50
200 50 50
200 50 50
200 50 50
200 50 50
200 50 50
200 50 50
200 50 50
200 50 50
200 50 50
200 50 50
200 50 50
200 50 50
255 255 255
255 255 255
255 255 255
255 255 255
255 255 255
255 255 255
255 255 255
255 255 255
255 255 255
255 255 255
255 255 255
255 255 255
255 255 255
255 255 255
255 255 255
255 255 255
255 255 255
255 255 255
255 255 255
255 255 255
255 255 255
255 255 255
255 255 255
255 255 255
255 255 255
255 255 255
255 255 255
255 255 255
255 255 255
255 255 255
255 255 255
255 255 255
200 50 50
200 50 50
200 50 50
200 50 50
200 50 50
200 50 50
200 50 50
200 50 50
200 50 50
200 50 50
200 50 50
200 50 50
200 50 50
200 50 50
200 50 50
200 50 50
200 50 50
200 50 50
200 50 50
200 50 50
200 50 50
200 50 50
200 50 50
200 50 50
200 50 50
200 50 50
200 50 50
200 50 50
200 50 50
200 50 50
200 50 50
200 50 50
255 255 255
255 255 255
255 255 255
255 255 255
255 255 255
255 255 255
255 255 255
255 255 255
255 255 255
255 255 255
255 255 255
255 255 255
255 255 255
255 255 255
255 255 255
255 255 255
255 255 255
255 255 255
255 255 255
255 255 255
255 255 255
255 255 255
255 255 255
255 255 255
255 255 255
255 255 255
255 255 255
255 255 255
255 255 255
255 255 255
255 255 255
255 255 255
200 50 50
200 50 50
200 50 50
200 50 50
200 50 50
200 50 50
200 50 50
200 50 50
200 50 50
200 50 50
200 50 50
200 50 50
200 50 50
200 50 50
200 50 50
200 50 50
200 50 50
200 50 50
200 50 50
200 50 50
200 50 50
200 50 50
200 50 50
200 50 50
200 50 50
200 50 50
200 50 50
200 50 50
200 50 50
200 50 50
200 50 50
200 50 50
255 255 255
255 255 255
255 255 255
255 255 255
255 255 255
255 255 255
255 255 255
255 255 255
255 255 255
255 255 255
255 255 255
255 255 255
255 255 255
255 255 255
255 255 255
255 255 255
255 255 255
255 255 255
255 255 255
255 255 255
255 255 255
255 255 255
255 255 255
255 255 255
255 255 255
255 255 255
255 255 255
255 255 255
255 255 255
255 255 255
255 255 255
255 255 255
200 50 50
200 50 50
200 50 50
200 50 50
200 50 50
200 50 50
200 50 50
200 50 50
200 50 50
200 50 50
200 50 50
200 50 50
200 50 50
200 50 50
200 50 50
200 50 50
200 50 50
200 50 50
200 50 50
200 50 50
200 50 50
200 50 50
200 50 50
200 50 50
200 50 50
200 50 50
200 50 50
200 50 50
200 50 50
200 50 50
200 50 50
200 50 50
255 255 255
255 255 255
255 255 255
255 255 255
255 255 255
255 255 255
255 255 255
255 255 255
255 255 255
255 255 255
255 255 255
255 255 255
255 255 255
255 255 255
255 255 255
255 255 255
255 255 255
255 255 255
255 255 255
255 255 255
255 255 255
255 255 255
255 255 255
255 255 255
255 255 255
255 255 255
255 255 255
255 255 255
255 255 255
255 255 255
255 255 255
255 255 255
200 50 50
200 50 50
200 50 50
200 50 50
200 50 50
200 50 50
200 50 50
200 50 50
200 50 50
200 50 50
200 50 50
200 50 50
200 50 50
200 50 50
200 50 50
200 50 50
200 50 50
200 50 50
200 50 50
200 50 50
200 50 50
200 50 50
200 50 50
200 50 50
200 50 50
200 50 50
200 50 50
200 50 50
200 50 50
200 50 50
200 50 50
200 50 50
255 255 255
255 255 255
255 255 255
255 255 255
255 255 255
255 255 255
255 255 255
255 255 255
255 255 255
255 255 255
255 255 255
255 255 255
255 255 255
255 255 255
255 255 255
255 255 255
255 255 255
255 255 255
255 255 255
255 255 255
255 255 255
255 255 255
255 255 255
255 255 255
255 255 255
255 255 255
255 255 255
255 255 255
255 255 255
255 255 255
255 255 255
255 255 255
200 50 50
200 50 50
200 50 50
200 50 50
200 50 50
200 50 50
200 50 50
200 50 50
200 50 50
200 50 50
200 50 50
200 50 50
200 50 50
200 50 50
200 50 50
200 50 50
200 50 50
200 50 50
200 50 50
200 50 50
200 50 50
200 50 50
200 50 50
200 50 50
200 50 50
200 50 50
200 50 50
200 50 50
200 50 50
200 50 50
200 50 50
200 50 50
255 255 255
255 255 255
255 255 255
255 255 255
255 255 255
255 255 255
255 255 255
255 255 255
255 255 255
255 255 255
255 255 255
255 255 255
255 255 255
255 255 255
255 255 255
255 255 255
255 255 255
255 255 255
255 255 255
255 255 255
255 255 255
255 255 255
255 255 255
255 255 255
255 255 255
255 255 255
255 255 255
255 255 255
255 255 255
255 255 255
255 255 255
255 255 255
200 50 50
200 50 50
200 50 50
200 50 50
200 50 50
200 50 50
200 50 50
200 50 50
200 50 50
200 50 50
200 50 50
200 50 50
200 50 50
200 50 50
200 50 50
200 50 50
200 50 50
200 50 50
200 50 50
200 50 50
200 50 50
200 50 50
200 50 50
200 50 50
200 50 50
200 50 50
200 50 50
200 50 50
200 50 50
200 50 50
200 50 50
200 50 50
255 255 255
255 255 255
255 255 255
255 255 255
255 255 255
255 255 255
255 255 255
255 255 255
255 255 255
255 255 255
255 255 255
255 255 255
255 255 255
255 255 255
255 255 255
255 255 255
255 255 255
255 255 255
255 255 255
255 255 255
255 255 255
255 255 255
255 255 255
255 255 255
255 255 255
255 255 255
255 255 255
255 255 255
255 255 255
255 255 255
255 255 255
255 255 255
200 50 50
200 50 50
200 50 50
200 50 50
200 50 50
200 50 50
200 50 50
200 50 50
200 50 50
200 50 50
200 50 50
200 50 50
200 50 50
200 50 50
200 50 50
200 50 50
200 50 50
200 50 50
200 50 50
200 50 50
200 50 50
200 50 50
200 50 50
200 50 50
200 50 50
200 50 50
200 50 50
200 50 50
200 50 50
200 50 50
200 50 50
200 50 50
255 255 255
255 255 255
255 255 255
255 255 255
255 255 255
255 255 255
255 255 255
255 255 255
255 255 255
255 255 255
255 255 255
255 255 255
255 255 255
255 255 255
255 255 255
255 255 255
255 255 255
255 255 255
255 255 255
255 255 255
255 255 255
255 255 255
255 255 255
255 255 255
255 255 255
255 255 255
255 255 255
255 255 255
255 255 255
255 255 255
255 255 255
255 255 255
200 50 50
200 50 50
200 50 50
200 50 50
200 50 50
200 50 50
200 50 50
200 50 50
200 50 50
200 50 50
200 50 50
200 50 50
200 50 50
200 50 50
200 50 50
200 50 50
200 50 50
200 50 50
200 50 50
200 50 50
200 50 50
200 50 50
200 50 50
200 50 50
200 50 50
200 50 50
200 50 50
200 50 50
200 50 50
200 50 50
200 50 50
200 50 50
255 255 255
255 255 255
255 255 255
255 255 255
255 255 255
255 255 255
255 255 255
255 255 255
255 255 255
255 255 255
255 255 255
255 255 255
255 255 255
255 255 255
255 255 255
255 255 255
255 255 255
255 255 255
255 255 255
255 255 255
255 255 255
255 255 255
255 255 255
255 255 255
255 255 255
255 255 255
255 255 255
255 255 255
255 255 255
255 255 255
255 255 255
255 255 255
200 50 50
200 50 50
200 50 50
200 50 50
200 50 50
200 50 50
200 50 50
200 50 50
200 50 50
200 50 50
200 50 50
200 50 50
200 50 50
200 50 50
200 50 50
200 50 50
200 50 50
200 50 50
200 50 50
200 50 50
200 50 50
200 50 50
200 50 50
200 50 50
200 50 50
200 50 50
200 50 50
200 50 50
200 50 50
200 50 50
200 50 50
200 50 50
255 255 255
255 255 255
255 255 255
255 255 255
255 255 255
255 255 255
255 255 255
255 255 255
255 255 255
255 255 255
255 255 255
255 255 255
255 255 255
255 255 255
255 255 255
255 255 255
255 255 255
255 255 255
255 255 255
255 255 255
255 255 255
255 255 255
255 255 255
255 255 255
255 255 255
255 255 255
255 255 255
255 255 255
255 255 255
255 255 255
255 255 255
255 255 255
200 50 50
200 50 50
200 50 50
200 50 50
200 50 50
200 50 50
200 50 50
200 50 50
200 50 50
200 50 50
200 50 50
200 50 50
200 50 50
200 50 50
200 50 50
200 50 50
200 50 50
200 50 50
200 50 50
200 50 50
200 50 50
200 50 50
200 50 50
200 50 50
200 50 50
200 50 50
200 50 50
200 50 50
200 50 50
200 50 50
200 50 50
200 50 50
255 255 255
255 255 255
255 255 255
255 255 255
255 255 255
255 255 255
255 255 255
255 255 255
255 255 255
255 255 255
255 255 255
255 255 255
255 255 255
255 255 255
255 255 255
255 255 255
255 255 255
255 255 255
255 255 255
255 255 255
255 255 255
255 255 255
255 255 255
255 255 255
255 255 255
255 255 255
255 255 255
255 255 255
255 255 255
255 255 255
255 255 255
255 255 255
200 50 50
200 50 50
200 50 50
200 50 50
200 50 50
200 50 50
200 50 50
200 50 50
200 50 50
200 50 50
200 50 50
200 50 50
200 50 50
200 50 50
200 50 50
200 50 50
200 50 50
200 50 50
200 50 50
200 50 50
200 50 50
200 50 50
200 50 50
200 50 50
200 50 50
200 50 50
200 50 50
200 50 50
200 50 50
200 50 50
200 50 50
200 50 50
255 255 255
255 255 255
255 255 255
255 255 255
255 255 255
255 255 255
255 255 255
255 255 255
255 255 255
255 255 255
255 255 255
255 255 255
255 255 255
255 255 255
255 255 255
255 255 255
255 255 255
255 255 255
255 255 255
255 255 255
255 255 255
255 255 255
255 255 255
255 255 255
255 255 255
255 255 255
255 255 255
255 255 255
255 255 255
255 255 255
255 255 255
255 255 255
200 50 50
200 50 50
200 50 50
200 50 50
200 50 50
200 50 50
200 50 50
200 50 50
200 50 50
200 50 50
200 50 50
200 50 50
200 50 50
200 50 50
200 50 50
200 50 50
200 50 50
200 50 50
200 50 50
200 50 50
200 50 50
200 50 50
200 50 50
200 50 50
200 50 50
200 50 50
200 50 50
200 50 50
200 50 50
200 50 50
200 50 50
200 50 50
255 255 255
255 255 255
255 255 255
255 255 255
255 255 255
255 255 255
255 255 255
255 255 255
255 255 255
255 255 255
255 255 255
255 255 255
255 255 255
255 255 255
255 255 255
255 255 255
255 255 255
255 255 255
255 255 255
255 255 255
255 255 255
255 255 255
255 255 255
255 255 255
255 255 255
255 255 255
255 255 255
255 255 255
255 255 255
255 255 255
255 255 255
255 255 255
200 50 50
200 50 50
200 50 50
200 50 50
200 50 50
200 50 50
200 50 50
200 50 50
200 50 50
200 50 50
200 50 50
200 50 50
200 50 50
200 50 50
200 50 50
200 50 50
200 50 50
200 50 50
200 50 50
200 50 50
200 50 50
200 50 50
200 50 50
200 50 50
200 50 50
200 50 50
200 50 50
200 50 50
200 50 50
200 50 50
200 50 50
200 50 50
255 255 255
255 255 255
255 255 255
255 255 255
255 255 255
255 255 255
255 255 255
255 255 255
255 255 255
255 255 255
255 255 255
255 255 255
255 255 255
255 255 255
255 255 255
255 255 255
255 255 255
255 255 255
255 255 255
255 255 255
255 255 255
255 255 255
255 255 255
255 255 255
255 255 255
255 255 255
255 255 255
255 255 255
255 255 255
255 255 255
255 255 255
255 255 255
200 50 50
200 50 50
200 50 50
200 50 50
200 50 50
200 50 50
200 50 50
200 50 50
200 50 50
200 50 50
200 50 50
200 50 50
200 50 50
200 50 50
200 50 50
200 50 50
200 50 50
200 50 50
200 50 50
200 50 50
200 50 50
200 50 50
200 50 50
200 50 50
200 50 50
200 50 50
200 50 50
200 50 50
200 50 50
200 50 50
200 50 50
200 50 50
255 255 255
255 255 255
255 255 255
255 255 255
255 255 255
255 255 255
255 255 255
255 255 255
255 255 255
255 255 255
255 255 255
255 255 255
255 255 255
255 255 255
255 255 255
255 255 255
255 255 255
255 255 255
255 255 255
255 255 255
255 255 255
255 255 255
255 255 255
255 255 255
255 255 255
255 255 255
255 255 255
255 255 255
255 255 255
255 255 255
255 255 255
255 255 255
200 50 50
200 50 50
200 50 50
200 50 50
200 50 50
200 50 50
200 50 50
200 50 50
200 50 50
200 50 50
200 50 50
200 50 50
200 50 50
200 50 50
200 50 50
200 50 50
200 50 50
200 50 50
200 50 50
200 50 50
200 50 50
200 50 50
200 50 50
200 50 50
200 50 50
200 50 50
200 50 50
200 50 50
200 50 50
200 50 50
200 50 50
200 50 50
255 255 255
255 255 255
255 255 255
255 255 255
255 255 255
255 255 255
255 255 255
255 255 255
255 255 255
255 255 255
255 255 255
255 255 255
255 255 255
255 255 255
255 255 255
255 255 255
255 255 255
255 255 255
255 255 255
255 255 255
255 255 255
255 255 255
255 255 255
255 255 255
255 255 255
255 255 255
255 255 255
255 255 255
255 255 255
255 255 255
255 255 255
255 255 255
200 50 50
200 50 50
200 50 50
200 50 50
200 50 50
200 50 50
200 50 50
200 50 50
200 50 50
200 50 50
200 50 50
200 50 50
200 50 50
200 50 50
200 50 50
200 50 50
200 50 50
200 50 50
200 50 50
200 50 50
200 50 50
200 50 50
200 50 50
200 50 50
200 50 50
200 50 50
200 50 50
200 50 50
200 50 50
200 50 50
200 50 50
200 50 50
255 255 255
255 255 255
255 255 255
255 255 255
255 255 255
255 255 255
255 255 255
255 255 255
255 255 255
255 255 255
255 255 255
255 255 255
255 255 255
255 255 255
255 255 255
255 255 255
255 255 255
255 255 255
255 255 255
255 255 255
255 255 255
255 255 255
255 255 255
255 255 255
255 255 255
255 255 255
255 255 255
255 255 255
255 255 255
255 255 255
255 255 255
255 255 255
200 50 50
200 50 50
200 50 50
200 50 50
200 50 50
200 50 50
200 50 50
200 50 50
200 50 50
200 50 50
200 50 50
200 50 50
200 50 50
200 50 50
200 50 50
200 50 50
200 50 50
200 50 50
200 50 50
200 50 50
200 50 50
200 50 50
200 50 50
200 50 50
200 50 50
200 50 50
200 50 50
200 50 50
200 50 50
200 50 50
200 50 50
200 50 50
255 255 255
255 255 255
255 255 255
255 255 255
255 255 255
255 255 255
255 255 255
255 255 255
255 255 255
255 255 255
255 255 255
255 255 255
255 255 255
255 255 255
255 255 255
255 255 255
255 255 255
255 255 255
255 255 255
255 255 255
255 255 255
255 255 255
255 255 255
255 255 255
255 255 255
255 255 255
255 255 255
255 255 255
255 255 255
255 255 255
255 255 255
255 255 255
200 50 50
200 50 50
200 50 50
200 50 50
200 50 50
200 50 50
200 50 50
200 50 50
200 50 50
200 50 50
200 50 50
200 50 50
200 50 50
200 50 50
200 50 50
200 50 50
200 50 50
200 50 50
200 50 50
200 50 50
200 50 50
200 50 50
200 50 50
200 50 50
200 50 50
200 50 50
200 50 50
200 50 50
200 50 50
200 50 50
200 50 50
200 50 50
255 255 255
255 255 255
255 255 255
255 255 255
255 255 255
255 255 255
255 255 255
255 255 255
255 255 255
255 255 255
255 255 255
255 255 255
255 255 255
255 255 255
255 255 255
255 255 255
255 255 255
255 255 255
255 255 255
255 255 255
255 255 255
255 255 255
255 255 255
255 255 255
255 255 255
255 255 255
255 255 255
255 255 255
255 255 255
255 255 255
255 255 255
255 255 255
200 50 50
200 50 50
200 50 50
200 50 50
200 50 50
200 50 50
200 50 50
200 50 50
200 50 50
200 50 50
200 50 50
200 50 50
200 50 50
200 50 50
200 50 50
200 50 50
200 50 50
200 50 50
200 50 50
200 50 50
200 50 50
200 50 50
200 50 50
200 50 50
200 50 50
200 50 50
200 50 50
200 50 50
200 50 50
200 50 50
200 50 50
200 50 50
255 255 255
255 255 255
255 255 255
255 255 255
255 255 255
255 255 255
255 255 255
255 255 255
255 255 255
255 255 255
255 255 255
255 255 255
255 255 255
255 255 255
255 255 255
255 255 255
255 255 255
255 255 255
255 255 255
255 255 255
255 255 255
255 255 255
255 255 255
255 255 255
255 255 255
255 255 255
255 255 255
255 255 255
255 255 255
255 255 255
255 255 255
255 255 255
200 50 50
200 50 50
200 50 50
200 50 50
200 50 50
200 50 50
200 50 50
200 50 50
200 50 50
200 50 50
200 50 50
200 50 50
200 50 50
200 50 50
200 50 50
200 50 50
200 50 50
200 50 50
200 50 50
200 50 50
200 50 50
200 50 50
200 50 50
200 50 50
200 50 50
200 50 50
200 50 50
200 50 50
200 50 50
200 50 50
200 50 50
200 50 50
255 255 255
255 255 255
255 255 255
255 255 255
255 255 255
255 255 255
255 255 255
255 255 255
255 255 255
255 255 255
255 255 255
255 255 255
255 255 255
255 255 255
255 255 255
255 255 255
255 255 255
255 255 255
255 255 255
255 255 255
255 255 255
255 255 255
255 255 255
255 255 255
255 255 255
255 255 255
255 255 255
255 255 255
255 255 255
255 255 255
255 255 255
255 255 255
200 50 50
200 50 50
200 50 50
200 50 50
200 50 50
200 50 50
200 50 50
200 50 50
200 50 50
200 50 50
200 50 50
200 50 50
200 50 50
200 50 50
200 50 50
200 50 50
200 50 50
200 50 50
200 50 50
200 50 50
200 50 50
200 50 50
200 50 50
200 50 50
200 50 50
200 50 50
200 50 50
200 50 50
200 50 50
200 50 50
200 50 50
200 50 50
255 255 255
255 255 255
255 255 255
255 255 255
255 255 255
255 255 255
255 255 255
255 255 255
255 255 255
255 255 255
255 255 255
255 255 255
255 255 255
255 255 255
255 255 255
255 255 255
255 255 255
255 255 255
255 255 255
255 255 255
255 255 255
255 255 255
255 255 255
255 255 255
255 255 255
255 255 255
255 255 255
255 255 255
255 255 255
255 255 255
255 255 255
255 255 255
200 50 50
200 50 50
200 50 50
200 50 50
200 50 50
200 50 50
200 50 50
200 50 50
200 50 50
200 50 50
200 50 50
200 50 50
200 50 50
200 50 50
200 50 50
200 50 50
200 50 50
200 50 50
200 50 50
200 50 50
200 50 50
200 50 50
200 50 50
200 50 50
200 50 50
200 50 50
200 50 50
200 50 50
200 50 50
200 50 50
200 50 50
200 50 50
255 255 255
255 255 255
255 255 255
255 255 255
255 255 255
255 255 255
255 255 255
255 255 255
255 255 255
255 255 255
255 255 255
255 255 255
255 255 255
255 255 255
255 255 255
255 255 255
255 255 255
255 255 255
255 255 255
255 255 255
255 255 255
255 255 255
255 255 255
255 255 255
255 255 255
255 255 255
255 255 255
255 255 255
255 255 255
255 255 255
255 255 255
255 255 255
200 50 50
200 50 50
200 50 50
200 50 50
200 50 50
200 50 50
200 50 50
200 50 50
200 50 50
200 50 50
200 50 50
200 50 50
200 50 50
200 50 50
200 50 50
200 50 50
200 50 50
200 50 50
200 50 50
200 50 50
200 50 50
200 50 50
200 50 50
200 50 50
200 50 50
200 50 50
200 50 50
200 50 50
200 50 50
200 50 50
200 50 50
200 50 50
255 255 255
255 255 255
255 255 255
255 255 255
255 255 255
255 255 255
255 255 255
255 255 255
255 255 255
255 255 255
255 255 255
255 255 255
255 255 255
255 255 255
255 255 255
255 255 255
255 255 255
255 255 255
255 255 255
255 255 255
255 255 255
255 255 255
255 255 255
255 255 255
255 255 255
255 255 255
255 255 255
255 255 255
255 255 255
255 255 255
255 255 255
255 255 255
200 50 50
200 50 50
200 50 50
200 50 50
200 50 50
200 50 50
200 50 50
200 50 50
200 50 50
200 50 50
200 50 50
200 50 50
200 50 50
200 50 50
200 50 50
200 50 50
200 50 50
200 50 50
200 50 50
200 50 50
200 50 50
200 50 50
200 50 50
200 50 50
200 50 50
200 50 50
200 50 50
200 50 50
200 50 50
200 50 50
200 50 50
200 50 50
255 255 255
255 255 255
255 255 255
255 255 255
255 255 255
255 255 255
255 255 255
255 255 255
255 255 255
255 255 255
255 255 255
255 255 255
255 255 255
255 255 255
255 255 255
255 255 255
255 255 255
255 255 255
255 255 255
255 255 255
255 255 255
255 255 255
255 255 255
255 255 255
255 255 255
255 255 255
255 255 255
255 255 255
255 255 255
255 255 255
255 255 255
255 255 255
200 50 50
200 50 50
200 50 50
200 50 50
200 50 50
200 50 50
200 50 50
200 50 50
200 50 50
200 50 50
200 50 50
200 50 50
200 50 50
200 50 50
200 50 50
200 50 50
200 50 50
200 50 50
200 50 50
200 50 50
200 50 50
200 50 50
200 50 50
200 50 50
200 50 50
200 50 50
200 50 50
200 50 50
200 50 50
200 50 50
200 50 50
200 50 50
255 255 255
255 255 255
255 255 255
255 255 255
255 255 255
255 255 255
255 255 255
255 255 255
255 255 255
255 255 255
255 255 255
255 255 255
255 255 255
255 255 255
255 255 255
255 255 255
255 255 255
255 255 255
255 255 255
255 255 255
255 255 255
255 255 255
255 255 255
255 255 255
255 255 255
255 255 255
255 255 255
255 255 255
255 255 255
255 255 255
255 255 255
255 255 255
200 50 50
200 50 50
200 50 50
200 50 50
200 50 50
200 50 50
200 50 50
200 50 50
200 50 50
200 50 50
200 50 50
200 50 50
200 50 50
200 50 50
200 50 50
200 50 50
200 50 50
200 50 50
200 50 50
200 50 50
200 50 50
200 50 50
200 50 50
200 50 50
200 50 50
200 50 50
200 50 50
200 50 50
200 50 50
200 50 50
200 50 50
200 50 50
255 255 255
255 255 255
255 255 255
255 255 255
255 255 255
255 255 255
255 255 255
255 255 255
255 255 255
255 255 255
255 255 255
255 255 255
255 255 255
255 255 255
255 255 255
255 255 255
255 255 255
255 255 255
255 255 255
255 255 255
255 255 255
255 255 255
255 255 255
255 255 255
255 255 255
255 255 255
255 255 255
255 255 255
255 255 255
255 255 255
255 255 255
255 255 255
200 50 50
200 50 50
200 50 50
200 50 50
200 50 50
200 50 50
200 50 50
200 50 50
200 50 50
200 50 50
200 50 50
200 50 50
200 50 50
200 50 50
200 50 50
200 50 50
200 50 50
200 50 50
200 50 50
200 50 50
200 50 50
200 50 50
200 50 50
200 50 50
200 50 50
200 50 50
200 50 50
200 50 50
200 50 50
200 50 50
200 50 50
200 50 50
255 255 255
255 255 255
255 255 255
255 255 255
255 255 255
255 255 255
255 255 255
255 255 255
255 255 255
255 255 255
255 255 255
255 255 255
255 255 255
255 255 255
255 255 255
255 255 255
255 255 255
255 255 255
255 255 255
255 255 255
255 255 255
255 255 255
255 255 255
255 255 255
255 255 255
255 255 255
255 255 255
255 255 255
255 255 255
255 255 255
255 255 255
255 255 255
200 50 50
200 50 50
200 50 50
200 50 50
200 50 50
200 50 50
200 50 50
200 50 50
200 50 50
200 50 50
200 50 50
200 50 50
200 50 50
200 50 50
200 50 50
200 50 50
200 50 50
200 50 50
200 50 50
200 50 50
200 50 50
200 50 50
200 50 50
200 50 50
200 50 50
200 50 50
200 50 50
200 50 50
200 50 50
200 50 50
200 50 50
200 50 50
255 255 255
255 255 255
255 255 255
255 255 255
255 255 255
255 255 255
255 255 255
255 255 255
255 255 255
255 255 255
255 255 255
255 255 255
255 255 255
255 255 255
255 255 255
255 255 255
255 255 255
255 255 255
255 255 255
255 255 255
255 255 255
255 255 255
255 255 255
255 255 255
255 255 255
255 255 255
255 255 255
255 255 255
255 255 255
255 255 255
255 255 255
255 255 255
200 50 50
200 50 50
200 50 50
200 50 50
200 50 50
200 50 50
200 50 50
200 50 50
200 50 50
200 50 50
200 50 50
200 50 50
200 50 50
200 50 50
200 50 50
200 50 50
200 50 50
200 50 50
200 50 50
200 50 50
200 50 50
200 50 50
200 50 50
200 50 50
200 50 50
200 50 50
200 50 50
200 50 50
200 50 50
200 50 50
200 50 50
200 50 50
255 255 255
255 255 255
255 255 255
255 255 255
255 255 255
255 255 255
255 255 255
255 255 255
255 255 255
255 255 255
255 255 255
255 255 255
255 255 255
255 255 255
255 255 255
255 255 255
255 255 255
255 255 255
255 255 255
255 255 255
255 255 255
255 255 255
255 255 255
255 255 255
255 255 255
255 255 255
255 255 255
255 255 255
255 255 255
255 255 255
255 255 255
255 255 255
200 50 50
200 50 50
200 50 50
200 50 50
200 50 50
200 50 50
200 50 50
200 50 50
200 50 50
200 50 50
200 50 50
200 50 50
200 50 50
200 50 50
200 50 50
200 50 50
200 50 50
200 50 50
200 50 50
200 50 50
200 50 50
200 50 50
200 50 50
200 50 50
200 50 50
200 50 50
200 50 50
200 50 50
200 50 50
200 50 50
200 50 50
200 50 50
255 255 255
255 255 255
255 255 255
255 255 255
255 255 255
255 255 255
255 255 255
255 255 255
255 255 255
255 255 255
255 255 255
255 255 255
255 255 255
255 255 255
255 255 255
255 255 255
255 255 255
255 255 255
255 255 255
255 255 255
255 255 255
255 255 255
255 255 255
255 255 255
255 255 255
255 255 255
255 255 255
255 255 255
255 255 255
255 255 255
255 255 255
255 255 255
200 50 50
200 50 50
200 50 50
200 50 50
200 50 50
200 50 50
200 50 50
200 50 50
200 50 50
200 50 50
200 50 50
200 50 50
200 50 50
200 50 50
200 50 50
200 50 50
200 50 50
200 50 50
200 50 50
200 50 50
200 50 50
200 50 50
200 50 50
200 50 50
200 50 50
200 50 50
200 50 50
200 50 50
200 50 50
200 50 50
200 50 50
200 50 50
255 255 255
255 255 255
255 255 255
255 255 255
255 255 255
255 255 255
255 255 255
255 255 255
255 255 255
255 255 255
255 255 255
255 255 255
255 255 255
255 255 255
255 255 255
255 255 255
255 255 255
255 255 255
255 255 255
255 255 255
255 255 255
255 255 255
255 255 255
255 255 255
255 255 255
255 255 255
255 255 255
255 255 255
255 255 255
255 255 255
255 255 255
255 255 255
200 50 50
200 50 50
200 50 50
200 50 50
200 50 50
200 50 50
200 50 50
200 50 50
200 50 50
200 50 50
200 50 50
200 50 50
200 50 50
200 50 50
200 50 50
200 50 50
200 50 50
200 50 50
200 50 50
200 50 50
200 50 50
200 50 50
200 50 50
200 50 50
200 50 50
200 50 50
200 50 50
200 50 50
200 50 50
200 50 50
200 50 50
200 50 50
255 255 255
255 255 255
255 255 255
255 255 255
255 255 255
255 255 255
255 255 255
255 255 255
255 255 255
255 255 255
255 255 255
255 255 255
255 255 255
255 255 255
255 255 255
255 255 255
255 255 255
255 255 255
255 255 255
255 255 255
255 255 255
255 255 255
255 255 255
255 255 255
255 255 255
255 255 255
255 255 255
255 255 255
255 255 255
255 255 255
255 255 255
255 255 255
200 50 50
200 50 50
200 50 50
200 50 50
200 50 50
200 50 50
200 50 50
200 50 50
200 50 50
200 50 50
200 50 50
200 50 50
200 50 50
200 50 50
200 50 50
200 50 50
200 50 50
200 50 50
200 50 50
200 50 50
200 50 50
200 50 50
200 50 50
200 50 50
200 50 50
200 50 50
200 50 50
200 50 50
200 50 50
200 50 50
200 50 50
200 50 50
255 255 255
255 255 255
255 255 255
255 255 255
255 255 255
255 255 255
255 255 255
255 255 255
255 255 255
255 255 255
255 255 255
255 255 255
255 255 255
255 255 255
255 255 255
255 255 255
255 255 255
255 255 255
255 255 255
255 255 255
255 255 255
255 255 255
255 255 255
255 255 255
255 255 255
255 255 255
255 255 255
255 255 255
255 255 255
255 255 255
255 255 255
255 255 255
200 50 50
200 50 50
200 50 50
200 50 50
200 50 50
200 50 50
200 50 50
200 50 50
200 50 50
200 50 50
200 50 50
200 50 50
200 50 50
200 50 50
200 50 50
200 50 50
200 50 50
200 50 50
200 50 50
200 50 50
200 50 50
200 50 50
200 50 50
200 50 50
200 50 50
200 50 50
200 50 50
200 50 50
200 50 50
200 50 50
200 50 50
200 50 50
255 255 255
255 255 255
255 255 255
255 255 255
255 255 255
255 255 255
255 255 255
255 255 255
255 255 255
255 255 255
255 255 255
255 255 255
255 255 255
255 255 255
255 255 255
255 255 255
255 255 255
255 255 255
255 255 255
255 255 255
255 255 255
255 255 255
255 255 255
255 255 255
255 255 255
255 255 255
255 255 255
255 255 255
255 255 255
255 255 255
255 255 255
255 255 255
200 50 50
200 50 50
200 50 50
200 50 50
200 50 50
200 50 50
200 50 50
200 50 50
200 50 50
200 50 50
200 50 50
200 50 50
200 50 50
200 50 50
200 50 50
200 50 50
200 50 50
200 50 50
200 50 50
200 50 50
200 50 50
200 50 50
200 50 50
200 50 50
200 50 50
200 50 50
200 50 50
200 50 50
200 50 50
200 50 50
200 50 50
200 50 50
255 255 255
255 255 255
255 255 255
255 255 255
255 255 255
255 255 255
255 255 255
255 255 255
255 255 255
255 255 255
255 255 255
255 255 255
255 255 255
255 255 255
255 255 255
255 255 255
255 255 255
255 255 255
255 255 255
255 255 255
255 255 255
255 255 255
255 255 255
255 255 255
255 255 255
255 255 255
255 255 255
255 255 255
255 255 255
255 255 255
255 255 255
255 255 255
200 50 50
200 50 50
200 50 50
200 50 50
200 50 50
200 50 50
200 50 50
200 50 50
200 50 50
200 50 50
200 50 50
200 50 50
200 50 50
200 50 50
200 50 50
200 50 50
200 50 50
200 50 50
200 50 50
200 50 50
200 50 50
200 50 50
200 50 50
200 50 50
200 50 50
200 50 50
200 50 50
200 50 50
200 50 50
200 50 50
200 50 50
200 50 50
255 255 255
255 255 255
255 255 255
255 255 255
255 255 255
255 255 255
255 255 255
255 255 255
255 255 255
255 255 255
255 255 255
255 255 255
255 255 255
255 255 255
255 255 255
255 255 255
255 255 255
255 255 255
255 255 255
255 255 255
255 255 255
255 255 255
255 255 255
255 255 255
255 255 255
255 255 255
255 255 255
255 255 255
255 255 255
255 255 255
255 255 255
255 255 255
200 50 50
200 50 50
200 50 50
200 50 50
200 50 50
200 50 50
200 50 50
200 50 50
200 50 50
200 50 50
200 50 50
200 50 50
200 50 50
200 50 50
200 50 50
200 50 50
200 50 50
200 50 50
200 50 50
200 50 50
200 50 50
200 50 50
200 50 50
200 50 50
200 50 50
200 50 50
200 50 50
200 50 50
200 50 50
200 50 50
200 50 50
200 50 50
255 255 255
255 255 255
255 255 255
255 255 255
255 255 255
255 255 255
255 255 255
255 255 255
255 255 255
255 255 255
255 255 255
255 255 255
255 255 255
255 255 255
255 255 255
255 255 255
255 255 255
255 255 255
255 255 255
255 255 255
255 255 255
255 255 255
255 255 255
255 255 255
255 255 255
255 255 255
255 255 255
255 255 255
255 255 255
255 255 255
255 255 255
255 255 255
200 50 50
200 50 50
200 50 50
200 50 50
200 50 50
200 50 50
200 50 50
200 50 50
200 50 50
200 50 50
200 50 50
200 50 50
200 50 50
200 50 50
200 50 50
200 50 50
200 50 50
200 50 50
200 50 50
200 50 50
200 50 50
200 50 50
200 50 50
200 50 50
200 50 50
200 50 50
200 50 50
200 50 50
200 50 50
200 50 50
200 50 50
200 50 50
255 255 255
255 255 255
255 255 255
255 255 255
255 255 255
255 255 255
255 255 255
255 255 255
255 255 255
255 255 255
255 255 255
255 255 255
255 255 255
255 255 255
255 255 255
255 255 255
255 255 255
255 255 255
255 255 255
255 255 255
255 255 255
255 255 255
255 255 255
255 255 255
255 255 255
255 255 255
255 255 255
255 255 255
255 255 255
255 255 255
255 255 255
255 255 255
200 50 50
200 50 50
200 50 50
200 50 50
200 50 50
200 50 50
200 50 50
200 50 50
200 50 50
200 50 50
200 50 50
200 50 50
200 50 50
200 50 50
200 50 50
200 50 50
200 50 50
200 50 50
200 50 50
200 50 50
200 50 50
200 50 50
200 50 50
200 50 50
200 50 50
200 50 50
200 50 50
200 50 50
200 50 50
200 50 50
200 50 50
200 50 50
255 255 255
255 255 255
255 255 255
255 255 255
255 255 255
255 255 255
255 255 255
255 255 255
255 255 255
255 255 255
255 255 255
255 255 255
255 255 255
255 255 255
255 255 255
255 255 255
255 255 255
255 255 255
255 255 255
255 255 255
255 255 255
255 255 255
255 255 255
255 255 255
255 255 255
255 255 255
255 255 255
255 255 255
255 255 255
255 255 255
255 255 255
255 255 255
200 50 50
200 50 50
200 50 50
200 50 50
200 50 50
200 50 50
200 50 50
200 50 50
200 50 50
200 50 50
200 50 50
200 50 50
200 50 50
200 50 50
200 50 50
200 50 50
200 50 50
200 50 50
200 50 50
200 50 50
200 50 50
200 50 50
200 50 50
200 50 50
200 50 50
200 50 50
200 50 50
200 50 50
200 50 50
200 50 50
200 50 50
200 50 50
255 255 255
255 255 255
255 255 255
255 255 255
255 255 255
255 255 255
255 255 255
255 255 255
255 255 255
255 255 255
255 255 255
255 255 255
255 255 255
255 255 255
255 255 255
255 255 255
255 255 255
255 255 255
255 255 255
255 255 255
255 255 255
255 255 255
255 255 255
255 255 255
255 255 255
255 255 255
255 255 255
255 255 255
255 255 255
255 255 255
255 255 255
255 255 255
200 50 50
200 50 50
200 50 50
200 50 50
200 50 50
200 50 50
200 50 50
200 50 50
200 50 50
200 50 50
200 50 50
200 50 50
200 50 50
200 50 50
200 50 50
200 50 50
200 50 50
200 50 50
200 50 50
200 50 50
200 50 50
200 50 50
200 50 50
200 50 50
200 50 50
200 50 50
200 50 50
200 50 50
200 50 50
200 50 50
200 50 50
200 50 50
255 255 255
255 255 255
255 255 255
255 255 255
255 255 255
255 255 255
255 255 255
255 255 255
255 255 255
255 255 255
255 255 255
255 255 255
255 255 255
255 255 255
255 255 255
255 255 255
255 255 255
255 255 255
255 255 255
255 255 255
255 255 255
255 255 255
255 255 255
255 255 255
255 255 255
255 255 255
255 255 255
255 255 255
255 255 255
255 255 255
255 255 255
255 255 255
200 50 50
200 50 50
200 50 50
200 50 50
200 50 50
200 50 50
200 50 50
200 50 50
200 50 50
200 50 50
200 50 50
200 50 50
200 50 50
200 50 50
200 50 50
200 50 50
200 50 50
200 50 50
200 50 50
200 50 50
200 50 50
200 50 50
200 50 50
200 50 50
200 50 50
200 50 50
200 50 50
200 50 50
200 50 50
200 50 50
200 50 50
200 50 50
255 255 255
255 255 255
255 255 255
255 255 255
255 255 255
255 255 255
255 255 255
255 255 255
255 255 255
255 255 255
255 255 255
255 255 255
255 255 255
255 255 255
255 255 255
255 255 255
255 255 255
255 255 255
255 255 255
255 255 255
255 255 255
255 255 255
255 255 255
255 255 255
255 255 255
255 255 255
255 255 255
255 255 255
255 255 255
255 255 255
255 255 255
255 255 255
200 50 50
200 50 50
200 50 50
200 50 50
200 50 50
200 50 50
200 50 50
200 50 50
200 50 50
200 50 50
200 50 50
200 50 50
200 50 50
200 50 50
200 50 50
200 50 50
200 50 50
200 50 50
200 50 50
200 50 50
200 50 50
200 50 50
200 50 50
200 50 50
200 50 50
200 50 50
200 50 50
200 50 50
200 50 50
200 50 50
200 50 50
200 50 50
255 255 255
255 255 255
255 255 255
255 255 255
255 255 255
255 255 255
255 255 255
255 255 255
255 255 255
255 255 255
255 255 255
255 255 255
255 255 255
255 255 255
255 255 255
255 255 255
255 255 255
255 255 255
255 255 255
255 255 255
255 255 255
255 255 255
255 255 255
255 255 255
255 255 255
255 255 255
255 255 255
255 255 255
255 255 255
255 255 255
255 255 255
255 255 255
200 50 50
200 50 50
200 50 50
200 50 50
200 50 50
200 50 50
200 50 50
200 50 50
200 50 50
200 50 50
200 50 50
200 50 50
200 50 50
200 50 50
200 50 50
200 50 50
200 50 50
200 50 50
200 50 50
200 50 50
200 50 50
200 50 50
200 50 50
200 50 50
200 50 50
200 50 50
200 50 50
200 50 50
200 50 50
200 50 50
200 50 50
200 50 50
255 255 255
255 255 255
255 255 255
255 255 255
255 255 255
255 255 255
255 255 255
255 255 255
255 255 255
255 255 255
255 255 255
255 255 255
255 255 255
255 255 255
255 255 255
255 255 255
255 255 255
255 255 255
255 255 255
255 255 255
255 255 255
255 255 255
255 255 255
255 255 255
255 255 255
255 255 255
255 255 255
255 255 255
255 255 255
255 255 255
255 255 255
255 255 255
200 50 50
200 50 50
200 50 50
200 50 50
200 50 50
200 50 50
200 50 50
200 50 50
200 50 50
200 50 50
200 50 50
200 50 50
200 50 50
200 50 50
200 50 50
200 50 50
200 50 50
200 50 50
200 50 50
200 50 50
200 50 50
200 50 50
200 50 50
200 50 50
200 50 50
200 50 50
200 50 50
200 50 50
200 50 50
200 50 50
200 50 50
200 50 50
255 255 255
255 255 255
255 255 255
255 255 255
255 255 255
255 255 255
255 255 255
255 255 255
255 255 255
255 255 255
255 255 255
255 255 255
255 255 255
255 255 255
255 255 255
255 255 255
255 255 255
255 255 255
255 255 255
255 255 255
255 255 255
255 255 255
255 255 255
255 255 255
255 255 255
255 255 255
255 255 255
255 255 255
255 255 255
255 255 255
255 255 255
255 255 255
200 50 50
200 50 50
200 50 50
200 50 50
200 50 50
200 50 50
200 50 50
200 50 50
200 50 50
200 50 50
200 50 50
200 50 50
200 50 50
200 50 50
200 50 50
200 50 50
200 50 50
200 50 50
200 50 50
200 50 50
200 50 50
200 50 50
200 50 50
200 50 50
200 50 50
200 50 50
200 50 50
200 50 50
200 50 50
200 50 50
200 50 50
200 50 50
255 255 255
255 255 255
255 255 255
255 255 255
255 255 255
255 255 255
255 255 255
255 255 255
255 255 255
255 255 255
255 255 255
255 255 255
255 255 255
255 255 255
255 255 255
255 255 255
255 255 255
255 255 255
255 255 255
255 255 255
255 255 255
255 255 255
255 255 255
255 255 255
255 255 255
255 255 255
255 255 255
255 255 255
255 255 255
255 255 255
255 255 255
255 255 255
200 50 50
200 50 50
200 50 50
200 50 50
200 50 50
200 50 50
200 50 50
200 50 50
200 50 50
200 50 50
200 50 50
200 50 50
200 50 50
200 50 50
200 50 50
200 50 50
200 50 50
200 50 50
200 50 50
200 50 50
200 50 50
200 50 50
200 50 50
200 50 50
200 50 50
200 50 50
200 50 50
200 50 50
200 50 50
200 50 50
200 50 50
200 50 50
255 255 255
255 255 255
255 255 255
255 255 255
255 255 255
255 255 255
255 255 255
255 255 255
255 255 255
255 255 255
255 255 255
255 255 255
255 255 255
255 255 255
255 255 255
255 255 255
255 255 255
255 255 255
255 255 255
255 255 255
255 255 255
255 255 255
255 255 255
255 255 255
255 255 255
255 255 255
255 255 255
255 255 255
255 255 255
255 255 255
255 255 255
255 255 255
200 50 50
200 50 50
200 50 50
200 50 50
200 50 50
200 50 50
200 50 50
200 50 50
200 50 50
200 50 50
200 50 50
200 50 50
200 50 50
200 50 50
200 50 50
200 50 50
200 50 50
200 50 50
200 50 50
200 50 50
200 50 50
200 50 50
200 50 50
200 50 50
200 50 50
200 50 50
200 50 50
200 50 50
200 50 50
200 50 50
200 50 50
200 50 50
255 255 255
255 255 255
255 255 255
255 255 255
255 255 255
255 255 255
255 255 255
255 255 255
255 255 255
255 255 255
255 255 255
255 255 255
255 255 255
255 255 255
255 255 255
255 255 255
255 255 255
255 255 255
255 255 255
255 255 255
255 255 255
255 255 255
255 255 255
255 255 255
255 255 255
255 255 255
255 255 255
255 255 255
255 255 255
255 255 255
255 255 255
255 255 255
200 50 50
200 50 50
200 50 50
200 50 50
200 50 50
200 50 50
200 50 50
200 50 50
200 50 50
200 50 50
200 50 50
200 50 50
200 50 50
200 50 50
200 50 50
200 50 50
200 50 50
200 50 50
200 50 50
200 50 50
200 50 50
200 50 50
200 50 50
200 50 50
200 50 50
200 50 50
200 50 50
200 50 50
200 50 50
200 50 50
200 50 50
200 50 50
255 255 255
255 255 255
255 255 255
255 255 255
255 255 255
255 255 255
255 255 255
255 255 255
255 255 255
255 255 255
255 255 255
255 255 255
255 255 255
255 255 255
255 255 255
255 255 255
255 255 255
255 255 255
255 255 255
255 255 255
255 255 255
255 255 255
255 255 255
255 255 255
255 255 255
255 255 255
255 255 255
255 255 255
255 255 255
255 255 255
255 255 255
255 255 255
200 50 50
200 50 50
200 50 50
200 50 50
200 50 50
200 50 50
200 50 50
200 50 50
200 50 50
200 50 50
200 50 50
200 50 50
200 50 50
200 50 50
200 50 50
200 50 50
200 50 50
200 50 50
200 50 50
200 50 50
200 50 50
200 50 50
200 50 50
200 50 50
200 50 50
200 50 50
200 50 50
200 50 50
200 50 50
200 50 50
200 50 50
200 50 50
255 255 255
255 255 255
255 255 255
255 255 255
255 255 255
255 255 255
255 255 255
255 255 255
255 255 255
255 255 255
255 255 255
255 255 255
255 255 255
255 255 255
255 255 255
255 255 255
255 255 255
255 255 255
255 255 255
255 255 255
255 255 255
255 255 255
255 255 255
255 255 255
255 255 255
255 255 255
255 255 255
255 255 255
255 255 255
255 255 255
255 255 255
255 255 255
200 50 50
200 50 50
200 50 50
200 50 50
200 50 50
200 50 50
200 50 50
200 50 50
200 50 50
200 50 50
200 50 50
200 50 50
200 50 50
200 50 50
200 50 50
200 50 50
200 50 50
200 50 50
200 50 50
200 50 50
200 50 50
200 50 50
200 50 50
200 50 50
200 50 50
200 50 50
200 50 50
200 50 50
200 50 50
200 50 50
200 50 50
200 50 50
255 255 255
255 255 255
255 255 255
255 255 255
255 255 255
255 255 255
255 255 255
255 255 255
255 255 255
255 255 255
255 255 255
255 255 255
255 255 255
255 255 255
255 255 255
255 255 255
255 255 255
255 255 255
255 255 255
255 255 255
255 255 255
255 255 255
255 255 255
255 255 255
255 255 255
255 255 255
255 255 255
255 255 255
255 255 255
255 255 255
255 255 255
255 255 255
200 50 50
200 50 50
200 50 50
200 50 50
200 50 50
200 50 50
200 50 50
200 50 50
200 50 50
200 50 50
200 50 50
200 50 50
200 50 50
200 50 50
200 50 50
200 50 50
200 50 50
200 50 50
200 50 50
200 50 50
200 50 50
200 50 50
200 50 50
200 50 50
200 50 50
200 50 50
200 50 50
200 50 50
200 50 50
200 50 50
200 50 50
200 50 50
255 255 255
255 255 255
255 255 255
255 255 255
255 255 255
255 255 255
255 255 255
255 255 255
255 255 255
255 255 255
255 255 255
255 255 255
255 255 255
255 255 255
255 255 255
255 255 255
255 255 255
255 255 255
255 255 255
255 255 255
255 255 255
255 255 255
255 255 255
255 255 255
255 255 255
255 255 255
255 255 255
255 255 255
255 255 255
255 255 255
255 255 255
255 255 255
200 50 50
200 50 50
200 50 50
200 50 50
200 50 50
200 50 50
200 50 50
200 50 50
200 50 50
200 50 50
200 50 50
200 50 50
200 50 50
200 50 50
200 50 50
200 50 50
200 50 50
200 50 50
200 50 50
200 50 50
200 50 50
200 50 50
200 50 50
200 50 50
200 50 50
200 50 50
200 50 50
200 50 50
200 50 50
200 50 50
200 50 50
200 50 50
255 255 255
255 255 255
255 255 255
255 255 255
255 255 255
255 255 255
255 255 255
255 255 255
255 255 255
255 255 255
255 255 255
255 255 255
255 255 255
255 255 255
255 255 255
255 255 255
255 255 255
255 255 255
255 255 255
255 255 255
255 255 255
255 255 255
255 255 255
255 255 255
255 255 255
255 255 255
255 255 255
255 255 255
255 255 255
255 255 255
255 255 255
255 255 255
200 50 50
200 50 50
200 50 50
200 50 50
200 50 50
200 50 50
200 50 50
200 50 50
200 50 50
200 50 50
200 50 50
200 50 50
200 50 50
200 50 50
200 50 50
200 50 50
200 50 50
200 50 50
200 50 50
200 50 50
200 50 50
200 50 50
200 50 50
200 50 50
200 50 50
200 50 50
200 50 50
200 50 50
200 50 50
200 50 50
200 50 50
200 50 50
255 255 255
255 255 255
255 255 255
255 255 255
255 255 255
255 255 255
255 255 255
255 255 255
255 255 255
255 255 255
255 255 255
255 255 255
255 255 255
255 255 255
255 255 255
255 255 255
255 255 255
255 255 255
255 255 255
255 255 255
255 255 255
255 255 255
255 255 255
255 255 255
255 255 255
255 255 255
255 255 255
255 255 255
255 255 255
255 255 255
255 255 255
255 255 255
200 50 50
200 50 50
200 50 50
200 50 50
200 50 50
200 50 50
200 50 50
200 50 50
200 50 50
200 50 50
200 50 50
200 50 50
200 50 50
200 50 50
200 50 50
200 50 50
200 50 50
200 50 50
200 50 50
200 50 50
200 50 50
200 50 50
200 50 50
200 50 50
200 50 50
200 50 50
200 50 50
200 50 50
200 50 50
200 50 50
200 50 50
200 50 50
200 50 50
200 50 50
200 50 50
200 50 50
200 50 50
200 50 50
200 50 50
200 50 50
200 50 50
200 50 50
200 50 50
200 50 50
200 50 50
200 50 50
200 50 50
200 50 50
200 50 50
200 50 50
200 50 50
200 50 50
200 50 50
200 50 50
200 50 50
200 50 50
200 50 50
200 50 50
200 50 50
200 50 50
200 50 50
200 50 50
200 50 50
200 50 50
255 255 255
255 255 255
255 255 255
255 255 255
255 255 255
255 255 255
255 255 255
255 255 255
255 255 255
255 255 255
255 255 255
255 255 255
255 255 255
255 255 255
255 255 255
255 255 255
255 255 255
255 255 255
255 255 255
255 255 255
255 255 255
255 255 255
255 255 255
255 255 255
255 255 255
255 255 255
255 255 255
255 255 255
255 255 255
255 255 255
255 255 255
255 255 255
200 50 50
200 50 50
200 50 50
200 50 50
200 50 50
200 50 50
200 50 50
200 50 50
200 50 50
200 50 50
200 50 50
200 50 50
200 50 50
200 50 50
200 50 50
200 50 50
200 50 50
200 50 50
200 50 50
200 50 50
200 50 50
200 50 50
200 50 50
200 50 50
200 50 50
200 50 50
200 50 50
200 50 50
200 50 50
200 50 50
200 50 50
200 50 50
255 255 255
255 255 255
255 255 255
255 255 255
255 255 255
255 255 255
255 255 255
255 255 255
255 255 255
255 255 255
255 255 255
255 255 255
255 255 255
255 255 255
255 255 255
255 255 255
255 255 255
255 255 255
255 255 255
255 255 255
255 255 255
255 255 255
255 255 255
255 255 255
255 255 255
255 255 255
255 255 255
255 255 255
255 255 255
255 255 255
255 255 255
255 255 255
200 50 50
200 50 50
200 50 50
200 50 50
200 50 50
200 50 50
200 50 50
200 50 50
200 50 50
200 50 50
200 50 50
200 50 50
200 50 50
200 50 50
200 50 50
200 50 50
200 50 50
200 50 50
200 50 50
200 50 50
200 50 50
200 50 50
200 50 50
200 50 50
200 50 50
200 50 50
200 50 50
200 50 50
200 50 50
200 50 50
200 50 50
200 50 50
255 255 255
255 255 255
255 255 255
255 255 255
255 255 255
255 255 255
255 255 255
255 255 255
255 255 255
255 255 255
255 255 255
255 255 255
255 255 255
255 255 255
255 255 255
255 255 255
255 255 255
255 255 255
255 255 255
255 255 255
255 255 255
255 255 255
255 255 255
255 255 255
255 255 255
255 255 255
255 255 255
255 255 255
255 255 255
255 255 255
255 255 255
255 255 255
200 50 50
200 50 50
200 50 50
200 50 50
200 50 50
200 50 50
200 50 50
200 50 50
200 50 50
200 50 50
200 50 50
200 50 50
200 50 50
200 50 50
200 50 50
200 50 50
200 50 50
200 50 50
200 50 50
200 50 50
200 50 50
200 50 50
200 50 50
200 50 50
200 50 50
200 50 50
200 50 50
200 50 50
200 50 50
200 50 50
200 50 50
200 50 50
255 255 255
255 255 255
255 255 255
255 255 255
255 255 255
255 255 255
255 255 255
255 255 255
255 255 255
255 255 255
255 255 255
255 255 255
255 255 255
255 255 255
255 255 255
255 255 255
255 255 255
255 255 255
255 255 255
255 255 255
255 255 255
255 255 255
255 255 255
255 255 255
255 255 255
255 255 255
255 255 255
255 255 255
255 255 255
255 255 255
255 255 255
255 255 255
200 50 50
200 50 50
200 50 50
200 50 50
200 50 50
200 50 50
200 50 50
200 50 50
200 50 50
200 50 50
200 50 50
200 50 50
200 50 50
200 50 50
200 50 50
200 50 50
200 50 50
200 50 50
200 50 50
200 50 50
200 50 50
200 50 50
200 50 50
200 50 50
200 50 50
200 50 50
200 50 50
200 50 50
200 50 50
200 50 50
200 50 50
200 50 50
255 255 255
255 255 255
255 255 255
255 255 255
255 255 255
255 255 255
255 255 255
255 255 255
255 255 255
255 255 255
255 255 255
255 255 255
255 255 255
255 255 255
255 255 255
255 255 255
255 255 255
255 255 255
255 255 255
255 255 255
255 255 255
255 255 255
255 255 255
255 255 255
255 255 255
255 255 255
255 255 255
255 255 255
255 255 255
255 255 255
255 255 255
255 255 255
200 50 50
200 50 50
200 50 50
200 50 50
200 50 50
200 50 50
200 50 50
200 50 50
200 50 50
200 50 50
200 50 50
200 50 50
200 50 50
200 50 50
200 50 50
200 50 50
200 50 50
200 50 50
200 50 50
200 50 50
200 50 50
200 50 50
200 50 50
200 50 50
200 50 50
200 50 50
200 50 50
200 50 50
200 50 50
200 50 50
200 50 50
200 50 50
255 255 255
255 255 255
255 255 255
255 255 255
255 255 255
255 255 255
255 255 255
255 255 255
255 255 255
255 255 255
255 255 255
255 255 255
255 255 255
255 255 255
255 255 255
255 255 255
255 255 255
255 255 255
255 255 255
255 255 255
255 255 255
255 255 255
255 255 255
255 255 255
255 255 255
255 255 255
255 255 255
255 255 255
255 255 255
255 255 255
255 255 255
255 255 255
200 50 50
200 50 50
200 50 50
200 50 50
200 50 50
200 50 50
200 50 50
200 50 50
200 50 50
200 50 50
200 50 50
200 50 50
200 50 50
200 50 50
200 50 50
200 50 50
200 50 50
200 50 50
200 50 50
200 50 50
200 50 50
200 50 50
200 50 50
200 50 50
200 50 50
200 50 50
200 50 50
200 50 50
200 50 50
200 50 50
200 50 50
200 50 50
255 255 255
255 255 255
255 255 255
255 255 255
255 255 255
255 255 255
255 255 255
255 255 255
255 255 255
255 255 255
255 255 255
255 255 255
255 255 255
255 255 255
255 255 255
255 255 255
255 255 255
255 255 255
255 255 255
255 255 255
255 255 255
255 255 255
255 255 255
255 255 255
255 255 255
255 255 255
255 255 255
255 255 255
255 255 255
255 255 255
255 255 255
255 255 255
200 50 50
200 50 50
200 50 50
200 50 50
200 50 50
200 50 50
200 50 50
200 50 50
200 50 50
200 50 50
200 50 50
200 50 50
200 50 50
200 50 50
200 50 50
200 50 50
200 50 50
200 50 50
200 50 50
200 50 50
200 50 50
200 50 50
200 50 50
200 50 50
200 50 50
200 50 50
200 50 50
200 50 50
200 50 50
200 50 50
200 50 50
200 50 50
255 255 255
255 255 255
255 255 255
255 255 255
255 255 255
255 255 255
255 255 255
255 255 255
255 255 255
255 255 255
255 255 255
255 255 255
255 255 255
255 255 255
255 255 255
255 255 255
255 255 255
255 255 255
255 255 255
255 255 255
255 255 255
255 255 255
255 255 255
255 255 255
255 255 255
255 255 255
255 255 255
255 255 255
255 255 255
255 255 255
255 255 255
255 255 255
200 50 50
200 50 50
200 50 50
200 50 50
200 50 50
200 50 50
200 50 50
200 50 50
200 50 50
200 50 50
200 50 50
200 50 50
200 50 50
200 50 50
200 50 50
200 50 50
200 50 50
200 50 50
200 50 50
200 50 50
200 50 50
200 50 50
200 50 50
200 50 50
200 50 50
200 50 50
200 50 50
200 50 50
200 50 50
200 50 50
200 50 50
200 50 50
255 255 255
255 255 255
255 255 255
255 255 255
255 255 255
255 255 255
255 255 255
255 255 255
255 255 255
255 255 255
255 255 255
255 255 255
255 255 255
255 255 255
255 255 255
255 255 255
255 255 255
255 255 255
255 255 255
255 255 255
255 255 255
255 255 255
255 255 255
255 255 255
255 255 255
255 255 255
255 255 255
255 255 255
255 255 255
255 255 255
255 255 255
255 255 255
200 50 50
200 50 50
200 50 50
200 50 50
200 50 50
200 50 50
200 50 50
200 50 50
200 50 50
200 50 50
200 50 50
200 50 50
200 50 50
200 50 50
200 50 50
200 50 50
200 50 50
200 50 50
200 50 50
200 50 50
200 50 50
200 50 50
200 50 50
200 50 50
200 50 50
200 50 50
200 50 50
200 50 50
200 50 50
200 50 50
200 50 50
200 50 50
255 255 255
255 255 255
255 255 255
255 255 255
255 255 255
255 255 255
255 255 255
255 255 255
255 255 255
255 255 255
255 255 255
255 255 255
255 255 255
255 255 255
255 255 255
255 255 255
255 255 255
255 255 255
255 255 255
255 255 255
255 255 255
255 255 255
255 255 255
255 255 255
255 255 255
255 255 255
255 255 255
255 255 255
255 255 255
255 255 255
255 255 255
255 255 255
200 50 50
200 50 50
200 50 50
200 50 50
200 50 50
200 50 50
200 50 50
200 50 50
200 50 50
200 50 50
200 50 50
200 50 50
200 50 50
200 50 50
200 50 50
200 50 50
200 50 50
200 50 50
200 50 50
200 50 50
200 50 50
200 50 50
200 50 50
200 50 50
200 50 50
200 50 50
200 50 50
200 50 50
200 50 50
200 50 50
200 50 50
200 50 50
255 255 255
255 255 255
255 255 255
255 255 255
255 255 255
255 255 255
255 255 255
255 255 255
255 255 255
255 255 255
255 255 255
255 255 255
255 255 255
255 255 255
255 255 255
255 255 255
255 255 255
255 255 255
255 255 255
255 255 255
255 255 255
255 255 255
255 255 255
255 255 255
255 255 255
255 255 255
255 255 255
255 255 255
255 255 255
255 255 255
255 255 255
255 255 255
200 50 50
200 50 50
200 50 50
200 50 50
200 50 50
200 50 50
200 50 50
200 50 50
200 50 50
200 50 50
200 50 50
200 50 50
200 50 50
200 50 50
200 50 50
200 50 50
200 50 50
200 50 50
200 50 50
200 50 50
200 50 50
200 50 50
200 50 50
200 50 50
200 50 50
200 50 50
200 50 50
200 50 50
200 50 50
200 50 50
200 50 50
200 50 50
255 255 255
255 255 255
255 255 255
255 255 255
255 255 255
255 255 255
255 255 255
255 255 255
255 255 255
255 255 255
255 255 255
255 255 255
255 255 255
255 255 255
255 255 255
255 255 255
255 255 255
255 255 255
255 255 255
255 255 255
255 255 255
255 255 255
255 255 255
255 255 255
255 255 255
255 255 255
255 255 255
255 255 255
255 255 255
255 255 255
255 255 255
255 255 255
200 50 50
200 50 50
200 50 50
200 50 50
200 50 50
200 50 50
200 50 50
200 50 50
200 50 50
200 50 50
200 50 50
200 50 50
200 50 50
200 50 50
200 50 50
200 50 50
200 50 50
200 50 50
200 50 50
200 50 50
200 50 50
200 50 50
200 50 50
200 50 50
200 50 50
200 50 50
200 50 50
200 50 50
200 50 50
200 50 50
200 50 50
200 50 50
255 255 255
255 255 255
255 255 255
255 255 255
255 255 255
255 255 255
255 255 255
255 255 255
255 255 255
255 255 255
255 255 255
255 255 255
255 255 255
255 255 255
255 255 255
255 255 255
255 255 255
255 255 255
255 255 255
255 255 255
255 255 255
255 255 255
255 255 255
255 255 255
255 255 255
255 255 255
255 255 255
255 255 255
255 255 255
255 255 255
255 255 255
255 255 255
200 50 50
200 50 50
200 50 50
200 50 50
200 50 50
200 50 50
200 50 50
200 50 50
200 50 50
200 50 50
200 50 50
200 50 50
200 50 50
200 50 50
200 50 50
200 50 50
200 50 50
200 50 50
200 50 50
200 50 50
200 50 50
200 50 50
200 50 50
200 50 50
200 50 50
200 50 50
200 50 50
200 50 50
200 50 50
200 50 50
200 50 50
200 50 50
255 255 255
255 255 255
255 255 255
255 255 255
255 255 255
255 255 255
255 255 255
255 255 255
255 255 255
255 255 255
255 255 255
255 255 255
255 255 255
255 255 255
255 255 255
255 255 255
255 255 255
255 255 255
255 255 255
255 255 255
255 255 255
255 255 255
255 255 255
255 255 255
255 255 255
255 255 255
255 255 255
255 255 255
255 255 255
255 255 255
255 255 255
255 255 255
200 50 50
200 50 50
200 50 50
200 50 50
200 50 50
200 50 50
200 50 50
200 50 50
200 50 50
200 50 50
200 50 50
200 50 50
200 50 50
200 50 50
200 50 50
200 50 50
200 50 50
200 50 50
200 50 50
200 50 50
200 50 50
200 50 50
200 50 50
200 50 50
200 50 50
200 50 50
200 50 50
200 50 50
200 50 50
200 50 50
200 50 50
200 50 50
255 255 255
255 255 255
255 255 255
255 255 255
255 255 255
255 255 255
255 255 255
255 255 255
255 255 255
255 255 255
255 255 255
255 255 255
255 255 255
255 255 255
255 255 255
255 255 255
255 255 255
255 255 255
255 255 255
255 255 255
255 255 255
255 255 255
255 255 255
255 255 255
255 255 255
255 255 255
255 255 255
255 255 255
255 255 255
255 255 255
255 255 255
255 255 255
200 50 50
200 50 50
200 50 50
200 50 50
200 50 50
200 50 50
200 50 50
200 50 50
200 50 50
200 50 50
200 50 50
200 50 50
200 50 50
200 50 50
200 50 50
200 50 50
200 50 50
200 50 50
200 50 50
200 50 50
200 50 50
200 50 50
200 50 50
200 50 50
200 50 50
200 50 50
200 50 50
200 50 50
200 50 50
200 50 50
200 50 50
200 50 50
255 255 255
255 255 255
255 255 255
255 255 255
255 255 255
255 255 255
255 255 255
255 255 255
255 255 255
255 255 255
255 255 255
255 255 255
255 255 255
255 255 255
255 255 255
255 255 255
255 255 255
255 255 255
255 255 255
255 255 255
255 255 255
255 255 255
255 255 255
255 255 255
255 255 255
255 255 255
255 255 255
255 255 255
255 255 255
255 255 255
255 255 255
255 255 255
200 50 50
200 50 50
200 50 50
200 50 50
200 50 50
200 50 50
200 50 50
200 50 50
200 50 50
200 50 50
200 50 50
200 50 50
200 50 50
200 50 50
200 50 50
200 50 50
200 50 50
200 50 50
200 50 50
200 50 50
200 50 50
200 50 50
200 50 50
200 50 50
200 50 50
200 50 50
200 50 50
200 50 50
200 50 50
200 50 50
200 50 50
200 50 50
255 255 255
255 255 255
255 255 255
255 255 255
255 255 255
255 255 255
255 255 255
255 255 255
255 255 255
255 255 255
255 255 255
255 255 255
255 255 255
255 255 255
255 255 255
255 255 255
255 255 255
255 255 255
255 255 255
255 255 255
255 255 255
255 255 255
255 255 255
255 255 255
255 255 255
255 255 255
255 255 255
255 255 255
255 255 255
255 255 255
255 255 255
255 255 255
200 50 50
200 50 50
200 50 50
200 50 50
200 50 50
200 50 50
200 50 50
200 50 50
200 50 50
200 50 50
200 50 50
200 50 50
200 50 50
200 50 50
200 50 50
200 50 50
200 50 50
200 50 50
200 50 50
200 50 50
200 50 50
200 50 50
200 50 50
200 50 50
200 50 50
200 50 50
200 50 50
200 50 50
200 50 50
200 50 50
200 50 50
200 50 50
255 255 255
255 255 255
255 255 255
255 255 255
255 255 255
255 255 255
255 255 255
255 255 255
255 255 255
255 255 255
255 255 255
255 255 255
255 255 255
255 255 255
255 255 255
255 255 255
255 255 255
255 255 255
255 255 255
255 255 255
255 255 255
255 255 255
255 255 255
255 255 255
255 255 255
255 255 255
255 255 255
255 255 255
255 255 255
255 255 255
255 255 255
255 255 255
200 50 50
200 50 50
200 50 50
200 50 50
200 50 50
200 50 50
200 50 50
200 50 50
200 50 50
200 50 50
200 50 50
200 50 50
200 50 50
200 50 50
200 50 50
200 50 50
200 50 50
200 50 50
200 50 50
200 50 50
200 50 50
200 50 50
200 50 50
200 50 50
200 50 50
200 50 50
200 50 50
200 50 50
200 50 50
200 50 50
200 50 50
200 50 50
255 255 255
255 255 255
255 255 255
255 255 255
255 255 255
255 255 255
255 255 255
255 255 255
255 255 255
255 255 255
255 255 255
255 255 255
255 255 255
255 255 255
255 255 255
255 255 255
255 255 255
255 255 255
255 255 255
255 255 255
255 255 255
255 255 255
255 255 255
255 255 255
255 255 255
255 255 255
255 255 255
255 255 255
255 255 255
255 255 255
255 255 255
255 255 255
200 50 50
200 50 50
200 50 50
200 50 50
200 50 50
200 50 50
200 50 50
200 50 50
200 50 50
200 50 50
200 50 50
200 50 50
200 50 50
200 50 50
200 50 50
200 50 50
200 50 50
200 50 50
200 50 50
200 50 50
200 50 50
200 50 50
200 50 50
200 50 50
200 50 50
200 50 50
200 50 50
200 50 50
200 50 50
200 50 50
200 50 50
200 50 50
255 255 255
255 255 255
255 255 255
255 255 255
255 255 255
255 255 255
255 255 255
255 255 255
255 255 255
255 255 255
255 255 255
255 255 255
255 255 255
255 255 255
255 255 255
255 255 255
255 255 255
255 255 255
255 255 255
255 255 255
255 255 255
255 255 255
255 255 255
255 255 255
255 255 255
255 255 255
255 255 255
255 255 255
255 255 255
255 255 255
255 255 255
255 255 255
200 50 50
200 50 50
200 50 50
200 50 50
200 50 50
200 50 50
200 50 50
200 50 50
200 50 50
200 50 50
200 50 50
200 50 50
200 50 50
200 50 50
200 50 50
200 50 50
200 50 50
200 50 50
200 50 50
200 50 50
200 50 50
200 50 50
200 50 50
200 50 50
200 50 50
200 50 50
200 50 50
200 50 50
200 50 50
200 50 50
200 50 50
200 50 50
255 255 255
255 255 255
255 255 255
255 255 255
255 255 255
255 255 255
255 255 255
255 255 255
255 255 255
255 255 255
255 255 255
255 255 255
255 255 255
255 255 255
255 255 255
255 255 255
255 255 255
255 255 255
255 255 255
255 255 255
255 255 255
255 255 255
255 255 255
255 255 255
255 255 255
255 255 255
255 255 255
255 255 255
255 255 255
255 255 255
255 255 255
255 255 255
200 50 50
200 50 50
200 50 50
200 50 50
200 50 50
200 50 50
200 50 50
200 50 50
200 50 50
200 50 50
200 50 50
200 50 50
200 50 50
200 50 50
200 50 50
200 50 50
200 50 50
200 50 50
200 50 50
200 50 50
200 50 50
200 50 50
200 50 50
200 50 50
200 50 50
200 50 50
200 50 50
200 50 50
200 50 50
200 50 50
200 50 50
200 50 50
255 255 255
255 255 255
255 255 255
255 255 255
255 255 255
255 255 255
255 255 255
255 255 255
255 255 255
255 255 255
255 255 255
255 255 255
255 255 255
255 255 255
255 255 255
255 255 255
255 255 255
255 255 255
255 255 255
255 255 255
255 255 255
255 255 255
255 255 255
255 255 255
255 255 255
255 255 255
255 255 255
255 255 255
255 255 255
255 255 255
255 255 255
255 255 255
200 50 50
200 50 50
200 50 50
200 50 50
200 50 50
200 50 50
200 50 50
200 50 50
200 50 50
200 50 50
200 50 50
200 50 50
200 50 50
200 50 50
200 50 50
200 50 50
200 50 50
200 50 50
200 50 50
200 50 50
200 50 50
200 50 50
200 50 50
200 50 50
200 50 50
200 50 50
200 50 50
200 50 50
200 50 50
200 50 50
200 50 50
200 50 50
255 255 255
255 255 255
255 255 255
255 255 255
255 255 255
255 255 255
255 255 255
255 255 255
255 255 255
255 255 255
255 255 255
255 255 255
255 255 255
255 255 255
255 255 255
255 255 255
255 255 255
255 255 255
255 255 255
255 255 255
255 255 255
255 255 255
255 255 255
255 255 255
255 255 255
255 255 255
255 255 255
255 255 255
255 255 255
255 255 255
255 255 255
255 255 255
200 50 50
200 50 50
200 50 50
200 50 50
200 50 50
200 50 50
200 50 50
200 50 50
200 50 50
200 50 50
200 50 50
200 50 50
200 50 50
200 50 50
200 50 50
200 50 50
200 50 50
200 50 50
200 50 50
200 50 50
200 50 50
200 50 50
200 50 50
200 50 50
200 50 50
200 50 50
200 50 50
200 50 50
200 50 50
200 50 50
200 50 50
200 50 50
255 255 255
255 255 255
255 255 255
255 255 255
255 255 255
255 255 255
255 255 255
255 255 255
255 255 255
255 255 255
255 255 255
255 255 255
255 255 255
255 255 255
255 255 255
255 255 255
255 255 255
255 255 255
255 255 255
255 255 255
255 255 255
255 255 255
255 255 255
255 255 255
255 255 255
255 255 255
255 255 255
255 255 255
255 255 255
255 255 255
255 255 255
255 255 255
200 50 50
200 50 50
200 50 50
200 50 50
200 50 50
200 50 50
200 50 50
200 50 50
200 50 50
200 50 50
200 50 50
200 50 50
200 50 50
200 50 50
200 50 50
200 50 50
200 50 50
200 50 50
200 50 50
200 50 50
200 50 50
200 50 50
200 50 50
200 50 50
200 50 50
200 50 50
200 50 50
200 50 50
200 50 50
200 50 50
200 50 50
200 50 50
255 255 255
255 255 255
255 255 255
255 255 255
255 255 255
255 255 255
255 255 255
255 255 255
255 255 255
255 255 255
255 255 255
255 255 255
255 255 255
255 255 255
255 255 255
255 255 255
255 255 255
255 255 255
255 255 255
255 255 255
255 255 255
255 255 255
255 255 255
255 255 255
255 255 255
255 255 255
255 255 255
255 255 255
255 255 255
255 255 255
255 255 255
255 255 255
200 50 50
200 50 50
200 50 50
200 50 50
200 50 50
200 50 50
200 50 50
200 50 50
200 50 50
200 50 50
200 50 50
200 50 50
200 50 50
200 50 50
200 50 50
200 50 50
200 50 50
200 50 50
200 50 50
200 50 50
200 50 50
200 50 50
200 50 50
200 50 50
200 50 50
200 50 50
200 50 50
200 50 50
200 50 50
200 50 50
200 50 50
200 50 50
255 255 255
255 255 255
255 255 255
255 255 255
255 255 255
255 255 255
255 255 255
255 255 255
255 255 255
255 255 255
255 255 255
255 255 255
255 255 255
255 255 255
255 255 255
255 255 255
255 255 255
255 255 255
255 255 255
255 255 255
255 255 255
255 255 255
255 255 255
255 255 255
255 255 255
255 255 255
255 255 255
255 255 255
255 255 255
255 255 255
255 255 255
255 255 255
200 50 50
200 50 50
200 50 50
200 50 50
200 50 50
200 50 50
200 50 50
200 50 50
200 50 50
200 50 50
200 50 50
200 50 50
200 50 50
200 50 50
200 50 50
200 50 50
200 50 50
200 50 50
200 50 50
200 50 50
200 50 50
200 50 50
200 50 50
200 50 50
200 50 50
200 50 50
200 50 50
200 50 50
200 50 50
200 50 50
200 50 50
200 50 50
255 255 255
255 255 255
255 255 255
255 255 255
255 255 255
255 255 255
255 255 255
255 255 255
255 255 255
255 255 255
255 255 255
255 255 255
255 255 255
255 255 255
255 255 255
255 255 255
255 255 255
255 255 255
255 255 255
255 255 255
255 255 255
255 255 255
255 255 255
255 255 255
255 255 255
255 255 255
255 255 255
255 255 255
255 255 255
255 255 255
255 255 255
255 255 255
200 50 50
200 50 50
200 50 50
200 50 50
200 50 50
200 50 50
200 50 50
200 50 50
200 50 50
200 50 50
200 50 50
200 50 50
200 50 50
200 50 50
200 50 50
200 50 50
200 50 50
200 50 50
200 50 50
200 50 50
200 50 50
200 50 50
200 50 50
200 50 50
200 50 50
200 50 50
200 50 50
200 50 50
200 50 50
200 50 50
200 50 50
200 50 50
255 255 255
255 255 255
255 255 255
255 255 255
255 255 255
255 255 255
255 255 255
255 255 255
255 255 255
255 255 255
255 255 255
255 255 255
255 255 255
255 255 255
255 255 255
255 255 255
255 255 255
255 255 255
255 255 255
255 255 255
255 255 255
255 255 255
255 255 255
255 255 255
255 255 255
255 255 255
255 255 255
255 255 255
255 255 255
255 255 255
255 255 255
255 255 255
200 50 50
200 50 50
200 50 50
200 50 50
200 50 50
200 50 50
200 50 50
200 50 50
200 50 50
200 50 50
200 50 50
200 50 50
200 50 50
200 50 50
200 50 50
200 50 50
200 50 50
200 50 50
200 50 50
200 50 50
200 50 50
200 50 50
200 50 50
200 50 50
200 50 50
200 50 50
200 50 50
200 50 50
200 50 50
200 50 50
200 50 50
200 50 50
255 255 255
255 255 255
255 255 255
255 255 255
255 255 255
255 255 255
255 255 255
255 255 255
255 255 255
255 255 255
255 255 255
255 255 255
255 255 255
255 255 255
255 255 255
255 255 255
255 255 255
255 255 255
255 255 255
255 255 255
255 255 255
255 255 255
255 255 255
255 255 255
255 255 255
255 255 255
255 255 255
255 255 255
255 255 255
255 255 255
255 255 255
255 255 255
200 50 50
200 50 50
200 50 50
200 50 50
200 50 50
200 50 50
200 50 50
200 50 50
200 50 50
200 50 50
200 50 50
200 50 50
200 50 50
200 50 50
200 50 50
200 50 50
200 50 50
200 50 50
200 50 50
200 50 50
200 50 50
200 50 50
200 50 50
200 50 50
200 50 50
200 50 50
200 50 50
200 50 50
200 50 50
200 50 50
200 50 50
200 50 50
255 255 255
255 255 255
255 255 255
255 255 255
255 255 255
255 255 255
255 255 255
255 255 255
255 255 255
255 255 255
255 255 255
255 255 255
255 255 255
255 255 255
255 255 255
255 255 255
255 255 255
255 255 255
255 255 255
255 255 255
255 255 255
255 255 255
255 255 255
255 255 255
255 255 255
255 255 255
255 255 255
255 255 255
255 255 255
255 255 255
255 255 255
255 255 255
200 50 50
200 50 50
200 50 50
200 50 50
200 50 50
200 50 50
200 50 50
200 50 50
200 50 50
200 50 50
200 50 50
200 50 50
200 50 50
200 50 50
200 50 50
200 50 50
200 50 50
200 50 50
200 50 50
200 50 50
200 50 50
200 50 50
200 50 50
200 50 50
200 50 50
200 50 50
200 50 50
200 50 50
200 50 50
200 50 50
200 50 50
200 50 50
255 255 255
255 255 255
255 255 255
255 255 255
255 255 255
255 255 255
255 255 255
255 255 255
255 255 255
255 255 255
255 255 255
255 255 255
255 255 255
255 255 255
255 255 255
255 255 255
255 255 255
255 255 255
255 255 255
255 255 255
255 255 255
255 255 255
255 255 255
255 255 255
255 255 255
255 255 255
255 255 255
255 255 255
255 255 255
255 255 255
255 255 255
255 255 255
200 50 50
200 50 50
200 50 50
200 50 50
200 50 50
200 50 50
200 50 50
200 50 50
200 50 50
200 50 50
200 50 50
200 50 50
200 50 50
200 50 50
200 50 50
200 50 50
200 50 50
200 50 50
200 50 50
200 50 50
200 50 50
200 50 50
200 50 50
200 50 50
200 50 50
200 50 50
200 50 50
200 50 50
200 50 50
200 50 50
200 50 50
200 50 50
255 255 255
255 255 255
255 255 255
255 255 255
255 255 255
255 255 255
255 255 255
255 255 255
255 255 255
255 255 255
255 255 255
255 255 255
255 255 255
255 255 255
255 255 255
255 255 255
255 255 255
255 255 255
255 255 255
255 255 255
255 255 255
255 255 255
255 255 255
255 255 255
255 255 255
255 255 255
255 255 255
255 255 255
255 255 255
255 255 255
255 255 255
255 255 255
200 50 50
200 50 50
200 50 50
200 50 50
200 50 50
200 50 50
200 50 50
200 50 50
200 50 50
200 50 50
200 50 50
200 50 50
200 50 50
200 50 50
200 50 50
200 50 50
200 50 50
200 50 50
200 50 50
200 50 50
200 50 50
200 50 50
200 50 50
200 50 50
200 50 50
200 50 50
200 50 50
200 50 50
200 50 50
200 50 50
200 50 50
200 50 50
255 255 255
255 255 255
255 255 255
255 255 255
255 255 255
255 255 255
255 255 255
255 255 255
255 255 255
255 255 255
255 255 255
255 255 255
255 255 255
255 255 255
255 255 255
255 255 255
255 255 255
255 255 255
255 255 255
255 255 255
255 255 255
255 255 255
255 255 255
255 255 255
255 255 255
255 255 255
255 255 255
255 255 255
255 255 255
255 255 255
255 255 255
255 255 255
200 50 50
200 50 50
200 50 50
200 50 50
200 50 50
200 50 50
200 50 50
200 50 50
200 50 50
200 50 50
200 50 50
200 50 50
200 50 50
200 50 50
200 50 50
200 50 50
200 50 50
200 50 50
200 50 50
200 50 50
200 50 50
200 50 50
200 50 50
200 50 50
200 50 50
200 50 50
200 50 50
200 50 50
200 50 50
200 50 50
200 50 50
200 50 50
255 255 255
255 255 255
255 255 255
255 255 255
255 255 255
255 255 255
255 255 255
255 255 255
255 255 255
255 255 255
255 255 255
255 255 255
255 255 255
255 255 255
255 255 255
255 255 255
255 255 255
255 255 255
255 255 255
255 255 255
255 255 255
255 255 255
255 255 255
255 255 255
255 255 255
255 255 255
255 255 255
255 255 255
255 255 255
255 255 255
255 255 255
255 255 255
200 50 50
200 50 50
200 50 50
200 50 50
200 50 50
200 50 50
200 50 50
200 50 50
200 50 50
200 50 50
200 50 50
200 50 50
200 50 50
200 50 50
200 50 50
200 50 50
200 50 50
200 50 50
200 50 50
200 50 50
200 50 50
200 50 50
200 50 50
200 50 50
200 50 50
200 50 50
200 50 50
200 50 50
200 50 50
200 50 50
200 50 50
200 50 50
255 255 255
255 255 255
255 255 255
255 255 255
255 255 255
255 255 255
255 255 255
255 255 255
255 255 255
255 255 255
255 255 255
255 255 255
255 255 255
255 255 255
255 255 255
255 255 255
255 255 255
255 255 255
255 255 255
255 255 255
255 255 255
255 255 255
255 255 255
255 255 255
255 255 255
255 255 255
255 255 255
255 255 255
255 255 255
255 255 255
255 255 255
255 255 255
200 50 50
200 50 50
200 50 50
200 50 50
200 50 50
200 50 50
200 50 50
200 50 50
200 50 50
200 50 50
200 50 50
200 50 50
200 50 50
200 50 50
200 50 50
200 50 50
200 50 50
200 50 50
200 50 50
200 50 50
200 50 50
200 50 50
200 50 50
200 50 50
200 50 50
200 50 50
200 50 50
200 50 50
200 50 50
200 50 50
200 50 50
200 50 50
255 255 255
255 255 255
255 255 255
255 255 255
255 255 255
255 255 255
255 255 255
255 255 255
255 255 255
255 255 255
255 255 255
255 255 255
255 255 255
255 255 255
255 255 255
255 255 255
255 255 255
255 255 255
255 255 255
255 255 255
255 255 255
255 255 255
255 255 255
255 255 255
255 255 255
255 255 255
255 255 255
255 255 255
255 255 255
255 255 255
255 255 255
255 255 255
200 50 50
200 50 50
200 50 50
200 50 50
200 50 50
200 50 50
200 50 50
200 50 50
200 50 50
200 50 50
200 50 50
200 50 50
200 50 50
200 50 50
200 50 50
200 50 50
200 50 50
200 50 50
200 50 50
200 50 50
200 50 50
200 50 50
200 50 50
200 50 50
200 50 50
200 50 50
200 50 50
200 50 50
200 50 50
200 50 50
200 50 50
200 50 50
255 255 255
255 255 255
255 255 255
255 255 255
255 255 255
255 255 255
255 255 255
255 255 255
255 255 255
255 255 255
255 255 255
255 255 255
255 255 255
255 255 255
255 255 255
255 255 255
255 255 255
255 255 255
255 255 255
255 255 255
255 255 255
255 255 255
255 255 255
255 255 255
255 255 255
255 255 255
255 255 255
255 255 255
255 255 255
255 255 255
255 255 255
255 255 255
200 50 50
200 50 50
200 50 50
200 50 50
200 50 50
200 50 50
200 50 50
200 50 50
200 50 50
200 50 50
200 50 50
200 50 50
200 50 50
200 50 50
200 50 50
200 50 50
200 50 50
200 50 50
200 50 50
200 50 50
200 50 50
200 50 50
200 50 50
200 50 50
200 50 50
200 50 50
200 50 50
200 50 50
200 50 50
200 50 50
200 50 50
200 50 50
255 255 255
255 255 255
255 255 255
255 255 255
255 255 255
255 255 255
255 255 255
255 255 255
255 255 255
255 255 255
255 255 255
255 255 255
255 255 255
255 255 255
255 255 255
255 255 255
255 255 255
255 255 255
255 255 255
255 255 255
255 255 255
255 255 255
255 255 255
255 255 255
255 255 255
255 255 255
255 255 255
255 255 255
255 255 255
255 255 255
255 255 255
255 255 255
200 50 50
200 50 50
200 50 50
200 50 50
200 50 50
200 50 50
200 50 50
200 50 50
200 50 50
200 50 50
200 50 50
200 50 50
200 50 50
200 50 50
200 50 50
200 50 50
200 50 50
200 50 50
200 50 50
200 50 50
200 50 50
200 50 50
200 50 50
200 50 50
200 50 50
200 50 50
200 50 50
200 50 50
200 50 50
200 50 50
200 50 50
200 50 50
255 255 255
255 255 255
255 255 255
255 255 255
255 255 255
255 255 255
255 255 255
255 255 255
255 255 255
255 255 255
255 255 255
255 255 255
255 255 255
255 255 255
255 255 255
255 255 255
255 255 255
255 255 255
255 255 255
255 255 255
255 255 255
255 255 255
255 255 255
255 255 255
255 255 255
255 255 255
255 255 255
255 255 255
255 255 255
255 255 255
255 255 255
255 255 255
200 50 50
200 50 50
200 50 50
200 50 50
200 50 50
200 50 50
200 50 50
200 50 50
200 50 50
200 50 50
200 50 50
200 50 50
200 50 50
200 50 50
200 50 50
200 50 50
200 50 50
200 50 50
200 50 50
200 50 50
200 50 50
200 50 50
200 50 50
200 50 50
200 50 50
200 50 50
200 50 50
200 50 50
200 50 50
200 50 50
200 50 50
200 50 50
255 255 255
255 255 255
255 255 255
255 255 255
255 255 255
255 255 255
255 255 255
255 255 255
255 255 255
255 255 255
255 255 255
255 255 255
255 255 255
255 255 255
255 255 255
255 255 255
255 255 255
255 255 255
255 255 255
255 255 255
255 255 255
255 255 255
255 255 255
255 255 255
255 255 255
255 255 255
255 255 255
255 255 255
255 255 255
255 255 255
255 255 255
255 255 255
200 50 50
200 50 50
200 50 50
200 50 50
200 50 50
200 50 50
200 50 50
200 50 50
200 50 50
200 50 50
200 50 50
200 50 50
200 50 50
200 50 50
200 50 50
200 50 50
200 50 50
200 50 50
200 50 50
200 50 50
200 50 50
200 50 50
200 50 50
200 50 50
200 50 50
200 50 50
200 50 50
200 50 50
200 50 50
200 50 50
200 50 50
200 50 50
255 255 255
255 255 255
255 255 255
255 255 255
255 255 255
255 255 255
255 255 255
255 255 255
255 255 255
255 255 255
255 255 255
255 255 255
255 255 255
255 255 255
255 255 255
255 255 255
255 255 255
255 255 255
255 255 255
255 255 255
255 255 255
255 255 255
255 255 255
255 255 255
255 255 255
255 255 255
255 255 255
255 255 255
255 255 255
255 255 255
255 255 255
255 255 255
200 50 50
200 50 50
200 50 50
200 50 50
200 50 50
200 50 50
200 50 50
200 50 50
200 50 50
200 50 50
200 50 50
200 50 50
200 50 50
200 50 50
200 50 50
200 50 50
200 50 50
200 50 50
200 50 50
200 50 50
200 50 50
200 50 50
200 50 50
200 50 50
200 50 50
200 50 50
200 50 50
200 50 50
200 50 50
200 50 50
200 50 50
200 50 50
255 255 255
255 255 255
255 255 255
255 255 255
255 255 255
255 255 255
255 255 255
255 255 255
255 255 255
255 255 255
255 255 255
255 255 255
255 255 255
255 255 255
255 255 255
255 255 255
255 255 255
255 255 255
255 255 255
255 255 255
255 255 255
255 255 255
255 255 255
255 255 255
255 255 255
255 255 255
255 255 255
255 255 255
255 255 255
255 255 255
255 255 255
255 255 255
200 50 50
200 50 50
200 50 50
200 50 50
200 50 50
200 50 50
200 50 50
200 50 50
200 50 50
200 50 50
200 50 50
200 50 50
200 50 50
200 50 50
200 50 50
200 50 50
200 50 50
200 50 50
200 50 50
200 50 50
200 50 50
200 50 50
200 50 50
200 50 50
200 50 50
200 50 50
200 50 50
200 50 50
200 50 50
200 50 50
200 50 50
200 50 50
255 255 255
255 255 255
255 255 255
255 255 255
255 255 255
255 255 255
255 255 255
255 255 255
255 255 255
255 255 255
255 255 255
255 255 255
255 255 255
255 255 255
255 255 255
255 255 255
255 255 255
255 255 255
255 255 255
255 255 255
255 255 255
255 255 255
255 255 255
255 255 255
255 255 255
255 255 255
255 255 255
255 255 255
255 255 255
255 255 255
255 255 255
255 255 255
200 50 50
200 50 50
200 50 50
200 50 50
200 50 50
200 50 50
200 50 50
200 50 50
200 50 50
200 50 50
200 50 50
200 50 50
200 50 50
200 50 50
200 50 50
200 50 50
200 50 50
200 50 50
200 50 50
200 50 50
200 50 50
200 50 50
200 50 50
200 50 50
200 50 50
200 50 50
200 50 50
200 50 50
200 50 50
200 50 50
200 50 50
200 50 50
255 255 255
255 255 255
255 255 255
255 255 255
255 255 255
255 255 255
255 255 255
255 255 255
255 255 255
255 255 255
255 255 255
255 255 255
255 255 255
255 255 255
255 255 255
255 255 255
255 255 255
255 255 255
255 255 255
255 255 255
255 255 255
255 255 255
255 255 255
255 255 255
255 255 255
255 255 255
255 255 255
255 255 255
255 255 255
255 255 255
255 255 255
255 255 255
200 50 50
200 50 50
200 50 50
200 50 50
200 50 50
200 50 50
200 50 50
200 50 50
200 50 50
200 50 50
200 50 50
200 50 50
200 50 50
200 50 50
200 50 50
200 50 50
200 50 50
200 50 50
200 50 50
200 50 50
200 50 50
200 50 50
200 50 50
200 50 50
200 50 50
200 50 50
200 50 50
200 50 50
200 50 50
200 50 50
200 50 50
200 50 50
255 255 255
255 255 255
255 255 255
255 255 255
255 255 255
255 255 255
255 255 255
255 255 255
255 255 255
255 255 255
255 255 255
255 255 255
255 255 255
255 255 255
255 255 255
255 255 255
255 255 255
255 255 255
255 255 255
255 255 255
255 255 255
255 255 255
255 255 255
255 255 255
255 255 255
255 255 255
255 255 255
255 255 255
255 255 255
255 255 255
255 255 255
255 255 255
200 50 50
200 50 50
200 50 50
200 50 50
200 50 50
200 50 50
200 50 50
200 50 50
200 50 50
200 50 50
200 50 50
200 50 50
200 50 50
200 50 50
200 50 50
200 50 50
200 50 50
200 50 50
200 50 50
200 50 50
200 50 50
200 50 50
200 50 50
200 50 50
200 50 50
200 50 50
200 50 50
200 50 50
200 50 50
200 50 50
200 50 50
200 50 50
255 255 255
255 255 255
255 255 255
255 255 255
255 255 255
255 255 255
255 255 255
255 255 255
255 255 255
255 255 255
255 255 255
255 255 255
255 255 255
255 255 255
255 255 255
255 255 255
255 255 255
255 255 255
255 255 255
255 255 255
255 255 255
255 255 255
255 255 255
255 255 255
255 255 255
255 255 255
255 255 255
255 255 255
255 255 255
255 255 255
255 255 255
255 255 255
200 50 50
200 50 50
200 50 50
200 50 50
200 50 50
200 50 50
200 50 50
200 50 50
200 50 50
200 50 50
200 50 50
200 50 50
200 50 50
200 50 50
200 50 50
200 50 50
200 50 50
200 50 50
200 50 50
200 50 50
200 50 50
200 50 50
200 50 50
200 50 50
200 50 50
200 50 50
200 50 50
200 50 50
200 50 50
200 50 50
200 50 50
200 50 50
255 255 255
255 255 255
255 255 255
255 255 255
255 255 255
255 255 255
255 255 255
255 255 255
255 255 255
255 255 255
255 255 255
255 255 255
255 255 255
255 255 255
255 255 255
255 255 255
255 255 255
255 255 255
255 255 255
255 255 255
255 255 255
255 255 255
255 255 255
255 255 255
255 255 255
255 255 255
255 255 255
255 255 255
255 255 255
255 255 255
255 255 255
255 255 255
200 50 50
200 50 50
200 50 50
200 50 50
200 50 50
200 50 50
200 50 50
200 50 50
200 50 50
200 50 50
200 50 50
200 50 50
200 50 50
200 50 50
200 50 50
200 50 50
200 50 50
200 50 50
200 50 50
200 50 50
200 50 50
200 50 50
200 50 50
200 50 50
200 50 50
200 50 50
200 50 50
200 50 50
200 50 50
200 50 50
200 50 50
200 50 50
255 255 255
255 255 255
255 255 255
255 255 255
255 255 255
255 255 255
255 255 255
255 255 255
255 255 255
255 255 255
255 255 255
255 255 255
255 255 255
255 255 255
255 255 255
255 255 255
255 255 255
255 255 255
255 255 255
255 255 255
255 255 255
255 255 255
255 255 255
255 255 255
255 255 255
255 255 255
255 255 255
255 255 255
255 255 255
255 255 255
255 255 255
255 255 255
200 50 50
200 50 50
200 50 50
200 50 50
200 50 50
200 50 50
200 50 50
200 50 50
200 50 50
200 50 50
200 50 50
200 50 50
200 50 50
200 50 50
200 50 50
200 50 50
200 50 50
200 50 50
200 50 50
200 50 50
200 50 50
200 50 50
200 50 50
200 50 50
200 50 50
200 50 50
200 50 50
200 50 50
200 50 50
200 50 50
200 50 50
200 50 50
255 255 255
255 255 255
255 255 255
255 255 255
255 255 255
255 255 255
255 255 255
255 255 255
255 255 255
255 255 255
255 255 255
255 255 255
255 255 255
255 255 255
255 255 255
255 255 255
255 255 255
255 255 255
255 255 255
255 255 255
255 255 255
255 255 255
255 255 255
255 255 255
255 255 255
255 255 255
255 255 255
255 255 255
255 255 255
255 255 255
255 255 255
255 255 255
200 50 50
200 50 50
200 50 50
200 50 50
200 50 50
200 50 50
200 50 50
200 50 50
200 50 50
200 50 50
200 50 50
200 50 50
200 50 50
200 50 50
200 50 50
200 50 50
200 50 50
200 50 50
200 50 50
200 50 50
200 50 50
200 50 50
200 50 50
200 50 50
200 50 50
200 50 50
200 50 50
200 50 50
200 50 50
200 50 50
200 50 50
200 50 50
255 255 255
255 255 255
255 255 255
255 255 255
255 255 255
255 255 255
255 255 255
255 255 255
255 255 255
255 255 255
255 255 255
255 255 255
255 255 255
255 255 255
255 255 255
255 255 255
255 255 255
255 255 255
255 255 255
255 255 255
255 255 255
255 255 255
255 255 255
255 255 255
255 255 255
255 255 255
255 255 255
255 255 255
255 255 255
255 255 255
255 255 255
255 255 255
200 50 50
200 50 50
200 50 50
200 50 50
200 50 50
200 50 50
200 50 50
200 50 50
200 50 50
200 50 50
200 50 50
200 50 50
200 50 50
200 50 50
200 50 50
200 50 50
200 50 50
200 50 50
200 50 50
200 50 50
200 50 50
200 50 50
200 50 50
200 50 50
200 50 50
200 50 50
200 50 50
200 50 50
200 50 50
200 50 50
200 50 50
200 50 50
255 255 255
255 255 255
255 255 255
255 255 255
255 255 255
255 255 255
255 255 255
255 255 255
255 255 255
255 255 255
255 255 255
255 255 255
255 255 255
255 255 255
255 255 255
255 255 255
255 255 255
255 255 255
255 255 255
255 255 255
255 255 255
255 255 255
255 255 255
255 255 255
255 255 255
255 255 255
255 255 255
255 255 255
255 255 255
255 255 255
255 255 255
255 255 255
200 50 50
200 50 50
200 50 50
200 50 50
200 50 50
200 50 50
200 50 50
200 50 50
200 50 50
200 50 50
200 50 50
200 50 50
200 50 50
200 50 50
200 50 50
200 50 50
200 50 50
200 50 50
200 50 50
200 50 50
200 50 50
200 50 50
200 50 50
200 50 50
200 50 50
200 50 50
200 50 50
200 50 50
200 50 50
200 50 50
200 50 50
200 50 50
255 255 255
255 255 255
255 255 255
255 255 255
255 255 255
255 255 255
255 255 255
255 255 255
255 255 255
255 255 255
255 255 255
255 255 255
255 255 255
255 255 255
255 255 255
255 255 255
255 255 255
255 255 255
255 255 255
255 255 255
255 255 255
255 255 255
255 255 255
255 255 255
255 255 255
255 255 255
255 255 255
255 255 255
255 255 255
255 255 255
255 255 255
255 255 255
200 50 50
200 50 50
200 50 50
200 50 50
200 50 50
200 50 50
200 50 50
200 50 50
200 50 50
200 50 50
200 50 50
200 50 50
200 50 50
200 50 50
200 50 50
200 50 50
200 50 50
200 50 50
200 50 50
200 50 50
200 50 50
200 50 50
200 50 50
200 50 50
200 50 50
200 50 50
200 50 50
200 50 50
200 50 50
200 50 50
200 50 50
200 50 50
255 255 255
255 255 255
255 255 255
255 255 255
255 255 255
255 255 255
255 255 255
255 255 255
255 255 255
255 255 255
255 255 255
255 255 255
255 255 255
255 255 255
255 255 255
255 255 255
255 255 255
255 255 255
255 255 255
255 255 255
255 255 255
255 255 255
255 255 255
255 255 255
255 255 255
255 255 255
255 255 255
255 255 255
255 255 255
255 255 255
255 255 255
255 255 255
200 50 50
200 50 50
200 50 50
200 50 50
200 50 50
200 50 50
200 50 50
200 50 50
200 50 50
200 50 50
200 50 50
200 50 50
200 50 50
200 50 50
200 50 50
200 50 50
200 50 50
200 50 50
200 50 50
200 50 50
200 50 50
200 50 50
200 50 50
200 50 50
200 50 50
200 50 50
200 50 50
200 50 50
200 50 50
200 50 50
200 50 50
200 50 50
255 255 255
255 255 255
255 255 255
255 255 255
255 255 255
255 255 255
255 255 255
255 255 255
255 255 255
255 255 255
255 255 255
255 255 255
255 255 255
255 255 255
255 255 255
255 255 255
255 255 255
255 255 255
255 255 255
255 255 255
255 255 255
255 255 255
255 255 255
255 255 255
255 255 255
255 255 255
255 255 255
255 255 255
255 255 255
255 255 255
255 255 255
255 255 255
200 50 50
200 50 50
200 50 50
200 50 50
200 50 50
200 50 50
200 50 50
200 50 50
200 50 50
200 50 50
200 50 50
200 50 50
200 50 50
200 50 50
200 50 50
200 50 50
200 50 50
200 50 50
200 50 50
200 50 50
200 50 50
200 50 50
200 50 50
200 50 50
200 50 50
200 50 50
200 50 50
200 50 50
200 50 50
200 50 50
200 50 50
200 50 50
255 255 255
255 255 255
255 255 255
255 255 255
255 255 255
255 255 255
255 255 255
255 255 255
255 255 255
255 255 255
255 255 255
255 255 255
255 255 255
255 255 255
255 255 255
255 255 255
255 255 255
255 255 255
255 255 255
255 255 255
255 255 255
255 255 255
255 255 255
255 255 255
255 255 255
255 255 255
255 255 255
255 255 255
255 255 255
255 255 255
255 255 255
255 255 255
200 50 50
200 50 50
200 50 50
200 50 50
200 50 50
200 50 50
200 50 50
200 50 50
200 50 50
200 50 50
200 50 50
200 50 50
200 50 50
200 50 50
200 50 50
200 50 50
200 50 50
200 50 50
200 50 50
200 50 50
200 50 50
200 50 50
200 50 50
200 50 50
200 50 50
200 50 50
200 50 50
200 50 50
200 50 50
200 50 50
200 50 50
200 50 50
255 255 255
255 255 255
255 255 255
255 255 255
255 255 255
255 255 255
255 255 255
255 255 255
255 255 255
255 255 255
255 255 255
255 255 255
255 255 255
255 255 255
255 255 255
255 255 255
255 255 255
255 255 255
255 255 255
255 255 255
255 255 255
255 255 255
255 255 255
255 255 255
255 255 255
255 255 255
255 255 255
255 255 255
255 255 255
255 255 255
255 255 255
255 255 255
200 50 50
200 50 50
200 50 50
200 50 50
200 50 50
200 50 50
200 50 50
200 50 50
200 50 50
200 50 50
200 50 50
200 50 50
200 50 50
200 50 50
200 50 50
200 50 50
200 50 50
200 50 50
200 50 50
200 50 50
200 50 50
200 50 50
200 50 50
200 50 50
200 50 50
200 50 50
200 50 50
200 50 50
200 50 50
200 50 50
200 50 50
200 50 50
255 255 255
255 255 255
255 255 255
255 255 255
255 255 255
255 255 255
255 255 255
255 255 255
255 255 255
255 255 255
255 255 255
255 255 255
255 255 255
255 255 255
255 255 255
255 255 255
255 255 255
255 255 255
255 255 255
255 255 255
255 255 255
255 255 255
255 255 255
255 255 255
255 255 255
255 255 255
255 255 255
255 255 255
255 255 255
255 255 255
255 255 255
255 255 255
200 50 50
200 50 50
200 50 50
200 50 50
200 50 50
200 50 50
200 50 50
200 50 50
200 50 50
200 50 50
200 50 50
200 50 50
200 50 50
200 50 50
200 50 50
200 50 50
200 50 50
200 50 50
200 50 50
200 50 50
200 50 50
200 50 50
200 50 50
200 50 50
200 50 50
200 50 50
200 50 50
200 50 50
200 50 50
200 50 50
200 50 50
200 50 50
255 255 255
255 255 255
255 255 255
255 255 255
255 255 255
255 255 255
255 255 255
255 255 255
255 255 255
255 255 255
255 255 255
255 255 255
255 255 255
255 255 255
255 255 255
255 255 255
255 255 255
255 255 255
255 255 255
255 255 255
255 255 255
255 255 255
255 255 255
255 255 255
255 255 255
255 255 255
255 255 255
255 255 255
255 255 255
255 255 255
255 255 255
255 255 255
200 50 50
200 50 50
200 50 50
200 50 50
200 50 50
200 50 50
200 50 50
200 50 50
200 50 50
200 50 50
200 50 50
200 50 50
200 50 50
200 50 50
200 50 50
200 50 50
200 50 50
200 50 50
200 50 50
200 50 50
200 50 50
200 50 50
200 50 50
200 50 50
200 50 50
200 50 50
200 50 50
200 50 50
200 50 50
200 50 50
200 50 50
200 50 50
255 255 255
255 255 255
255 255 255
255 255 255
255 255 255
255 255 255
255 255 255
255 255 255
255 255 255
255 255 255
255 255 255
255 255 255
255 255 255
255 255 255
255 255 255
255 255 255
255 255 255
255 255 255
255 255 255
255 255 255
255 255 255
255 255 255
255 255 255
255 255 255
255 255 255
255 255 255
255 255 255
255 255 255
255 255 255
255 255 255
255 255 255
255 255 255
200 50 50
200 50 50
200 50 50
200 50 50
200 50 50
200 50 50
200 50 50
200 50 50
200 50 50
200 50 50
200 50 50
200 50 50
200 50 50
200 50 50
200 50 50
200 50 50
200 50 50
200 50 50
200 50 50
200 50 50
200 50 50
200 50 50
200 50 50
200 50 50
200 50 50
200 50 50
200 50 50
200 50 50
200 50 50
200 50 50
200 50 50
200 50 50
255 255 255
255 255 255
255 255 255
255 255 255
255 255 255
255 255 255
255 255 255
255 255 255
255 255 255
255 255 255
255 255 255
255 255 255
255 255 255
255 255 255
255 255 255
255 255 255
255 255 255
255 255 255
255 255 255
255 255 255
255 255 255
255 255 255
255 255 255
255 255 255
255 255 255
255 255 255
255 255 255
255 255 255
255 255 255
255 255 255
255 255 255
255 255 255
200 50 50
200 50 50
200 50 50
200 50 50
200 50 50
200 50 50
200 50 50
200 50 50
200 50 50
200 50 50
200 50 50
200 50 50
200 50 50
200 50 50
200 50 50
200 50 50
200 50 50
200 50 50
200 50 50
200 50 50
200 50 50
200 50 50
200 50 50
200 50 50
200 50 50
200 50 50
200 50 50
200 50 50
200 50 50
200 50 50
200 50 50
200 50 50
255 255 255
255 255 255
255 255 255
255 255 255
255 255 255
255 255 255
255 255 255
255 255 255
255 255 255
255 255 255
255 255 255
255 255 255
255 255 255
255 255 255
255 255 255
255 255 255
255 255 255
255 255 255
255 255 255
255 255 255
255 255 255
255 255 255
255 255 255
255 255 255
255 255 255
255 255 255
255 255 255
255 255 255
255 255 255
255 255 255
255 255 255
255 255 255
200 50 50
200 50 50
200 50 50
200 50 50
200 50 50
200 50 50
200 50 50
200 50 50
200 50 50
200 50 50
200 50 50
200 50 50
200 50 50
200 50 50
200 50 50
200 50 50
200 50 50
200 50 50
200 50 50
200 50 50
200 50 50
200 50 50
200 50 50
200 50 50
200 50 50
200 50 50
200 50 50
200 50 50
200 50 50
200 50 50
200 50 50
200 50 50
255 255 255
255 255 255
255 255 255
255 255 255
255 255 255
255 255 255
255 255 255
255 255 255
255 255 255
255 255 255
255 255 255
255 255 255
255 255 255
255 255 255
255 255 255
255 255 255
255 255 255
255 255 255
255 255 255
255 255 255
255 255 255
255 255 255
255 255 255
255 255 255
255 255 255
255 255 255
255 255 255
255 255 255
255 255 255
255 255 255
255 255 255
255 255 255
200 50 50
200 50 50
200 50 50
200 50 50
200 50 50
200 50 50
200 50 50
200 50 50
200 50 50
200 50 50
200 50 50
200 50 50
200 50 50
200 50 50
200 50 50
200 50 50
200 50 50
200 50 50
200 50 50
200 50 50
200 50 50
200 50 50
200 50 50
200 50 50
200 50 50
200 50 50
200 50 50
200 50 50
200 50 50
200 50 50
200 50 50
200 50 50
255 255 255
255 255 255
255 255 255
255 255 255
255 255 255
255 255 255
255 255 255
255 255 255
255 255 255
255 255 255
255 255 255
255 255 255
255 255 255
255 255 255
255 255 255
255 255 255
255 255 255
255 255 255
255 255 255
255 255 255
255 255 255
255 255 255
255 255 255
255 255 255
255 255 255
255 255 255
255 255 255
255 255 255
255 255 255
255 255 255
255 255 255
255 255 255
200 50 50
200 50 50
200 50 50
200 50 50
200 50 50
200 50 50
200 50 50
200 50 50
200 50 50
200 50 50
200 50 50
200 50 50
200 50 50
200 50 50
200 50 50
200 50 50
200 50 50
200 50 50
200 50 50
200 50 50
200 50 50
200 50 50
200 50 50
200 50 50
200 50 50
200 50 50
200 50 50
200 50 50
200 50 50
200 50 50
200 50 50
200 50 50
255 255 255
255 255 255
255 255 255
255 255 255
255 255 255
255 255 255
255 255 255
255 255 255
255 255 255
255 255 255
255 255 255
255 255 255
255 255 255
255 255 255
255 255 255
255 255 255
255 255 255
255 255 255
255 255 255
255 255 255
255 255 255
255 255 255
255 255 255
255 255 255
255 255 255
255 255 255
255 255 255
255 255 255
255 255 255
255 255 255
255 255 255
255 255 255
200 50 50
200 50 50
200 50 50
200 50 50
200 50 50
200 50 50
200 50 50
200 50 50
200 50 50
200 50 50
200 50 50
200 50 50
200 50 50
200 50 50
200 50 50
200 50 50
200 50 50
200 50 50
200 50 50
200 50 50
200 50 50
200 50 50
200 50 50
200 50 50
200 50 50
200 50 50
200 50 50
200 50 50
200 50 50
200 50 50
200 50 50
200 50 50
255 255 255
255 255 255
255 255 255
255 255 255
255 255 255
255 255 255
255 255 255
255 255 255
255 255 255
255 255 255
255 255 255
255 255 255
255 255 255
255 255 255
255 255 255
255 255 255
255 255 255
255 255 255
255 255 255
255 255 255
255 255 255
255 255 255
255 255 255
255 255 255
255 255 255
255 255 255
255 255 255
255 255 255
255 255 255
255 255 255
255 255 255
255 255 255
200 50 50
200 50 50
200 50 50
200 50 50
200 50 50
200 50 50
200 50 50
200 50 50
200 50 50
200 50 50
200 50 50
200 50 50
200 50 50
200 50 50
200 50 50
200 50 50
200 50 50
200 50 50
200 50 50
200 50 50
200 50 50
200 50 50
200 50 50
200 50 50
200 50 50
200 50 50
200 50 50
200 50 50
200 50 50
200 50 50
200 50 50
200 50 50
255 255 255
255 255 255
255 255 255
255 255 255
255 255 255
255 255 255
255 255 255
255 255 255
255 255 255
255 255 255
255 255 255
255 255 255
255 255 255
255 255 255
255 255 255
255 255 255
255 255 255
255 255 255
255 255 255
255 255 255
255 255 255
255 255 255
255 255 255
255 255 255
255 255 255
255 255 255
255 255 255
255 255 255
255 255 255
255 255 255
255 255 255
255 255 255
200 50 50
200 50 50
200 50 50
200 50 50
200 50 50
200 50 50
200 50 50
200 50 50
200 50 50
200 50 50
200 50 50
200 50 50
200 50 50
200 50 50
200 50 50
200 50 50
200 50 50
200 50 50
200 50 50
200 50 50
200 50 50
200 50 50
200 50 50
200 50 50
200 50 50
200 50 50
200 50 50
200 50 50
200 50 50
200 50 50
200 50 50
200 50 50
255 255 255
255 255 255
255 255 255
255 255 255
255 255 255
255 255 255
255 255 255
255 255 255
255 255 255
255 255 255
255 255 255
255 255 255
255 255 255
255 255 255
255 255 255
255 255 255
255 255 255
255 255 255
255 255 255
255 255 255
255 255 255
255 255 255
255 255 255
255 255 255
255 255 255
255 255 255
255 255 255
255 255 255
255 255 255
255 255 255
255 255 255
255 255 255
200 50 50
200 50 50
200 50 50
200 50 50
200 50 50
200 50 50
200 50 50
200 50 50
200 50 50
200 50 50
200 50 50
200 50 50
200 50 50
200 50 50
200 50 50
200 50 50
200 50 50
200 50 50
200 50 50
200 50 50
200 50 50
200 50 50
200 50 50
200 50 50
200 50 50
200 50 50
200 50 50
200 50 50
200 50 50
200 50 50
200 50 50
200 50 50
255 255 255
255 255 255
255 255 255
255 255 255
255 255 255
255 255 255
255 255 255
255 255 255
255 255 255
255 255 255
255 255 255
255 255 255
255 255 255
255 255 255
255 255 255
255 255 255
255 255 255
255 255 255
255 255 255
255 255 255
255 255 255
255 255 255
255 255 255
255 255 255
255 255 255
255 255 255
255 255 255
255 255 255
255 255 255
255 255 255
255 255 255
255 255 255
200 50 50
200 50 50
200 50 50
200 50 50
200 50 50
200 50 50
200 50 50
200 50 50
200 50 50
200 50 50
200 50 50
200 50 50
200 50 50
200 50 50
200 50 50
200 50 50
200 50 50
200 50 50
200 50 50
200 50 50
200 50 50
200 50 50
200 50 50
200 50 50
200 50 50
200 50 50
200 50 50
200 50 50
200 50 50
200 50 50
200 50 50
200 50 50
255 255 255
255 255 255
255 255 255
255 255 255
255 255 255
255 255 255
255 255 255
255 255 255
255 255 255
255 255 255
255 255 255
255 255 255
255 255 255
255 255 255
255 255 255
255 255 255
255 255 255
255 255 255
255 255 255
255 255 255
255 255 255
255 255 255
255 255 255
255 255 255
255 255 255
255 255 255
255 255 255
255 255 255
255 255 255
255 255 255
255 255 255
255 255 255
200 50 50
200 50 50
200 50 50
200 50 50
200 50 50
200 50 50
200 50 50
200 50 50
200 50 50
200 50 50
200 50 50
200 50 50
200 50 50
200 50 50
200 50 50
200 50 50
200 50 50
200 50 50
200 50 50
200 50 50
200 50 50
200 50 50
200 50 50
200 50 50
200 50 50
200 50 50
200 50 50
200 50 50
200 50 50
200 50 50
200 50 50
200 50 50
255 255 255
255 255 255
255 255 255
255 255 255
255 255 255
255 255 255
255 255 255
255 255 255
255 255 255
255 255 255
255 255 255
255 255 255
255 255 255
255 255 255
255 255 255
255 255 255
255 255 255
255 255 255
255 255 255
255 255 255
255 255 255
255 255 255
255 255 255
255 255 255
255 255 255
255 255 255
255 255 255
255 255 255
255 255 255
255 255 255
255 255 255
255 255 255
200 50 50
200 50 50
200 50 50
200 50 50
200 50 50
200 50 50
200 50 50
200 50 50
200 50 50
200 50 50
200 50 50
200 50 50
200 50 50
200 50 50
200 50 50
200 50 50
200 50 50
200 50 50
200 50 50
200 50 50
200 50 50
200 50 50
200 50 50
200 50 50
200 50 50
200 50 50
200 50 50
200 50 50
200 50 50
200 50 50
200 50 50
200 50 50
255 255 255
255 255 255
255 255 255
255 255 255
255 255 255
255 255 255
255 255 255
255 255 255
255 255 255
255 255 255
255 255 255
255 255 255
255 255 255
255 255 255
255 255 255
255 255 255
255 255 255
255 255 255
255 255 255
255 255 255
255 255 255
255 255 255
255 255 255
255 255 255
255 255 255
255 255 255
255 255 255
255 255 255
255 255 255
255 255 255
255 255 255
255 255 255
200 50 50
200 50 50
200 50 50
200 50 50
200 50 50
200 50 50
200 50 50
200 50 50
200 50 50
200 50 50
200 50 50
200 50 50
200 50 50
200 50 50
200 50 50
200 50 50
200 50 50
200 50 50
200 50 50
200 50 50
200 50 50
200 50 50
200 50 50
200 50 50
200 50 50
200 50 50
200 50 50
200 50 50
200 50 50
200 50 50
200 50 50
200 50 50
255 255 255
255 255 255
255 255 255
255 255 255
255 255 255
255 255 255
255 255 255
255 255 255
255 255 255
255 255 255
255 255 255
255 255 255
255 255 255
255 255 255
255 255 255
255 255 255
255 255 255
255 255 255
255 255 255
255 255 255
255 255 255
255 255 255
255 255 255
255 255 255
255 255 255
255 255 255
255 255 255
255 255 255
255 255 255
255 255 255
255 255 255
255 255 255
200 50 50
200 50 50
200 50 50
200 50 50
200 50 50
200 50 50
200 50 50
200 50 50
200 50 50
200 50 50
200 50 50
200 50 50
200 50 50
200 50 50
200 50 50
200 50 50
200 50 50
200 50 50
200 50 50
200 50 50
200 50 50
200 50 50
200 50 50
200 50 50
200 50 50
200 50 50
200 50 50
200 50 50
200 50 50
200 50 50
200 50 50
200 50 50
255 255 255
255 255 255
255 255 255
255 255 255
255 255 255
255 255 255
255 255 255
255 255 255
255 255 255
255 255 255
255 255 255
255 255 255
255 255 255
255 255 255
255 255 255
255 255 255
255 255 255
255 255 255
255 255 255
255 255 255
255 255 255
255 255 255
255 255 255
255 255 255
255 255 255
255 255 255
255 255 255
255 255 255
255 255 255
255 255 255
255 255 255
255 255 255
200 50 50
200 50 50
200 50 50
200 50 50
200 50 50
200 50 50
200 50 50
200 50 50
200 50 50
200 50 50
200 50 50
200 50 50
200 50 50
200 50 50
200 50 50
200 50 50
200 50 50
200 50 50
200 50 50
200 50 50
200 50 50
200 50 50
200 50 50
200 50 50
200 50 50
200 50 50
200 50 50
200 50 50
200 50 50
200 50 50
200 50 50
200 50 50
255 255 255
255 255 255
255 255 255
255 255 255
255 255 255
255 255 255
255 255 255
255 255 255
255 255 255
255 255 255
255 255 255
255 255 255
255 255 255
255 255 255
255 255 255
255 255 255
255 255 255
255 255 255
255 255 255
255 255 255
255 255 255
255 255 255
255 255 255
255 255 255
255 255 255
255 255 255
255 255 255
255 255 255
255 255 255
255 255 255
255 255 255
255 255 255
200 50 50
200 50 50
200 50 50
200 50 50
200 50 50
200 50 50
200 50 50
200 50 50
200 50 50
200 50 50
200 50 50
200 50 50
200 50 50
200 50 50
200 50 50
200 50 50
200 50 50
200 50 50
200 50 50
200 50 50
200 50 50
200 50 50
200 50 50
200 50 50
200 50 50
200 50 50
200 50 50
200 50 50
200 50 50
200 50 50
200 50 50
200 50 50
255 255 255
255 255 255
255 255 255
255 255 255
255 255 255
255 255 255
255 255 255
255 255 255
255 255 255
255 255 255
255 255 255
255 255 255
255 255 255
255 255 255
255 255 255
255 255 255
255 255 255
255 255 255
255 255 255
255 255 255
255 255 255
255 255 255
255 255 255
255 255 255
255 255 255
255 255 255
255 255 255
255 255 255
255 255 255
255 255 255
255 255 255
255 255 255
200 50 50
200 50 50
200 50 50
200 50 50
200 50 50
200 50 50
200 50 50
200 50 50
200 50 50
200 50 50
200 50 50
200 50 50
200 50 50
200 50 50
200 50 50
200 50 50
200 50 50
200 50 50
200 50 50
200 50 50
200 50 50
200 50 50
200 50 50
200 50 50
200 50 50
200 50 50
200 50 50
200 50 50
200 50 50
200 50 50
200 50 50
200 50 50
255 255 255
255 255 255
255 255 255
255 255 255
255 255 255
255 255 255
255 255 255
255 255 255
255 255 255
255 255 255
255 255 255
255 255 255
255 255 255
255 255 255
255 255 255
255 255 255
255 255 255
255 255 255
255 255 255
255 255 255
255 255 255
255 255 255
255 255 255
255 255 255
255 255 255
255 255 255
255 255 255
255 255 255
255 255 255
255 255 255
255 255 255
255 255 255
200 50 50
200 50 50
200 50 50
200 50 50
200 50 50
200 50 50
200 50 50
200 50 50
200 50 50
200 50 50
200 50 50
200 50 50
200 50 50
200 50 50
200 50 50
200 50 50
200 50 50
200 50 50
200 50 50
200 50 50
200 50 50
200 50 50
200 50 50
200 50 50
200 50 50
200 50 50
200 50 50
200 50 50
200 50 50
200 50 50
200 50 50
200 50 50
255 255 255
255 255 255
255 255 255
255 255 255
255 255 255
255 255 255
255 255 255
255 255 255
255 255 255
255 255 255
255 255 255
255 255 255
255 255 255
255 255 255
255 255 255
255 255 255
255 255 255
255 255 255
255 255 255
255 255 255
255 255 255
255 255 255
255 255 255
255 255 255
255 255 255
255 255 255
255 255 255
255 255 255
255 255 255
255 255 255
255 255 255
255 255 255
200 50 50
200 50 50
200 50 50
200 50 50
200 50 50
200 50 50
200 50 50
200 50 50
200 50 50
200 50 50
200 50 50
200 50 50
200 50 50
200 50 50
200 50 50
200 50 50
200 50 50
200 50 50
200 50 50
200 50 50
200 50 50
200 50 50
200 50 50
200 50 50
200 50 50
200 50 50
200 50 50
200 50 50
200 50 50
200 50 50
200 50 50
200 50 50
255 255 255
255 255 255
255 255 255
255 255 255
255 255 255
255 255 255
255 255 255
255 255 255
255 255 255
255 255 255
255 255 255
255 255 255
255 255 255
255 255 255
255 255 255
255 255 255
255 255 255
255 255 255
255 255 255
255 255 255
255 255 255
255 255 255
255 255 255
255 255 255
255 255 255
255 255 255
255 255 255
255 255 255
255 255 255
255 255 255
255 255 255
255 255 255
200 50 50
200 50 50
200 50 50
200 50 50
200 50 50
200 50 50
200 50 50
200 50 50
200 50 50
200 50 50
200 50 50
200 50 50
200 50 50
200 50 50
200 50 50
200 50 50
200 50 50
200 50 50
200 50 50
200 50 50
200 50 50
200 50 50
200 50 50
200 50 50
200 50 50
200 50 50
200 50 50
200 50 50
200 50 50
200 50 50
200 50 50
200 50 50
255 255 255
255 255 255
255 255 255
255 255 255
255 255 255
255 255 255
255 255 255
255 255 255
255 255 255
255 255 255
255 255 255
255 255 255
255 255 255
255 255 255
255 255 255
255 255 255
255 255 255
255 255 255
255 255 255
255 255 255
255 255 255
255 255 255
255 255 255
255 255 255
255 255 255
255 255 255
255 255 255
255 255 255
255 255 255
255 255 255
255 255 255
255 255 255
200 50 50
200 50 50
200 50 50
200 50 50
200 50 50
200 50 50
200 50 50
200 50 50
200 50 50
200 50 50
200 50 50
200 50 50
200 50 50
200 50 50
200 50 50
200 50 50
200 50 50
200 50 50
200 50 50
200 50 50
200 50 50
200 50 50
200 50 50
200 50 50
200 50 50
200 50 50
200 50 50
200 50 50
200 50 50
200 50 50
200 50 50
200 50 50
255 255 255
255 255 255
255 255 255
255 255 255
255 255 255
255 255 255
255 255 255
255 255 255
255 255 255
255 255 255
255 255 255
255 255 255
255 255 255
255 255 255
255 255 255
255 255 255
255 255 255
255 255 255
255 255 255
255 255 255
255 255 255
255 255 255
255 255 255
255 255 255
255 255 255
255 255 255
255 255 255
255 255 255
255 255 255
255 255 255
255 255 255
255 255 255
200 50 50
200 50 50
200 50 50
200 50 50
200 50 50
200 50 50
200 50 50
200 50 50
200 50 50
200 50 50
200 50 50
200 50 50
200 50 50
200 50 50
200 50 50
200 50 50
200 50 50
200 50 50
200 50 50
200 50 50
200 50 50
200 50 50
200 50 50
200 50 50
200 50 50
200 50 50
200 50 50
200 50 50
200 50 50
200 50 50
200 50 50
200 50 50
255 255 255
255 255 255
255 255 255
255 255 255
255 255 255
255 255 255
255 255 255
255 255 255
255 255 255
255 255 255
255 255 255
255 255 255
255 255 255
255 255 255
255 255 255
255 255 255
255 255 255
255 255 255
255 255 255
255 255 255
255 255 255
255 255 255
255 255 255
255 255 255
255 255 255
255 255 255
255 255 255
255 255 255
255 255 255
255 255 255
255 255 255
255 255 255
200 50 50
200 50 50
200 50 50
200 50 50
200 50 50
200 50 50
200 50 50
200 50 50
200 50 50
200 50 50
200 50 50
200 50 50
200 50 50
200 50 50
200 50 50
200 50 50
200 50 50
200 50 50
200 50 50
200 50 50
200 50 50
200 50 50
200 50 50
200 50 50
200 50 50
200 50 50
200 50 50
200 50 50
200 50 50
200 50 50
200 50 50
200 50 50
255 255 255
255 255 255
255 255 255
255 255 255
255 255 255
255 255 255
255 255 255
255 255 255
255 255 255
255 255 255
255 255 255
255 255 255
255 255 255
255 255 255
255 255 255
255 255 255
255 255 255
255 255 255
255 255 255
255 255 255
255 255 255
255 255 255
255 255 255
255 255 255
255 255 255
255 255 255
255 255 255
255 255 255
255 255 255
255 255 255
255 255 255
255 255 255
200 50 50
200 50 50
200 50 50
200 50 50
200 50 50
200 50 50
200 50 50
200 50 50
200 50 50
200 50 50
200 50 50
200 50 50
200 50 50
200 50 50
200 50 50
200 50 50
200 50 50
200 50 50
200 50 50
200 50 50
200 50 50
200 50 50
200 50 50
200 50 50
200 50 50
200 50 50
200 50 50
200 50 50
200 50 50
200 50 50
200 50 50
200 50 50
255 255 255
255 255 255
255 255 255
255 255 255
255 255 255
255 255 255
255 255 255
255 255 255
255 255 255
255 255 255
255 255 255
255 255 255
255 255 255
255 255 255
255 255 255
255 255 255
255 255 255
255 255 255
255 255 255
255 255 255
255 255 255
255 255 255
255 255 255
255 255 255
255 255 255
255 255 255
255 255 255
255 255 255
255 255 255
255 255 255
255 255 255
255 255 255
200 50 50
200 50 50
200 50 50
200 50 50
200 50 50
200 50 50
200 50 50
200 50 50
200 50 50
200 50 50
200 50 50
200 50 50
200 50 50
200 50 50
200 50 50
200 50 50
200 50 50
200 50 50
200 50 50
200 50 50
200 50 50
200 50 50
200 50 50
200 50 50
200 50 50
200 50 50
200 50 50
200 50 50
200 50 50
200 50 50
200 50 50
200 50 50
255 255 255
255 255 255
255 255 255
255 255 255
255 255 255
255 255 255
255 255 255
255 255 255
255 255 255
255 255 255
255 255 255
255 255 255
255 255 255
255 255 255
255 255 255
255 255 255
255 255 255
255 255 255
255 255 255
255 255 255
255 255 255
255 255 255
255 255 255
255 255 255
255 255 255
255 255 255
255 255 255
255 255 255
255 255 255
255 255 255
255 255 255
255 255 255
200 50 50
200 50 50
200 50 50
200 50 50
200 50 50
200 50 50
200 50 50
200 50 50
200 50 50
200 50 50
200 50 50
200 50 50
200 50 50
200 50 50
200 50 50
200 50 50
200 50 50
200 50 50
200 50 50
200 50 50
200 50 50
200 50 50
200 50 50
200 50 50
200 50 50
200 50 50
200 50 50
200 50 50
200 50 50
200 50 50
200 50 50
200 50 50
255 255 255
255 255 255
255 255 255
255 255 255
255 255 255
255 255 255
255 255 255
255 255 255
255 255 255
255 255 255
255 255 255
255 255 255
255 255 255
255 255 255
255 255 255
255 255 255
255 255 255
255 255 255
255 255 255
255 255 255
255 255 255
255 255 255
255 255 255
255 255 255
255 255 255
255 255 255
255 255 255
255 255 255
255 255 255
255 255 255
255 255 255
255 255 255
200 50 50
200 50 50
200 50 50
200 50 50
200 50 50
200 50 50
200 50 50
200 50 50
200 50 50
200 50 50
200 50 50
200 50 50
200 50 50
200 50 50
200 50 50
200 50 50
200 50 50
200 50 50
200 50 50
200 50 50
200 50 50
200 50 50
200 50 50
200 50 50
200 50 50
200 50 50
200 50 50
200 50 50
200 50 50
200 50 50
200 50 50
200 50 50
255 255 255
255 255 255
255 255 255
255 255 255
255 255 255
255 255 255
255 255 255
255 255 255
255 255 255
255 255 255
255 255 255
255 255 255
255 255 255
255 255 255
255 255 255
255 255 255
255 255 255
255 255 255
255 255 255
255 255 255
255 255 255
255 255 255
255 255 255
255 255 255
255 255 255
255 255 255
255 255 255
255 255 255
255 255 255
255 255 255
255 255 255
255 255 255
200 50 50
200 50 50
200 50 50
200 50 50
200 50 50
200 50 50
200 50 50
200 50 50
200 50 50
200 50 50
200 50 50
200 50 50
200 50 50
200 50 50
200 50 50
200 50 50
200 50 50
200 50 50
200 50 50
200 50 50
200 50 50
200 50 50
200 50 50
200 50 50
200 50 50
200 50 50
200 50 50
200 50 50
200 50 50
200 50 50
200 50 50
200 50 50
255 255 255
255 255 255
255 255 255
255 255 255
255 255 255
255 255 255
255 255 255
255 255 255
255 255 255
255 255 255
255 255 255
255 255 255
255 255 255
255 255 255
255 255 255
255 255 255
255 255 255
255 255 255
255 255 255
255 255 255
255 255 255
255 255 255
255 255 255
255 255 255
255 255 255
255 255 255
255 255 255
255 255 255
255 255 255
255 255 255
255 255 255
255 255 255
200 50 50
200 50 50
200 50 50
200 50 50
200 50 50
200 50 50
200 50 50
200 50 50
200 50 50
200 50 50
200 50 50
200 50 50
200 50 50
200 50 50
200 50 50
200 50 50
200 50 50
200 50 50
200 50 50
200 50 50
200 50 50
200 50 50
200 50 50
200 50 50
200 50 50
200 50 50
200 50 50
200 50 50
200 50 50
200 50 50
200 50 50
200 50 50
255 255 255
255 255 255
255 255 255
255 255 255
255 255 255
255 255 255
255 255 255
255 255 255
255 255 255
255 255 255
255 255 255
255 255 255
255 255 255
255 255 255
255 255 255
255 255 255
255 255 255
255 255 255
255 255 255
255 255 255
255 255 255
255 255 255
255 255 255
255 255 255
255 255 255
255 255 255
255 255 255
255 255 255
255 255 255
255 255 255
255 255 255
255 255 255
200 50 50
200 50 50
200 50 50
200 50 50
200 50 50
200 50 50
200 50 50
200 50 50
200 50 50
200 50 50
200 50 50
200 50 50
200 50 50
200 50 50
200 50 50
200 50 50
200 50 50
200 50 50
200 50 50
200 50 50
200 50 50
200 50 50
200 50 50
200 50 50
200 50 50
200 50 50
200 50 50
200 50 50
200 50 50
200 50 50
200 50 50
200 50 50
255 255 255
255 255 255
255 255 255
255 255 255
255 255 255
255 255 255
255 255 255
255 255 255
255 255 255
255 255 255
255 255 255
255 255 255
255 255 255
255 255 255
255 255 255
255 255 255
255 255 255
255 255 255
255 255 255
255 255 255
255 255 255
255 255 255
255 255 255
255 255 255
255 255 255
255 255 255
255 255 255
255 255 255
255 255 255
255 255 255
255 255 255
255 255 255
200 50 50
200 50 50
200 50 50
200 50 50
200 50 50
200 50 50
200 50 50
200 50 50
200 50 50
200 50 50
200 50 50
200 50 50
200 50 50
200 50 50
200 50 50
200 50 50
200 50 50
200 50 50
200 50 50
200 50 50
200 50 50
200 50 50
200 50 50
200 50 50
200 50 50
200 50 50
200 50 50
200 50 50
200 50 50
200 50 50
200 50 50
200 50 50
255 255 255
255 255 255
255 255 255
255 255 255
255 255 255
255 255 255
255 255 255
255 255 255
255 255 255
255 255 255
255 255 255
255 255 255
255 255 255
255 255 255
255 255 255
255 255 255
255 255 255
255 255 255
255 255 255
255 255 255
255 255 255
255 255 255
255 255 255
255 255 255
255 255 255
255 255 255
255 255 255
255 255 255
255 255 255
255 255 255
255 255 255
255 255 255
200 50 50
200 50 50
200 50 50
200 50 50
200 50 50
200 50 50
200 50 50
200 50 50
200 50 50
200 50 50
200 50 50
200 50 50
200 50 50
200 50 50
200 50 50
200 50 50
200 50 50
200 50 50
200 50 50
200 50 50
200 50 50
200 50 50
200 50 50
200 50 50
200 50 50
200 50 50
200 50 50
200 50 50
200 50 50
200 50 50
200 50 50
200 50 50
255 255 255
255 255 255
255 255 255
255 255 255
255 255 255
255 255 255
255 255 255
255 255 255
255 255 255
255 255 255
255 255 255
255 255 255
255 255 255
255 255 255
255 255 255
255 255 255
255 255 255
255 255 255
255 255 255
255 255 255
255 255 255
255 255 255
255 255 255
255 255 255
255 255 255
255 255 255
255 255 255
255 255 255
255 255 255
255 255 255
255 255 255
255 255 255
200 50 50
200 50 50
200 50 50
200 50 50
200 50 50
200 50 50
200 50 50
200 50 50
200 50 50
200 50 50
200 50 50
200 50 50
200 50 50
200 50 50
200 50 50
200 50 50
200 50 50
200 50 50
200 50 50
200 50 50
200 50 50
200 50 50
200 50 50
200 50 50
200 50 50
200 50 50
200 50 50
200 50 50
200 50 50
200 50 50
200 50 50
200 50 50
255 255 255
255 255 255
255 255 255
255 255 255
255 255 255
255 255 255
255 255 255
255 255 255
255 255 255
255 255 255
255 255 255
255 255 255
255 255 255
255 255 255
255 255 255
255 255 255
255 255 255
255 255 255
255 255 255
255 255 255
255 255 255
255 255 255
255 255 255
255 255 255
255 255 255
255 255 255
255 255 255
255 255 255
255 255 255
255 255 255
255 255 255
255 255 255
200 50 50
200 50 50
200 50 50
200 50 50
200 50 50
200 50 50
200 50 50
200 50 50
200 50 50
200 50 50
200 50 50
200 50 50
200 50 50
200 50 50
200 50 50
200 50 50
200 50 50
200 50 50
200 50 50
200 50 50
200 50 50
200 50 50
200 50 50
200 50 50
200 50 50
200 50 50
200 50 50
200 50 50
200 50 50
200 50 50
200 50 50
200 50 50
255 255 255
255 255 255
255 255 255
255 255 255
255 255 255
255 255 255
255 255 255
255 255 255
255 255 255
255 255 255
255 255 255
255 255 255
255 255 255
255 255 255
255 255 255
255 255 255
255 255 255
255 255 255
255 255 255
255 255 255
255 255 255
255 255 255
255 255 255
255 255 255
255 255 255
255 255 255
255 255 255
255 255 255
255 255 255
255 255 255
255 255 255
255 255 255
200 50 50
200 50 50
200 50 50
200 50 50
200 50 50
200 50 50
200 50 50
200 50 50
200 50 50
200 50 50
200 50 50
200 50 50
200 50 50
200 50 50
200 50 50
200 50 50
200 50 50
200 50 50
200 50 50
200 50 50
200 50 50
200 50 50
200 50 50
200 50 50
200 50 50
200 50 50
200 50 50
200 50 50
200 50 50
200 50 50
200 50 50
200 50 50
255 255 255
255 255 255
255 255 255
255 255 255
255 255 255
255 255 255
255 255 255
255 255 255
255 255 255
255 255 255
255 255 255
255 255 255
255 255 255
255 255 255
255 255 255
255 255 255
255 255 255
255 255 255
255 255 255
255 255 255
255 255 255
255 255 255
255 255 255
255 255 255
255 255 255
255 255 255
255 255 255
255 255 255
255 255 255
255 255 255
255 255 255
255 255 255
200 50 50
200 50 50
200 50 50
200 50 50
200 50 50
200 50 50
200 50 50
200 50 50
200 50 50
200 50 50
200 50 50
200 50 50
200 50 50
200 50 50
200 50 50
200 50 50
200 50 50
200 50 50
200 50 50
200 50 50
200 50 50
200 50 50
200 50 50
200 50 50
200 50 50
200 50 50
200 50 50
200 50 50
200 50 50
200 50 50
200 50 50
200 50 50
255 255 255
255 255 255
255 255 255
255 255 255
255 255 255
255 255 255
255 255 255
255 255 255
255 255 255
255 255 255
255 255 255
255 255 255
255 255 255
255 255 255
255 255 255
255 255 255
255 255 255
255 255 255
255 255 255
255 255 255
255 255 255
255 255 255
255 255 255
255 255 255
255 255 255
255 255 255
255 255 255
255 255 255
255 255 255
255 255 255
255 255 255
255 255 255
200 50 50
200 50 50
200 50 50
200 50 50
200 50 50
200 50 50
200 50 50
200 50 50
200 50 50
200 50 50
200 50 50
200 50 50
200 50 50
200 50 50
200 50 50
200 50 50
200 50 50
200 50 50
200 50 50
200 50 50
200 50 50
200 50 50
200 50 50
200 50 50
200 50 50
200 50 50
200 50 50
200 50 50
200 50 50
200 50 50
200 50 50
200 50 50
255 255 255
255 255 255
255 255 255
255 255 255
255 255 255
255 255 255
255 255 255
255 255 255
255 255 255
255 255 255
255 255 255
255 255 255
255 255 255
255 255 255
255 255 255
255 255 255
255 255 255
255 255 255
255 255 255
255 255 255
255 255 255
255 255 255
255 255 255
255 255 255
255 255 255
255 255 255
255 255 255
255 255 255
255 255 255
255 255 255
255 255 255
255 255 255
200 50 50
200 50 50
200 50 50
200 50 50
200 50 50
200 50 50
200 50 50
200 50 50
200 50 50
200 50 50
200 50 50
200 50 50
200 50 50
200 50 50
200 50 50
200 50 50
200 50 50
200 50 50
200 50 50
200 50 50
200 50 50
200 50 50
200 50 50
200 50 50
200 50 50
200 50 50
200 50 50
200 50 50
200 50 50
200 50 50
200 50 50
200 50 50
255 255 255
255 255 255
255 255 255
255 255 255
255 255 255
255 255 255
255 255 255
255 255 255
255 255 255
255 255 255
255 255 255
255 255 255
255 255 255
255 255 255
255 255 255
255 255 255
255 255 255
255 255 255
255 255 255
255 255 255
255 255 255
255 255 255
255 255 255
255 255 255
255 255 255
255 255 255
255 255 255
255 255 255
255 255 255
255 255 255
255 255 255
255 255 255
200 50 50
200 50 50
200 50 50
200 50 50
200 50 50
200 50 50
200 50 50
200 50 50
200 50 50
200 50 50
200 50 50
200 50 50
200 50 50
200 50 50
200 50 50
200 50 50
200 50 50
200 50 50
200 50 50
200 50 50
200 50 50
200 50 50
200 50 50
200 50 50
200 50 50
200 50 50
200 50 50
200 50 50
200 50 50
200 50 50
200 50 50
200 50 50
255 255 255
255 255 255
255 255 255
255 255 255
255 255 255
255 255 255
255 255 255
255 255 255
255 255 255
255 255 255
255 255 255
255 255 255
255 255 255
255 255 255
255 255 255
255 255 255
255 255 255
255 255 255
255 255 255
255 255 255
255 255 255
255 255 255
255 255 255
255 255 255
255 255 255
255 255 255
255 255 255
255 255 255
255 255 255
255 255 255
255 255 255
255 255 255
200 50 50
200 50 50
200 50 50
200 50 50
200 50 50
200 50 50
200 50 50
200 50 50
200 50 50
200 50 50
200 50 50
200 50 50
200 50 50
200 50 50
200 50 50
200 50 50
200 50 50
200 50 50
200 50 50
200 50 50
200 50 50
200 50 50
200 50 50
200 50 50
200 50 50
200 50 50
200 50 50
200 50 50
200 50 50
200 50 50
200 50 50
200 50 50
255 255 255
255 255 255
255 255 255
255 255 255
255 255 255
255 255 255
255 255 255
255 255 255
255 255 255
255 255 255
255 255 255
255 255 255
255 255 255
255 255 255
255 255 255
255 255 255
255 255 255
255 255 255
255 255 255
255 255 255
255 255 255
255 255 255
255 255 255
255 255 255
255 255 255
255 255 255
255 255 255
255 255 255
255 255 255
255 255 255
255 255 255
255 255 255
200 50 50
200 50 50
200 50 50
200 50 50
200 50 50
200 50 50
200 50 50
200 50 50
200 50 50
200 50 50
200 50 50
200 50 50
200 50 50
200 50 50
200 50 50
200 50 50
200 50 50
200 50 50
200 50 50
200 50 50
200 50 50
200 50 50
200 50 50
200 50 50
200 50 50
200 50 50
200 50 50
200 50 50
200 50 50
200 50 50
200 50 50
200 50 50
255 255 255
255 255 255
255 255 255
255 255 255
255 255 255
255 255 255
255 255 255
255 255 255
255 255 255
255 255 255
255 255 255
255 255 255
255 255 255
255 255 255
255 255 255
255 255 255
255 255 255
255 255 255
255 255 255
255 255 255
255 255 255
255 255 255
255 255 255
255 255 255
255 255 255
255 255 255
255 255 255
255 255 255
255 255 255
255 255 255
255 255 255
255 255 255
200 50 50
200 50 50
200 50 50
200 50 50
200 50 50
200 50 50
200 50 50
200 50 50
200 50 50
200 50 50
200 50 50
200 50 50
200 50 50
200 50 50
200 50 50
200 50 50
200 50 50
200 50 50
200 50 50
200 50 50
200 50 50
200 50 50
200 50 50
200 50 50
200 50 50
200 50 50
200 50 50
200 50 50
200 50 50
200 50 50
200 50 50
200 50 50
255 255 255
255 255 255
255 255 255
255 255 255
255 255 255
255 255 255
255 255 255
255 255 255
255 255 255
255 255 255
255 255 255
255 255 255
255 255 255
255 255 255
255 255 255
255 255 255
255 255 255
255 255 255
255 255 255
255 255 255
255 255 255
255 255 255
255 255 255
255 255 255
255 255 255
255 255 255
255 255 255
255 255 255
255 255 255
255 255 255
255 255 255
255 255 255
200 50 50
200 50 50
200 50 50
200 50 50
200 50 50
200 50 50
200 50 50
200 50 50
200 50 50
200 50 50
200 50 50
200 50 50
200 50 50
200 50 50
200 50 50
200 50 50
200 50 50
200 50 50
200 50 50
200 50 50
200 50 50
200 50 50
200 50 50
200 50 50
200 50 50
200 50 50
200 50 50
200 50 50
200 50 50
200 50 50
200 50 50
200 50 50
255 255 255
255 255 255
255 255 255
255 255 255
255 255 255
255 255 255
255 255 255
255 255 255
255 255 255
255 255 255
255 255 255
255 255 255
255 255 255
255 255 255
255 255 255
255 255 255
255 255 255
255 255 255
255 255 255
255 255 255
255 255 255
255 255 255
255 255 255
255 255 255
255 255 255
255 255 255
255 255 255
255 255 255
255 255 255
255 255 255
255 255 255
255 255 255
200 50 50
200 50 50
200 50 50
200 50 50
200 50 50
200 50 50
200 50 50
200 50 50
200 50 50
200 50 50
200 50 50
200 50 50
200 50 50
200 50 50
200 50 50
200 50 50
200 50 50
200 50 50
200 50 50
200 50 50
200 50 50
200 50 50
200 50 50
200 50 50
200 50 50
200 50 50
200 50 50
200 50 50
200 50 50
200 50 50
200 50 50
200 50 50
255 255 255
255 255 255
255 255 255
255 255 255
255 255 255
255 255 255
255 255 255
255 255 255
255 255 255
255 255 255
255 255 255
255 255 255
255 255 255
255 255 255
255 255 255
255 255 255
255 255 255
255 255 255
255 255 255
255 255 255
255 255 255
255 255 255
255 255 255
255 255 255
255 255 255
255 255 255
255 255 255
255 255 255
255 255 255
255 255 255
255 255 255
255 255 255
200 50 50
200 50 50
200 50 50
200 50 50
200 50 50
200 50 50
200 50 50
200 50 50
200 50 50
200 50 50
200 50 50
200 50 50
200 50 50
200 50 50
200 50 50
200 50 50
200 50 50
200 50 50
200 50 50
200 50 50
200 50 50
200 50 50
200 50 50
200 50 50
200 50 50
200 50 50
200 50 50
200 50 50
200 50 50
200 50 50
200 50 50
200 50 50
255 255 255
255 255 255
255 255 255
255 255 255
255 255 255
255 255 255
255 255 255
255 255 255
255 255 255
255 255 255
255 255 255
255 255 255
255 255 255
255 255 255
255 255 255
255 255 255
255 255 255
255 255 255
255 255 255
255 255 255
255 255 255
255 255 255
255 255 255
255 255 255
255 255 255
255 255 255
255 255 255
255 255 255
255 255 255
255 255 255
255 255 255
255 255 255
200 50 50
200 50 50
200 50 50
200 50 50
200 50 50
200 50 50
200 50 50
200 50 50
200 50 50
200 50 50
200 50 50
200 50 50
200 50 50
200 50 50
200 50 50
200 50 50
200 50 50
200 50 50
200 50 50
200 50 50
200 50 50
200 50 50
200 50 50
200 50 50
200 50 50
200 50 50
200 50 50
200 50 50
200 50 50
200 50 50
200 50 50
200 50 50
255 255 255
255 255 255
255 255 255
255 255 255
255 255 255
255 255 255
255 255 255
255 255 255
255 255 255
255 255 255
255 255 255
255 255 255
255 255 255
255 255 255
255 255 255
255 255 255
255 255 255
255 255 255
255 255 255
255 255 255
255 255 255
255 255 255
255 255 255
255 255 255
255 255 255
255 255 255
255 255 255
255 255 255
255 255 255
255 255 255
255 255 255
255 255 255
200 50 50
200 50 50
200 50 50
200 50 50
200 50 50
200 50 50
200 50 50
200 50 50
200 50 50
200 50 50
200 50 50
200 50 50
200 50 50
200 50 50
200 50 50
200 50 50
200 50 50
200 50 50
200 50 50
200 50 50
200 50 50
200 50 50
200 50 50
200 50 50
200 50 50
200 50 50
200 50 50
200 50 50
200 50 50
200 50 50
200 50 50
200 50 50
255 255 255
255 255 255
255 255 255
255 255 255
255 255 255
255 255 255
255 255 255
255 255 255
255 255 255
255 255 255
255 255 255
255 255 255
255 255 255
255 255 255
255 255 255
255 255 255
255 255 255
255 255 255
255 255 255
255 255 255
255 255 255
255 255 255
255 255 255
255 255 255
255 255 255
255 255 255
255 255 255
255 255 255
255 255 255
255 255 255
255 255 255
255 255 255
200 50 50
200 50 50
200 50 50
200 50 50
200 50 50
200 50 50
200 50 50
200 50 50
200 50 50
200 50 50
200 50 50
200 50 50
200 50 50
200 50 50
200 50 50
200 50 50
200 50 50
200 50 50
200 50 50
200 50 50
200 50 50
200 50 50
200 50 50
200 50 50
200 50 50
200 50 50
200 50 50
200 50 50
200 50 50
200 50 50
200 50 50
200 50 50
255 255 255
255 255 255
255 255 255
255 255 255
255 255 255
255 255 255
255 255 255
255 255 255
255 255 255
255 255 255
255 255 255
255 255 255
255 255 255
255 255 255
255 255 255
255 255 255
255 255 255
255 255 255
255 255 255
255 255 255
255 255 255
255 255 255
255 255 255
255 255 255
255 255 255
255 255 255
255 255 255
255 255 255
255 255 255
255 255 255
255 255 255
255 255 255
200 50 50
200 50 50
200 50 50
200 50 50
200 50 50
200 50 50
200 50 50
200 50 50
200 50 50
200 50 50
200 50 50
200 50 50
200 50 50
200 50 50
200 50 50
200 50 50
200 50 50
200 50 50
200 50 50
200 50 50
200 50 50
200 50 50
200 50 50
200 50 50
200 50 50
200 50 50
200 50 50
200 50 50
200 50 50
200 50 50
200 50 50
200 50 50
255 255 255
255 255 255
255 255 255
255 255 255
255 255 255
255 255 255
255 255 255
255 255 255
255 255 255
255 255 255
255 255 255
255 255 255
255 255 255
255 255 255
255 255 255
255 255 255
255 255 255
255 255 255
255 255 255
255 255 255
255 255 255
255 255 255
255 255 255
255 255 255
255 255 255
255 255 255
255 255 255
255 255 255
255 255 255
255 255 255
255 255 255
255 255 255
200 50 50
200 50 50
200 50 50
200 50 50
200 50 50
200 50 50
200 50 50
200 50 50
200 50 50
200 50 50
200 50 50
200 50 50
200 50 50
200 50 50
200 50 50
200 50 50
200 50 50
200 50 50
200 50 50
200 50 50
200 50 50
200 50 50
200 50 50
200 50 50
200 50 50
200 50 50
200 50 50
200 50 50
200 50 50
200 50 50
200 50 50
200 50 50
255 255 255
255 255 255
255 255 255
255 255 255
255 255 255
255 255 255
255 255 255
255 255 255
255 255 255
255 255 255
255 255 255
255 255 255
255 255 255
255 255 255
255 255 255
255 255 255
255 255 255
255 255 255
255 255 255
255 255 255
255 255 255
255 255 255
255 255 255
255 255 255
255 255 255
255 255 255
255 255 255
255 255 255
255 255 255
255 255 255
255 255 255
255 255 255
200 50 50
200 50 50
200 50 50
200 50 50
200 50 50
200 50 50
200 50 50
200 50 50
200 50 50
200 50 50
200 50 50
200 50 50
200 50 50
200 50 50
200 50 50
200 50 50
200 50 50
200 50 50
200 50 50
200 50 50
200 50 50
200 50 50
200 50 50
200 50 50
200 50 50
200 50 50
200 50 50
200 50 50
200 50 50
200 50 50
200 50 50
200 50 50
255 255 255
255 255 255
255 255 255
255 255 255
255 255 255
255 255 255
255 255 255
255 255 255
255 255 255
255 255 255
255 255 255
255 255 255
255 255 255
255 255 255
255 255 255
255 255 255
255 255 255
255 255 255
255 255 255
255 255 255
255 255 255
255 255 255
255 255 255
255 255 255
255 255 255
255 255 255
255 255 255
255 255 255
255 255 255
255 255 255
255 255 255
255 255 255
200 50 50
200 50 50
200 50 50
200 50 50
200 50 50
200 50 50
200 50 50
200 50 50
200 50 50
200 50 50
200 50 50
200 50 50
200 50 50
200 50 50
200 50 50
200 50 50
200 50 50
200 50 50
200 50 50
200 50 50
200 50 50
200 50 50
200 50 50
200 50 50
200 50 50
200 50 50
200 50 50
200 50 50
200 50 50
200 50 50
200 50 50
200 50 50
255 255 255
255 255 255
255 255 255
255 255 255
255 255 255
255 255 255
255 255 255
255 255 255
255 255 255
255 255 255
255 255 255
255 255 255
255 255 255
255 255 255
255 255 255
255 255 255
255 255 255
255 255 255
255 255 255
255 255 255
255 255 255
255 255 255
255 255 255
255 255 255
255 255 255
255 255 255
255 255 255
255 255 255
255 255 255
255 255 255
255 255 255
255 255 255
200 50 50
200 50 50
200 50 50
200 50 50
200 50 50
200 50 50
200 50 50
200 50 50
200 50 50
200 50 50
200 50 50
200 50 50
200 50 50
200 50 50
200 50 50
200 50 50
200 50 50
200 50 50
200 50 50
200 50 50
200 50 50
200 50 50
200 50 50
200 50 50
200 50 50
200 50 50
200 50 50
200 50 50
200 50 50
200 50 50
200 50 50
200 50 50
255 255 255
255 255 255
255 255 255
255 255 255
255 255 255
255 255 255
255 255 255
255 255 255
255 255 255
255 255 255
255 255 255
255 255 255
255 255 255
255 255 255
255 255 255
255 255 255
255 255 255
255 255 255
255 255 255
255 255 255
255 255 255
255 255 255
255 255 255
255 255 255
255 255 255
255 255 255
255 255 255
255 255 255
255 255 255
255 255 255
255 255 255
255 255 255
200 50 50
200 50 50
200 50 50
200 50 50
200 50 50
200 50 50
200 50 50
200 50 50
200 50 50
200 50 50
200 50 50
200 50 50
200 50 50
200 50 50
200 50 50
200 50 50
200 50 50
200 50 50
200 50 50
200 50 50
200 50 50
200 50 50
200 50 50
200 50 50
200 50 50
200 50 50
200 50 50
200 50 50
200 50 50
200 50 50
200 50 50
200 50 50
255 255 255
255 255 255
255 255 255
255 255 255
255 255 255
255 255 255
255 255 255
255 255 255
255 255 255
255 255 255
255 255 255
255 255 255
255 255 255
255 255 255
255 255 255
255 255 255
255 255 255
255 255 255
255 255 255
255 255 255
255 255 255
255 255 255
255 255 255
255 255 255
255 255 255
255 255 255
255 255 255
255 255 255
255 255 255
255 255 255
255 255 255
255 255 255
200 50 50
200 50 50
200 50 50
200 50 50
200 50 50
200 50 50
200 50 50
200 50 50
200 50 50
200 50 50
200 50 50
200 50 50
200 50 50
200 50 50
200 50 50
200 50 50
200 50 50
200 50 50
200 50 50
200 50 50
200 50 50
200 50 50
200 50 50
200 50 50
200 50 50
200 50 50
200 50 50
200 50 50
200 50 50
200 50 50
200 50 50
200 50 50
255 255 255
255 255 255
255 255 255
255 255 255
255 255 255
255 255 255
255 255 255
255 255 255
255 255 255
255 255 255
255 255 255
255 255 255
255 255 255
255 255 255
255 255 255
255 255 255
255 255 255
255 255 255
255 255 255
255 255 255
255 255 255
255 255 255
255 255 255
255 255 255
255 255 255
255 255 255
255 255 255
255 255 255
255 255 255
255 255 255
255 255 255
255 255 255
200 50 50
200 50 50
200 50 50
200 50 50
200 50 50
200 50 50
200 50 50
200 50 50
200 50 50
200 50 50
200 50 50
200 50 50
200 50 50
200 50 50
200 50 50
200 50 50
200 50 50
200 50 50
200 50 50
200 50 50
200 50 50
200 50 50
200 50 50
200 50 50
200 50 50
200 50 50
200 50 50
200 50 50
200 50 50
200 50 50
200 50 50
200 50 50
255 255 255
255 255 255
255 255 255
255 255 255
255 255 255
255 255 255
255 255 255
255 255 255
255 255 255
255 255 255
255 255 255
255 255 255
255 255 255
255 255 255
255 255 255
255 255 255
255 255 255
255 255 255
255 255 255
255 255 255
255 255 255
255 255 255
255 255 255
255 255 255
255 255 255
255 255 255
255 255 255
255 255 255
255 255 255
255 255 255
255 255 255
255 255 255
200 50 50
200 50 50
200 50 50
200 50 50
200 50 50
200 50 50
200 50 50
200 50 50
200 50 50
200 50 50
200 50 50
200 50 50
200 50 50
200 50 50
200 50 50
200 50 50
200 50 50
200 50 50
200 50 50
200 50 50
200 50 50
200 50 50
200 50 50
200 50 50
200 50 50
200 50 50
200 50 50
200 50 50
200 50 50
200 50 50
200 50 50
200 50 50
255 255 255
255 255 255
255 255 255
255 255 255
255 255 255
255 255 255
255 255 255
255 255 255
255 255 255
255 255 255
255 255 255
255 255 255
255 255 255
255 255 255
255 255 255
255 255 255
255 255 255
255 255 255
255 255 255
255 255 255
255 255 255
255 255 255
255 255 255
255 255 255
255 255 255
255 255 255
255 255 255
255 255 255
255 255 255
255 255 255
255 255 255
255 255 255
200 50 50
200 50 50
200 50 50
200 50 50
200 50 50
200 50 50
200 50 50
200 50 50
200 50 50
200 50 50
200 50 50
200 50 50
200 50 50
200 50 50
200 50 50
200 50 50
200 50 50
200 50 50
200 50 50
200 50 50
200 50 50
200 50 50
200 50 50
200 50 50
200 50 50
200 50 50
200 50 50
200 50 50
200 50 50
200 50 50
200 50 50
200 50 50
255 255 255
255 255 255
255 255 255
255 255 255
255 255 255
255 255 255
255 255 255
255 255 255
255 255 255
255 255 255
255 255 255
255 255 255
255 255 255
255 255 255
255 255 255
255 255 255
255 255 255
255 255 255
255 255 255
255 255 255
255 255 255
255 255 255
255 255 255
255 255 255
255 255 255
255 255 255
255 255 255
255 255 255
255 255 255
255 255 255
255 255 255
255 255 255
200 50 50
200 50 50
200 50 50
200 50 50
200 50 50
200 50 50
200 50 50
200 50 50
200 50 50
200 50 50
200 50 50
200 50 50
200 50 50
200 50 50
200 50 50
200 50 50
200 50 50
200 50 50
200 50 50
200 50 50
200 50 50
200 50 50
200 50 50
200 50 50
200 50 50
200 50 50
200 50 50
200 50 50
200 50 50
200 50 50
200 50 50
200 50 50
255 255 255
255 255 255
255 255 255
255 255 255
255 255 255
255 255 255
255 255 255
255 255 255
255 255 255
255 255 255
255 255 255
255 255 255
255 255 255
255 255 255
255 255 255
255 255 255
255 255 255
255 255 255
255 255 255
255 255 255
255 255 255
255 255 255
255 255 255
255 255 255
255 255 255
255 255 255
255 255 255
255 255 255
255 255 255
255 255 255
255 255 255
255 255 255
200 50 50
200 50 50
200 50 50
200 50 50
200 50 50
200 50 50
200 50 50
200 50 50
200 50 50
200 50 50
200 50 50
200 50 50
200 50 50
200 50 50
200 50 50
200 50 50
200 50 50
200 50 50
200 50 50
200 50 50
200 50 50
200 50 50
200 50 50
200 50 50
200 50 50
200 50 50
200 50 50
200 50 50
200 50 50
200 50 50
200 50 50
200 50 50
255 255 255
255 255 255
255 255 255
255 255 255
255 255 255
255 255 255
255 255 255
255 255 255
255 255 255
255 255 255
255 255 255
255 255 255
255 255 255
255 255 255
255 255 255
255 255 255
255 255 255
255 255 255
255 255 255
255 255 255
255 255 255
255 255 255
255 255 255
255 255 255
255 255 255
255 255 255
255 255 255
255 255 255
255 255 255
255 255 255
255 255 255
255 255 255
200 50 50
200 50 50
200 50 50
200 50 50
200 50 50
200 50 50
200 50 50
200 50 50
200 50 50
200 50 50
200 50 50
200 50 50
200 50 50
200 50 50
200 50 50
200 50 50
200 50 50
200 50 50
200 50 50
200 50 50
200 50 50
200 50 50
200 50 50
200 50 50
200 50 50
200 50 50
200 50 50
200 50 50
200 50 50
200 50 50
200 50 50
200 50 50
255 255 255
255 255 255
255 255 255
255 255 255
255 255 255
255 255 255
255 255 255
255 255 255
255 255 255
255 255 255
255 255 255
255 255 255
255 255 255
255 255 255
255 255 255
255 255 255
255 255 255
255 255 255
255 255 255
255 255 255
255 255 255
255 255 255
255 255 255
255 255 255
255 255 255
255 255 255
255 255 255
255 255 255
255 255 255
255 255 255
255 255 255
255 255 255
200 50 50
200 50 50
200 50 50
200 50 50
200 50 50
200 50 50
200 50 50
200 50 50
200 50 50
200 50 50
200 50 50
200 50 50
200 50 50
200 50 50
200 50 50
200 50 50
200 50 50
200 50 50
200 50 50
200 50 50
200 50 50
200 50 50
200 50 50
200 50 50
200 50 50
200 50 50
200 50 50
200 50 50
200 50 50
200 50 50
200 50 50
200 50 50
255 255 255
255 255 255
255 255 255
255 255 255
255 255 255
255 255 255
255 255 255
255 255 255
255 255 255
255 255 255
255 255 255
255 255 255
255 255 255
255 255 255
255 255 255
255 255 255
255 255 255
255 255 255
255 255 255
255 255 255
255 255 255
255 255 255
255 255 255
255 255 255
255 255 255
255 255 255
255 255 255
255 255 255
255 255 255
255 255 255
255 255 255
255 255 255
200 50 50
200 50 50
200 50 50
200 50 50
200 50 50
200 50 50
200 50 50
200 50 50
200 50 50
200 50 50
200 50 50
200 50 50
200 50 50
200 50 50
200 50 50
200 50 50
200 50 50
200 50 50
200 50 50
200 50 50
200 50 50
200 50 50
200 50 50
200 50 50
200 50 50
200 50 50
200 50 50
200 50 50
200 50 50
200 50 50
200 50 50
200 50 50
255 255 255
255 255 255
255 255 255
255 255 255
255 255 255
255 255 255
255 255 255
255 255 255
255 255 255
255 255 255
255 255 255
255 255 255
255 255 255
255 255 255
255 255 255
255 255 255
255 255 255
255 255 255
255 255 255
255 255 255
255 255 255
255 255 255
255 255 255
255 255 255
255 255 255
255 255 255
255 255 255
255 255 255
255 255 255
255 255 255
255 255 255
255 255 255
200 50 50
200 50 50
200 50 50
200 50 50
200 50 50
200 50 50
200 50 50
200 50 50
200 50 50
200 50 50
200 50 50
200 50 50
200 50 50
200 50 50
200 50 50
200 50 50
200 50 50
200 50 50
200 50 50
200 50 50
200 50 50
200 50 50
200 50 50
200 50 50
200 50 50
200 50 50
200 50 50
200 50 50
200 50 50
200 50 50
200 50 50
200 50 50
255 255 255
255 255 255
255 255 255
255 255 255
255 255 255
255 255 255
255 255 255
255 255 255
255 255 255
255 255 255
255 255 255
255 255 255
255 255 255
255 255 255
255 255 255
255 255 255
255 255 255
255 255 255
255 255 255
255 255 255
255 255 255
255 255 255
255 255 255
255 255 255
255 255 255
255 255 255
255 255 255
255 255 255
255 255 255
255 255 255
255 255 255
255 255 255
200 50 50
200 50 50
200 50 50
200 50 50
200 50 50
200 50 50
200 50 50
200 50 50
200 50 50
200 50 50
200 50 50
200 50 50
200 50 50
200 50 50
200 50 50
200 50 50
200 50 50
200 50 50
200 50 50
200 50 50
200 50 50
200 50 50
200 50 50
200 50 50
200 50 50
200 50 50
200 50 50
200 50 50
200 50 50
200 50 50
200 50 50
200 50 50
255 255 255
255 255 255
255 255 255
255 255 255
255 255 255
255 255 255
255 255 255
255 255 255
255 255 255
255 255 255
255 255 255
255 255 255
255 255 255
255 255 255
255 255 255
255 255 255
255 255 255
255 255 255
255 255 255
255 255 255
255 255 255
255 255 255
255 255 255
255 255 255
255 255 255
255 255 255
255 255 255
255 255 255
255 255 255
255 255 255
255 255 255
255 255 255
200 50 50
200 50 50
200 50 50
200 50 50
200 50 50
200 50 50
200 50 50
200 50 50
200 50 50
200 50 50
200 50 50
200 50 50
200 50 50
200 50 50
200 50 50
200 50 50
200 50 50
200 50 50
200 50 50
200 50 50
200 50 50
200 50 50
200 50 50
200 50 50
200 50 50
200 50 50
200 50 50
200 50 50
200 50 50
200 50 50
200 50 50
200 50 50
255 255 255
255 255 255
255 255 255
255 255 255
255 255 255
255 255 255
255 255 255
255 255 255
255 255 255
255 255 255
255 255 255
255 255 255
255 255 255
255 255 255
255 255 255
255 255 255
255 255 255
255 255 255
255 255 255
255 255 255
255 255 255
255 255 255
255 255 255
255 255 255
255 255 255
255 255 255
255 255 255
255 255 255
255 255 255
255 255 255
255 255 255
255 255 255
200 50 50
200 50 50
200 50 50
200 50 50
200 50 50
200 50 50
200 50 50
200 50 50
200 50 50
200 50 50
200 50 50
200 50 50
200 50 50
200 50 50
200 50 50
200 50 50
200 50 50
200 50 50
200 50 50
200 50 50
200 50 50
200 50 50
200 50 50
200 50 50
200 50 50
200 50 50
200 50 50
200 50 50
200 50 50
200 50 50
200 50 50
200 50 50
255 255 255
255 255 255
255 255 255
255 255 255
255 255 255
255 255 255
255 255 255
255 255 255
255 255 255
255 255 255
255 255 255
255 255 255
255 255 255
255 255 255
255 255 255
255 255 255
255 255 255
255 255 255
255 255 255
255 255 255
255 255 255
255 255 255
255 255 255
255 255 255
255 255 255
255 255 255
255 255 255
255 255 255
255 255 255
255 255 255
255 255 255
255 255 255
200 50 50
200 50 50
200 50 50
200 50 50
200 50 50
200 50 50
200 50 50
200 50 50
200 50 50
200 50 50
200 50 50
200 50 50
200 50 50
200 50 50
200 50 50
200 50 50
200 50 50
200 50 50
200 50 50
200 50 50
200 50 50
200 50 50
200 50 50
200 50 50
200 50 50
200 50 50
200 50 50
200 50 50
200 50 50
200 50 50
200 50 50
200 50 50
255 255 255
255 255 255
255 255 255
255 255 255
255 255 255
255 255 255
255 255 255
255 255 255
255 255 255
255 255 255
255 255 255
255 255 255
255 255 255
255 255 255
255 255 255
255 255 255
255 255 255
255 255 255
255 255 255
255 255 255
255 255 255
255 255 255
255 255 255
255 255 255
255 255 255
255 255 255
255 255 255
255 255 255
255 255 255
255 255 255
255 255 255
255 255 255
200 50 50
200 50 50
200 50 50
200 50 50
200 50 50
200 50 50
200 50 50
200 50 50
200 50 50
200 50 50
200 50 50
200 50 50
200 50 50
200 50 50
200 50 50
200 50 50
200 50 50
200 50 50
200 50 50
200 50 50
200 50 50
200 50 50
200 50 50
200 50 50
200 50 50
200 50 50
200 50 50
200 50 50
200 50 50
200 50 50
200 50 50
200 50 50
255 255 255
255 255 255
255 255 255
255 255 255
255 255 255
255 255 255
255 255 255
255 255 255
255 255 255
255 255 255
255 255 255
255 255 255
255 255 255
255 255 255
255 255 255
255 255 255
255 255 255
255 255 255
255 255 255
255 255 255
255 255 255
255 255 255
255 255 255
255 255 255
255 255 255
255 255 255
255 255 255
255 255 255
255 255 255
255 255 255
255 255 255
255 255 255
255 255 255
255 255 255
255 255 255
255 255 255
255 255 255
255 255 255
255 255 255
255 255 255
255 255 255
255 255 255
255 255 255
255 255 255
255 255 255
255 255 255
255 255 255
255 255 255
255 255 255
255 255 255
255 255 255
255 255 255
255 255 255
255 255 255
255 255 255
255 255 255
255 255 255
255 255 255
255 255 255
255 255 255
255 255 255
255 255 255
255 255 255
255 255 255
200 50 50
200 50 50
200 50 50
200 50 50
200 50 50
200 50 50
200 50 50
200 50 50
200 50 50
200 50 50
200 50 50
200 50 50
200 50 50
200 50 50
200 50 50
200 50 50
200 50 50
200 50 50
200 50 50
200 50 50
200 50 50
200 50 50
200 50 50
200 50 50
200 50 50
200 50 50
200 50 50
200 50 50
200 50 50
200 50 50
200 50 50
200 50 50
255 255 255
255 255 255
255 255 255
255 255 255
255 255 255
255 255 255
255 255 255
255 255 255
255 255 255
255 255 255
255 255 255
255 255 255
255 255 255
255 255 255
255 255 255
255 255 255
255 255 255
255 255 255
255 255 255
255 255 255
255 255 255
255 255 255
255 255 255
255 255 255
255 255 255
255 255 255
255 255 255
255 255 255
255 255 255
255 255 255
255 255 255
255 255 255
200 50 50
200 50 50
200 50 50
200 50 50
200 50 50
200 50 50
200 50 50
200 50 50
200 50 50
200 50 50
200 50 50
200 50 50
200 50 50
200 50 50
200 50 50
200 50 50
200 50 50
200 50 50
200 50 50
200 50 50
200 50 50
200 50 50
200 50 50
200 50 50
200 50 50
200 50 50
200 50 50
200 50 50
200 50 50
200 50 50
200 50 50
200 50 50
255 255 255
255 255 255
255 255 255
255 255 255
255 255 255
255 255 255
255 255 255
255 255 255
255 255 255
255 255 255
255 255 255
255 255 255
255 255 255
255 255 255
255 255 255
255 255 255
255 255 255
255 255 255
255 255 255
255 255 255
255 255 255
255 255 255
255 255 255
255 255 255
255 255 255
255 255 255
255 255 255
255 255 255
255 255 255
255 255 255
255 255 255
255 255 255
200 50 50
200 50 50
200 50 50
200 50 50
200 50 50
200 50 50
200 50 50
200 50 50
200 50 50
200 50 50
200 50 50
200 50 50
200 50 50
200 50 50
200 50 50
200 50 50
200 50 50
200 50 50
200 50 50
200 50 50
200 50 50
200 50 50
200 50 50
200 50 50
200 50 50
200 50 50
200 50 50
200 50 50
200 50 50
200 50 50
200 50 50
200 50 50
255 255 255
255 255 255
255 255 255
255 255 255
255 255 255
255 255 255
255 255 255
255 255 255
255 255 255
255 255 255
255 255 255
255 255 255
255 255 255
255 255 255
255 255 255
255 255 255
255 255 255
255 255 255
255 255 255
255 255 255
255 255 255
255 255 255
255 255 255
255 255 255
255 255 255
255 255 255
255 255 255
255 255 255
255 255 255
255 255 255
255 255 255
255 255 255
200 50 50
200 50 50
200 50 50
200 50 50
200 50 50
200 50 50
200 50 50
200 50 50
200 50 50
200 50 50
200 50 50
200 50 50
200 50 50
200 50 50
200 50 50
200 50 50
200 50 50
200 50 50
200 50 50
200 50 50
200 50 50
200 50 50
200 50 50
200 50 50
200 50 50
200 50 50
200 50 50
200 50 50
200 50 50
200 50 50
200 50 50
200 50 50
255 255 255
255 255 255
255 255 255
255 255 255
255 255 255
255 255 255
255 255 255
255 255 255
255 255 255
255 255 255
255 255 255
255 255 255
255 255 255
255 255 255
255 255 255
255 255 255
255 255 255
255 255 255
255 255 255
255 255 255
255 255 255
255 255 255
255 255 255
255 255 255
255 255 255
255 255 255
255 255 255
255 255 255
255 255 255
255 255 255
255 255 255
255 255 255
200 50 50
200 50 50
200 50 50
200 50 50
200 50 50
200 50 50
200 50 50
200 50 50
200 50 50
200 50 50
200 50 50
200 50 50
200 50 50
200 50 50
200 50 50
200 50 50
200 50 50
200 50 50
200 50 50
200 50 50
200 50 50
200 50 50
200 50 50
200 50 50
200 50 50
200 50 50
200 50 50
200 50 50
200 50 50
200 50 50
200 50 50
200 50 50
255 255 255
255 255 255
255 255 255
255 255 255
255 255 255
255 255 255
255 255 255
255 255 255
255 255 255
255 255 255
255 255 255
255 255 255
255 255 255
255 255 255
255 255 255
255 255 255
255 255 255
255 255 255
255 255 255
255 255 255
255 255 255
255 255 255
255 255 255
255 255 255
255 255 255
255 255 255
255 255 255
255 255 255
255 255 255
255 255 255
255 255 255
255 255 255
200 50 50
200 50 50
200 50 50
200 50 50
200 50 50
200 50 50
200 50 50
200 50 50
200 50 50
200 50 50
200 50 50
200 50 50
200 50 50
200 50 50
200 50 50
200 50 50
200 50 50
200 50 50
200 50 50
200 50 50
200 50 50
200 50 50
200 50 50
200 50 50
200 50 50
200 50 50
200 50 50
200 50 50
200 50 50
200 50 50
200 50 50
200 50 50
255 255 255
255 255 255
255 255 255
255 255 255
255 255 255
255 255 255
255 255 255
255 255 255
255 255 255
255 255 255
255 255 255
255 255 255
255 255 255
255 255 255
255 255 255
255 255 255
255 255 255
255 255 255
255 255 255
255 255 255
255 255 255
255 255 255
255 255 255
255 255 255
255 255 255
255 255 255
255 255 255
255 255 255
255 255 255
255 255 255
255 255 255
255 255 255
200 50 50
200 50 50
200 50 50
200 50 50
200 50 50
200 50 50
200 50 50
200 50 50
200 50 50
200 50 50
200 50 50
200 50 50
200 50 50
200 50 50
200 50 50
200 50 50
200 50 50
200 50 50
200 50 50
200 50 50
200 50 50
200 50 50
200 50 50
200 50 50
200 50 50
200 50 50
200 50 50
200 50 50
200 50 50
200 50 50
200 50 50
200 50 50
255 255 255
255 255 255
255 255 255
255 255 255
255 255 255
255 255 255
255 255 255
255 255 255
255 255 255
255 255 255
255 255 255
255 255 255
255 255 255
255 255 255
255 255 255
255 255 255
255 255 255
255 255 255
255 255 255
255 255 255
255 255 255
255 255 255
255 255 255
255 255 255
255 255 255
255 255 255
255 255 255
255 255 255
255 255 255
255 255 255
255 255 255
255 255 255
200 50 50
200 50 50
200 50 50
200 50 50
200 50 50
200 50 50
200 50 50
200 50 50
200 50 50
200 50 50
200 50 50
200 50 50
200 50 50
200 50 50
200 50 50
200 50 50
200 50 50
200 50 50
200 50 50
200 50 50
200 50 50
200 50 50
200 50 50
200 50 50
200 50 50
200 50 50
200 50 50
200 50 50
200 50 50
200 50 50
200 50 50
200 50 50
255 255 255
255 255 255
255 255 255
255 255 255
255 255 255
255 255 255
255 255 255
255 255 255
255 255 255
255 255 255
255 255 255
255 255 255
255 255 255
255 255 255
255 255 255
255 255 255
255 255 255
255 255 255
255 255 255
255 255 255
255 255 255
255 255 255
255 255 255
255 255 255
255 255 255
255 255 255
255 255 255
255 255 255
255 255 255
255 255 255
255 255 255
255 255 255
200 50 50
200 50 50
200 50 50
200 50 50
200 50 50
200 50 50
200 50 50
200 50 50
200 50 50
200 50 50
200 50 50
200 50 50
200 50 50
200 50 50
200 50 50
200 50 50
200 50 50
200 50 50
200 50 50
200 50 50
200 50 50
200 50 50
200 50 50
200 50 50
200 50 50
200 50 50
200 50 50
200 50 50
200 50 50
200 50 50
200 50 50
200 50 50
255 255 255
255 255 255
255 255 255
255 255 255
255 255 255
255 255 255
255 255 255
255 255 255
255 255 255
255 255 255
255 255 255
255 255 255
255 255 255
255 255 255
255 255 255
255 255 255
255 255 255
255 255 255
255 255 255
255 255 255
255 255 255
255 255 255
255 255 255
255 255 255
255 255 255
255 255 255
255 255 255
255 255 255
255 255 255
255 255 255
255 255 255
255 255 255
200 50 50
200 50 50
200 50 50
200 50 50
200 50 50
200 50 50
200 50 50
200 50 50
200 50 50
200 50 50
200 50 50
200 50 50
200 50 50
200 50 50
200 50 50
200 50 50
200 50 50
200 50 50
200 50 50
200 50 50
200 50 50
200 50 50
200 50 50
200 50 50
200 50 50
200 50 50
200 50 50
200 50 50
200 50 50
200 50 50
200 50 50
200 50 50
255 255 255
255 255 255
255 255 255
255 255 255
255 255 255
255 255 255
255 255 255
255 255 255
255 255 255
255 255 255
255 255 255
255 255 255
255 255 255
255 255 255
255 255 255
255 255 255
255 255 255
255 255 255
255 255 255
255 255 255
255 255 255
255 255 255
255 255 255
255 255 255
255 255 255
255 255 255
255 255 255
255 255 255
255 255 255
255 255 255
255 255 255
255 255 255
200 50 50
200 50 50
200 50 50
200 50 50
200 50 50
200 50 50
200 50 50
200 50 50
200 50 50
200 50 50
200 50 50
200 50 50
200 50 50
200 50 50
200 50 50
200 50 50
200 50 50
200 50 50
200 50 50
200 50 50
200 50 50
200 50 50
200 50 50
200 50 50
200 50 50
200 50 50
200 50 50
200 50 50
200 50 50
200 50 50
200 50 50
200 50 50
255 255 255
255 255 255
255 255 255
255 255 255
255 255 255
255 255 255
255 255 255
255 255 255
255 255 255
255 255 255
255 255 255
255 255 255
255 255 255
255 255 255
255 255 255
255 255 255
255 255 255
255 255 255
255 255 255
255 255 255
255 255 255
255 255 255
255 255 255
255 255 255
255 255 255
255 255 255
255 255 255
255 255 255
255 255 255
255 255 255
255 255 255
255 255 255
200 50 50
200 50 50
200 50 50
200 50 50
200 50 50
200 50 50
200 50 50
200 50 50
200 50 50
200 50 50
200 50 50
200 50 50
200 50 50
200 50 50
200 50 50
200 50 50
200 50 50
200 50 50
200 50 50
200 50 50
200 50 50
200 50 50
200 50 50
200 50 50
200 50 50
200 50 50
200 50 50
200 50 50
200 50 50
200 50 50
200 50 50
200 50 50
255 255 255
255 255 255
255 255 255
255 255 255
255 255 255
255 255 255
255 255 255
255 255 255
255 255 255
255 255 255
255 255 255
255 255 255
255 255 255
255 255 255
255 255 255
255 255 255
255 255 255
255 255 255
255 255 255
255 255 255
255 255 255
255 255 255
255 255 255
255 255 255
255 255 255
255 255 255
255 255 255
255 255 255
255 255 255
255 255 255
255 255 255
255 255 255
200 50 50
200 50 50
200 50 50
200 50 50
200 50 50
200 50 50
200 50 50
200 50 50
200 50 50
200 50 50
200 50 50
200 50 50
200 50 50
200 50 50
200 50 50
200 50 50
200 50 50
200 50 50
200 50 50
200 50 50
200 50 50
200 50 50
200 50 50
200 50 50
200 50 50
200 50 50
200 50 50
200 50 50
200 50 50
200 50 50
200 50 50
200 50 50
255 255 255
255 255 255
255 255 255
255 255 255
255 255 255
255 255 255
255 255 255
255 255 255
255 255 255
255 255 255
255 255 255
255 255 255
255 255 255
255 255 255
255 255 255
255 255 255
255 255 255
255 255 255
255 255 255
255 255 255
255 255 255
255 255 255
255 255 255
255 255 255
255 255 255
255 255 255
255 255 255
255 255 255
255 255 255
255 255 255
255 255 255
255 255 255
200 50 50
200 50 50
200 50 50
200 50 50
200 50 50
200 50 50
200 50 50
200 50 50
200 50 50
200 50 50
200 50 50
200 50 50
200 50 50
200 50 50
200 50 50
200 50 50
200 50 50
200 50 50
200 50 50
200 50 50
200 50 50
200 50 50
200 50 50
200 50 50
200 50 50
200 50 50
200 50 50
200 50 50
200 50 50
200 50 50
200 50 50
200 50 50
255 255 255
255 255 255
255 255 255
255 255 255
255 255 255
255 255 255
255 255 255
255 255 255
255 255 255
255 255 255
255 255 255
255 255 255
255 255 255
255 255 255
255 255 255
255 255 255
255 255 255
255 255 255
255 255 255
255 255 255
255 255 255
255 255 255
255 255 255
255 255 255
255 255 255
255 255 255
255 255 255
255 255 255
255 255 255
255 255 255
255 255 255
255 255 255
200 50 50
200 50 50
200 50 50
200 50 50
200 50 50
200 50 50
200 50 50
200 50 50
200 50 50
200 50 50
200 50 50
200 50 50
200 50 50
200 50 50
200 50 50
200 50 50
200 50 50
200 50 50
200 50 50
200 50 50
200 50 50
200 50 50
200 50 50
200 50 50
200 50 50
200 50 50
200 50 50
200 50 50
200 50 50
200 50 50
200 50 50
200 50 50
255 255 255
255 255 255
255 255 255
255 255 255
255 255 255
255 255 255
255 255 255
255 255 255
255 255 255
255 255 255
255 255 255
255 255 255
255 255 255
255 255 255
255 255 255
255 255 255
255 255 255
255 255 255
255 255 255
255 255 255
255 255 255
255 255 255
255 255 255
255 255 255
255 255 255
255 255 255
255 255 255
255 255 255
255 255 255
255 255 255
255 255 255
255 255 255
200 50 50
200 50 50
200 50 50
200 50 50
200 50 50
200 50 50
200 50 50
200 50 50
200 50 50
200 50 50
200 50 50
200 50 50
200 50 50
200 50 50
200 50 50
200 50 50
200 50 50
200 50 50
200 50 50
200 50 50
200 50 50
200 50 50
200 50 50
200 50 50
200 50 50
200 50 50
200 50 50
200 50 50
200 50 50
200 50 50
200 50 50
200 50 50
255 255 255
255 255 255
255 255 255
255 255 255
255 255 255
255 255 255
255 255 255
255 255 255
255 255 255
255 255 255
255 255 255
255 255 255
255 255 255
255 255 255
255 255 255
255 255 255
255 255 255
255 255 255
255 255 255
255 255 255
255 255 255
255 255 255
255 255 255
255 255 255
255 255 255
255 255 255
255 255 255
255 255 255
255 255 255
255 255 255
255 255 255
255 255 255
200 50 50
200 50 50
200 50 50
200 50 50
200 50 50
200 50 50
200 50 50
200 50 50
200 50 50
200 50 50
200 50 50
200 50 50
200 50 50
200 50 50
200 50 50
200 50 50
200 50 50
200 50 50
200 50 50
200 50 50
200 50 50
200 50 50
200 50 50
200 50 50
200 50 50
200 50 50
200 50 50
200 50 50
200 50 50
200 50 50
200 50 50
200 50 50
255 255 255
255 255 255
255 255 255
255 255 255
255 255 255
255 255 255
255 255 255
255 255 255
255 255 255
255 255 255
255 255 255
255 255 255
255 255 255
255 255 255
255 255 255
255 255 255
255 255 255
255 255 255
255 255 255
255 255 255
255 255 255
255 255 255
255 255 255
255 255 255
255 255 255
255 255 255
255 255 255
255 255 255
255 255 255
255 255 255
255 255 255
255 255 255
200 50 50
200 50 50
200 50 50
200 50 50
200 50 50
200 50 50
200 50 50
200 50 50
200 50 50
200 50 50
200 50 50
200 50 50
200 50 50
200 50 50
200 50 50
200 50 50
200 50 50
200 50 50
200 50 50
200 50 50
200 50 50
200 50 50
200 50 50
200 50 50
200 50 50
200 50 50
200 50 50
200 50 50
200 50 50
200 50 50
200 50 50
200 50 50
255 255 255
255 255 255
255 255 255
255 255 255
255 255 255
255 255 255
255 255 255
255 255 255
255 255 255
255 255 255
255 255 255
255 255 255
255 255 255
255 255 255
255 255 255
255 255 255
255 255 255
255 255 255
255 255 255
255 255 255
255 255 255
255 255 255
255 255 255
255 255 255
255 255 255
255 255 255
255 255 255
255 255 255
255 255 255
255 255 255
255 255 255
255 255 255
200 50 50
200 50 50
200 50 50
200 50 50
200 50 50
200 50 50
200 50 50
200 50 50
200 50 50
200 50 50
200 50 50
200 50 50
200 50 50
200 50 50
200 50 50
200 50 50
200 50 50
200 50 50
200 50 50
200 50 50
200 50 50
200 50 50
200 50 50
200 50 50
200 50 50
200 50 50
200 50 50
200 50 50
200 50 50
200 50 50
200 50 50
200 50 50
255 255 255
255 255 255
255 255 255
255 255 255
255 255 255
255 255 255
255 255 255
255 255 255
255 255 255
255 255 255
255 255 255
255 255 255
255 255 255
255 255 255
255 255 255
255 255 255
255 255 255
255 255 255
255 255 255
255 255 255
255 255 255
255 255 255
255 255 255
255 255 255
255 255 255
255 255 255
255 255 255
255 255 255
255 255 255
255 255 255
255 255 255
255 255 255
200 50 50
200 50 50
200 50 50
200 50 50
200 50 50
200 50 50
200 50 50
200 50 50
200 50 50
200 50 50
200 50 50
200 50 50
200 50 50
200 50 50
200 50 50
200 50 50
200 50 50
200 50 50
200 50 50
200 50 50
200 50 50
200 50 50
200 50 50
200 50 50
200 50 50
200 50 50
200 50 50
200 50 50
200 50 50
200 50 50
200 50 50
200 50 50
255 255 255
255 255 255
255 255 255
255 255 255
255 255 255
255 255 255
255 255 255
255 255 255
255 255 255
255 255 255
255 255 255
255 255 255
255 255 255
255 255 255
255 255 255
255 255 255
255 255 255
255 255 255
255 255 255
255 255 255
255 255 255
255 255 255
255 255 255
255 255 255
255 255 255
255 255 255
255 255 255
255 255 255
255 255 255
255 255 255
255 255 255
255 255 255
200 50 50
200 50 50
200 50 50
200 50 50
200 50 50
200 50 50
200 50 50
200 50 50
200 50 50
200 50 50
200 50 50
200 50 50
200 50 50
200 50 50
200 50 50
200 50 50
200 50 50
200 50 50
200 50 50
200 50 50
200 50 50
200 50 50
200 50 50
200 50 50
200 50 50
200 50 50
200 50 50
200 50 50
200 50 50
200 50 50
200 50 50
200 50 50
255 255 255
255 255 255
255 255 255
255 255 255
255 255 255
255 255 255
255 255 255
255 255 255
255 255 255
255 255 255
255 255 255
255 255 255
255 255 255
255 255 255
255 255 255
255 255 255
255 255 255
255 255 255
255 255 255
255 255 255
255 255 255
255 255 255
255 255 255
255 255 255
255 255 255
255 255 255
255 255 255
255 255 255
255 255 255
255 255 255
255 255 255
255 255 255
200 50 50
200 50 50
200 50 50
200 50 50
200 50 50
200 50 50
200 50 50
200 50 50
200 50 50
200 50 50
200 50 50
200 50 50
200 50 50
200 50 50
200 50 50
200 50 50
200 50 50
200 50 50
200 50 50
200 50 50
200 50 50
200 50 50
200 50 50
200 50 50
200 50 50
200 50 50
200 50 50
200 50 50
200 50 50
200 50 50
200 50 50
200 50 50
255 255 255
255 255 255
255 255 255
255 255 255
255 255 255
255 255 255
255 255 255
255 255 255
255 255 255
255 255 255
255 255 255
255 255 255
255 255 255
255 255 255
255 255 255
255 255 255
255 255 255
255 255 255
255 255 255
255 255 255
255 255 255
255 255 255
255 255 255
255 255 255
255 255 255
255 255 255
255 255 255
255 255 255
255 255 255
255 255 255
255 255 255
255 255 255
200 50 50
200 50 50
200 50 50
200 50 50
200 50 50
200 50 50
200 50 50
200 50 50
200 50 50
200 50 50
200 50 50
200 50 50
200 50 50
200 50 50
200 50 50
200 50 50
200 50 50
200 50 50
200 50 50
200 50 50
200 50 50
200 50 50
200 50 50
200 50 50
200 50 50
200 50 50
200 50 50
200 50 50
200 50 50
200 50 50
200 50 50
200 50 50
255 255 255
255 255 255
255 255 255
255 255 255
255 255 255
255 255 255
255 255 255
255 255 255
255 255 255
255 255 255
255 255 255
255 255 255
255 255 255
255 255 255
255 255 255
255 255 255
255 255 255
255 255 255
255 255 255
255 255 255
255 255 255
255 255 255
255 255 255
255 255 255
255 255 255
255 255 255
255 255 255
255 255 255
255 255 255
255 255 255
255 255 255
255 255 255
200 50 50
200 50 50
200 50 50
200 50 50
200 50 50
200 50 50
200 50 50
200 50 50
200 50 50
200 50 50
200 50 50
200 50 50
200 50 50
200 50 50
200 50 50
200 50 50
200 50 50
200 50 50
200 50 50
200 50 50
200 50 50
200 50 50
200 50 50
200 50 50
200 50 50
200 50 50
200 50 50
200 50 50
200 50 50
200 50 50
200 50 50
200 50 50
255 255 255
255 255 255
255 255 255
255 255 255
255 255 255
255 255 255
255 255 255
255 255 255
255 255 255
255 255 255
255 255 255
255 255 255
255 255 255
255 255 255
255 255 255
255 255 255
255 255 255
255 255 255
255 255 255
255 255 255
255 255 255
255 255 255
255 255 255
255 255 255
255 255 255
255 255 255
255 255 255
255 255 255
255 255 255
255 255 255
255 255 255
255 255 255
200 50 50
200 50 50
200 50 50
200 50 50
200 50 50
200 50 50
200 50 50
200 50 50
200 50 50
200 50 50
200 50 50
200 50 50
200 50 50
200 50 50
200 50 50
200 50 50
200 50 50
200 50 50
200 50 50
200 50 50
200 50 50
200 50 50
200 50 50
200 50 50
200 50 50
200 50 50
200 50 50
200 50 50
200 50 50
200 50 50
200 50 50
200 50 50
255 255 255
255 255 255
255 255 255
255 255 255
255 255 255
255 255 255
255 255 255
255 255 255
255 255 255
255 255 255
255 255 255
255 255 255
255 255 255
255 255 255
255 255 255
255 255 255
255 255 255
255 255 255
255 255 255
255 255 255
255 255 255
255 255 255
255 255 255
255 255 255
255 255 255
255 255 255
255 255 255
255 255 255
255 255 255
255 255 255
255 255 255
255 255 255
200 50 50
200 50 50
200 50 50
200 50 50
200 50 50
200 50 50
200 50 50
200 50 50
200 50 50
200 50 50
200 50 50
200 50 50
200 50 50
200 50 50
200 50 50
200 50 50
200 50 50
200 50 50
200 50 50
200 50 50
200 50 50
200 50 50
200 50 50
200 50 50
200 50 50
200 50 50
200 50 50
200 50 50
200 50 50
200 50 50
200 50 50
200 50 50
255 255 255
255 255 255
255 255 255
255 255 255
255 255 255
255 255 255
255 255 255
255 255 255
255 255 255
255 255 255
255 255 255
255 255 255
255 255 255
255 255 255
255 255 255
255 255 255
255 255 255
255 255 255
255 255 255
255 255 255
255 255 255
255 255 255
255 255 255
255 255 255
255 255 255
255 255 255
255 255 255
255 255 255
255 255 255
255 255 255
255 255 255
255 255 255
200 50 50
200 50 50
200 50 50
200 50 50
200 50 50
200 50 50
200 50 50
200 50 50
200 50 50
200 50 50
200 50 50
200 50 50
200 50 50
200 50 50
200 50 50
200 50 50
200 50 50
200 50 50
200 50 50
200 50 50
200 50 50
200 50 50
200 50 50
200 50 50
200 50 50
200 50 50
200 50 50
200 50 50
200 50 50
200 50 50
200 50 50
200 50 50
255 255 255
255 255 255
255 255 255
255 255 255
255 255 255
255 255 255
255 255 255
255 255 255
255 255 255
255 255 255
255 255 255
255 255 255
255 255 255
255 255 255
255 255 255
255 255 255
255 255 255
255 255 255
255 255 255
255 255 255
255 255 255
255 255 255
255 255 255
255 255 255
255 255 255
255 255 255
255 255 255
255 255 255
255 255 255
255 255 255
255 255 255
255 255 255
200 50 50
200 50 50
200 50 50
200 50 50
200 50 50
200 50 50
200 50 50
200 50 50
200 50 50
200 50 50
200 50 50
200 50 50
200 50 50
200 50 50
200 50 50
200 50 50
200 50 50
200 50 50
200 50 50
200 50 50
200 50 50
200 50 50
200 50 50
200 50 50
200 50 50
200 50 50
200 50 50
200 50 50
200 50 50
200 50 50
200 50 50
200 50 50
255 255 255
255 255 255
255 255 255
255 255 255
255 255 255
255 255 255
255 255 255
255 255 255
255 255 255
255 255 255
255 255 255
255 255 255
255 255 255
255 255 255
255 255 255
255 255 255
255 255 255
255 255 255
255 255 255
255 255 255
255 255 255
255 255 255
255 255 255
255 255 255
255 255 255
255 255 255
255 255 255
255 255 255
255 255 255
255 255 255
255 255 255
255 255 255
200 50 50
200 50 50
200 50 50
200 50 50
200 50 50
200 50 50
200 50 50
200 50 50
200 50 50
200 50 50
200 50 50
200 50 50
200 50 50
200 50 50
200 50 50
200 50 50
200 50 50
200 50 50
200 50 50
200 50 50
200 50 50
200 50 50
200 50 50
200 50 50
200 50 50
200 50 50
200 50 50
200 50 50
200 50 50
200 50 50
200 50 50
200 50 50
255 255 255
255 255 255
255 255 255
255 255 255
255 255 255
255 255 255
255 255 255
255 255 255
255 255 255
255 255 255
255 255 255
255 255 255
255 255 255
255 255 255
255 255 255
255 255 255
255 255 255
255 255 255
255 255 255
255 255 255
255 255 255
255 255 255
255 255 255
255 255 255
255 255 255
255 255 255
255 255 255
255 255 255
255 255 255
255 255 255
255 255 255
255 255 255
200 50 50
200 50 50
200 50 50
200 50 50
200 50 50
200 50 50
200 50 50
200 50 50
200 50 50
200 50 50
200 50 50
200 50 50
200 50 50
200 50 50
200 50 50
200 50 50
200 50 50
200 50 50
200 50 50
200 50 50
200 50 50
200 50 50
200 50 50
200 50 50
200 50 50
200 50 50
200 50 50
200 50 50
200 50 50
200 50 50
200 50 50
200 50 50
255 255 255
255 255 255
255 255 255
255 255 255
255 255 255
255 255 255
255 255 255
255 255 255
255 255 255
255 255 255
255 255 255
255 255 255
255 255 255
255 255 255
255 255 255
255 255 255
255 255 255
255 255 255
255 255 255
255 255 255
255 255 255
255 255 255
255 255 255
255 255 255
255 255 255
255 255 255
255 255 255
255 255 255
255 255 255
255 255 255
255 255 255
255 255 255
200 50 50
200 50 50
200 50 50
200 50 50
200 50 50
200 50 50
200 50 50
200 50 50
200 50 50
200 50 50
200 50 50
200 50 50
200 50 50
200 50 50
200 50 50
200 50 50
200 50 50
200 50 50
200 50 50
200 50 50
200 50 50
200 50 50
200 50 50
200 50 50
200 50 50
200 50 50
200 50 50
200 50 50
200 50 50
200 50 50
200 50 50
200 50 50
255 255 255
255 255 255
255 255 255
255 255 255
255 255 255
255 255 255
255 255 255
255 255 255
255 255 255
255 255 255
255 255 255
255 255 255
255 255 255
255 255 255
255 255 255
255 255 255
255 255 255
255 255 255
255 255 255
255 255 255
255 255 255
255 255 255
255 255 255
255 255 255
255 255 255
255 255 255
255 255 255
255 255 255
255 255 255
255 255 255
255 255 255
255 255 255
200 50 50
200 50 50
200 50 50
200 50 50
200 50 50
200 50 50
200 50 50
200 50 50
200 50 50
200 50 50
200 50 50
200 50 50
200 50 50
200 50 50
200 50 50
200 50 50
200 50 50
200 50 50
200 50 50
200 50 50
200 50 50
200 50 50
200 50 50
200 50 50
200 50 50
200 50 50
200 50 50
200 50 50
200 50 50
200 50 50
200 50 50
200 50 50
255 255 255
255 255 255
255 255 255
255 255 255
255 255 255
255 255 255
255 255 255
255 255 255
255 255 255
255 255 255
255 255 255
255 255 255
255 255 255
255 255 255
255 255 255
255 255 255
255 255 255
255 255 255
255 255 255
255 255 255
255 255 255
255 255 255
255 255 255
255 255 255
255 255 255
255 255 255
255 255 255
255 255 255
255 255 255
255 255 255
255 255 255
255 255 255
200 50 50
200 50 50
200 50 50
200 50 50
200 50 50
200 50 50
200 50 50
200 50 50
200 50 50
200 50 50
200 50 50
200 50 50
200 50 50
200 50 50
200 50 50
200 50 50
200 50 50
200 50 50
200 50 50
200 50 50
200 50 50
200 50 50
200 50 50
200 50 50
200 50 50
200 50 50
200 50 50
200 50 50
200 50 50
200 50 50
200 50 50
200 50 50
255 255 255
255 255 255
255 255 255
255 255 255
255 255 255
255 255 255
255 255 255
255 255 255
255 255 255
255 255 255
255 255 255
255 255 255
255 255 255
255 255 255
255 255 255
255 255 255
255 255 255
255 255 255
255 255 255
255 255 255
255 255 255
255 255 255
255 255 255
255 255 255
255 255 255
255 255 255
255 255 255
255 255 255
255 255 255
255 255 255
255 255 255
255 255 255
200 50 50
200 50 50
200 50 50
200 50 50
200 50 50
200 50 50
200 50 50
200 50 50
200 50 50
200 50 50
200 50 50
200 50 50
200 50 50
200 50 50
200 50 50
200 50 50
200 50 50
200 50 50
200 50 50
200 50 50
200 50 50
200 50 50
200 50 50
200 50 50
200 50 50
200 50 50
200 50 50
200 50 50
200 50 50
200 50 50
200 50 50
200 50 50
255 255 255
255 255 255
255 255 255
255 255 255
255 255 255
255 255 255
255 255 255
255 255 255
255 255 255
255 255 255
255 255 255
255 255 255
255 255 255
255 255 255
255 255 255
255 255 255
255 255 255
255 255 255
255 255 255
255 255 255
255 255 255
255 255 255
255 255 255
255 255 255
255 255 255
255 255 255
255 255 255
255 255 255
255 255 255
255 255 255
255 255 255
255 255 255
200 50 50
200 50 50
200 50 50
200 50 50
200 50 50
200 50 50
200 50 50
200 50 50
200 50 50
200 50 50
200 50 50
200 50 50
200 50 50
200 50 50
200 50 50
200 50 50
200 50 50
200 50 50
200 50 50
200 50 50
200 50 50
200 50 50
200 50 50
200 50 50
200 50 50
200 50 50
200 50 50
200 50 50
200 50 50
200 50 50
200 50 50
200 50 50
255 255 255
255 255 255
255 255 255
255 255 255
255 255 255
255 255 255
255 255 255
255 255 255
255 255 255
255 255 255
255 255 255
255 255 255
255 255 255
255 255 255
255 255 255
255 255 255
255 255 255
255 255 255
255 255 255
255 255 255
255 255 255
255 255 255
255 255 255
255 255 255
255 255 255
255 255 255
255 255 255
255 255 255
255 255 255
255 255 255
255 255 255
255 255 255
200 50 50
200 50 50
200 50 50
200 50 50
200 50 50
200 50 50
200 50 50
200 50 50
200 50 50
200 50 50
200 50 50
200 50 50
200 50 50
200 50 50
200 50 50
200 50 50
200 50 50
200 50 50
200 50 50
200 50 50
200 50 50
200 50 50
200 50 50
200 50 50
200 50 50
200 50 50
200 50 50
200 50 50
200 50 50
200 50 50
200 50 50
200 50 50
255 255 255
255 255 255
255 255 255
255 255 255
255 255 255
255 255 255
255 255 255
255 255 255
255 255 255
255 255 255
255 255 255
255 255 255
255 255 255
255 255 255
255 255 255
255 255 255
255 255 255
255 255 255
255 255 255
255 255 255
255 255 255
255 255 255
255 255 255
255 255 255
255 255 255
255 255 255
255 255 255
255 255 255
255 255 255
255 255 255
255 255 255
255 255 255
200 50 50
200 50 50
200 50 50
200 50 50
200 50 50
200 50 50
200 50 50
200 50 50
200 50 50
200 50 50
200 50 50
200 50 50
200 50 50
200 50 50
200 50 50
200 50 50
200 50 50
200 50 50
200 50 50
200 50 50
200 50 50
200 50 50
200 50 50
200 50 50
200 50 50
200 50 50
200 50 50
200 50 50
200 50 50
200 50 50
200 50 50
200 50 50
255 255 255
255 255 255
255 255 255
255 255 255
255 255 255
255 255 255
255 255 255
255 255 255
255 255 255
255 255 255
255 255 255
255 255 255
255 255 255
255 255 255
255 255 255
255 255 255
255 255 255
255 255 255
255 255 255
255 255 255
255 255 255
255 255 255
255 255 255
255 255 255
255 255 255
255 255 255
255 255 255
255 255 255
255 255 255
255 255 255
255 255 255
255 255 255
200 50 50
200 50 50
200 50 50
200 50 50
200 50 50
200 50 50
200 50 50
200 50 50
200 50 50
200 50 50
200 50 50
200 50 50
200 50 50
200 50 50
200 50 50
200 50 50
200 50 50
200 50 50
200 50 50
200 50 50
200 50 50
200 50 50
200 50 50
200 50 50
200 50 50
200 50 50
200 50 50
200 50 50
200 50 50
200 50 50
200 50 50
200 50 50
255 255 255
255 255 255
255 255 255
255 255 255
255 255 255
255 255 255
255 255 255
255 255 255
255 255 255
255 255 255
255 255 255
255 255 255
255 255 255
255 255 255
255 255 255
255 255 255
255 255 255
255 255 255
255 255 255
255 255 255
255 255 255
255 255 255
255 255 255
255 255 255
255 255 255
255 255 255
255 255 255
255 255 255
255 255 255
255 255 255
255 255 255
255 255 255
200 50 50
200 50 50
200 50 50
200 50 50
200 50 50
200 50 50
200 50 50
200 50 50
200 50 50
200 50 50
200 50 50
200 50 50
200 50 50
200 50 50
200 50 50
200 50 50
200 50 50
200 50 50
200 50 50
200 50 50
200 50 50
200 50 50
200 50 50
200 50 50
200 50 50
200 50 50
200 50 50
200 50 50
200 50 50
200 50 50
200 50 50
200 50 50
255 255 255
255 255 255
255 255 255
255 255 255
255 255 255
255 255 255
255 255 255
255 255 255
255 255 255
255 255 255
255 255 255
255 255 255
255 255 255
255 255 255
255 255 255
255 255 255
255 255 255
255 255 255
255 255 255
255 255 255
255 255 255
255 255 255
255 255 255
255 255 255
255 255 255
255 255 255
255 255 255
255 255 255
255 255 255
255 255 255
255 255 255
255 255 255
200 50 50
200 50 50
200 50 50
200 50 50
200 50 50
200 50 50
200 50 50
200 50 50
200 50 50
200 50 50
200 50 50
200 50 50
200 50 50
200 50 50
200 50 50
200 50 50
200 50 50
200 50 50
200 50 50
200 50 50
200 50 50
200 50 50
200 50 50
200 50 50
200 50 50
200 50 50
200 50 50
200 50 50
200 50 50
200 50 50
200 50 50
200 50 50
255 255 255
255 255 255
255 255 255
255 255 255
255 255 255
255 255 255
255 255 255
255 255 255
255 255 255
255 255 255
255 255 255
255 255 255
255 255 255
255 255 255
255 255 255
255 255 255
255 255 255
255 255 255
255 255 255
255 255 255
255 255 255
255 255 255
255 255 255
255 255 255
255 255 255
255 255 255
255 255 255
255 255 255
255 255 255
255 255 255
255 255 255
255 255 255
200 50 50
200 50 50
200 50 50
200 50 50
200 50 50
200 50 50
200 50 50
200 50 50
200 50 50
200 50 50
200 50 50
200 50 50
200 50 50
200 50 50
200 50 50
200 50 50
200 50 50
200 50 50
200 50 50
200 50 50
200 50 50
200 50 50
200 50 50
200 50 50
200 50 50
200 50 50
200 50 50
200 50 50
200 50 50
200 50 50
200 50 50
200 50 50
255 255 255
255 255 255
255 255 255
255 255 255
255 255 255
255 255 255
255 255 255
255 255 255
255 255 255
255 255 255
255 255 255
255 255 255
255 255 255
255 255 255
255 255 255
255 255 255
255 255 255
255 255 255
255 255 255
255 255 255
255 255 255
255 255 255
255 255 255
255 255 255
255 255 255
255 255 255
255 255 255
255 255 255
255 255 255
255 255 255
255 255 255
255 255 255
200 50 50
200 50 50
200 50 50
200 50 50
200 50 50
200 50 50
200 50 50
200 50 50
200 50 50
200 50 50
200 50 50
200 50 50
200 50 50
200 50 50
200 50 50
200 50 50
200 50 50
200 50 50
200 50 50
200 50 50
200 50 50
200 50 50
200 50 50
200 50 50
200 50 50
200 50 50
200 50 50
200 50 50
200 50 50
200 50 50
200 50 50
200 50 50
255 255 255
255 255 255
255 255 255
255 255 255
255 255 255
255 255 255
255 255 255
255 255 255
255 255 255
255 255 255
255 255 255
255 255 255
255 255 255
255 255 255
255 255 255
255 255 255
255 255 255
255 255 255
255 255 255
255 255 255
255 255 255
255 255 255
255 255 255
255 255 255
255 255 255
255 255 255
255 255 255
255 255 255
255 255 255
255 255 255
255 255 255
255 255 255
200 50 50
200 50 50
200 50 50
200 50 50
200 50 50
200 50 50
200 50 50
200 50 50
200 50 50
200 50 50
200 50 50
200 50 50
200 50 50
200 50 50
200 50 50
200 50 50
200 50 50
200 50 50
200 50 50
200 50 50
200 50 50
200 50 50
200 50 50
200 50 50
200 50 50
200 50 50
200 50 50
200 50 50
200 50 50
200 50 50
200 50 50
200 50 50
255 255 255
255 255 255
255 255 255
255 255 255
255 255 255
255 255 255
255 255 255
255 255 255
255 255 255
255 255 255
255 255 255
255 255 255
255 255 255
255 255 255
255 255 255
255 255 255
255 255 255
255 255 255
255 255 255
255 255 255
255 255 255
255 255 255
255 255 255
255 255 255
255 255 255
255 255 255
255 255 255
255 255 255
255 255 255
255 255 255
255 255 255
255 255 255
200 50 50
200 50 50
200 50 50
200 50 50
200 50 50
200 50 50
200 50 50
200 50 50
200 50 50
200 50 50
200 50 50
200 50 50
200 50 50
200 50 50
200 50 50
200 50 50
200 50 50
200 50 50
200 50 50
200 50 50
200 50 50
200 50 50
200 50 50
200 50 50
200 50 50
200 50 50
200 50 50
200 50 50
200 50 50
200 50 50
200 50 50
200 50 50
255 255 255
255 255 255
255 255 255
255 255 255
255 255 255
255 255 255
255 255 255
255 255 255
255 255 255
255 255 255
255 255 255
255 255 255
255 255 255
255 255 255
255 255 255
255 255 255
255 255 255
255 255 255
255 255 255
255 255 255
255 255 255
255 255 255
255 255 255
255 255 255
255 255 255
255 255 255
255 255 255
255 255 255
255 255 255
255 255 255
255 255 255
255 255 255
200 50 50
200 50 50
200 50 50
200 50 50
200 50 50
200 50 50
200 50 50
200 50 50
200 50 50
200 50 50
200 50 50
200 50 50
200 50 50
200 50 50
200 50 50
200 50 50
200 50 50
200 50 50
200 50 50
200 50 50
200 50 50
200 50 50
200 50 50
200 50 50
200 50 50
200 50 50
200 50 50
200 50 50
200 50 50
200 50 50
200 50 50
200 50 50
255 255 255
255 255 255
255 255 255
255 255 255
255 255 255
255 255 255
255 255 255
255 255 255
255 255 255
255 255 255
255 255 255
255 255 255
255 255 255
255 255 255
255 255 255
255 255 255
255 255 255
255 255 255
255 255 255
255 255 255
255 255 255
255 255 255
255 255 255
255 255 255
255 255 255
255 255 255
255 255 255
255 255 255
255 255 255
255 255 255
255 255 255
255 255 255
200 50 50
200 50 50
200 50 50
200 50 50
200 50 50
200 50 50
200 50 50
200 50 50
200 50 50
200 50 50
200 50 50
200 50 50
200 50 50
200 50 50
200 50 50
200 50 50
200 50 50
200 50 50
200 50 50
200 50 50
200 50 50
200 50 50
200 50 50
200 50 50
200 50 50
200 50 50
200 50 50
200 50 50
200 50 50
200 50 50
200 50 50
200 50 50
255 255 255
255 255 255
255 255 255
255 255 255
255 255 255
255 255 255
255 255 255
255 255 255
255 255 255
255 255 255
255 255 255
255 255 255
255 255 255
255 255 255
255 255 255
255 255 255
255 255 255
255 255 255
255 255 255
255 255 255
255 255 255
255 255 255
255 255 255
255 255 255
255 255 255
255 255 255
255 255 255
255 255 255
255 255 255
255 255 255
255 255 255
255 255 255
200 50 50
200 50 50
200 50 50
200 50 50
200 50 50
200 50 50
200 50 50
200 50 50
200 50 50
200 50 50
200 50 50
200 50 50
200 50 50
200 50 50
200 50 50
200 50 50
200 50 50
200 50 50
200 50 50
200 50 50
200 50 50
200 50 50
200 50 50
200 50 50
200 50 50
200 50 50
200 50 50
200 50 50
200 50 50
200 50 50
200 50 50
200 50 50
255 255 255
255 255 255
255 255 255
255 255 255
255 255 255
255 255 255
255 255 255
255 255 255
255 255 255
255 255 255
255 255 255
255 255 255
255 255 255
255 255 255
255 255 255
255 255 255
255 255 255
255 255 255
255 255 255
255 255 255
255 255 255
255 255 255
255 255 255
255 255 255
255 255 255
255 255 255
255 255 255
255 255 255
255 255 255
255 255 255
255 255 255
255 255 255
200 50 50
200 50 50
200 50 50
200 50 50
200 50 50
200 50 50
200 50 50
200 50 50
200 50 50
200 50 50
200 50 50
200 50 50
200 50 50
200 50 50
200 50 50
200 50 50
200 50 50
200 50 50
200 50 50
200 50 50
200 50 50
200 50 50
200 50 50
200 50 50
200 50 50
200 50 50
200 50 50
200 50 50
200 50 50
200 50 50
200 50 50
200 50 50
255 255 255
255 255 255
255 255 255
255 255 255
255 255 255
255 255 255
255 255 255
255 255 255
255 255 255
255 255 255
255 255 255
255 255 255
255 255 255
255 255 255
255 255 255
255 255 255
255 255 255
255 255 255
255 255 255
255 255 255
255 255 255
255 255 255
255 255 255
255 255 255
255 255 255
255 255 255
255 255 255
255 255 255
255 255 255
255 255 255
255 255 255
255 255 255
200 50 50
200 50 50
200 50 50
200 50 50
200 50 50
200 50 50
200 50 50
200 50 50
200 50 50
200 50 50
200 50 50
200 50 50
200 50 50
200 50 50
200 50 50
200 50 50
200 50 50
200 50 50
200 50 50
200 50 50
200 50 50
200 50 50
200 50 50
200 50 50
200 50 50
200 50 50
200 50 50
200 50 50
200 50 50
200 50 50
200 50 50
200 50 50
255 255 255
255 255 255
255 255 255
255 255 255
255 255 255
255 255 255
255 255 255
255 255 255
255 255 255
255 255 255
255 255 255
255 255 255
255 255 255
255 255 255
255 255 255
255 255 255
255 255 255
255 255 255
255 255 255
255 255 255
255 255 255
255 255 255
255 255 255
255 255 255
255 255 255
255 255 255
255 255 255
255 255 255
255 255 255
255 255 255
255 255 255
255 255 255
200 50 50
200 50 50
200 50 50
200 50 50
200 50 50
200 50 50
200 50 50
200 50 50
200 50 50
200 50 50
200 50 50
200 50 50
200 50 50
200 50 50
200 50 50
200 50 50
200 50 50
200 50 50
200 50 50
200 50 50
200 50 50
200 50 50
200 50 50
200 50 50
200 50 50
200 50 50
200 50 50
200 50 50
200 50 50
200 50 50
200 50 50
200 50 50
255 255 255
255 255 255
255 255 255
255 255 255
255 255 255
255 255 255
255 255 255
255 255 255
255 255 255
255 255 255
255 255 255
255 255 255
255 255 255
255 255 255
255 255 255
255 255 255
255 255 255
255 255 255
255 255 255
255 255 255
255 255 255
255 255 255
255 255 255
255 255 255
255 255 255
255 255 255
255 255 255
255 255 255
255 255 255
255 255 255
255 255 255
255 255 255
200 50 50
200 50 50
200 50 50
200 50 50
200 50 50
200 50 50
200 50 50
200 50 50
200 50 50
200 50 50
200 50 50
200 50 50
200 50 50
200 50 50
200 50 50
200 50 50
200 50 50
200 50 50
200 50 50
200 50 50
200 50 50
200 50 50
200 50 50
200 50 50
200 50 50
200 50 50
200 50 50
200 50 50
200 50 50
200 50 50
200 50 50
200 50 50
255 255 255
255 255 255
255 255 255
255 255 255
255 255 255
255 255 255
255 255 255
255 255 255
255 255 255
255 255 255
255 255 255
255 255 255
255 255 255
255 255 255
255 255 255
255 255 255
255 255 255
255 255 255
255 255 255
255 255 255
255 255 255
255 255 255
255 255 255
255 255 255
255 255 255
255 255 255
255 255 255
255 255 255
255 255 255
255 255 255
255 255 255
255 255 255
200 50 50
200 50 50
200 50 50
200 50 50
200 50 50
200 50 50
200 50 50
200 50 50
200 50 50
200 50 50
200 50 50
200 50 50
200 50 50
200 50 50
200 50 50
200 50 50
200 50 50
200 50 50
200 50 50
200 50 50
200 50 50
200 50 50
200 50 50
200 50 50
200 50 50
200 50 50
200 50 50
200 50 50
200 50 50
200 50 50
200 50 50
200 50 50
255 255 255
255 255 255
255 255 255
255 255 255
255 255 255
255 255 255
255 255 255
255 255 255
255 255 255
255 255 255
255 255 255
255 255 255
255 255 255
255 255 255
255 255 255
255 255 255
255 255 255
255 255 255
255 255 255
255 255 255
255 255 255
255 255 255
255 255 255
255 255 255
255 255 255
255 255 255
255 255 255
255 255 255
255 255 255
255 255 255
255 255 255
255 255 255
200 50 50
200 50 50
200 50 50
200 50 50
200 50 50
200 50 50
200 50 50
200 50 50
200 50 50
200 50 50
200 50 50
200 50 50
200 50 50
200 50 50
200 50 50
200 50 50
200 50 50
200 50 50
200 50 50
200 50 50
200 50 50
200 50 50
200 50 50
200 50 50
200 50 50
200 50 50
200 50 50
200 50 50
200 50 50
200 50 50
200 50 50
200 50 50
255 255 255
255 255 255
255 255 255
255 255 255
255 255 255
255 255 255
255 255 255
255 255 255
255 255 255
255 255 255
255 255 255
255 255 255
255 255 255
255 255 255
255 255 255
255 255 255
255 255 255
255 255 255
255 255 255
255 255 255
255 255 255
255 255 255
255 255 255
255 255 255
255 255 255
255 255 255
255 255 255
255 255 255
255 255 255
255 255 255
255 255 255
255 255 255
200 50 50
200 50 50
200 50 50
200 50 50
200 50 50
200 50 50
200 50 50
200 50 50
200 50 50
200 50 50
200 50 50
200 50 50
200 50 50
200 50 50
200 50 50
200 50 50
200 50 50
200 50 50
200 50 50
200 50 50
200 50 50
200 50 50
200 50 50
200 50 50
200 50 50
200 50 50
200 50 50
200 50 50
200 50 50
200 50 50
200 50 50
200 50 50
255 255 255
255 255 255
255 255 255
255 255 255
255 255 255
255 255 255
255 255 255
255 255 255
255 255 255
255 255 255
255 255 255
255 255 255
255 255 255
255 255 255
255 255 255
255 255 255
255 255 255
255 255 255
255 255 255
255 255 255
255 255 255
255 255 255
255 255 255
255 255 255
255 255 255
255 255 255
255 255 255
255 255 255
255 255 255
255 255 255
255 255 255
255 255 255
200 50 50
200 50 50
200 50 50
200 50 50
200 50 50
200 50 50
200 50 50
200 50 50
200 50 50
200 50 50
200 50 50
200 50 50
200 50 50
200 50 50
200 50 50
200 50 50
200 50 50
200 50 50
200 50 50
200 50 50
200 50 50
200 50 50
200 50 50
200 50 50
200 50 50
200 50 50
200 50 50
200 50 50
200 50 50
200 50 50
200 50 50
200 50 50
255 255 255
255 255 255
255 255 255
255 255 255
255 255 255
255 255 255
255 255 255
255 255 255
255 255 255
255 255 255
255 255 255
255 255 255
255 255 255
255 255 255
255 255 255
255 255 255
255 255 255
255 255 255
255 255 255
255 255 255
255 255 255
255 255 255
255 255 255
255 255 255
255 255 255
255 255 255
255 255 255
255 255 255
255 255 255
255 255 255
255 255 255
255 255 255
200 50 50
200 50 50
200 50 50
200 50 50
200 50 50
200 50 50
200 50 50
200 50 50
200 50 50
200 50 50
200 50 50
200 50 50
200 50 50
200 50 50
200 50 50
200 50 50
200 50 50
200 50 50
200 50 50
200 50 50
200 50 50
200 50 50
200 50 50
200 50 50
200 50 50
200 50 50
200 50 50
200 50 50
200 50 50
200 50 50
200 50 50
200 50 50
255 255 255
255 255 255
255 255 255
255 255 255
255 255 255
255 255 255
255 255 255
255 255 255
255 255 255
255 255 255
255 255 255
255 255 255
255 255 255
255 255 255
255 255 255
255 255 255
255 255 255
255 255 255
255 255 255
255 255 255
255 255 255
255 255 255
255 255 255
255 255 255
255 255 255
255 255 255
255 255 255
255 255 255
255 255 255
255 255 255
255 255 255
255 255 255
200 50 50
200 50 50
200 50 50
200 50 50
200 50 50
200 50 50
200 50 50
200 50 50
200 50 50
200 50 50
200 50 50
200 50 50
200 50 50
200 50 50
200 50 50
200 50 50
200 50 50
200 50 50
200 50 50
200 50 50
200 50 50
200 50 50
200 50 50
200 50 50
200 50 50
200 50 50
200 50 50
200 50 50
200 50 50
200 50 50
200 50 50
200 50 50
255 255 255
255 255 255
255 255 255
255 255 255
255 255 255
255 255 255
255 255 255
255 255 255
255 255 255
255 255 255
255 255 255
255 255 255
255 255 255
255 255 255
255 255 255
255 255 255
255 255 255
255 255 255
255 255 255
255 255 255
255 255 255
255 255 255
255 255 255
255 255 255
255 255 255
255 255 255
255 255 255
255 255 255
255 255 255
255 255 255
255 255 255
255 255 255
200 50 50
200 50 50
200 50 50
200 50 50
200 50 50
200 50 50
200 50 50
200 50 50
200 50 50
200 50 50
200 50 50
200 50 50
200 50 50
200 50 50
200 50 50
200 50 50
200 50 50
200 50 50
200 50 50
200 50 50
200 50 50
200 50 50
200 50 50
200 50 50
200 50 50
200 50 50
200 50 50
200 50 50
200 50 50
200 50 50
200 50 50
200 50 50
255 255 255
255 255 255
255 255 255
255 255 255
255 255 255
255 255 255
255 255 255
255 255 255
255 255 255
255 255 255
255 255 255
255 255 255
255 255 255
255 255 255
255 255 255
255 255 255
255 255 255
255 255 255
255 255 255
255 255 255
255 255 255
255 255 255
255 255 255
255 255 255
255 255 255
255 255 255
255 255 255
255 255 255
255 255 255
255 255 255
255 255 255
255 255 255
200 50 50
200 50 50
200 50 50
200 50 50
200 50 50
200 50 50
200 50 50
200 50 50
200 50 50
200 50 50
200 50 50
200 50 50
200 50 50
200 50 50
200 50 50
200 50 50
200 50 50
200 50 50
200 50 50
200 50 50
200 50 50
200 50 50
200 50 50
200 50 50
200 50 50
200 50 50
200 50 50
200 50 50
200 50 50
200 50 50
200 50 50
200 50 50
255 255 255
255 255 255
255 255 255
255 255 255
255 255 255
255 255 255
255 255 255
255 255 255
255 255 255
255 255 255
255 255 255
255 255 255
255 255 255
255 255 255
255 255 255
255 255 255
255 255 255
255 255 255
255 255 255
255 255 255
255 255 255
255 255 255
255 255 255
255 255 255
255 255 255
255 255 255
255 255 255
255 255 255
255 255 255
255 255 255
255 255 255
255 255 255
200 50 50
200 50 50
200 50 50
200 50 50
200 50 50
200 50 50
200 50 50
200 50 50
200 50 50
200 50 50
200 50 50
200 50 50
200 50 50
200 50 50
200 50 50
200 50 50
200 50 50
200 50 50
200 50 50
200 50 50
200 50 50
200 50 50
200 50 50
200 50 50
200 50 50
200 50 50
200 50 50
200 50 50
200 50 50
200 50 50
200 50 50
200 50 50
255 255 255
255 255 255
255 255 255
255 255 255
255 255 255
255 255 255
255 255 255
255 255 255
255 255 255
255 255 255
255 255 255
255 255 255
255 255 255
255 255 255
255 255 255
255 255 255
255 255 255
255 255 255
255 255 255
255 255 255
255 255 255
255 255 255
255 255 255
255 255 255
255 255 255
255 255 255
255 255 255
255 255 255
255 255 255
255 255 255
255 255 255
255 255 255
200 50 50
200 50 50
200 50 50
200 50 50
200 50 50
200 50 50
200 50 50
200 50 50
200 50 50
200 50 50
200 50 50
200 50 50
200 50 50
200 50 50
200 50 50
200 50 50
200 50 50
200 50 50
200 50 50
200 50 50
200 50 50
200 50 50
200 50 50
200 50 50
200 50 50
200 50 50
200 50 50
200 50 50
200 50 50
200 50 50
200 50 50
200 50 50
255 255 255
255 255 255
255 255 255
255 255 255
255 255 255
255 255 255
255 255 255
255 255 255
255 255 255
255 255 255
255 255 255
255 255 255
255 255 255
255 255 255
255 255 255
255 255 255
255 255 255
255 255 255
255 255 255
255 255 255
255 255 255
255 255 255
255 255 255
255 255 255
255 255 255
255 255 255
255 255 255
255 255 255
255 255 255
255 255 255
255 255 255
255 255 255
200 50 50
200 50 50
200 50 50
200 50 50
200 50 50
200 50 50
200 50 50
200 50 50
200 50 50
200 50 50
200 50 50
200 50 50
200 50 50
200 50 50
200 50 50
200 50 50
200 50 50
200 50 50
200 50 50
200 50 50
200 50 50
200 50 50
200 50 50
200 50 50
200 50 50
200 50 50
200 50 50
200 50 50
200 50 50
200 50 50
200 50 50
200 50 50
255 255 255
255 255 255
255 255 255
255 255 255
255 255 255
255 255 255
255 255 255
255 255 255
255 255 255
255 255 255
255 255 255
255 255 255
255 255 255
255 255 255
255 255 255
255 255 255
255 255 255
255 255 255
255 255 255
255 255 255
255 255 255
255 255 255
255 255 255
255 255 255
255 255 255
255 255 255
255 255 255
255 255 255
255 255 255
255 255 255
255 255 255
255 255 255
200 50 50
200 50 50
200 50 50
200 50 50
200 50 50
200 50 50
200 50 50
200 50 50
200 50 50
200 50 50
200 50 50
200 50 50
200 50 50
200 50 50
200 50 50
200 50 50
200 50 50
200 50 50
200 50 50
200 50 50
200 50 50
200 50 50
200 50 50
200 50 50
200 50 50
200 50 50
200 50 50
200 50 50
200 50 50
200 50 50
200 50 50
200 50 50
255 255 255
255 255 255
255 255 255
255 255 255
255 255 255
255 255 255
255 255 255
255 255 255
255 255 255
255 255 255
255 255 255
255 255 255
255 255 255
255 255 255
255 255 255
255 255 255
255 255 255
255 255 255
255 255 255
255 255 255
255 255 255
255 255 255
255 255 255
255 255 255
255 255 255
255 255 255
255 255 255
255 255 255
255 255 255
255 255 255
255 255 255
255 255 255
200 50 50
200 50 50
200 50 50
200 50 50
200 50 50
200 50 50
200 50 50
200 50 50
200 50 50
200 50 50
200 50 50
200 50 50
200 50 50
200 50 50
200 50 50
200 50 50
200 50 50
200 50 50
200 50 50
200 50 50
200 50 50
200 50 50
200 50 50
200 50 50
200 50 50
200 50 50
200 50 50
200 50 50
200 50 50
200 50 50
200 50 50
200 50 50
255 255 255
255 255 255
255 255 255
255 255 255
255 255 255
255 255 255
255 255 255
255 255 255
255 255 255
255 255 255
255 255 255
255 255 255
255 255 255
255 255 255
255 255 255
255 255 255
255 255 255
255 255 255
255 255 255
255 255 255
255 255 255
255 255 255
255 255 255
255 255 255
255 255 255
255 255 255
255 255 255
255 255 255
255 255 255
255 255 255
255 255 255
255 255 255
200 50 50
200 50 50
200 50 50
200 50 50
200 50 50
200 50 50
200 50 50
200 50 50
200 50 50
200 50 50
200 50 50
200 50 50
200 50 50
200 50 50
200 50 50
200 50 50
200 50 50
200 50 50
200 50 50
200 50 50
200 50 50
200 50 50
200 50 50
200 50 50
200 50 50
200 50 50
200 50 50
200 50 50
200 50 50
200 50 50
200 50 50
200 50 50
255 255 255
255 255 255
255 255 255
255 255 255
255 255 255
255 255 255
255 255 255
255 255 255
255 255 255
255 255 255
255 255 255
255 255 255
255 255 255
255 255 255
255 255 255
255 255 255
255 255 255
255 255 255
255 255 255
255 255 255
255 255 255
255 255 255
255 255 255
255 255 255
255 255 255
255 255 255
255 255 255
255 255 255
255 255 255
255 255 255
255 255 255
255 255 255
200 50 50
200 50 50
200 50 50
200 50 50
200 50 50
200 50 50
200 50 50
200 50 50
200 50 50
200 50 50
200 50 50
200 50 50
200 50 50
200 50 50
200 50 50
200 50 50
200 50 50
200 50 50
200 50 50
200 50 50
200 50 50
200 50 50
200 50 50
200 50 50
200 50 50
200 50 50
200 50 50
200 50 50
200 50 50
200 50 50
200 50 50
200 50 50
255 255 255
255 255 255
255 255 255
255 255 255
255 255 255
255 255 255
255 255 255
255 255 255
255 255 255
255 255 255
255 255 255
255 255 255
255 255 255
255 255 255
255 255 255
255 255 255
255 255 255
255 255 255
255 255 255
255 255 255
255 255 255
255 255 255
255 255 255
255 255 255
255 255 255
255 255 255
255 255 255
255 255 255
255 255 255
255 255 255
255 255 255
255 255 255
200 50 50
200 50 50
200 50 50
200 50 50
200 50 50
200 50 50
200 50 50
200 50 50
200 50 50
200 50 50
200 50 50
200 50 50
200 50 50
200 50 50
200 50 50
200 50 50
200 50 50
200 50 50
200 50 50
200 50 50
200 50 50
200 50 50
200 50 50
200 50 50
200 50 50
200 50 50
200 50 50
200 50 50
200 50 50
200 50 50
200 50 50
200 50 50
255 255 255
255 255 255
255 255 255
255 255 255
255 255 255
255 255 255
255 255 255
255 255 255
255 255 255
255 255 255
255 255 255
255 255 255
255 255 255
255 255 255
255 255 255
255 255 255
255 255 255
255 255 255
255 255 255
255 255 255
255 255 255
255 255 255
255 255 255
255 255 255
255 255 255
255 255 255
255 255 255
255 255 255
255 255 255
255 255 255
255 255 255
255 255 255
200 50 50
200 50 50
200 50 50
200 50 50
200 50 50
200 50 50
200 50 50
200 50 50
200 50 50
200 50 50
200 50 50
200 50 50
200 50 50
200 50 50
200 50 50
200 50 50
200 50 50
200 50 50
200 50 50
200 50 50
200 50 50
200 50 50
200 50 50
200 50 50
200 50 50
200 50 50
200 50 50
200 50 50
200 50 50
200 50 50
200 50 50
200 50 50
255 255 255
255 255 255
255 255 255
255 255 255
255 255 255
255 255 255
255 255 255
255 255 255
255 255 255
255 255 255
255 255 255
255 255 255
255 255 255
255 255 255
255 255 255
255 255 255
255 255 255
255 255 255
255 255 255
255 255 255
255 255 255
255 255 255
255 255 255
255 255 255
255 255 255
255 255 255
255 255 255
255 255 255
255 255 255
255 255 255
255 255 255
255 255 255
200 50 50
200 50 50
200 50 50
200 50 50
200 50 50
200 50 50
200 50 50
200 50 50
200 50 50
200 50 50
200 50 50
200 50 50
200 50 50
200 50 50
200 50 50
200 50 50
200 50 50
200 50 50
200 50 50
200 50 50
200 50 50
200 50 50
200 50 50
200 50 50
200 50 50
200 50 50
200 50 50
200 50 50
200 50 50
200 50 50
200 50 50
200 50 50
255 255 255
255 255 255
255 255 255
255 255 255
255 255 255
255 255 255
255 255 255
255 255 255
255 255 255
255 255 255
255 255 255
255 255 255
255 255 255
255 255 255
255 255 255
255 255 255
255 255 255
255 255 255
255 255 255
255 255 255
255 255 255
255 255 255
255 255 255
255 255 255
255 255 255
255 255 255
255 255 255
255 255 255
255 255 255
255 255 255
255 255 255
255 255 255
200 50 50
200 50 50
200 50 50
200 50 50
200 50 50
200 50 50
200 50 50
200 50 50
200 50 50
200 50 50
200 50 50
200 50 50
200 50 50
200 50 50
200 50 50
200 50 50
200 50 50
200 50 50
200 50 50
200 50 50
200 50 50
200 50 50
200 50 50
200 50 50
200 50 50
200 50 50
200 50 50
200 50 50
200 50 50
200 50 50
200 50 50
200 50 50
255 255 255
255 255 255
255 255 255
255 255 255
255 255 255
255 255 255
255 255 255
255 255 255
255 255 255
255 255 255
255 255 255
255 255 255
255 255 255
255 255 255
255 255 255
255 255 255
255 255 255
255 255 255
255 255 255
255 255 255
255 255 255
255 255 255
255 255 255
255 255 255
255 255 255
255 255 255
255 255 255
255 255 255
255 255 255
255 255 255
255 255 255
255 255 255
200 50 50
200 50 50
200 50 50
200 50 50
200 50 50
200 50 50
200 50 50
200 50 50
200 50 50
200 50 50
200 50 50
200 50 50
200 50 50
200 50 50
200 50 50
200 50 50
200 50 50
200 50 50
200 50 50
200 50 50
200 50 50
200 50 50
200 50 50
200 50 50
200 50 50
200 50 50
200 50 50
200 50 50
200 50 50
200 50 50
200 50 50
200 50 50
255 255 255
255 255 255
255 255 255
255 255 255
255 255 255
255 255 255
255 255 255
255 255 255
255 255 255
255 255 255
255 255 255
255 255 255
255 255 255
255 255 255
255 255 255
255 255 255
255 255 255
255 255 255
255 255 255
255 255 255
255 255 255
255 255 255
255 255 255
255 255 255
255 255 255
255 255 255
255 255 255
255 255 255
255 255 255
255 255 255
255 255 255
255 255 255
200 50 50
200 50 50
200 50 50
200 50 50
200 50 50
200 50 50
200 50 50
200 50 50
200 50 50
200 50 50
200 50 50
200 50 50
200 50 50
200 50 50
200 50 50
200 50 50
200 50 50
200 50 50
200 50 50
200 50 50
200 50 50
200 50 50
200 50 50
200 50 50
200 50 50
200 50 50
200 50 50
200 50 50
200 50 50
200 50 50
200 50 50
200 50 50
255 255 255
255 255 255
255 255 255
255 255 255
255 255 255
255 255 255
255 255 255
255 255 255
255 255 255
255 255 255
255 255 255
255 255 255
255 255 255
255 255 255
255 255 255
255 255 255
255 255 255
255 255 255
255 255 255
255 255 255
255 255 255
255 255 255
255 255 255
255 255 255
255 255 255
255 255 255
255 255 255
255 255 255
255 255 255
255 255 255
255 255 255
255 255 255
200 50 50
200 50 50
200 50 50
200 50 50
200 50 50
200 50 50
200 50 50
200 50 50
200 50 50
200 50 50
200 50 50
200 50 50
200 50 50
200 50 50
200 50 50
200 50 50
200 50 50
200 50 50
200 50 50
200 50 50
200 50 50
200 50 50
200 50 50
200 50 50
200 50 50
200 50 50
200 50 50
200 50 50
200 50 50
200 50 50
200 50 50
200 50 50
255 255 255
255 255 255
255 255 255
255 255 255
255 255 255
255 255 255
255 255 255
255 255 255
255 255 255
255 255 255
255 255 255
255 255 255
255 255 255
255 255 255
255 255 255
255 255 255
255 255 255
255 255 255
255 255 255
255 255 255
255 255 255
255 255 255
255 255 255
255 255 255
255 255 255
255 255 255
255 255 255
255 255 255
255 255 255
255 255 255
255 255 255
255 255 255
200 50 50
200 50 50
200 50 50
200 50 50
200 50 50
200 50 50
200 50 50
200 50 50
200 50 50
200 50 50
200 50 50
200 50 50
200 50 50
200 50 50
200 50 50
200 50 50
200 50 50
200 50 50
200 50 50
200 50 50
200 50 50
200 50 50
200 50 50
200 50 50
200 50 50
200 50 50
200 50 50
200 50 50
200 50 50
200 50 50
200 50 50
200 50 50
255 255 255
255 255 255
255 255 255
255 255 255
255 255 255
255 255 255
255 255 255
255 255 255
255 255 255
255 255 255
255 255 255
255 255 255
255 255 255
255 255 255
255 255 255
255 255 255
255 255 255
255 255 255
255 255 255
255 255 255
255 255 255
255 255 255
255 255 255
255 255 255
255 255 255
255 255 255
255 255 255
255 255 255
255 255 255
255 255 255
255 255 255
255 255 255
200 50 50
200 50 50
200 50 50
200 50 50
200 50 50
200 50 50
200 50 50
200 50 50
200 50 50
200 50 50
200 50 50
200 50 50
200 50 50
200 50 50
200 50 50
200 50 50
200 50 50
200 50 50
200 50 50
200 50 50
200 50 50
200 50 50
200 50 50
200 50 50
200 50 50
200 50 50
200 50 50
200 50 50
200 50 50
200 50 50
200 50 50
200 50 50
255 255 255
255 255 255
255 255 255
255 255 255
255 255 255
255 255 255
255 255 255
255 255 255
255 255 255
255 255 255
255 255 255
255 255 255
255 255 255
255 255 255
255 255 255
255 255 255
255 255 255
255 255 255
255 255 255
255 255 255
255 255 255
255 255 255
255 255 255
255 255 255
255 255 255
255 255 255
255 255 255
255 255 255
255 255 255
255 255 255
255 255 255
255 255 255
200 50 50
200 50 50
200 50 50
200 50 50
200 50 50
200 50 50
200 50 50
200 50 50
200 50 50
200 50 50
200 50 50
200 50 50
200 50 50
200 50 50
200 50 50
200 50 50
200 50 50
200 50 50
200 50 50
200 50 50
200 50 50
200 50 50
200 50 50
200 50 50
200 50 50
200 50 50
200 50 50
200 50 50
200 50 50
200 50 50
200 50 50
200 50 50
255 255 255
255 255 255
255 255 255
255 255 255
255 255 255
255 255 255
255 255 255
255 255 255
255 255 255
255 255 255
255 255 255
255 255 255
255 255 255
255 255 255
255 255 255
255 255 255
255 255 255
255 255 255
255 255 255
255 255 255
255 255 255
255 255 255
255 255 255
255 255 255
255 255 255
255 255 255
255 255 255
255 255 255
255 255 255
255 255 255
255 255 255
255 255 255
200 50 50
200 50 50
200 50 50
200 50 50
200 50 50
200 50 50
200 50 50
200 50 50
200 50 50
200 50 50
200 50 50
200 50 50
200 50 50
200 50 50
200 50 50
200 50 50
200 50 50
200 50 50
200 50 50
200 50 50
200 50 50
200 50 50
200 50 50
200 50 50
200 50 50
200 50 50
200 50 50
200 50 50
200 50 50
200 50 50
200 50 50
200 50 50
255 255 255
255 255 255
255 255 255
255 255 255
255 255 255
255 255 255
255 255 255
255 255 255
255 255 255
255 255 255
255 255 255
255 255 255
255 255 255
255 255 255
255 255 255
255 255 255
255 255 255
255 255 255
255 255 255
255 255 255
255 255 255
255 255 255
255 255 255
255 255 255
255 255 255
255 255 255
255 255 255
255 255 255
255 255 255
255 255 255
255 255 255
255 255 255
200 50 50
200 50 50
200 50 50
200 50 50
200 50 50
200 50 50
200 50 50
200 50 50
200 50 50
200 50 50
200 50 50
200 50 50
200 50 50
200 50 50
200 50 50
200 50 50
200 50 50
200 50 50
200 50 50
200 50 50
200 50 50
200 50 50
200 50 50
200 50 50
200 50 50
200 50 50
200 50 50
200 50 50
200 50 50
200 50 50
200 50 50
200 50 50
255 255 255
255 255 255
255 255 255
255 255 255
255 255 255
255 255 255
255 255 255
255 255 255
255 255 255
255 255 255
255 255 255
255 255 255
255 255 255
255 255 255
255 255 255
255 255 255
255 255 255
255 255 255
255 255 255
255 255 255
255 255 255
255 255 255
255 255 255
255 255 255
255 255 255
255 255 255
255 255 255
255 255 255
255 255 255
255 255 255
255 255 255
255 255 255
200 50 50
200 50 50
200 50 50
200 50 50
200 50 50
200 50 50
200 50 50
200 50 50
200 50 50
200 50 50
200 50 50
200 50 50
200 50 50
200 50 50
200 50 50
200 50 50
200 50 50
200 50 50
200 50 50
200 50 50
200 50 50
200 50 50
200 50 50
200 50 50
200 50 50
200 50 50
200 50 50
200 50 50
200 50 50
200 50 50
200 50 50
200 50 50
255 255 255
255 255 255
255 255 255
255 255 255
255 255 255
255 255 255
255 255 255
255 255 255
255 255 255
255 255 255
255 255 255
255 255 255
255 255 255
255 255 255
255 255 255
255 255 255
255 255 255
255 255 255
255 255 255
255 255 255
255 255 255
255 255 255
255 255 255
255 255 255
255 255 255
255 255 255
255 255 255
255 255 255
255 255 255
255 255 255
255 255 255
255 255 255
200 50 50
200 50 50
200 50 50
200 50 50
200 50 50
200 50 50
200 50 50
200 50 50
200 50 50
200 50 50
200 50 50
200 50 50
200 50 50
200 50 50
200 50 50
200 50 50
200 50 50
200 50 50
200 50 50
200 50 50
200 50 50
200 50 50
200 50 50
200 50 50
200 50 50
200 50 50
200 50 50
200 50 50
200 50 50
200 50 50
200 50 50
200 50 50
255 255 255
255 255 255
255 255 255
255 255 255
255 255 255
255 255 255
255 255 255
255 255 255
255 255 255
255 255 255
255 255 255
255 255 255
255 255 255
255 255 255
255 255 255
255 255 255
255 255 255
255 255 255
255 255 255
255 255 255
255 255 255
255 255 255
255 255 255
255 255 255
255 255 255
255 255 255
255 255 255
255 255 255
255 255 255
255 255 255
255 255 255
255 255 255
200 50 50
200 50 50
200 50 50
200 50 50
200 50 50
200 50 50
200 50 50
200 50 50
200 50 50
200 50 50
200 50 50
200 50 50
200 50 50
200 50 50
200 50 50
200 50 50
200 50 50
200 50 50
200 50 50
200 50 50
200 50 50
200 50 50
200 50 50
200 50 50
200 50 50
200 50 50
200 50 50
200 50 50
200 50 50
200 50 50
200 50 50
200 50 50
255 255 255
255 255 255
255 255 255
255 255 255
255 255 255
255 255 255
255 255 255
255 255 255
255 255 255
255 255 255
255 255 255
255 255 255
255 255 255
255 255 255
255 255 255
255 255 255
255 255 255
255 255 255
255 255 255
255 255 255
255 255 255
255 255 255
255 255 255
255 255 255
255 255 255
255 255 255
255 255 255
255 255 255
255 255 255
255 255 255
255 255 255
255 255 255
200 50 50
200 50 50
200 50 50
200 50 50
200 50 50
200 50 50
200 50 50
200 50 50
200 50 50
200 50 50
200 50 50
200 50 50
200 50 50
200 50 50
200 50 50
200 50 50
200 50 50
200 50 50
200 50 50
200 50 50
200 50 50
200 50 50
200 50 50
200 50 50
200 50 50
200 50 50
200 50 50
200 50 50
200 50 50
200 50 50
200 50 50
200 50 50
255 255 255
255 255 255
255 255 255
255 255 255
255 255 255
255 255 255
255 255 255
255 255 255
255 255 255
255 255 255
255 255 255
255 255 255
255 255 255
255 255 255
255 255 255
255 255 255
255 255 255
255 255 255
255 255 255
255 255 255
255 255 255
255 255 255
255 255 255
255 255 255
255 255 255
255 255 255
255 255 255
255 255 255
255 255 255
255 255 255
255 255 255
255 255 255
200 50 50
200 50 50
200 50 50
200 50 50
200 50 50
200 50 50
200 50 50
200 50 50
200 50 50
200 50 50
200 50 50
200 50 50
200 50 50
200 50 50
200 50 50
200 50 50
200 50 50
200 50 50
200 50 50
200 50 50
200 50 50
200 50 50
200 50 50
200 50 50
200 50 50
200 50 50
200 50 50
200 50 50
200 50 50
200 50 50
200 50 50
200 50 50
255 255 255
255 255 255
255 255 255
255 255 255
255 255 255
255 255 255
255 255 255
255 255 255
255 255 255
255 255 255
255 255 255
255 255 255
255 255 255
255 255 255
255 255 255
255 255 255
255 255 255
255 255 255
255 255 255
255 255 255
255 255 255
255 255 255
255 255 255
255 255 255
255 255 255
255 255 255
255 255 255
255 255 255
255 255 255
255 255 255
255 255 255
255 255 255
200 50 50
200 50 50
200 50 50
200 50 50
200 50 50
200 50 50
200 50 50
200 50 50
200 50 50
200 50 50
200 50 50
200 50 50
200 50 50
200 50 50
200 50 50
200 50 50
200 50 50
200 50 50
200 50 50
200 50 50
200 50 50
200 50 50
200 50 50
200 50 50
200 50 50
200 50 50
200 50 50
200 50 50
200 50 50
200 50 50
200 50 50
200 50 50
255 255 255
255 255 255
255 255 255
255 255 255
255 255 255
255 255 255
255 255 255
255 255 255
255 255 255
255 255 255
255 255 255
255 255 255
255 255 255
255 255 255
255 255 255
255 255 255
255 255 255
255 255 255
255 255 255
255 255 255
255 255 255
255 255 255
255 255 255
255 255 255
255 255 255
255 255 255
255 255 255
255 255 255
255 255 255
255 255 255
255 255 255
255 255 255
200 50 50
200 50 50
200 50 50
200 50 50
200 50 50
200 50 50
200 50 50
200 50 50
200 50 50
200 50 50
200 50 50
200 50 50
200 50 50
200 50 50
200 50 50
200 50 50
200 50 50
200 50 50
200 50 50
200 50 50
200 50 50
200 50 50
200 50 50
200 50 50
200 50 50
200 50 50
200 50 50
200 50 50
200 50 50
200 50 50
200 50 50
200 50 50
255 255 255
255 255 255
255 255 255
255 255 255
255 255 255
255 255 255
255 255 255
255 255 255
255 255 255
255 255 255
255 255 255
255 255 255
255 255 255
255 255 255
255 255 255
255 255 255
255 255 255
255 255 255
255 255 255
255 255 255
255 255 255
255 255 255
255 255 255
255 255 255
255 255 255
255 255 255
255 255 255
255 255 255
255 255 255
255 255 255
255 255 255
255 255 255
200 50 50
200 50 50
200 50 50
200 50 50
200 50 50
200 50 50
200 50 50
200 50 50
200 50 50
200 50 50
200 50 50
200 50 50
200 50 50
200 50 50
200 50 50
200 50 50
200 50 50
200 50 50
200 50 50
200 50 50
200 50 50
200 50 50
200 50 50
200 50 50
200 50 50
200 50 50
200 50 50
200 50 50
200 50 50
200 50 50
200 50 50
200 50 50
255 255 255
255 255 255
255 255 255
255 255 255
255 255 255
255 255 255
255 255 255
255 255 255
255 255 255
255 255 255
255 255 255
255 255 255
255 255 255
255 255 255
255 255 255
255 255 255
255 255 255
255 255 255
255 255 255
255 255 255
255 255 255
255 255 255
255 255 255
255 255 255
255 255 255
255 255 255
255 255 255
255 255 255
255 255 255
255 255 255
255 255 255
255 255 255
200 50 50
200 50 50
200 50 50
200 50 50
200 50 50
200 50 50
200 50 50
200 50 50
200 50 50
200 50 50
200 50 50
200 50 50
200 50 50
200 50 50
200 50 50
200 50 50
200 50 50
200 50 50
200 50 50
200 50 50
200 50 50
200 50 50
200 50 50
200 50 50
200 50 50
200 50 50
200 50 50
200 50 50
200 50 50
200 50 50
200 50 50
200 50 50
255 255 255
255 255 255
255 255 255
255 255 255
255 255 255
255 255 255
255 255 255
255 255 255
255 255 255
255 255 255
255 255 255
255 255 255
255 255 255
255 255 255
255 255 255
255 255 255
255 255 255
255 255 255
255 255 255
255 255 255
255 255 255
255 255 255
255 255 255
255 255 255
255 255 255
255 255 255
255 255 255
255 255 255
255 255 255
255 255 255
255 255 255
255 255 255
200 50 50
200 50 50
200 50 50
200 50 50
200 50 50
200 50 50
200 50 50
200 50 50
200 50 50
200 50 50
200 50 50
200 50 50
200 50 50
200 50 50
200 50 50
200 50 50
200 50 50
200 50 50
200 50 50
200 50 50
200 50 50
200 50 50
200 50 50
200 50 50
200 50 50
200 50 50
200 50 50
200 50 50
200 50 50
200 50 50
200 50 50
200 50 50
255 255 255
255 255 255
255 255 255
255 255 255
255 255 255
255 255 255
255 255 255
255 255 255
255 255 255
255 255 255
255 255 255
255 255 255
255 255 255
255 255 255
255 255 255
255 255 255
255 255 255
255 255 255
255 255 255
255 255 255
255 255 255
255 255 255
255 255 255
255 255 255
255 255 255
255 255 255
255 255 255
255 255 255
255 255 255
255 255 255
255 255 255
255 255 255
200 50 50
200 50 50
200 50 50
200 50 50
200 50 50
200 50 50
200 50 50
200 50 50
200 50 50
200 50 50
200 50 50
200 50 50
200 50 50
200 50 50
200 50 50
200 50 50
200 50 50
200 50 50
200 50 50
200 50 50
200 50 50
200 50 50
200 50 50
200 50 50
200 50 50
200 50 50
200 50 50
200 50 50
200 50 50
200 50 50
200 50 50
200 50 50
255 255 255
255 255 255
255 255 255
255 255 255
255 255 255
255 255 255
255 255 255
255 255 255
255 255 255
255 255 255
255 255 255
255 255 255
255 255 255
255 255 255
255 255 255
255 255 255
255 255 255
255 255 255
255 255 255
255 255 255
255 255 255
255 255 255
255 255 255
255 255 255
255 255 255
255 255 255
255 255 255
255 255 255
255 255 255
255 255 255
255 255 255
255 255 255
200 50 50
200 50 50
200 50 50
200 50 50
200 50 50
200 50 50
200 50 50
200 50 50
200 50 50
200 50 50
200 50 50
200 50 50
200 50 50
200 50 50
200 50 50
200 50 50
200 50 50
200 50 50
200 50 50
200 50 50
200 50 50
200 50 50
200 50 50
200 50 50
200 50 50
200 50 50
200 50 50
200 50 50
200 50 50
200 50 50
200 50 50
200 50 50
255 255 255
255 255 255
255 255 255
255 255 255
255 255 255
255 255 255
255 255 255
255 255 255
255 255 255
255 255 255
255 255 255
255 255 255
255 255 255
255 255 255
255 255 255
255 255 255
255 255 255
255 255 255
255 255 255
255 255 255
255 255 255
255 255 255
255 255 255
255 255 255
255 255 255
255 255 255
255 255 255
255 255 255
255 255 255
255 255 255
255 255 255
255 255 255
200 50 50
200 50 50
200 50 50
200 50 50
200 50 50
200 50 50
200 50 50
200 50 50
200 50 50
200 50 50
200 50 50
200 50 50
200 50 50
200 50 50
200 50 50
200 50 50
200 50 50
200 50 50
200 50 50
200 50 50
200 50 50
200 50 50
200 50 50
200 50 50
200 50 50
200 50 50
200 50 50
200 50 50
200 50 50
200 50 50
200 50 50
200 50 50
255 255 255
255 255 255
255 255 255
255 255 255
255 255 255
255 255 255
255 255 255
255 255 255
255 255 255
255 255 255
255 255 255
255 255 255
255 255 255
255 255 255
255 255 255
255 255 255
255 255 255
255 255 255
255 255 255
255 255 255
255 255 255
255 255 255
255 255 255
255 255 255
255 255 255
255 255 255
255 255 255
255 255 255
255 255 255
255 255 255
255 255 255
255 255 255
200 50 50
200 50 50
200 50 50
200 50 50
200 50 50
200 50 50
200 50 50
200 50 50
200 50 50
200 50 50
200 50 50
200 50 50
200 50 50
200 50 50
200 50 50
200 50 50
200 50 50
200 50 50
200 50 50
200 50 50
200 50 50
200 50 50
200 50 50
200 50 50
200 50 50
200 50 50
200 50 50
200 50 50
200 50 50
200 50 50
200 50 50
200 50 50
255 255 255
255 255 255
255 255 255
255 255 255
255 255 255
255 255 255
255 255 255
255 255 255
255 255 255
255 255 255
255 255 255
255 255 255
255 255 255
255 255 255
255 255 255
255 255 255
255 255 255
255 255 255
255 255 255
255 255 255
255 255 255
255 255 255
255 255 255
255 255 255
255 255 255
255 255 255
255 255 255
255 255 255
255 255 255
255 255 255
255 255 255
255 255 255
200 50 50
200 50 50
200 50 50
200 50 50
200 50 50
200 50 50
200 50 50
200 50 50
200 50 50
200 50 50
200 50 50
200 50 50
200 50 50
200 50 50
200 50 50
200 50 50
200 50 50
200 50 50
200 50 50
200 50 50
200 50 50
200 50 50
200 50 50
200 50 50
200 50 50
200 50 50
200 50 50
200 50 50
200 50 50
200 50 50
200 50 50
200 50 50
255 255 255
255 255 255
255 255 255
255 255 255
255 255 255
255 255 255
255 255 255
255 255 255
255 255 255
255 255 255
255 255 255
255 255 255
255 255 255
255 255 255
255 255 255
255 255 255
255 255 255
255 255 255
255 255 255
255 255 255
255 255 255
255 255 255
255 255 255
255 255 255
255 255 255
255 255 255
255 255 255
255 255 255
255 255 255
255 255 255
255 255 255
255 255 255
200 50 50
200 50 50
200 50 50
200 50 50
200 50 50
200 50 50
200 50 50
200 50 50
200 50 50
200 50 50
200 50 50
200 50 50
200 50 50
200 50 50
200 50 50
200 50 50
200 50 50
200 50 50
200 50 50
200 50 50
200 50 50
200 50 50
200 50 50
200 50 50
200 50 50
200 50 50
200 50 50
200 50 50
200 50 50
200 50 50
200 50 50
200 50 50
255 255 255
255 255 255
255 255 255
255 255 255
255 255 255
255 255 255
255 255 255
255 255 255
255 255 255
255 255 255
255 255 255
255 255 255
255 255 255
255 255 255
255 255 255
255 255 255
255 255 255
255 255 255
255 255 255
255 255 255
255 255 255
255 255 255
255 255 255
255 255 255
255 255 255
255 255 255
255 255 255
255 255 255
255 255 255
255 255 255
255 255 255
255 255 255
200 50 50
200 50 50
200 50 50
200 50 50
200 50 50
200 50 50
200 50 50
200 50 50
200 50 50
200 50 50
200 50 50
200 50 50
200 50 50
200 50 50
200 50 50
200 50 50
200 50 50
200 50 50
200 50 50
200 50 50
200 50 50
200 50 50
200 50 50
200 50 50
200 50 50
200 50 50
200 50 50
200 50 50
200 50 50
200 50 50
200 50 50
200 50 50
255 255 255
255 255 255
255 255 255
255 255 255
255 255 255
255 255 255
255 255 255
255 255 255
255 255 255
255 255 255
255 255 255
255 255 255
255 255 255
255 255 255
255 255 255
255 255 255
255 255 255
255 255 255
255 255 255
255 255 255
255 255 255
255 255 255
255 255 255
255 255 255
255 255 255
255 255 255
255 255 255
255 255 255
255 255 255
255 255 255
255 255 255
255 255 255
200 50 50
200 50 50
200 50 50
200 50 50
200 50 50
200 50 50
200 50 50
200 50 50
200 50 50
200 50 50
200 50 50
200 50 50
200 50 50
200 50 50
200 50 50
200 50 50
200 50 50
200 50 50
200 50 50
200 50 50
200 50 50
200 50 50
200 50 50
200 50 50
200 50 50
200 50 50
200 50 50
200 50 50
200 50 50
200 50 50
200 50 50
200 50 50
255 255 255
255 255 255
255 255 255
255 255 255
255 255 255
255 255 255
255 255 255
255 255 255
255 255 255
255 255 255
255 255 255
255 255 255
255 255 255
255 255 255
255 255 255
255 255 255
255 255 255
255 255 255
255 255 255
255 255 255
255 255 255
255 255 255
255 255 255
255 255 255
255 255 255
255 255 255
255 255 255
255 255 255
255 255 255
255 255 255
255 255 255
255 255 255
200 50 50
200 50 50
200 50 50
200 50 50
200 50 50
200 50 50
200 50 50
200 50 50
200 50 50
200 50 50
200 50 50
200 50 50
200 50 50
200 50 50
200 50 50
200 50 50
200 50 50
200 50 50
200 50 50
200 50 50
200 50 50
200 50 50
200 50 50
200 50 50
200 50 50
200 50 50
200 50 50
200 50 50
200 50 50
200 50 50
200 50 50
200 50 50
255 255 255
255 255 255
255 255 255
255 255 255
255 255 255
255 255 255
255 255 255
255 255 255
255 255 255
255 255 255
255 255 255
255 255 255
255 255 255
255 255 255
255 255 255
255 255 255
255 255 255
255 255 255
255 255 255
255 255 255
255 255 255
255 255 255
255 255 255
255 255 255
255 255 255
255 255 255
255 255 255
255 255 255
255 255 255
255 255 255
255 255 255
255 255 255
200 50 50
200 50 50
200 50 50
200 50 50
200 50 50
200 50 50
200 50 50
200 50 50
200 50 50
200 50 50
200 50 50
200 50 50
200 50 50
200 50 50
200 50 50
200 50 50
200 50 50
200 50 50
200 50 50
200 50 50
200 50 50
200 50 50
200 50 50
200 50 50
200 50 50
200 50 50
200 50 50
200 50 50
200 50 50
200 50 50
200 50 50
200 50 50
255 255 255
255 255 255
255 255 255
255 255 255
255 255 255
255 255 255
255 255 255
255 255 255
255 255 255
255 255 255
255 255 255
255 255 255
255 255 255
255 255 255
255 255 255
255 255 255
255 255 255
255 255 255
255 255 255
255 255 255
255 255 255
255 255 255
255 255 255
255 255 255
255 255 255
255 255 255
255 255 255
255 255 255
255 255 255
255 255 255
255 255 255
255 255 255
200 50 50
200 50 50
200 50 50
200 50 50
200 50 50
200 50 50
200 50 50
200 50 50
200 50 50
200 50 50
200 50 50
200 50 50
200 50 50
200 50 50
200 50 50
200 50 50
200 50 50
200 50 50
200 50 50
200 50 50
200 50 50
200 50 50
200 50 50
200 50 50
200 50 50
200 50 50
200 50 50
200 50 50
200 50 50
200 50 50
200 50 50
200 50 50
255 255 255
255 255 255
255 255 255
255 255 255
255 255 255
255 255 255
255 255 255
255 255 255
255 255 255
255 255 255
255 255 255
255 255 255
255 255 255
255 255 255
255 255 255
255 255 255
255 255 255
255 255 255
255 255 255
255 255 255
255 255 255
255 255 255
255 255 255
255 255 255
255 255 255
255 255 255
255 255 255
255 255 255
255 255 255
255 255 255
255 255 255
255 255 255
200 50 50
200 50 50
200 50 50
200 50 50
200 50 50
200 50 50
200 50 50
200 50 50
200 50 50
200 50 50
200 50 50
200 50 50
200 50 50
200 50 50
200 50 50
200 50 50
200 50 50
200 50 50
200 50 50
200 50 50
200 50 50
200 50 50
200 50 50
200 50 50
200 50 50
200 50 50
200 50 50
200 50 50
200 50 50
200 50 50
200 50 50
200 50 50
255 255 255
255 255 255
255 255 255
255 255 255
255 255 255
255 255 255
255 255 255
255 255 255
255 255 255
255 255 255
255 255 255
255 255 255
255 255 255
255 255 255
255 255 255
255 255 255
255 255 255
255 255 255
255 255 255
255 255 255
255 255 255
255 255 255
255 255 255
255 255 255
255 255 255
255 255 255
255 255 255
255 255 255
255 255 255
255 255 255
255 255 255
255 255 255
200 50 50
200 50 50
200 50 50
200 50 50
200 50 50
200 50 50
200 50 50
200 50 50
200 50 50
200 50 50
200 50 50
200 50 50
200 50 50
200 50 50
200 50 50
200 50 50
200 50 50
200 50 50
200 50 50
200 50 50
200 50 50
200 50 50
200 50 50
200 50 50
200 50 50
200 50 50
200 50 50
200 50 50
200 50 50
200 50 50
200 50 50
200 50 50
255 255 255
255 255 255
255 255 255
255 255 255
255 255 255
255 255 255
255 255 255
255 255 255
255 255 255
255 255 255
255 255 255
255 255 255
255 255 255
255 255 255
255 255 255
255 255 255
255 255 255
255 255 255
255 255 255
255 255 255
255 255 255
255 255 255
255 255 255
255 255 255
255 255 255
255 255 255
255 255 255
255 255 255
255 255 255
255 255 255
255 255 255
255 255 255
200 50 50
200 50 50
200 50 50
200 50 50
200 50 50
200 50 50
200 50 50
200 50 50
200 50 50
200 50 50
200 50 50
200 50 50
200 50 50
200 50 50
200 50 50
200 50 50
200 50 50
200 50 50
200 50 50
200 50 50
200 50 50
200 50 50
200 50 50
200 50 50
200 50 50
200 50 50
200 50 50
200 50 50
200 50 50
200 50 50
200 50 50
200 50 50
255 255 255
255 255 255
255 255 255
255 255 255
255 255 255
255 255 255
255 255 255
255 255 255
255 255 255
255 255 255
255 255 255
255 255 255
255 255 255
255 255 255
255 255 255
255 255 255
255 255 255
255 255 255
255 255 255
255 255 255
255 255 255
255 255 255
255 255 255
255 255 255
255 255 255
255 255 255
255 255 255
255 255 255
255 255 255
255 255 255
255 255 255
255 255 255
200 50 50
200 50 50
200 50 50
200 50 50
200 50 50
200 50 50
200 50 50
200 50 50
200 50 50
200 50 50
200 50 50
200 50 50
200 50 50
200 50 50
200 50 50
200 50 50
200 50 50
200 50 50
200 50 50
200 50 50
200 50 50
200 50 50
200 50 50
200 50 50
200 50 50
200 50 50
200 50 50
200 50 50
200 50 50
200 50 50
200 50 50
200 50 50
255 255 255
255 255 255
255 255 255
255 255 255
255 255 255
255 255 255
255 255 255
255 255 255
255 255 255
255 255 255
255 255 255
255 255 255
255 255 255
255 255 255
255 255 255
255 255 255
255 255 255
255 255 255
255 255 255
255 255 255
255 255 255
255 255 255
255 255 255
255 255 255
255 255 255
255 255 255
255 255 255
255 255 255
255 255 255
255 255 255
255 255 255
255 255 255
200 50 50
200 50 50
200 50 50
200 50 50
200 50 50
200 50 50
200 50 50
200 50 50
200 50 50
200 50 50
200 50 50
200 50 50
200 50 50
200 50 50
200 50 50
200 50 50
200 50 50
200 50 50
200 50 50
200 50 50
200 50 50
200 50 50
200 50 50
200 50 50
200 50 50
200 50 50
200 50 50
200 50 50
200 50 50
200 50 50
200 50 50
200 50 50
255 255 255
255 255 255
255 255 255
255 255 255
255 255 255
255 255 255
255 255 255
255 255 255
255 255 255
255 255 255
255 255 255
255 255 255
255 255 255
255 255 255
255 255 255
255 255 255
255 255 255
255 255 255
255 255 255
255 255 255
255 255 255
255 255 255
255 255 255
255 255 255
255 255 255
255 255 255
255 255 255
255 255 255
255 255 255
255 255 255
255 255 255
255 255 255
200 50 50
200 50 50
200 50 50
200 50 50
200 50 50
200 50 50
200 50 50
200 50 50
200 50 50
200 50 50
200 50 50
200 50 50
200 50 50
200 50 50
200 50 50
200 50 50
200 50 50
200 50 50
200 50 50
200 50 50
200 50 50
200 50 50
200 50 50
200 50 50
200 50 50
200 50 50
200 50 50
200 50 50
200 50 50
200 50 50
200 50 50
200 50 50
255 255 255
255 255 255
255 255 255
255 255 255
255 255 255
255 255 255
255 255 255
255 255 255
255 255 255
255 255 255
255 255 255
255 255 255
255 255 255
255 255 255
255 255 255
255 255 255
255 255 255
255 255 255
255 255 255
255 255 255
255 255 255
255 255 255
255 255 255
255 255 255
255 255 255
255 255 255
255 255 255
255 255 255
255 255 255
255 255 255
255 255 255
255 255 255
200 50 50
200 50 50
200 50 50
200 50 50
200 50 50
200 50 50
200 50 50
200 50 50
200 50 50
200 50 50
200 50 50
200 50 50
200 50 50
200 50 50
200 50 50
200 50 50
200 50 50
200 50 50
200 50 50
200 50 50
200 50 50
200 50 50
200 50 50
200 50 50
200 50 50
200 50 50
200 50 50
200 50 50
200 50 50
200 50 50
200 50 50
200 50 50
255 255 255
255 255 255
255 255 255
255 255 255
255 255 255
255 255 255
255 255 255
255 255 255
255 255 255
255 255 255
255 255 255
255 255 255
255 255 255
255 255 255
255 255 255
255 255 255
255 255 255
255 255 255
255 255 255
255 255 255
255 255 255
255 255 255
255 255 255
255 255 255
255 255 255
255 255 255
255 255 255
255 255 255
255 255 255
255 255 255
255 255 255
255 255 255
200 50 50
200 50 50
200 50 50
200 50 50
200 50 50
200 50 50
200 50 50
200 50 50
200 50 50
200 50 50
200 50 50
200 50 50
200 50 50
200 50 50
200 50 50
200 50 50
200 50 50
200 50 50
200 50 50
200 50 50
200 50 50
200 50 50
200 50 50
200 50 50
200 50 50
200 50 50
200 50 50
200 50 50
200 50 50
200 50 50
200 50 50
200 50 50
255 255 255
255 255 255
255 255 255
255 255 255
255 255 255
255 255 255
255 255 255
255 255 255
255 255 255
255 255 255
255 255 255
255 255 255
255 255 255
255 255 255
255 255 255
255 255 255
255 255 255
255 255 255
255 255 255
255 255 255
255 255 255
255 255 255
255 255 255
255 255 255
255 255 255
255 255 255
255 255 255
255 255 255
255 255 255
255 255 255
255 255 255
255 255 255
200 50 50
200 50 50
200 50 50
200 50 50
200 50 50
200 50 50
200 50 50
200 50 50
200 50 50
200 50 50
200 50 50
200 50 50
200 50 50
200 50 50
200 50 50
200 50 50
200 50 50
200 50 50
200 50 50
200 50 50
200 50 50
200 50 50
200 50 50
200 50 50
200 50 50
200 50 50
200 50 50
200 50 50
200 50 50
200 50 50
200 50 50
200 50 50
255 255 255
255 255 255
255 255 255
255 255 255
255 255 255
255 255 255
255 255 255
255 255 255
255 255 255
255 255 255
255 255 255
255 255 255
255 255 255
255 255 255
255 255 255
255 255 255
255 255 255
255 255 255
255 255 255
255 255 255
255 255 255
255 255 255
255 255 255
255 255 255
255 255 255
255 255 255
255 255 255
255 255 255
255 255 255
255 255 255
255 255 255
255 255 255
200 50 50
200 50 50
200 50 50
200 50 50
200 50 50
200 50 50
200 50 50
200 50 50
200 50 50
200 50 50
200 50 50
200 50 50
200 50 50
200 50 50
200 50 50
200 50 50
200 50 50
200 50 50
200 50 50
200 50 50
200 50 50
200 50 50
200 50 50
200 50 50
200 50 50
200 50 50
200 50 50
200 50 50
200 50 50
200 50 50
200 50 50
200 50 50
255 255 255
255 255 255
255 255 255
255 255 255
255 255 255
255 255 255
255 255 255
255 255 255
255 255 255
255 255 255
255 255 255
255 255 255
255 255 255
255 255 255
255 255 255
255 255 255
255 255 255
255 255 255
255 255 255
255 255 255
255 255 255
255 255 255
255 255 255
255 255 255
255 255 255
255 255 255
255 255 255
255 255 255
255 255 255
255 255 255
255 255 255
255 255 255
200 50 50
200 50 50
200 50 50
200 50 50
200 50 50
200 50 50
200 50 50
200 50 50
200 50 50
200 50 50
200 50 50
200 50 50
200 50 50
200 50 50
200 50 50
200 50 50
200 50 50
200 50 50
200 50 50
200 50 50
200 50 50
200 50 50
200 50 50
200 50 50
200 50 50
200 50 50
200 50 50
200 50 50
200 50 50
200 50 50
200 50 50
200 50 50
255 255 255
255 255 255
255 255 255
255 255 255
255 255 255
255 255 255
255 255 255
255 255 255
255 255 255
255 255 255
255 255 255
255 255 255
255 255 255
255 255 255
255 255 255
255 255 255
255 255 255
255 255 255
255 255 255
255 255 255
255 255 255
255 255 255
255 255 255
255 255 255
255 255 255
255 255 255
255 255 255
255 255 255
255 255 255
255 255 255
255 255 255
255 255 255
200 50 50
200 50 50
200 50 50
200 50 50
200 50 50
200 50 50
200 50 50
200 50 50
200 50 50
200 50 50
200 50 50
200 50 50
200 50 50
200 50 50
200 50 50
200 50 50
200 50 50
200 50 50
200 50 50
200 50 50
200 50 50
200 50 50
200 50 50
200 50 50
200 50 50
200 50 50
200 50 50
200 50 50
200 50 50
200 50 50
200 50 50
200 50 50
255 255 255
255 255 255
255 255 255
255 255 255
255 255 255
255 255 255
255 255 255
255 255 255
255 255 255
255 255 255
255 255 255
255 255 255
255 255 255
255 255 255
255 255 255
255 255 255
255 255 255
255 255 255
255 255 255
255 255 255
255 255 255
255 255 255
255 255 255
255 255 255
255 255 255
255 255 255
255 255 255
255 255 255
255 255 255
255 255 255
255 255 255
255 255 255
200 50 50
200 50 50
200 50 50
200 50 50
200 50 50
200 50 50
200 50 50
200 50 50
200 50 50
200 50 50
200 50 50
200 50 50
200 50 50
200 50 50
200 50 50
200 50 50
200 50 50
200 50 50
200 50 50
200 50 50
200 50 50
200 50 50
200 50 50
200 50 50
200 50 50
200 50 50
200 50 50
200 50 50
200 50 50
200 50 50
200 50 50
200 50 50
255 255 255
255 255 255
255 255 255
255 255 255
255 255 255
255 255 255
255 255 255
255 255 255
255 255 255
255 255 255
255 255 255
255 255 255
255 255 255
255 255 255
255 255 255
255 255 255
255 255 255
255 255 255
255 255 255
255 255 255
255 255 255
255 255 255
255 255 255
255 255 255
255 255 255
255 255 255
255 255 255
255 255 255
255 255 255
255 255 255
255 255 255
255 255 255
200 50 50
200 50 50
200 50 50
200 50 50
200 50 50
200 50 50
200 50 50
200 50 50
200 50 50
200 50 50
200 50 50
200 50 50
200 50 50
200 50 50
200 50 50
200 50 50
200 50 50
200 50 50
200 50 50
200 50 50
200 50 50
200 50 50
200 50 50
200 50 50
200 50 50
200 50 50
200 50 50
200 50 50
200 50 50
200 50 50
200 50 50
200 50 50
255 255 255
255 255 255
255 255 255
255 255 255
255 255 255
255 255 255
255 255 255
255 255 255
255 255 255
255 255 255
255 255 255
255 255 255
255 255 255
255 255 255
255 255 255
255 255 255
255 255 255
255 255 255
255 255 255
255 255 255
255 255 255
255 255 255
255 255 255
255 255 255
255 255 255
255 255 255
255 255 255
255 255 255
255 255 255
255 255 255
255 255 255
255 255 255
200 50 50
200 50 50
200 50 50
200 50 50
200 50 50
200 50 50
200 50 50
200 50 50
200 50 50
200 50 50
200 50 50
200 50 50
200 50 50
200 50 50
200 50 50
200 50 50
200 50 50
200 50 50
200 50 50
200 50 50
200 50 50
200 50 50
200 50 50
200 50 50
200 50 50
200 50 50
200 50 50
200 50 50
200 50 50
200 50 50
200 50 50
200 50 50
255 255 255
255 255 255
255 255 255
255 255 255
255 255 255
255 255 255
255 255 255
255 255 255
255 255 255
255 255 255
255 255 255
255 255 255
255 255 255
255 255 255
255 255 255
255 255 255
255 255 255
255 255 255
255 255 255
255 255 255
255 255 255
255 255 255
255 255 255
255 255 255
255 255 255
255 255 255
255 255 255
255 255 255
255 255 255
255 255 255
255 255 255
255 255 255
200 50 50
200 50 50
200 50 50
200 50 50
200 50 50
200 50 50
200 50 50
200 50 50
200 50 50
200 50 50
200 50 50
200 50 50
200 50 50
200 50 50
200 50 50
200 50 50
200 50 50
200 50 50
200 50 50
200 50 50
200 50 50
200 50 50
200 50 50
200 50 50
200 50 50
200 50 50
200 50 50
200 50 50
200 50 50
200 50 50
200 50 50
200 50 50
255 255 255
255 255 255
255 255 255
255 255 255
255 255 255
255 255 255
255 255 255
255 255 255
255 255 255
255 255 255
255 255 255
255 255 255
255 255 255
255 255 255
255 255 255
255 255 255
255 255 255
255 255 255
255 255 255
255 255 255
255 255 255
255 255 255
255 255 255
255 255 255
255 255 255
255 255 255
255 255 255
255 255 255
255 255 255
255 255 255
255 255 255
255 255 255
200 50 50
200 50 50
200 50 50
200 50 50
200 50 50
200 50 50
200 50 50
200 50 50
200 50 50
200 50 50
200 50 50
200 50 50
200 50 50
200 50 50
200 50 50
200 50 50
200 50 50
200 50 50
200 50 50
200 50 50
200 50 50
200 50 50
200 50 50
200 50 50
200 50 50
200 50 50
200 50 50
200 50 50
200 50 50
200 50 50
200 50 50
200 50 50
255 255 255
255 255 255
255 255 255
255 255 255
255 255 255
255 255 255
255 255 255
255 255 255
255 255 255
255 255 255
255 255 255
255 255 255
255 255 255
255 255 255
255 255 255
255 255 255
255 255 255
255 255 255
255 255 255
255 255 255
255 255 255
255 255 255
255 255 255
255 255 255
255 255 255
255 255 255
255 255 255
255 255 255
255 255 255
255 255 255
255 255 255
255 255 255
200 50 50
200 50 50
200 50 50
200 50 50
200 50 50
200 50 50
200 50 50
200 50 50
200 50 50
200 50 50
200 50 50
200 50 50
200 50 50
200 50 50
200 50 50
200 50 50
200 50 50
200 50 50
200 50 50
200 50 50
200 50 50
200 50 50
200 50 50
200 50 50
200 50 50
200 50 50
200 50 50
200 50 50
200 50 50
200 50 50
200 50 50
200 50 50
255 255 255
255 255 255
255 255 255
255 255 255
255 255 255
255 255 255
255 255 255
255 255 255
255 255 255
255 255 255
255 255 255
255 255 255
255 255 255
255 255 255
255 255 255
255 255 255
255 255 255
255 255 255
255 255 255
255 255 255
255 255 255
255 255 255
255 255 255
255 255 255
255 255 255
255 255 255
255 255 255
255 255 255
255 255 255
255 255 255
255 255 255
255 255 255
200 50 50
200 50 50
200 50 50
200 50 50
200 50 50
200 50 50
200 50 50
200 50 50
200 50 50
200 50 50
200 50 50
200 50 50
200 50 50
200 50 50
200 50 50
200 50 50
200 50 50
200 50 50
200 50 50
200 50 50
200 50 50
200 50 50
200 50 50
200 50 50
200 50 50
200 50 50
200 50 50
200 50 50
200 50 50
200 50 50
200 50 50
200 50 50
255 255 255
255 255 255
255 255 255
255 255 255
255 255 255
255 255 255
255 255 255
255 255 255
255 255 255
255 255 255
255 255 255
255 255 255
255 255 255
255 255 255
255 255 255
255 255 255
255 255 255
255 255 255
255 255 255
255 255 255
255 255 255
255 255 255
255 255 255
255 255 255
255 255 255
255 255 255
255 255 255
255 255 255
255 255 255
255 255 255
255 255 255
255 255 255
200 50 50
200 50 50
200 50 50
200 50 50
200 50 50
200 50 50
200 50 50
200 50 50
200 50 50
200 50 50
200 50 50
200 50 50
200 50 50
200 50 50
200 50 50
200 50 50
200 50 50
200 50 50
200 50 50
200 50 50
200 50 50
200 50 50
200 50 50
200 50 50
200 50 50
200 50 50
200 50 50
200 50 50
200 50 50
200 50 50
200 50 50
200 50 50
255 255 255
255 255 255
255 255 255
255 255 255
255 255 255
255 255 255
255 255 255
255 255 255
255 255 255
255 255 255
255 255 255
255 255 255
255 255 255
255 255 255
255 255 255
255 255 255
255 255 255
255 255 255
255 255 255
255 255 255
255 255 255
255 255 255
255 255 255
255 255 255
255 255 255
255 255 255
255 255 255
255 255 255
255 255 255
255 255 255
255 255 255
255 255 255
200 50 50
200 50 50
200 50 50
200 50 50
200 50 50
200 50 50
200 50 50
200 50 50
200 50 50
200 50 50
200 50 50
200 50 50
200 50 50
200 50 50
200 50 50
200 50 50
200 50 50
200 50 50
200 50 50
200 50 50
200 50 50
200 50 50
200 50 50
200 50 50
200 50 50
200 50 50
200 50 50
200 50 50
200 50 50
200 50 50
200 50 50
200 50 50
255 255 255
255 255 255
255 255 255
255 255 255
255 255 255
255 255 255
255 255 255
255 255 255
255 255 255
255 255 255
255 255 255
255 255 255
255 255 255
255 255 255
255 255 255
255 255 255
255 255 255
255 255 255
255 255 255
255 255 255
255 255 255
255 255 255
255 255 255
255 255 255
255 255 255
255 255 255
255 255 255
255 255 255
255 255 255
255 255 255
255 255 255
255 255 255
200 50 50
200 50 50
200 50 50
200 50 50
200 50 50
200 50 50
200 50 50
200 50 50
200 50 50
200 50 50
200 50 50
200 50 50
200 50 50
200 50 50
200 50 50
200 50 50
200 50 50
200 50 50
200 50 50
200 50 50
200 50 50
200 50 50
200 50 50
200 50 50
200 50 50
200 50 50
200 50 50
200 50 50
200 50 50
200 50 50
200 50 50
200 50 50
255 255 255
255 255 255
255 255 255
255 255 255
255 255 255
255 255 255
255 255 255
255 255 255
255 255 255
255 255 255
255 255 255
255 255 255
255 255 255
255 255 255
255 255 255
255 255 255
255 255 255
255 255 255
255 255 255
255 255 255
255 255 255
255 255 255
255 255 255
255 255 255
255 255 255
255 255 255
255 255 255
255 255 255
255 255 255
255 255 255
255 255 255
255 255 255
200 50 50
200 50 50
200 50 50
200 50 50
200 50 50
200 50 50
200 50 50
200 50 50
200 50 50
200 50 50
200 50 50
200 50 50
200 50 50
200 50 50
200 50 50
200 50 50
200 50 50
200 50 50
200 50 50
200 50 50
200 50 50
200 50 50
200 50 50
200 50 50
200 50 50
200 50 50
200 50 50
200 50 50
200 50 50
200 50 50
200 50 50
200 50 50
255 255 255
255 255 255
255 255 255
255 255 255
255 255 255
255 255 255
255 255 255
255 255 255
255 255 255
255 255 255
255 255 255
255 255 255
255 255 255
255 255 255
255 255 255
255 255 255
255 255 255
255 255 255
255 255 255
255 255 255
255 255 255
255 255 255
255 255 255
255 255 255
255 255 255
255 255 255
255 255 255
255 255 255
255 255 255
255 255 255
255 255 255
255 255 255
200 50 50
200 50 50
200 50 50
200 50 50
200 50 50
200 50 50
200 50 50
200 50 50
200 50 50
200 50 50
200 50 50
200 50 50
200 50 50
200 50 50
200 50 50
200 50 50
200 50 50
200 50 50
200 50 50
200 50 50
200 50 50
200 50 50
200 50 50
200 50 50
200 50 50
200 50 50
200 50 50
200 50 50
200 50 50
200 50 50
200 50 50
200 50 50
255 255 255
255 255 255
255 255 255
255 255 255
255 255 255
255 255 255
255 255 255
255 255 255
255 255 255
255 255 255
255 255 255
255 255 255
255 255 255
255 255 255
255 255 255
255 255 255
255 255 255
255 255 255
255 255 255
255 255 255
255 255 255
255 255 255
255 255 255
255 255 255
255 255 255
255 255 255
255 255 255
255 255 255
255 255 255
255 255 255
255 255 255
255 255 255
200 50 50
200 50 50
200 50 50
200 50 50
200 50 50
200 50 50
200 50 50
200 50 50
200 50 50
200 50 50
200 50 50
200 50 50
200 50 50
200 50 50
200 50 50
200 50 50
200 50 50
200 50 50
200 50 50
200 50 50
200 50 50
200 50 50
200 50 50
200 50 50
200 50 50
200 50 50
200 50 50
200 50 50
200 50 50
200 50 50
200 50 50
200 50 50
255 255 255
255 255 255
255 255 255
255 255 255
255 255 255
255 255 255
255 255 255
255 255 255
255 255 255
255 255 255
255 255 255
255 255 255
255 255 255
255 255 255
255 255 255
255 255 255
255 255 255
255 255 255
255 255 255
255 255 255
255 255 255
255 255 255
255 255 255
255 255 255
255 255 255
255 255 255
255 255 255
255 255 255
255 255 255
255 255 255
255 255 255
255 255 255
200 50 50
200 50 50
200 50 50
200 50 50
200 50 50
200 50 50
200 50 50
200 50 50
200 50 50
200 50 50
200 50 50
200 50 50
200 50 50
200 50 50
200 50 50
200 50 50
200 50 50
200 50 50
200 50 50
200 50 50
200 50 50
200 50 50
200 50 50
200 50 50
200 50 50
200 50 50
200 50 50
200 50 50
200 50 50
200 50 50
200 50 50
200 50 50
255 255 255
255 255 255
255 255 255
255 255 255
255 255 255
255 255 255
255 255 255
255 255 255
255 255 255
255 255 255
255 255 255
255 255 255
255 255 255
255 255 255
255 255 255
255 255 255
255 255 255
255 255 255
255 255 255
255 255 255
255 255 255
255 255 255
255 255 255
255 255 255
255 255 255
255 255 255
255 255 255
255 255 255
255 255 255
255 255 255
255 255 255
255 255 255
200 50 50
200 50 50
200 50 50
200 50 50
200 50 50
200 50 50
200 50 50
200 50 50
200 50 50
200 50 50
200 50 50
200 50 50
200 50 50
200 50 50
200 50 50
200 50 50
200 50 50
200 50 50
200 50 50
200 50 50
200 50 50
200 50 50
200 50 50
200 50 50
200 50 50
200 50 50
200 50 50
200 50 50
200 50 50
200 50 50
200 50 50
200 50 50
255 255 255
255 255 255
255 255 255
255 255 255
255 255 255
255 255 255
255 255 255
255 255 255
255 255 255
255 255 255
255 255 255
255 255 255
255 255 255
255 255 255
255 255 255
255 255 255
255 255 255
255 255 255
255 255 255
255 255 255
255 255 255
255 255 255
255 255 255
255 255 255
255 255 255
255 255 255
255 255 255
255 255 255
255 255 255
255 255 255
255 255 255
255 255 255
200 50 50
200 50 50
200 50 50
200 50 50
200 50 50
200 50 50
200 50 50
200 50 50
200 50 50
200 50 50
200 50 50
200 50 50
200 50 50
200 50 50
200 50 50
200 50 50
200 50 50
200 50 50
200 50 50
200 50 50
200 50 50
200 50 50
200 50 50
200 50 50
200 50 50
200 50 50
200 50 50
200 50 50
200 50 50
200 50 50
200 50 50
200 50 50
255 255 255
255 255 255
255 255 255
255 255 255
255 255 255
255 255 255
255 255 255
255 255 255
255 255 255
255 255 255
255 255 255
255 255 255
255 255 255
255 255 255
255 255 255
255 255 255
255 255 255
255 255 255
255 255 255
255 255 255
255 255 255
255 255 255
255 255 255
255 255 255
255 255 255
255 255 255
255 255 255
255 255 255
255 255 255
255 255 255
255 255 255
255 255 255
200 50 50
200 50 50
200 50 50
200 50 50
200 50 50
200 50 50
200 50 50
200 50 50
200 50 50
200 50 50
200 50 50
200 50 50
200 50 50
200 50 50
200 50 50
200 50 50
200 50 50
200 50 50
200 50 50
200 50 50
200 50 50
200 50 50
200 50 50
200 50 50
200 50 50
200 50 50
200 50 50
200 50 50
200 50 50
200 50 50
200 50 50
200 50 50
200 50 50
200 50 50
200 50 50
200 50 50
200 50 50
200 50 50
200 50 50
200 50 50
200 50 50
200 50 50
200 50 50
200 50 50
200 50 50
200 50 50
200 50 50
200 50 50
200 50 50
200 50 50
200 50 50
200 50 50
200 50 50
200 50 50
200 50 50
200 50 50
200 50 50
200 50 50
200 50 50
200 50 50
200 50 50
200 50 50
200 50 50
200 50 50
255 255 255
255 255 255
255 255 255
255 255 255
255 255 255
255 255 255
255 255 255
255 255 255
255 255 255
255 255 255
255 255 255
255 255 255
255 255 255
255 255 255
255 255 255
255 255 255
255 255 255
255 255 255
255 255 255
255 255 255
255 255 255
255 255 255
255 255 255
255 255 255
255 255 255
255 255 255
255 255 255
255 255 255
255 255 255
255 255 255
255 255 255
255 255 255
200 50 50
200 50 50
200 50 50
200 50 50
200 50 50
200 50 50
200 50 50
200 50 50
200 50 50
200 50 50
200 50 50
200 50 50
200 50 50
200 50 50
200 50 50
200 50 50
200 50 50
200 50 50
200 50 50
200 50 50
200 50 50
200 50 50
200 50 50
200 50 50
200 50 50
200 50 50
200 50 50
200 50 50
200 50 50
200 50 50
200 50 50
200 50 50
255 255 255
255 255 255
255 255 255
255 255 255
255 255 255
255 255 255
255 255 255
255 255 255
255 255 255
255 255 255
255 255 255
255 255 255
255 255 255
255 255 255
255 255 255
255 255 255
255 255 255
255 255 255
255 255 255
255 255 255
255 255 255
255 255 255
255 255 255
255 255 255
255 255 255
255 255 255
255 255 255
255 255 255
255 255 255
255 255 255
255 255 255
255 255 255
200 50 50
200 50 50
200 50 50
200 50 50
200 50 50
200 50 50
200 50 50
200 50 50
200 50 50
200 50 50
200 50 50
200 50 50
200 50 50
200 50 50
200 50 50
200 50 50
200 50 50
200 50 50
200 50 50
200 50 50
200 50 50
200 50 50
200 50 50
200 50 50
200 50 50
200 50 50
200 50 50
200 50 50
200 50 50
200 50 50
200 50 50
200 50 50
255 255 255
255 255 255
255 255 255
255 255 255
255 255 255
255 255 255
255 255 255
255 255 255
255 255 255
255 255 255
255 255 255
255 255 255
255 255 255
255 255 255
255 255 255
255 255 255
255 255 255
255 255 255
255 255 255
255 255 255
255 255 255
255 255 255
255 255 255
255 255 255
255 255 255
255 255 255
255 255 255
255 255 255
255 255 255
255 255 255
255 255 255
255 255 255
200 50 50
200 50 50
200 50 50
200 50 50
200 50 50
200 50 50
200 50 50
200 50 50
200 50 50
200 50 50
200 50 50
200 50 50
200 50 50
200 50 50
200 50 50
200 50 50
200 50 50
200 50 50
200 50 50
200 50 50
200 50 50
200 50 50
200 50 50
200 50 50
200 50 50
200 50 50
200 50 50
200 50 50
200 50 50
200 50 50
200 50 50
200 50 50
255 255 255
255 255 255
255 255 255
255 255 255
255 255 255
255 255 255
255 255 255
255 255 255
255 255 255
255 255 255
255 255 255
255 255 255
255 255 255
255 255 255
255 255 255
255 255 255
255 255 255
255 255 255
255 255 255
255 255 255
255 255 255
255 255 255
255 255 255
255 255 255
255 255 255
255 255 255
255 255 255
255 255 255
255 255 255
255 255 255
255 255 255
255 255 255
200 50 50
200 50 50
200 50 50
200 50 50
200 50 50
200 50 50
200 50 50
200 50 50
200 50 50
200 50 50
200 50 50
200 50 50
200 50 50
200 50 50
200 50 50
200 50 50
200 50 50
200 50 50
200 50 50
200 50 50
200 50 50
200 50 50
200 50 50
200 50 50
200 50 50
200 50 50
200 50 50
200 50 50
200 50 50
200 50 50
200 50 50
200 50 50
255 255 255
255 255 255
255 255 255
255 255 255
255 255 255
255 255 255
255 255 255
255 255 255
255 255 255
255 255 255
255 255 255
255 255 255
255 255 255
255 255 255
255 255 255
255 255 255
255 255 255
255 255 255
255 255 255
255 255 255
255 255 255
255 255 255
255 255 255
255 255 255
255 255 255
255 255 255
255 255 255
255 255 255
255 255 255
255 255 255
255 255 255
255 255 255
200 50 50
200 50 50
200 50 50
200 50 50
200 50 50
200 50 50
200 50 50
200 50 50
200 50 50
200 50 50
200 50 50
200 50 50
200 50 50
200 50 50
200 50 50
200 50 50
200 50 50
200 50 50
200 50 50
200 50 50
200 50 50
200 50 50
200 50 50
200 50 50
200 50 50
200 50 50
200 50 50
200 50 50
200 50 50
200 50 50
200 50 50
200 50 50
255 255 255
255 255 255
255 255 255
255 255 255
255 255 255
255 255 255
255 255 255
255 255 255
255 255 255
255 255 255
255 255 255
255 255 255
255 255 255
255 255 255
255 255 255
255 255 255
255 255 255
255 255 255
255 255 255
255 255 255
255 255 255
255 255 255
255 255 255
255 255 255
255 255 255
255 255 255
255 255 255
255 255 255
255 255 255
255 255 255
255 255 255
255 255 255
200 50 50
200 50 50
200 50 50
200 50 50
200 50 50
200 50 50
200 50 50
200 50 50
200 50 50
200 50 50
200 50 50
200 50 50
200 50 50
200 50 50
200 50 50
200 50 50
200 50 50
200 50 50
200 50 50
200 50 50
200 50 50
200 50 50
200 50 50
200 50 50
200 50 50
200 50 50
200 50 50
200 50 50
200 50 50
200 50 50
200 50 50
200 50 50
255 255 255
255 255 255
255 255 255
255 255 255
255 255 255
255 255 255
255 255 255
255 255 255
255 255 255
255 255 255
255 255 255
255 255 255
255 255 255
255 255 255
255 255 255
255 255 255
255 255 255
255 255 255
255 255 255
255 255 255
255 255 255
255 255 255
255 255 255
255 255 255
255 255 255
255 255 255
255 255 255
255 255 255
255 255 255
255 255 255
255 255 255
255 255 255
200 50 50
200 50 50
200 50 50
200 50 50
200 50 50
200 50 50
200 50 50
200 50 50
200 50 50
200 50 50
200 50 50
200 50 50
200 50 50
200 50 50
200 50 50
200 50 50
200 50 50
200 50 50
200 50 50
200 50 50
200 50 50
200 50 50
200 50 50
200 50 50
200 50 50
200 50 50
200 50 50
200 50 50
200 50 50
200 50 50
200 50 50
200 50 50
255 255 255
255 255 255
255 255 255
255 255 255
255 255 255
255 255 255
255 255 255
255 255 255
255 255 255
255 255 255
255 255 255
255 255 255
255 255 255
255 255 255
255 255 255
255 255 255
255 255 255
255 255 255
255 255 255
255 255 255
255 255 255
255 255 255
255 255 255
255 255 255
255 255 255
255 255 255
255 255 255
255 255 255
255 255 255
255 255 255
255 255 255
255 255 255
200 50 50
200 50 50
200 50 50
200 50 50
200 50 50
200 50 50
200 50 50
200 50 50
200 50 50
200 50 50
200 50 50
200 50 50
200 50 50
200 50 50
200 50 50
200 50 50
200 50 50
200 50 50
200 50 50
200 50 50
200 50 50
200 50 50
200 50 50
200 50 50
200 50 50
200 50 50
200 50 50
200 50 50
200 50 50
200 50 50
200 50 50
200 50 50
255 255 255
255 255 255
255 255 255
255 255 255
255 255 255
255 255 255
255 255 255
255 255 255
255 255 255
255 255 255
255 255 255
255 255 255
255 255 255
255 255 255
255 255 255
255 255 255
255 255 255
255 255 255
255 255 255
255 255 255
255 255 255
255 255 255
255 255 255
255 255 255
255 255 255
255 255 255
255 255 255
255 255 255
255 255 255
255 255 255
255 255 255
255 255 255
200 50 50
200 50 50
200 50 50
200 50 50
200 50 50
200 50 50
200 50 50
200 50 50
200 50 50
200 50 50
200 50 50
200 50 50
200 50 50
200 50 50
200 50 50
200 50 50
200 50 50
200 50 50
200 50 50
200 50 50
200 50 50
200 50 50
200 50 50
200 50 50
200 50 50
200 50 50
200 50 50
200 50 50
200 50 50
200 50 50
200 50 50
200 50 50
255 255 255
255 255 255
255 255 255
255 255 255
255 255 255
255 255 255
255 255 255
255 255 255
255 255 255
255 255 255
255 255 255
255 255 255
255 255 255
255 255 255
255 255 255
255 255 255
255 255 255
255 255 255
255 255 255
255 255 255
255 255 255
255 255 255
255 255 255
255 255 255
255 255 255
255 255 255
255 255 255
255 255 255
255 255 255
255 255 255
255 255 255
255 255 255
200 50 50
200 50 50
200 50 50
200 50 50
200 50 50
200 50 50
200 50 50
200 50 50
200 50 50
200 50 50
200 50 50
200 50 50
200 50 50
200 50 50
200 50 50
200 50 50
200 50 50
200 50 50
200 50 50
200 50 50
200 50 50
200 50 50
200 50 50
200 50 50
200 50 50
200 50 50
200 50 50
200 50 50
200 50 50
200 50 50
200 50 50
200 50 50
255 255 255
255 255 255
255 255 255
255 255 255
255 255 255
255 255 255
255 255 255
255 255 255
255 255 255
255 255 255
255 255 255
255 255 255
255 255 255
255 255 255
255 255 255
255 255 255
255 255 255
255 255 255
255 255 255
255 255 255
255 255 255
255 255 255
255 255 255
255 255 255
255 255 255
255 255 255
255 255 255
255 255 255
255 255 255
255 255 255
255 255 255
255 255 255
200 50 50
200 50 50
200 50 50
200 50 50
200 50 50
200 50 50
200 50 50
200 50 50
200 50 50
200 50 50
200 50 50
200 50 50
200 50 50
200 50 50
200 50 50
200 50 50
200 50 50
200 50 50
200 50 50
200 50 50
200 50 50
200 50 50
200 50 50
200 50 50
200 50 50
200 50 50
200 50 50
200 50 50
200 50 50
200 50 50
200 50 50
200 50 50
255 255 255
255 255 255
255 255 255
255 255 255
255 255 255
255 255 255
255 255 255
255 255 255
255 255 255
255 255 255
255 255 255
255 255 255
255 255 255
255 255 255
255 255 255
255 255 255
255 255 255
255 255 255
255 255 255
255 255 255
255 255 255
255 255 255
255 255 255
255 255 255
255 255 255
255 255 255
255 255 255
255 255 255
255 255 255
255 255 255
255 255 255
255 255 255
200 50 50
200 50 50
200 50 50
200 50 50
200 50 50
200 50 50
200 50 50
200 50 50
200 50 50
200 50 50
200 50 50
200 50 50
200 50 50
200 50 50
200 50 50
200 50 50
200 50 50
200 50 50
200 50 50
200 50 50
200 50 50
200 50 50
200 50 50
200 50 50
200 50 50
200 50 50
200 50 50
200 50 50
200 50 50
200 50 50
200 50 50
200 50 50
255 255 255
255 255 255
255 255 255
255 255 255
255 255 255
255 255 255
255 255 255
255 255 255
255 255 255
255 255 255
255 255 255
255 255 255
255 255 255
255 255 255
255 255 255
255 255 255
255 255 255
255 255 255
255 255 255
255 255 255
255 255 255
255 255 255
255 255 255
255 255 255
255 255 255
255 255 255
255 255 255
255 255 255
255 255 255
255 255 255
255 255 255
255 255 255
200 50 50
200 50 50
200 50 50
200 50 50
200 50 50
200 50 50
200 50 50
200 50 50
200 50 50
200 50 50
200 50 50
200 50 50
200 50 50
200 50 50
200 50 50
200 50 50
200 50 50
200 50 50
200 50 50
200 50 50
200 50 50
200 50 50
200 50 50
200 50 50
200 50 50
200 50 50
200 50 50
200 50 50
200 50 50
200 50 50
200 50 50
200 50 50
255 255 255
255 255 255
255 255 255
255 255 255
255 255 255
255 255 255
255 255 255
255 255 255
255 255 255
255 255 255
255 255 255
255 255 255
255 255 255
255 255 255
255 255 255
255 255 255
255 255 255
255 255 255
255 255 255
255 255 255
255 255 255
255 255 255
255 255 255
255 255 255
255 255 255
255 255 255
255 255 255
255 255 255
255 255 255
255 255 255
255 255 255
255 255 255
200 50 50
200 50 50
200 50 50
200 50 50
200 50 50
200 50 50
200 50 50
200 50 50
200 50 50
200 50 50
200 50 50
200 50 50
200 50 50
200 50 50
200 50 50
200 50 50
200 50 50
200 50 50
200 50 50
200 50 50
200 50 50
200 50 50
200 50 50
200 50 50
200 50 50
200 50 50
200 50 50
200 50 50
200 50 50
200 50 50
200 50 50
200 50 50
255 255 255
255 255 255
255 255 255
255 255 255
255 255 255
255 255 255
255 255 255
255 255 255
255 255 255
255 255 255
255 255 255
255 255 255
255 255 255
255 255 255
255 255 255
255 255 255
255 255 255
255 255 255
255 255 255
255 255 255
255 255 255
255 255 255
255 255 255
255 255 255
255 255 255
255 255 255
255 255 255
255 255 255
255 255 255
255 255 255
255 255 255
255 255 255
200 50 50
200 50 50
200 50 50
200 50 50
200 50 50
200 50 50
200 50 50
200 50 50
200 50 50
200 50 50
200 50 50
200 50 50
200 50 50
200 50 50
200 50 50
200 50 50
200 50 50
200 50 50
200 50 50
200 50 50
200 50 50
200 50 50
200 50 50
200 50 50
200 50 50
200 50 50
200 50 50
200 50 50
200 50 50
200 50 50
200 50 50
200 50 50
255 255 255
255 255 255
255 255 255
255 255 255
255 255 255
255 255 255
255 255 255
255 255 255
255 255 255
255 255 255
255 255 255
255 255 255
255 255 255
255 255 255
255 255 255
255 255 255
255 255 255
255 255 255
255 255 255
255 255 255
255 255 255
255 255 255
255 255 255
255 255 255
255 255 255
255 255 255
255 255 255
255 255 255
255 255 255
255 255 255
255 255 255
255 255 255
200 50 50
200 50 50
200 50 50
200 50 50
200 50 50
200 50 50
200 50 50
200 50 50
200 50 50
200 50 50
200 50 50
200 50 50
200 50 50
200 50 50
200 50 50
200 50 50
200 50 50
200 50 50
200 50 50
200 50 50
200 50 50
200 50 50
200 50 50
200 50 50
200 50 50
200 50 50
200 50 50
200 50 50
200 50 50
200 50 50
200 50 50
200 50 50
255 255 255
255 255 255
255 255 255
255 255 255
255 255 255
255 255 255
255 255 255
255 255 255
255 255 255
255 255 255
255 255 255
255 255 255
255 255 255
255 255 255
255 255 255
255 255 255
255 255 255
255 255 255
255 255 255
255 255 255
255 255 255
255 255 255
255 255 255
255 255 255
255 255 255
255 255 255
255 255 255
255 255 255
255 255 255
255 255 255
255 255 255
255 255 255
200 50 50
200 50 50
200 50 50
200 50 50
200 50 50
200 50 50
200 50 50
200 50 50
200 50 50
200 50 50
200 50 50
200 50 50
200 50 50
200 50 50
200 50 50
200 50 50
200 50 50
200 50 50
200 50 50
200 50 50
200 50 50
200 50 50
200 50 50
200 50 50
200 50 50
200 50 50
200 50 50
200 50 50
200 50 50
200 50 50
200 50 50
200 50 50
255 255 255
255 255 255
255 255 255
255 255 255
255 255 255
255 255 255
255 255 255
255 255 255
255 255 255
255 255 255
255 255 255
255 255 255
255 255 255
255 255 255
255 255 255
255 255 255
255 255 255
255 255 255
255 255 255
255 255 255
255 255 255
255 255 255
255 255 255
255 255 255
255 255 255
255 255 255
255 255 255
255 255 255
255 255 255
255 255 255
255 255 255
255 255 255
200 50 50
200 50 50
200 50 50
200 50 50
200 50 50
200 50 50
200 50 50
200 50 50
200 50 50
200 50 50
200 50 50
200 50 50
200 50 50
200 50 50
200 50 50
200 50 50
200 50 50
200 50 50
200 50 50
200 50 50
200 50 50
200 50 50
200 50 50
200 50 50
200 50 50
200 50 50
200 50 50
200 50 50
200 50 50
200 50 50
200 50 50
200 50 50
255 255 255
255 255 255
255 255 255
255 255 255
255 255 255
255 255 255
255 255 255
255 255 255
255 255 255
255 255 255
255 255 255
255 255 255
255 255 255
255 255 255
255 255 255
255 255 255
255 255 255
255 255 255
255 255 255
255 255 255
255 255 255
255 255 255
255 255 255
255 255 255
255 255 255
255 255 255
255 255 255
255 255 255
255 255 255
255 255 255
255 255 255
255 255 255
200 50 50
200 50 50
200 50 50
200 50 50
200 50 50
200 50 50
200 50 50
200 50 50
200 50 50
200 50 50
200 50 50
200 50 50
200 50 50
200 50 50
200 50 50
200 50 50
200 50 50
200 50 50
200 50 50
200 50 50
200 50 50
200 50 50
200 50 50
200 50 50
200 50 50
200 50 50
200 50 50
200 50 50
200 50 50
200 50 50
200 50 50
200 50 50
255 255 255
255 255 255
255 255 255
255 255 255
255 255 255
255 255 255
255 255 255
255 255 255
255 255 255
255 255 255
255 255 255
255 255 255
255 255 255
255 255 255
255 255 255
255 255 255
255 255 255
255 255 255
255 255 255
255 255 255
255 255 255
255 255 255
255 255 255
255 255 255
255 255 255
255 255 255
255 255 255
255 255 255
255 255 255
255 255 255
255 255 255
255 255 255
200 50 50
200 50 50
200 50 50
200 50 50
200 50 50
200 50 50
200 50 50
200 50 50
200 50 50
200 50 50
200 50 50
200 50 50
200 50 50
200 50 50
200 50 50
200 50 50
200 50 50
200 50 50
200 50 50
200 50 50
200 50 50
200 50 50
200 50 50
200 50 50
200 50 50
200 50 50
200 50 50
200 50 50
200 50 50
200 50 50
200 50 50
200 50 50
255 255 255
255 255 255
255 255 255
255 255 255
255 255 255
255 255 255
255 255 255
255 255 255
255 255 255
255 255 255
255 255 255
255 255 255
255 255 255
255 255 255
255 255 255
255 255 255
255 255 255
255 255 255
255 255 255
255 255 255
255 255 255
255 255 255
255 255 255
255 255 255
255 255 255
255 255 255
255 255 255
255 255 255
255 255 255
255 255 255
255 255 255
255 255 255
200 50 50
200 50 50
200 50 50
200 50 50
200 50 50
200 50 50
200 50 50
200 50 50
200 50 50
200 50 50
200 50 50
200 50 50
200 50 50
200 50 50
200 50 50
200 50 50
200 50 50
200 50 50
200 50 50
200 50 50
200 50 50
200 50 50
200 50 50
200 50 50
200 50 50
200 50 50
200 50 50
200 50 50
200 50 50
200 50 50
200 50 50
200 50 50
255 255 255
255 255 255
255 255 255
255 255 255
255 255 255
255 255 255
255 255 255
255 255 255
255 255 255
255 255 255
255 255 255
255 255 255
255 255 255
255 255 255
255 255 255
255 255 255
255 255 255
255 255 255
255 255 255
255 255 255
255 255 255
255 255 255
255 255 255
255 255 255
255 255 255
255 255 255
255 255 255
255 255 255
255 255 255
255 255 255
255 255 255
255 255 255
200 50 50
200 50 50
200 50 50
200 50 50
200 50 50
200 50 50
200 50 50
200 50 50
200 50 50
200 50 50
200 50 50
200 50 50
200 50 50
200 50 50
200 50 50
200 50 50
200 50 50
200 50 50
200 50 50
200 50 50
200 50 50
200 50 50
200 50 50
200 50 50
200 50 50
200 50 50
200 50 50
200 50 50
200 50 50
200 50 50
200 50 50
200 50 50
255 255 255
255 255 255
255 255 255
255 255 255
255 255 255
255 255 255
255 255 255
255 255 255
255 255 255
255 255 255
255 255 255
255 255 255
255 255 255
255 255 255
255 255 255
255 255 255
255 255 255
255 255 255
255 255 255
255 255 255
255 255 255
255 255 255
255 255 255
255 255 255
255 255 255
255 255 255
255 255 255
255 255 255
255 255 255
255 255 255
255 255 255
255 255 255
200 50 50
200 50 50
200 50 50
200 50 50
200 50 50
200 50 50
200 50 50
200 50 50
200 50 50
200 50 50
200 50 50
200 50 50
200 50 50
200 50 50
200 50 50
200 50 50
200 50 50
200 50 50
200 50 50
200 50 50
200 50 50
200 50 50
200 50 50
200 50 50
200 50 50
200 50 50
200 50 50
200 50 50
200 50 50
200 50 50
200 50 50
200 50 50
255 255 255
255 255 255
255 255 255
255 255 255
255 255 255
255 255 255
255 255 255
255 255 255
255 255 255
255 255 255
255 255 255
255 255 255
255 255 255
255 255 255
255 255 255
255 255 255
255 255 255
255 255 255
255 255 255
255 255 255
255 255 255
255 255 255
255 255 255
255 255 255
255 255 255
255 255 255
255 255 255
255 255 255
255 255 255
255 255 255
255 255 255
255 255 255
200 50 50
200 50 50
200 50 50
200 50 50
200 50 50
200 50 50
200 50 50
200 50 50
200 50 50
200 50 50
200 50 50
200 50 50
200 50 50
200 50 50
200 50 50
200 50 50
200 50 50
200 50 50
200 50 50
200 50 50
200 50 50
200 50 50
200 50 50
200 50 50
200 50 50
200 50 50
200 50 50
200 50 50
200 50 50
200 50 50
200 50 50
200 50 50
255 255 255
255 255 255
255 255 255
255 255 255
255 255 255
255 255 255
255 255 255
255 255 255
255 255 255
255 255 255
255 255 255
255 255 255
255 255 255
255 255 255
255 255 255
255 255 255
255 255 255
255 255 255
255 255 255
255 255 255
255 255 255
255 255 255
255 255 255
255 255 255
255 255 255
255 255 255
255 255 255
255 255 255
255 255 255
255 255 255
255 255 255
255 255 255
200 50 50
200 50 50
200 50 50
200 50 50
200 50 50
200 50 50
200 50 50
200 50 50
200 50 50
200 50 50
200 50 50
200 50 50
200 50 50
200 50 50
200 50 50
200 50 50
200 50 50
200 50 50
200 50 50
200 50 50
200 50 50
200 50 50
200 50 50
200 50 50
200 50 50
200 50 50
200 50 50
200 50 50
200 50 50
200 50 50
200 50 50
200 50 50
255 255 255
255 255 255
255 255 255
255 255 255
255 255 255
255 255 255
255 255 255
255 255 255
255 255 255
255 255 255
255 255 255
255 255 255
255 255 255
255 255 255
255 255 255
255 255 255
255 255 255
255 255 255
255 255 255
255 255 255
255 255 255
255 255 255
255 255 255
255 255 255
255 255 255
255 255 255
255 255 255
255 255 255
255 255 255
255 255 255
255 255 255
255 255 255
200 50 50
200 50 50
200 50 50
200 50 50
200 50 50
200 50 50
200 50 50
200 50 50
200 50 50
200 50 50
200 50 50
200 50 50
200 50 50
200 50 50
200 50 50
200 50 50
200 50 50
200 50 50
200 50 50
200 50 50
200 50 50
200 50 50
200 50 50
200 50 50
200 50 50
200 50 50
200 50 50
200 50 50
200 50 50
200 50 50
200 50 50
200 50 50
255 255 255
255 255 255
255 255 255
255 255 255
255 255 255
255 255 255
255 255 255
255 255 255
255 255 255
255 255 255
255 255 255
255 255 255
255 255 255
255 255 255
255 255 255
255 255 255
255 255 255
255 255 255
255 255 255
255 255 255
255 255 255
255 255 255
255 255 255
255 255 255
255 255 255
255 255 255
255 255 255
255 255 255
255 255 255
255 255 255
255 255 255
255 255 255
200 50 50
200 50 50
200 50 50
200 50 50
200 50 50
200 50 50
200 50 50
200 50 50
200 50 50
200 50 50
200 50 50
200 50 50
200 50 50
200 50 50
200 50 50
200 50 50
200 50 50
200 50 50
200 50 50
200 50 50
200 50 50
200 50 50
200 50 50
200 50 50
200 50 50
200 50 50
200 50 50
200 50 50
200 50 50
200 50 50
200 50 50
200 50 50
255 255 255
255 255 255
255 255 255
255 255 255
255 255 255
255 255 255
255 255 255
255 255 255
255 255 255
255 255 255
255 255 255
255 255 255
255 255 255
255 255 255
255 255 255
255 255 255
255 255 255
255 255 255
255 255 255
255 255 255
255 255 255
255 255 255
255 255 255
255 255 255
255 255 255
255 255 255
255 255 255
255 255 255
255 255 255
255 255 255
255 255 255
255 255 255
200 50 50
200 50 50
200 50 50
200 50 50
200 50 50
200 50 50
200 50 50
200 50 50
200 50 50
200 50 50
200 50 50
200 50 50
200 50 50
200 50 50
200 50 50
200 50 50
200 50 50
200 50 50
200 50 50
200 50 50
200 50 50
200 50 50
200 50 50
200 50 50
200 50 50
200 50 50
200 50 50
200 50 50
200 50 50
200 50 50
200 50 50
200 50 50
255 255 255
255 255 255
255 255 255
255 255 255
255 255 255
255 255 255
255 255 255
255 255 255
255 255 255
255 255 255
255 255 255
255 255 255
255 255 255
255 255 255
255 255 255
255 255 255
255 255 255
255 255 255
255 255 255
255 255 255
255 255 255
255 255 255
255 255 255
255 255 255
255 255 255
255 255 255
255 255 255
255 255 255
255 255 255
255 255 255
255 255 255
255 255 255
200 50 50
200 50 50
200 50 50
200 50 50
200 50 50
200 50 50
200 50 50
200 50 50
200 50 50
200 50 50
200 50 50
200 50 50
200 50 50
200 50 50
200 50 50
200 50 50
200 50 50
200 50 50
200 50 50
200 50 50
200 50 50
200 50 50
200 50 50
200 50 50
200 50 50
200 50 50
200 50 50
200 50 50
200 50 50
200 50 50
200 50 50
200 50 50
255 255 255
255 255 255
255 255 255
255 255 255
255 255 255
255 255 255
255 255 255
255 255 255
255 255 255
255 255 255
255 255 255
255 255 255
255 255 255
255 255 255
255 255 255
255 255 255
255 255 255
255 255 255
255 255 255
255 255 255
255 255 255
255 255 255
255 255 255
255 255 255
255 255 255
255 255 255
255 255 255
255 255 255
255 255 255
255 255 255
255 255 255
255 255 255
200 50 50
200 50 50
200 50 50
200 50 50
200 50 50
200 50 50
200 50 50
200 50 50
200 50 50
200 50 50
200 50 50
200 50 50
200 50 50
200 50 50
200 50 50
200 50 50
200 50 50
200 50 50
200 50 50
200 50 50
200 50 50
200 50 50
200 50 50
200 50 50
200 50 50
200 50 50
200 50 50
200 50 50
200 50 50
200 50 50
200 50 50
200 50 50
255 255 255
255 255 255
255 255 255
255 255 255
255 255 255
255 255 255
255 255 255
255 255 255
255 255 255
255 255 255
255 255 255
255 255 255
255 255 255
255 255 255
255 255 255
255 255 255
255 255 255
255 255 255
255 255 255
255 255 255
255 255 255
255 255 255
255 255 255
255 255 255
255 255 255
255 255 255
255 255 255
255 255 255
255 255 255
255 255 255
255 255 255
255 255 255
200 50 50
200 50 50
200 50 50
200 50 50
200 50 50
200 50 50
200 50 50
200 50 50
200 50 50
200 50 50
200 50 50
200 50 50
200 50 50
200 50 50
200 50 50
200 50 50
200 50 50
200 50 50
200 50 50
200 50 50
200 50 50
200 50 50
200 50 50
200 50 50
200 50 50
200 50 50
200 50 50
200 50 50
200 50 50
200 50 50
200 50 50
200 50 50
255 255 255
255 255 255
255 255 255
255 255 255
255 255 255
255 255 255
255 255 255
255 255 255
255 255 255
255 255 255
255 255 255
255 255 255
255 255 255
255 255 255
255 255 255
255 255 255
255 255 255
255 255 255
255 255 255
255 255 255
255 255 255
255 255 255
255 255 255
255 255 255
255 255 255
255 255 255
255 255 255
255 255 255
255 255 255
255 255 255
255 255 255
255 255 255
200 50 50
200 50 50
200 50 50
200 50 50
200 50 50
200 50 50
200 50 50
200 50 50
200 50 50
200 50 50
200 50 50
200 50 50
200 50 50
200 50 50
200 50 50
200 50 50
200 50 50
200 50 50
200 50 50
200 50 50
200 50 50
200 50 50
200 50 50
200 50 50
200 50 50
200 50 50
200 50 50
200 50 50
200 50 50
200 50 50
200 50 50
200 50 50
255 255 255
255 255 255
255 255 255
255 255 255
255 255 255
255 255 255
255 255 255
255 255 255
255 255 255
255 255 255
255 255 255
255 255 255
255 255 255
255 255 255
255 255 255
255 255 255
255 255 255
255 255 255
255 255 255
255 255 255
255 255 255
255 255 255
255 255 255
255 255 255
255 255 255
255 255 255
255 255 255
255 255 255
255 255 255
255 255 255
255 255 255
255 255 255
200 50 50
200 50 50
200 50 50
200 50 50
200 50 50
200 50 50
200 50 50
200 50 50
200 50 50
200 50 50
200 50 50
200 50 50
200 50 50
200 50 50
200 50 50
200 50 50
200 50 50
200 50 50
200 50 50
200 50 50
200 50 50
200 50 50
200 50 50
200 50 50
200 50 50
200 50 50
200 50 50
200 50 50
200 50 50
200 50 50
200 50 50
200 50 50
255 255 255
255 255 255
255 255 255
255 255 255
255 255 255
255 255 255
255 255 255
255 255 255
255 255 255
255 255 255
255 255 255
255 255 255
255 255 255
255 255 255
255 255 255
255 255 255
255 255 255
255 255 255
255 255 255
255 255 255
255 255 255
255 255 255
255 255 255
255 255 255
255 255 255
255 255 255
255 255 255
255 255 255
255 255 255
255 255 255
255 255 255
255 255 255
200 50 50
200 50 50
200 50 50
200 50 50
200 50 50
200 50 50
200 50 50
200 50 50
200 50 50
200 50 50
200 50 50
200 50 50
200 50 50
200 50 50
200 50 50
200 50 50
200 50 50
200 50 50
200 50 50
200 50 50
200 50 50
200 50 50
200 50 50
200 50 50
200 50 50
200 50 50
200 50 50
200 50 50
200 50 50
200 50 50
200 50 50
200 50 50
255 255 255
255 255 255
255 255 255
255 255 255
255 255 255
255 255 255
255 255 255
255 255 255
255 255 255
255 255 255
255 255 255
255 255 255
255 255 255
255 255 255
255 255 255
255 255 255
255 255 255
255 255 255
255 255 255
255 255 255
255 255 255
255 255 255
255 255 255
255 255 255
255 255 255
255 255 255
255 255 255
255 255 255
255 255 255
255 255 255
255 255 255
255 255 255
200 50 50
200 50 50
200 50 50
200 50 50
200 50 50
200 50 50
200 50 50
200 50 50
200 50 50
200 50 50
200 50 50
200 50 50
200 50 50
200 50 50
200 50 50
200 50 50
200 50 50
200 50 50
200 50 50
200 50 50
200 50 50
200 50 50
200 50 50
200 50 50
200 50 50
200 50 50
200 50 50
200 50 50
200 50 50
200 50 50
200 50 50
200 50 50
255 255 255
255 255 255
255 255 255
255 255 255
255 255 255
255 255 255
255 255 255
255 255 255
255 255 255
255 255 255
255 255 255
255 255 255
255 255 255
255 255 255
255 255 255
255 255 255
255 255 255
255 255 255
255 255 255
255 255 255
255 255 255
255 255 255
255 255 255
255 255 255
255 255 255
255 255 255
255 255 255
255 255 255
255 255 255
255 255 255
255 255 255
255 255 255
200 50 50
200 50 50
200 50 50
200 50 50
200 50 50
200 50 50
200 50 50
200 50 50
200 50 50
200 50 50
200 50 50
200 50 50
200 50 50
200 50 50
200 50 50
200 50 50
200 50 50
200 50 50
200 50 50
200 50 50
200 50 50
200 50 50
200 50 50
200 50 50
200 50 50
200 50 50
200 50 50
200 50 50
200 50 50
200 50 50
200 50 50
200 50 50
255 255 255
255 255 255
255 255 255
255 255 255
255 255 255
255 255 255
255 255 255
255 255 255
255 255 255
255 255 255
255 255 255
255 255 255
255 255 255
255 255 255
255 255 255
255 255 255
255 255 255
255 255 255
255 255 255
255 255 255
255 255 255
255 255 255
255 255 255
255 255 255
255 255 255
255 255 255
255 255 255
255 255 255
255 255 255
255 255 255
255 255 255
255 255 255
200 50 50
200 50 50
200 50 50
200 50 50
200 50 50
200 50 50
200 50 50
200 50 50
200 50 50
200 50 50
200 50 50
200 50 50
200 50 50
200 50 50
200 50 50
200 50 50
200 50 50
200 50 50
200 50 50
200 50 50
200 50 50
200 50 50
200 50 50
200 50 50
200 50 50
200 50 50
200 50 50
200 50 50
200 50 50
200 50 50
200 50 50
200 50 50
255 255 255
255 255 255
255 255 255
255 255 255
255 255 255
255 255 255
255 255 255
255 255 255
255 255 255
255 255 255
255 255 255
255 255 255
255 255 255
255 255 255
255 255 255
255 255 255
255 255 255
255 255 255
255 255 255
255 255 255
255 255 255
255 255 255
255 255 255
255 255 255
255 255 255
255 255 255
255 255 255
255 255 255
255 255 255
255 255 255
255 255 255
255 255 255
200 50 50
200 50 50
200 50 50
200 50 50
200 50 50
200 50 50
200 50 50
200 50 50
200 50 50
200 50 50
200 50 50
200 50 50
200 50 50
200 50 50
200 50 50
200 50 50
200 50 50
200 50 50
200 50 50
200 50 50
200 50 50
200 50 50
200 50 50
200 50 50
200 50 50
200 50 50
200 50 50
200 50 50
200 50 50
200 50 50
200 50 50
200 50 50
255 255 255
255 255 255
255 255 255
255 255 255
255 255 255
255 255 255
255 255 255
255 255 255
255 255 255
255 255 255
255 255 255
255 255 255
255 255 255
255 255 255
255 255 255
255 255 255
255 255 255
255 255 255
255 255 255
255 255 255
255 255 255
255 255 255
255 255 255
255 255 255
255 255 255
255 255 255
255 255 255
255 255 255
255 255 255
255 255 255
255 255 255
255 255 255
200 50 50
200 50 50
200 50 50
200 50 50
200 50 50
200 50 50
200 50 50
200 50 50
200 50 50
200 50 50
200 50 50
200 50 50
200 50 50
200 50 50
200 50 50
200 50 50
200 50 50
200 50 50
200 50 50
200 50 50
200 50 50
200 50 50
200 50 50
200 50 50
200 50 50
200 50 50
200 50 50
200 50 50
200 50 50
200 50 50
200 50 50
200 50 50
255 255 255
255 255 255
255 255 255
255 255 255
255 255 255
255 255 255
255 255 255
255 255 255
255 255 255
255 255 255
255 255 255
255 255 255
255 255 255
255 255 255
255 255 255
255 255 255
255 255 255
255 255 255
255 255 255
255 255 255
255 255 255
255 255 255
255 255 255
255 255 255
255 255 255
255 255 255
255 255 255
255 255 255
255 255 255
255 255 255
255 255 255
255 255 255
200 50 50
200 50 50
200 50 50
200 50 50
200 50 50
200 50 50
200 50 50
200 50 50
200 50 50
200 50 50
200 50 50
200 50 50
200 50 50
200 50 50
200 50 50
200 50 50
200 50 50
200 50 50
200 50 50
200 50 50
200 50 50
200 50 50
200 50 50
200 50 50
200 50 50
200 50 50
200 50 50
200 50 50
200 50 50
200 50 50
200 50 50
200 50 50
255 255 255
255 255 255
255 255 255
255 255 255
255 255 255
255 255 255
255 255 255
255 255 255
255 255 255
255 255 255
255 255 255
255 255 255
255 255 255
255 255 255
255 255 255
255 255 255
255 255 255
255 255 255
255 255 255
255 255 255
255 255 255
255 255 255
255 255 255
255 255 255
255 255 255
255 255 255
255 255 255
255 255 255
255 255 255
255 255 255
255 255 255
255 255 255
200 50 50
200 50 50
200 50 50
200 50 50
200 50 50
200 50 50
200 50 50
200 50 50
200 50 50
200 50 50
200 50 50
200 50 50
200 50 50
200 50 50
200 50 50
200 50 50
200 50 50
200 50 50
200 50 50
200 50 50
200 50 50
200 50 50
200 50 50
200 50 50
200 50 50
200 50 50
200 50 50
200 50 50
200 50 50
200 50 50
200 50 50
200 50 50
255 255 255
255 255 255
255 255 255
255 255 255
255 255 255
255 255 255
255 255 255
255 255 255
255 255 255
255 255 255
255 255 255
255 255 255
255 255 255
255 255 255
255 255 255
255 255 255
255 255 255
255 255 255
255 255 255
255 255 255
255 255 255
255 255 255
255 255 255
255 255 255
255 255 255
255 255 255
255 255 255
255 255 255
255 255 255
255 255 255
255 255 255
255 255 255
200 50 50
200 50 50
200 50 50
200 50 50
200 50 50
200 50 50
200 50 50
200 50 50
200 50 50
200 50 50
200 50 50
200 50 50
200 50 50
200 50 50
200 50 50
200 50 50
200 50 50
200 50 50
200 50 50
200 50 50
200 50 50
200 50 50
200 50 50
200 50 50
200 50 50
200 50 50
200 50 50
200 50 50
200 50 50
200 50 50
200 50 50
200 50 50
255 255 255
255 255 255
255 255 255
255 255 255
255 255 255
255 255 255
255 255 255
255 255 255
255 255 255
255 255 255
255 255 255
255 255 255
255 255 255
255 255 255
255 255 255
255 255 255
255 255 255
255 255 255
255 255 255
255 255 255
255 255 255
255 255 255
255 255 255
255 255 255
255 255 255
255 255 255
255 255 255
255 255 255
255 255 255
255 255 255
255 255 255
255 255 255
200 50 50
200 50 50
200 50 50
200 50 50
200 50 50
200 50 50
200 50 50
200 50 50
200 50 50
200 50 50
200 50 50
200 50 50
200 50 50
200 50 50
200 50 50
200 50 50
200 50 50
200 50 50
200 50 50
200 50 50
200 50 50
200 50 50
200 50 50
200 50 50
200 50 50
200 50 50
200 50 50
200 50 50
200 50 50
200 50 50
200 50 50
200 50 50
255 255 255
255 255 255
255 255 255
255 255 255
255 255 255
255 255 255
255 255 255
255 255 255
255 255 255
255 255 255
255 255 255
255 255 255
255 255 255
255 255 255
255 255 255
255 255 255
255 255 255
255 255 255
255 255 255
255 255 255
255 255 255
255 255 255
255 255 255
255 255 255
255 255 255
255 255 255
255 255 255
255 255 255
255 255 255
255 255 255
255 255 255
255 255 255
200 50 50
200 50 50
200 50 50
200 50 50
200 50 50
200 50 50
200 50 50
200 50 50
200 50 50
200 50 50
200 50 50
200 50 50
200 50 50
200 50 50
200 50 50
200 50 50
200 50 50
200 50 50
200 50 50
200 50 50
200 50 50
200 50 50
200 50 50
200 50 50
200 50 50
200 50 50
200 50 50
200 50 50
200 50 50
200 50 50
200 50 50
200 50 50
255 255 255
255 255 255
255 255 255
255 255 255
255 255 255
255 255 255
255 255 255
255 255 255
255 255 255
255 255 255
255 255 255
255 255 255
255 255 255
255 255 255
255 255 255
255 255 255
255 255 255
255 255 255
255 255 255
255 255 255
255 255 255
255 255 255
255 255 255
255 255 255
255 255 255
255 255 255
255 255 255
255 255 255
255 255 255
255 255 255
255 255 255
255 255 255
200 50 50
200 50 50
200 50 50
200 50 50
200 50 50
200 50 50
200 50 50
200 50 50
200 50 50
200 50 50
200 50 50
200 50 50
200 50 50
200 50 50
200 50 50
200 50 50
200 50 50
200 50 50
200 50 50
200 50 50
200 50 50
200 50 50
200 50 50
200 50 50
200 50 50
200 50 50
200 50 50
200 50 50
200 50 50
200 50 50
200 50 50
200 50 50
255 255 255
255 255 255
255 255 255
255 255 255
255 255 255
255 255 255
255 255 255
255 255 255
255 255 255
255 255 255
255 255 255
255 255 255
255 255 255
255 255 255
255 255 255
255 255 255
255 255 255
255 255 255
255 255 255
255 255 255
255 255 255
255 255 255
255 255 255
255 255 255
255 255 255
255 255 255
255 255 255
255 255 255
255 255 255
255 255 255
255 255 255
255 255 255
200 50 50
200 50 50
200 50 50
200 50 50
200 50 50
200 50 50
200 50 50
200 50 50
200 50 50
200 50 50
200 50 50
200 50 50
200 50 50
200 50 50
200 50 50
200 50 50
200 50 50
200 50 50
200 50 50
200 50 50
200 50 50
200 50 50
200 50 50
200 50 50
200 50 50
200 50 50
200 50 50
200 50 50
200 50 50
200 50 50
200 50 50
200 50 50
255 255 255
255 255 255
255 255 255
255 255 255
255 255 255
255 255 255
255 255 255
255 255 255
255 255 255
255 255 255
255 255 255
255 255 255
255 255 255
255 255 255
255 255 255
255 255 255
255 255 255
255 255 255
255 255 255
255 255 255
255 255 255
255 255 255
255 255 255
255 255 255
255 255 255
255 255 255
255 255 255
255 255 255
255 255 255
255 255 255
255 255 255
255 255 255
200 50 50
200 50 50
200 50 50
200 50 50
200 50 50
200 50 50
200 50 50
200 50 50
200 50 50
200 50 50
200 50 50
200 50 50
200 50 50
200 50 50
200 50 50
200 50 50
200 50 50
200 50 50
200 50 50
200 50 50
200 50 50
200 50 50
200 50 50
200 50 50
200 50 50
200 50 50
200 50 50
200 50 50
200 50 50
200 50 50
200 50 50
200 50 50
255 255 255
255 255 255
255 255 255
255 255 255
255 255 255
255 255 255
255 255 255
255 255 255
255 255 255
255 255 255
255 255 255
255 255 255
255 255 255
255 255 255
255 255 255
255 255 255
255 255 255
255 255 255
255 255 255
255 255 255
255 255 255
255 255 255
255 255 255
255 255 255
255 255 255
255 255 255
255 255 255
255 255 255
255 255 255
255 255 255
255 255 255
255 255 255
200 50 50
200 50 50
200 50 50
200 50 50
200 50 50
200 50 50
200 50 50
200 50 50
200 50 50
200 50 50
200 50 50
200 50 50
200 50 50
200 50 50
200 50 50
200 50 50
200 50 50
200 50 50
200 50 50
200 50 50
200 50 50
200 50 50
200 50 50
200 50 50
200 50 50
200 50 50
200 50 50
200 50 50
200 50 50
200 50 50
200 50 50
200 50 50
255 255 255
255 255 255
255 255 255
255 255 255
255 255 255
255 255 255
255 255 255
255 255 255
255 255 255
255 255 255
255 255 255
255 255 255
255 255 255
255 255 255
255 255 255
255 255 255
255 255 255
255 255 255
255 255 255
255 255 255
255 255 255
255 255 255
255 255 255
255 255 255
255 255 255
255 255 255
255 255 255
255 255 255
255 255 255
255 255 255
255 255 255
255 255 255
200 50 50
200 50 50
200 50 50
200 50 50
200 50 50
200 50 50
200 50 50
200 50 50
200 50 50
200 50 50
200 50 50
200 50 50
200 50 50
200 50 50
200 50 50
200 50 50
200 50 50
200 50 50
200 50 50
200 50 50
200 50 50
200 50 50
200 50 50
200 50 50
200 50 50
200 50 50
200 50 50
200 50 50
200 50 50
200 50 50
200 50 50
200 50 50
255 255 255
255 255 255
255 255 255
255 255 255
255 255 255
255 255 255
255 255 255
255 255 255
255 255 255
255 255 255
255 255 255
255 255 255
255 255 255
255 255 255
255 255 255
255 255 255
255 255 255
255 255 255
255 255 255
255 255 255
255 255 255
255 255 255
255 255 255
255 255 255
255 255 255
255 255 255
255 255 255
255 255 255
255 255 255
255 255 255
255 255 255
255 255 255
200 50 50
200 50 50
200 50 50
200 50 50
200 50 50
200 50 50
200 50 50
200 50 50
200 50 50
200 50 50
200 50 50
200 50 50
200 50 50
200 50 50
200 50 50
200 50 50
200 50 50
200 50 50
200 50 50
200 50 50
200 50 50
200 50 50
200 50 50
200 50 50
200 50 50
200 50 50
200 50 50
200 50 50
200 50 50
200 50 50
200 50 50
200 50 50
255 255 255
255 255 255
255 255 255
255 255 255
255 255 255
255 255 255
255 255 255
255 255 255
255 255 255
255 255 255
255 255 255
255 255 255
255 255 255
255 255 255
255 255 255
255 255 255
255 255 255
255 255 255
255 255 255
255 255 255
255 255 255
255 255 255
255 255 255
255 255 255
255 255 255
255 255 255
255 255 255
255 255 255
255 255 255
255 255 255
255 255 255
255 255 255
200 50 50
200 50 50
200 50 50
200 50 50
200 50 50
200 50 50
200 50 50
200 50 50
200 50 50
200 50 50
200 50 50
200 50 50
200 50 50
200 50 50
200 50 50
200 50 50
200 50 50
200 50 50
200 50 50
200 50 50
200 50 50
200 50 50
200 50 50
200 50 50
200 50 50
200 50 50
200 50 50
200 50 50
200 50 50
200 50 50
200 50 50
200 50 50
255 255 255
255 255 255
255 255 255
255 255 255
255 255 255
255 255 255
255 255 255
255 255 255
255 255 255
255 255 255
255 255 255
255 255 255
255 255 255
255 255 255
255 255 255
255 255 255
255 255 255
255 255 255
255 255 255
255 255 255
255 255 255
255 255 255
255 255 255
255 255 255
255 255 255
255 255 255
255 255 255
255 255 255
255 255 255
255 255 255
255 255 255
255 255 255
200 50 50
200 50 50
200 50 50
200 50 50
200 50 50
200 50 50
200 50 50
200 50 50
200 50 50
200 50 50
200 50 50
200 50 50
200 50 50
200 50 50
200 50 50
200 50 50
200 50 50
200 50 50
200 50 50
200 50 50
200 50 50
200 50 50
200 50 50
200 50 50
200 50 50
200 50 50
200 50 50
200 50 50
200 50 50
200 50 50
200 50 50
200 50 50
255 255 255
255 255 255
255 255 255
255 255 255
255 255 255
255 255 255
255 255 255
255 255 255
255 255 255
255 255 255
255 255 255
255 255 255
255 255 255
255 255 255
255 255 255
255 255 255
255 255 255
255 255 255
255 255 255
255 255 255
255 255 255
255 255 255
255 255 255
255 255 255
255 255 255
255 255 255
255 255 255
255 255 255
255 255 255
255 255 255
255 255 255
255 255 255
200 50 50
200 50 50
200 50 50
200 50 50
200 50 50
200 50 50
200 50 50
200 50 50
200 50 50
200 50 50
200 50 50
200 50 50
200 50 50
200 50 50
200 50 50
200 50 50
200 50 50
200 50 50
200 50 50
200 50 50
200 50 50
200 50 50
200 50 50
200 50 50
200 50 50
200 50 50
200 50 50
200 50 50
200 50 50
200 50 50
200 50 50
200 50 50
255 255 255
255 255 255
255 255 255
255 255 255
255 255 255
255 255 255
255 255 255
255 255 255
255 255 255
255 255 255
255 255 255
255 255 255
255 255 255
255 255 255
255 255 255
255 255 255
255 255 255
255 255 255
255 255 255
255 255 255
255 255 255
255 255 255
255 255 255
255 255 255
255 255 255
255 255 255
255 255 255
255 255 255
255 255 255
255 255 255
255 255 255
255 255 255
200 50 50
200 50 50
200 50 50
200 50 50
200 50 50
200 50 50
200 50 50
200 50 50
200 50 50
200 50 50
200 50 50
200 50 50
200 50 50
200 50 50
200 50 50
200 50 50
200 50 50
200 50 50
200 50 50
200 50 50
200 50 50
200 50 50
200 50 50
200 50 50
200 50 50
200 50 50
200 50 50
200 50 50
200 50 50
200 50 50
200 50 50
200 50 50
255 255 255
255 255 255
255 255 255
255 255 255
255 255 255
255 255 255
255 255 255
255 255 255
255 255 255
255 255 255
255 255 255
255 255 255
255 255 255
255 255 255
255 255 255
255 255 255
255 255 255
255 255 255
255 255 255
255 255 255
255 255 255
255 255 255
255 255 255
255 255 255
255 255 255
255 255 255
255 255 255
255 255 255
255 255 255
255 255 255
255 255 255
255 255 255
200 50 50
200 50 50
200 50 50
200 50 50
200 50 50
200 50 50
200 50 50
200 50 50
200 50 50
200 50 50
200 50 50
200 50 50
200 50 50
200 50 50
200 50 50
200 50 50
200 50 50
200 50 50
200 50 50
200 50 50
200 50 50
200 50 50
200 50 50
200 50 50
200 50 50
200 50 50
200 50 50
200 50 50
200 50 50
200 50 50
200 50 50
200 50 50
255 255 255
255 255 255
255 255 255
255 255 255
255 255 255
255 255 255
255 255 255
255 255 255
255 255 255
255 255 255
255 255 255
255 255 255
255 255 255
255 255 255
255 255 255
255 255 255
255 255 255
255 255 255
255 255 255
255 255 255
255 255 255
255 255 255
255 255 255
255 255 255
255 255 255
255 255 255
255 255 255
255 255 255
255 255 255
255 255 255
255 255 255
255 255 255
200 50 50
200 50 50
200 50 50
200 50 50
200 50 50
200 50 50
200 50 50
200 50 50
200 50 50
200 50 50
200 50 50
200 50 50
200 50 50
200 50 50
200 50 50
200 50 50
200 50 50
200 50 50
200 50 50
200 50 50
200 50 50
200 50 50
200 50 50
200 50 50
200 50 50
200 50 50
200 50 50
200 50 50
200 50 50
200 50 50
200 50 50
200 50 50
255 255 255
255 255 255
255 255 255
255 255 255
255 255 255
255 255 255
255 255 255
255 255 255
255 255 255
255 255 255
255 255 255
255 255 255
255 255 255
255 255 255
255 255 255
255 255 255
255 255 255
255 255 255
255 255 255
255 255 255
255 255 255
255 255 255
255 255 255
255 255 255
255 255 255
255 255 255
255 255 255
255 255 255
255 255 255
255 255 255
255 255 255
255 255 255
200 50 50
200 50 50
200 50 50
200 50 50
200 50 50
200 50 50
200 50 50
200 50 50
200 50 50
200 50 50
200 50 50
200 50 50
200 50 50
200 50 50
200 50 50
200 50 50
200 50 50
200 50 50
200 50 50
200 50 50
200 50 50
200 50 50
200 50 50
200 50 50
200 50 50
200 50 50
200 50 50
200 50 50
200 50 50
200 50 50
200 50 50
200 50 50
255 255 255
255 255 255
255 255 255
255 255 255
255 255 255
255 255 255
255 255 255
255 255 255
255 255 255
255 255 255
255 255 255
255 255 255
255 255 255
255 255 255
255 255 255
255 255 255
255 255 255
255 255 255
255 255 255
255 255 255
255 255 255
255 255 255
255 255 255
255 255 255
255 255 255
255 255 255
255 255 255
255 255 255
255 255 255
255 255 255
255 255 255
255 255 255
200 50 50
200 50 50
200 50 50
200 50 50
200 50 50
200 50 50
200 50 50
200 50 50
200 50 50
200 50 50
200 50 50
200 50 50
200 50 50
200 50 50
200 50 50
200 50 50
200 50 50
200 50 50
200 50 50
200 50 50
200 50 50
200 50 50
200 50 50
200 50 50
200 50 50
200 50 50
200 50 50
200 50 50
200 50 50
200 50 50
200 50 50
200 50 50
255 255 255
255 255 255
255 255 255
255 255 255
255 255 255
255 255 255
255 255 255
255 255 255
255 255 255
255 255 255
255 255 255
255 255 255
255 255 255
255 255 255
255 255 255
255 255 255
255 255 255
255 255 255
255 255 255
255 255 255
255 255 255
255 255 255
255 255 255
255 255 255
255 255 255
255 255 255
255 255 255
255 255 255
255 255 255
255 255 255
255 255 255
255 255 255
200 50 50
200 50 50
200 50 50
200 50 50
200 50 50
200 50 50
200 50 50
200 50 50
200 50 50
200 50 50
200 50 50
200 50 50
200 50 50
200 50 50
200 50 50
200 50 50
200 50 50
200 50 50
200 50 50
200 50 50
200 50 50
200 50 50
200 50 50
200 50 50
200 50 50
200 50 50
200 50 50
200 50 50
200 50 50
200 50 50
200 50 50
200 50 50
255 255 255
255 255 255
255 255 255
255 255 255
255 255 255
255 255 255
255 255 255
255 255 255
255 255 255
255 255 255
255 255 255
255 255 255
255 255 255
255 255 255
255 255 255
255 255 255
255 255 255
255 255 255
255 255 255
255 255 255
255 255 255
255 255 255
255 255 255
255 255 255
255 255 255
255 255 255
255 255 255
255 255 255
255 255 255
255 255 255
255 255 255
255 255 255
200 50 50
200 50 50
200 50 50
200 50 50
200 50 50
200 50 50
200 50 50
200 50 50
200 50 50
200 50 50
200 50 50
200 50 50
200 50 50
200 50 50
200 50 50
200 50 50
200 50 50
200 50 50
200 50 50
200 50 50
200 50 50
200 50 50
200 50 50
200 50 50
200 50 50
200 50 50
200 50 50
200 50 50
200 50 50
200 50 50
200 50 50
200 50 50
255 255 255
255 255 255
255 255 255
255 255 255
255 255 255
255 255 255
255 255 255
255 255 255
255 255 255
255 255 255
255 255 255
255 255 255
255 255 255
255 255 255
255 255 255
255 255 255
255 255 255
255 255 255
255 255 255
255 255 255
255 255 255
255 255 255
255 255 255
255 255 255
255 255 255
255 255 255
255 255 255
255 255 255
255 255 255
255 255 255
255 255 255
255 255 255
200 50 50
200 50 50
200 50 50
200 50 50
200 50 50
200 50 50
200 50 50
200 50 50
200 50 50
200 50 50
200 50 50
200 50 50
200 50 50
200 50 50
200 50 50
200 50 50
200 50 50
200 50 50
200 50 50
200 50 50
200 50 50
200 50 50
200 50 50
200 50 50
200 50 50
200 50 50
200 50 50
200 50 50
200 50 50
200 50 50
200 50 50
200 50 50
255 255 255
255 255 255
255 255 255
255 255 255
255 255 255
255 255 255
255 255 255
255 255 255
255 255 255
255 255 255
255 255 255
255 255 255
255 255 255
255 255 255
255 255 255
255 255 255
255 255 255
255 255 255
255 255 255
255 255 255
255 255 255
255 255 255
255 255 255
255 255 255
255 255 255
255 255 255
255 255 255
255 255 255
255 255 255
255 255 255
255 255 255
255 255 255
200 50 50
200 50 50
200 50 50
200 50 50
200 50 50
200 50 50
200 50 50
200 50 50
200 50 50
200 50 50
200 50 50
200 50 50
200 50 50
200 50 50
200 50 50
200 50 50
200 50 50
200 50 50
200 50 50
200 50 50
200 50 50
200 50 50
200 50 50
200 50 50
200 50 50
200 50 50
200 50 50
200 50 50
200 50 50
200 50 50
200 50 50
200 50 50
255 255 255
255 255 255
255 255 255
255 255 255
255 255 255
255 255 255
255 255 255
255 255 255
255 255 255
255 255 255
255 255 255
255 255 255
255 255 255
255 255 255
255 255 255
255 255 255
255 255 255
255 255 255
255 255 255
255 255 255
255 255 255
255 255 255
255 255 255
255 255 255
255 255 255
255 255 255
255 255 255
255 255 255
255 255 255
255 255 255
255 255 255
255 255 255
200 50 50
200 50 50
200 50 50
200 50 50
200 50 50
200 50 50
200 50 50
200 50 50
200 50 50
200 50 50
200 50 50
200 50 50
200 50 50
200 50 50
200 50 50
200 50 50
200 50 50
200 50 50
200 50 50
200 50 50
200 50 50
200 50 50
200 50 50
200 50 50
200 50 50
200 50 50
200 50 50
200 50 50
200 50 50
200 50 50
200 50 50
200 50 50
255 255 255
255 255 255
255 255 255
255 255 255
255 255 255
255 255 255
255 255 255
255 255 255
255 255 255
255 255 255
255 255 255
255 255 255
255 255 255
255 255 255
255 255 255
255 255 255
255 255 255
255 255 255
255 255 255
255 255 255
255 255 255
255 255 255
255 255 255
255 255 255
255 255 255
255 255 255
255 255 255
255 255 255
255 255 255
255 255 255
255 255 255
255 255 255
200 50 50
200 50 50
200 50 50
200 50 50
200 50 50
200 50 50
200 50 50
200 50 50
200 50 50
200 50 50
200 50 50
200 50 50
200 50 50
200 50 50
200 50 50
200 50 50
200 50 50
200 50 50
200 50 50
200 50 50
200 50 50
200 50 50
200 50 50
200 50 50
200 50 50
200 50 50
200 50 50
200 50 50
200 50 50
200 50 50
200 50 50
200 50 50
255 255 255
255 255 255
255 255 255
255 255 255
255 255 255
255 255 255
255 255 255
255 255 255
255 255 255
255 255 255
255 255 255
255 255 255
255 255 255
255 255 255
255 255 255
255 255 255
255 255 255
255 255 255
255 255 255
255 255 255
255 255 255
255 255 255
255 255 255
255 255 255
255 255 255
255 255 255
255 255 255
255 255 255
255 255 255
255 255 255
255 255 255
255 255 255
200 50 50
200 50 50
200 50 50
200 50 50
200 50 50
200 50 50
200 50 50
200 50 50
200 50 50
200 50 50
200 50 50
200 50 50
200 50 50
200 50 50
200 50 50
200 50 50
200 50 50
200 50 50
200 50 50
200 50 50
200 50 50
200 50 50
200 50 50
200 50 50
200 50 50
200 50 50
200 50 50
200 50 50
200 50 50
200 50 50
200 50 50
200 50 50
255 255 255
255 255 255
255 255 255
255 255 255
255 255 255
255 255 255
255 255 255
255 255 255
255 255 255
255 255 255
255 255 255
255 255 255
255 255 255
255 255 255
255 255 255
255 255 255
255 255 255
255 255 255
255 255 255
255 255 255
255 255 255
255 255 255
255 255 255
255 255 255
255 255 255
255 255 255
255 255 255
255 255 255
255 255 255
255 255 255
255 255 255
255 255 255
200 50 50
200 50 50
200 50 50
200 50 50
200 50 50
200 50 50
200 50 50
200 50 50
200 50 50
200 50 50
200 50 50
200 50 50
200 50 50
200 50 50
200 50 50
200 50 50
200 50 50
200 50 50
200 50 50
200 50 50
200 50 50
200 50 50
200 50 50
200 50 50
200 50 50
200 50 50
200 50 50
200 50 50
200 50 50
200 50 50
200 50 50
200 50 50
255 255 255
255 255 255
255 255 255
255 255 255
255 255 255
255 255 255
255 255 255
255 255 255
255 255 255
255 255 255
255 255 255
255 255 255
255 255 255
255 255 255
255 255 255
255 255 255
255 255 255
255 255 255
255 255 255
255 255 255
255 255 255
255 255 255
255 255 255
255 255 255
255 255 255
255 255 255
255 255 255
255 255 255
255 255 255
255 255 255
255 255 255
255 255 255
200 50 50
200 50 50
200 50 50
200 50 50
200 50 50
200 50 50
200 50 50
200 50 50
200 50 50
200 50 50
200 50 50
200 50 50
200 50 50
200 50 50
200 50 50
200 50 50
200 50 50
200 50 50
200 50 50
200 50 50
200 50 50
200 50 50
200 50 50
200 50 50
200 50 50
200 50 50
200 50 50
200 50 50
200 50 50
200 50 50
200 50 50
200 50 50
255 255 255
255 255 255
255 255 255
255 255 255
255 255 255
255 255 255
255 255 255
255 255 255
255 255 255
255 255 255
255 255 255
255 255 255
255 255 255
255 255 255
255 255 255
255 255 255
255 255 255
255 255 255
255 255 255
255 255 255
255 255 255
255 255 255
255 255 255
255 255 255
255 255 255
255 255 255
255 255 255
255 255 255
255 255 255
255 255 255
255 255 255
255 255 255
200 50 50
200 50 50
200 50 50
200 50 50
200 50 50
200 50 50
200 50 50
200 50 50
200 50 50
200 50 50
200 50 50
200 50 50
200 50 50
200 50 50
200 50 50
200 50 50
200 50 50
200 50 50
200 50 50
200 50 50
200 50 50
200 50 50
200 50 50
200 50 50
200 50 50
200 50 50
200 50 50
200 50 50
200 50 50
200 50 50
200 50 50
200 50 50
255 255 255
255 255 255
255 255 255
255 255 255
255 255 255
255 255 255
255 255 255
255 255 255
255 255 255
255 255 255
255 255 255
255 255 255
255 255 255
255 255 255
255 255 255
255 255 255
255 255 255
255 255 255
255 255 255
255 255 255
255 255 255
255 255 255
255 255 255
255 255 255
255 255 255
255 255 255
255 255 255
255 255 255
255 255 255
255 255 255
255 255 255
255 255 255
200 50 50
200 50 50
200 50 50
200 50 50
200 50 50
200 50 50
200 50 50
200 50 50
200 50 50
200 50 50
200 50 50
200 50 50
200 50 50
200 50 50
200 50 50
200 50 50
200 50 50
200 50 50
200 50 50
200 50 50
200 50 50
200 50 50
200 50 50
200 50 50
200 50 50
200 50 50
200 50 50
200 50 50
200 50 50
200 50 50
200 50 50
200 50 50
255 255 255
255 255 255
255 255 255
255 255 255
255 255 255
255 255 255
255 255 255
255 255 255
255 255 255
255 255 255
255 255 255
255 255 255
255 255 255
255 255 255
255 255 255
255 255 255
255 255 255
255 255 255
255 255 255
255 255 255
255 255 255
255 255 255
255 255 255
255 255 255
255 255 255
255 255 255
255 255 255
255 255 255
255 255 255
255 255 255
255 255 255
255 255 255
200 50 50
200 50 50
200 50 50
200 50 50
200 50 50
200 50 50
200 50 50
200 50 50
200 50 50
200 50 50
200 50 50
200 50 50
200 50 50
200 50 50
200 50 50
200 50 50
200 50 50
200 50 50
200 50 50
200 50 50
200 50 50
200 50 50
200 50 50
200 50 50
200 50 50
200 50 50
200 50 50
200 50 50
200 50 50
200 50 50
200 50 50
200 50 50
255 255 255
255 255 255
255 255 255
255 255 255
255 255 255
255 255 255
255 255 255
255 255 255
255 255 255
255 255 255
255 255 255
255 255 255
255 255 255
255 255 255
255 255 255
255 255 255
255 255 255
255 255 255
255 255 255
255 255 255
255 255 255
255 255 255
255 255 255
255 255 255
255 255 255
255 255 255
255 255 255
255 255 255
255 255 255
255 255 255
255 255 255
255 255 255
200 50 50
200 50 50
200 50 50
200 50 50
200 50 50
200 50 50
200 50 50
200 50 50
200 50 50
200 50 50
200 50 50
200 50 50
200 50 50
200 50 50
200 50 50
200 50 50
200 50 50
200 50 50
200 50 50
200 50 50
200 50 50
200 50 50
200 50 50
200 50 50
200 50 50
200 50 50
200 50 50
200 50 50
200 50 50
200 50 50
200 50 50
200 50 50
255 255 255
255 255 255
255 255 255
255 255 255
255 255 255
255 255 255
255 255 255
255 255 255
255 255 255
255 255 255
255 255 255
255 255 255
255 255 255
255 255 255
255 255 255
255 255 255
255 255 255
255 255 255
255 255 255
255 255 255
255 255 255
255 255 255
255 255 255
255 255 255
255 255 255
255 255 255
255 255 255
255 255 255
255 255 255
255 255 255
255 255 255
255 255 255
200 50 50
200 50 50
200 50 50
200 50 50
200 50 50
200 50 50
200 50 50
200 50 50
200 50 50
200 50 50
200 50 50
200 50 50
200 50 50
200 50 50
200 50 50
200 50 50
200 50 50
200 50 50
200 50 50
200 50 50
200 50 50
200 50 50
200 50 50
200 50 50
200 50 50
200 50 50
200 50 50
200 50 50
200 50 50
200 50 50
200 50 50
200 50 50
255 255 255
255 255 255
255 255 255
255 255 255
255 255 255
255 255 255
255 255 255
255 255 255
255 255 255
255 255 255
255 255 255
255 255 255
255 255 255
255 255 255
255 255 255
255 255 255
255 255 255
255 255 255
255 255 255
255 255 255
255 255 255
255 255 255
255 255 255
255 255 255
255 255 255
255 255 255
255 255 255
255 255 255
255 255 255
255 255 255
255 255 255
255 255 255
200 50 50
200 50 50
200 50 50
200 50 50
200 50 50
200 50 50
200 50 50
200 50 50
200 50 50
200 50 50
200 50 50
200 50 50
200 50 50
200 50 50
200 50 50
200 50 50
200 50 50
200 50 50
200 50 50
200 50 50
200 50 50
200 50 50
200 50 50
200 50 50
200 50 50
200 50 50
200 50 50
200 50 50
200 50 50
200 50 50
200 50 50
200 50 50
255 255 255
255 255 255
255 255 255
255 255 255
255 255 255
255 255 255
255 255 255
255 255 255
255 255 255
255 255 255
255 255 255
255 255 255
255 255 255
255 255 255
255 255 255
255 255 255
255 255 255
255 255 255
255 255 255
255 255 255
255 255 255
255 255 255
255 255 255
255 255 255
255 255 255
255 255 255
255 255 255
255 255 255
255 255 255
255 255 255
255 255 255
255 255 255
200 50 50
200 50 50
200 50 50
200 50 50
200 50 50
200 50 50
200 50 50
200 50 50
200 50 50
200 50 50
200 50 50
200 50 50
200 50 50
200 50 50
200 50 50
200 50 50
200 50 50
200 50 50
200 50 50
200 50 50
200 50 50
200 50 50
200 50 50
200 50 50
200 50 50
200 50 50
200 50 50
200 50 50
200 50 50
200 50 50
200 50 50
200 50 50
255 255 255
255 255 255
255 255 255
255 255 255
255 255 255
255 255 255
255 255 255
255 255 255
255 255 255
255 255 255
255 255 255
255 255 255
255 255 255
255 255 255
255 255 255
255 255 255
255 255 255
255 255 255
255 255 255
255 255 255
255 255 255
255 255 255
255 255 255
255 255 255
255 255 255
255 255 255
255 255 255
255 255 255
255 255 255
255 255 255
255 255 255
255 255 255
200 50 50
200 50 50
200 50 50
200 50 50
200 50 50
200 50 50
200 50 50
200 50 50
200 50 50
200 50 50
200 50 50
200 50 50
200 50 50
200 50 50
200 50 50
200 50 50
200 50 50
200 50 50
200 50 50
200 50 50
200 50 50
200 50 50
200 50 50
200 50 50
200 50 50
200 50 50
200 50 50
200 50 50
200 50 50
200 50 50
200 50 50
200 50 50
255 255 255
255 255 255
255 255 255
255 255 255
255 255 255
255 255 255
255 255 255
255 255 255
255 255 255
255 255 255
255 255 255
255 255 255
255 255 255
255 255 255
255 255 255
255 255 255
255 255 255
255 255 255
255 255 255
255 255 255
255 255 255
255 255 255
255 255 255
255 255 255
255 255 255
255 255 255
255 255 255
255 255 255
255 255 255
255 255 255
255 255 255
255 255 255
200 50 50
200 50 50
200 50 50
200 50 50
200 50 50
200 50 50
200 50 50
200 50 50
200 50 50
200 50 50
200 50 50
200 50 50
200 50 50
200 50 50
200 50 50
200 50 50
200 50 50
200 50 50
200 50 50
200 50 50
200 50 50
200 50 50
200 50 50
200 50 50
200 50 50
200 50 50
200 50 50
200 50 50
200 50 50
200 50 50
200 50 50
200 50 50
255 255 255
255 255 255
255 255 255
255 255 255
255 255 255
255 255 255
255 255 255
255 255 255
255 255 255
255 255 255
255 255 255
255 255 255
255 255 255
255 255 255
255 255 255
255 255 255
255 255 255
255 255 255
255 255 255
255 255 255
255 255 255
255 255 255
255 255 255
255 255 255
255 255 255
255 255 255
255 255 255
255 255 255
255 255 255
255 255 255
255 255 255
255 255 255
200 50 50
200 50 50
200 50 50
200 50 50
200 50 50
200 50 50
200 50 50
200 50 50
200 50 50
200 50 50
200 50 50
200 50 50
200 50 50
200 50 50
200 50 50
200 50 50
200 50 50
200 50 50
200 50 50
200 50 50
200 50 50
200 50 50
200 50 50
200 50 50
200 50 50
200 50 50
200 50 50
200 50 50
200 50 50
200 50 50
200 50 50
200 50 50
255 255 255
255 255 255
255 255 255
255 255 255
255 255 255
255 255 255
255 255 255
255 255 255
255 255 255
255 255 255
255 255 255
255 255 255
255 255 255
255 255 255
255 255 255
255 255 255
255 255 255
255 255 255
255 255 255
255 255 255
255 255 255
255 255 255
255 255 255
255 255 255
255 255 255
255 255 255
255 255 255
255 255 255
255 255 255
255 255 255
255 255 255
255 255 255
200 50 50
200 50 50
200 50 50
200 50 50
200 50 50
200 50 50
200 50 50
200 50 50
200 50 50
200 50 50
200 50 50
200 50 50
200 50 50
200 50 50
200 50 50
200 50 50
200 50 50
200 50 50
200 50 50
200 50 50
200 50 50
200 50 50
200 50 50
200 50 50
200 50 50
200 50 50
200 50 50
200 50 50
200 50 50
200 50 50
200 50 50
200 50 50
255 255 255
255 255 255
255 255 255
255 255 255
255 255 255
255 255 255
255 255 255
255 255 255
255 255 255
255 255 255
255 255 255
255 255 255
255 255 255
255 255 255
255 255 255
255 255 255
255 255 255
255 255 255
255 255 255
255 255 255
255 255 255
255 255 255
255 255 255
255 255 255
255 255 255
255 255 255
255 255 255
255 255 255
255 255 255
255 255 255
255 255 255
255 255 255
200 50 50
200 50 50
200 50 50
200 50 50
200 50 50
200 50 50
200 50 50
200 50 50
200 50 50
200 50 50
200 50 50
200 50 50
200 50 50
200 50 50
200 50 50
200 50 50
200 50 50
200 50 50
200 50 50
200 50 50
200 50 50
200 50 50
200 50 50
200 50 50
200 50 50
200 50 50
200 50 50
200 50 50
200 50 50
200 50 50
200 50 50
200 50 50
255 255 255
255 255 255
255 255 255
255 255 255
255 255 255
255 255 255
255 255 255
255 255 255
255 255 255
255 255 255
255 255 255
255 255 255
255 255 255
255 255 255
255 255 255
255 255 255
255 255 255
255 255 255
255 255 255
255 255 255
255 255 255
255 255 255
255 255 255
255 255 255
255 255 255
255 255 255
255 255 255
255 255 255
255 255 255
255 255 255
255 255 255
255 255 255
200 50 50
200 50 50
200 50 50
200 50 50
200 50 50
200 50 50
200 50 50
200 50 50
200 50 50
200 50 50
200 50 50
200 50 50
200 50 50
200 50 50
200 50 50
200 50 50
200 50 50
200 50 50
200 50 50
200 50 50
200 50 50
200 50 50
200 50 50
200 50 50
200 50 50
200 50 50
200 50 50
200 50 50
200 50 50
200 50 50
200 50 50
200 50 50
255 255 255
255 255 255
255 255 255
255 255 255
255 255 255
255 255 255
255 255 255
255 255 255
255 255 255
255 255 255
255 255 255
255 255 255
255 255 255
255 255 255
255 255 255
255 255 255
255 255 255
255 255 255
255 255 255
255 255 255
255 255 255
255 255 255
255 255 255
255 255 255
255 255 255
255 255 255
255 255 255
255 255 255
255 255 255
255 255 255
255 255 255
255 255 255
200 50 50
200 50 50
200 50 50
200 50 50
200 50 50
200 50 50
200 50 50
200 50 50
200 50 50
200 50 50
200 50 50
200 50 50
200 50 50
200 50 50
200 50 50
200 50 50
200 50 50
200 50 50
200 50 50
200 50 50
200 50 50
200 50 50
200 50 50
200 50 50
200 50 50
200 50 50
200 50 50
200 50 50
200 50 50
200 50 50
200 50 50
200 50 50
255 255 255
255 255 255
255 255 255
255 255 255
255 255 255
255 255 255
255 255 255
255 255 255
255 255 255
255 255 255
255 255 255
255 255 255
255 255 255
255 255 255
255 255 255
255 255 255
255 255 255
255 255 255
255 255 255
255 255 255
255 255 255
255 255 255
255 255 255
255 255 255
255 255 255
255 255 255
255 255 255
255 255 255
255 255 255
255 255 255
255 255 255
255 255 255
200 50 50
200 50 50
200 50 50
200 50 50
200 50 50
200 50 50
200 50 50
200 50 50
200 50 50
200 50 50
200 50 50
200 50 50
200 50 50
200 50 50
200 50 50
200 50 50
200 50 50
200 50 50
200 50 50
200 50 50
200 50 50
200 50 50
200 50 50
200 50 50
200 50 50
200 50 50
200 50 50
200 50 50
200 50 50
200 50 50
200 50 50
200 50 50
255 255 255
255 255 255
255 255 255
255 255 255
255 255 255
255 255 255
255 255 255
255 255 255
255 255 255
255 255 255
255 255 255
255 255 255
255 255 255
255 255 255
255 255 255
255 255 255
255 255 255
255 255 255
255 255 255
255 255 255
255 255 255
255 255 255
255 255 255
255 255 255
255 255 255
255 255 255
255 255 255
255 255 255
255 255 255
255 255 255
255 255 255
255 255 255
200 50 50
200 50 50
200 50 50
200 50 50
200 50 50
200 50 50
200 50 50
200 50 50
200 50 50
200 50 50
200 50 50
200 50 50
200 50 50
200 50 50
200 50 50
200 50 50
200 50 50
200 50 50
200 50 50
200 50 50
200 50 50
200 50 50
200 50 50
200 50 50
200 50 50
200 50 50
200 50 50
200 50 50
200 50 50
200 50 50
200 50 50
200 50 50
255 255 255
255 255 255
255 255 255
255 255 255
255 255 255
255 255 255
255 255 255
255 255 255
255 255 255
255 255 255
255 255 255
255 255 255
255 255 255
255 255 255
255 255 255
255 255 255
255 255 255
255 255 255
255 255 255
255 255 255
255 255 255
255 255 255
255 255 255
255 255 255
255 255 255
255 255 255
255 255 255
255 255 255
255 255 255
255 255 255
255 255 255
255 255 255
200 50 50
200 50 50
200 50 50
200 50 50
200 50 50
200 50 50
200 50 50
200 50 50
200 50 50
200 50 50
200 50 50
200 50 50
200 50 50
200 50 50
200 50 50
200 50 50
200 50 50
200 50 50
200 50 50
200 50 50
200 50 50
200 50 50
200 50 50
200 50 50
200 50 50
200 50 50
200 50 50
200 50 50
200 50 50
200 50 50
200 50 50
200 50 50
255 255 255
255 255 255
255 255 255
255 255 255
255 255 255
255 255 255
255 255 255
255 255 255
255 255 255
255 255 255
255 255 255
255 255 255
255 255 255
255 255 255
255 255 255
255 255 255
255 255 255
255 255 255
255 255 255
255 255 255
255 255 255
255 255 255
255 255 255
255 255 255
255 255 255
255 255 255
255 255 255
255 255 255
255 255 255
255 255 255
255 255 255
255 255 255
200 50 50
200 50 50
200 50 50
200 50 50
200 50 50
200 50 50
200 50 50
200 50 50
200 50 50
200 50 50
200 50 50
200 50 50
200 50 50
200 50 50
200 50 50
200 50 50
200 50 50
200 50 50
200 50 50
200 50 50
200 50 50
200 50 50
200 50 50
200 50 50
200 50 50
200 50 50
200 50 50
200 50 50
200 50 50
200 50 50
200 50 50
200 50 50
255 255 255
255 255 255
255 255 255
255 255 255
255 255 255
255 255 255
255 255 255
255 255 255
255 255 255
255 255 255
255 255 255
255 255 255
255 255 255
255 255 255
255 255 255
255 255 255
255 255 255
255 255 255
255 255 255
255 255 255
255 255 255
255 255 255
255 255 255
255 255 255
255 255 255
255 255 255
255 255 255
255 255 255
255 255 255
255 255 255
255 255 255
255 255 255
200 50 50
200 50 50
200 50 50
200 50 50
200 50 50
200 50 50
200 50 50
200 50 50
200 50 50
200 50 50
200 50 50
200 50 50
200 50 50
200 50 50
200 50 50
200 50 50
200 50 50
200 50 50
200 50 50
200 50 50
200 50 50
200 50 50
200 50 50
200 50 50
200 50 50
200 50 50
200 50 50
200 50 50
200 50 50
200 50 50
200 50 50
200 50 50
255 255 255
255 255 255
255 255 255
255 255 255
255 255 255
255 255 255
255 255 255
255 255 255
255 255 255
255 255 255
255 255 255
255 255 255
255 255 255
255 255 255
255 255 255
255 255 255
255 255 255
255 255 255
255 255 255
255 255 255
255 255 255
255 255 255
255 255 255
255 255 255
255 255 255
255 255 255
255 255 255
255 255 255
255 255 255
255 255 255
255 255 255
255 255 255
200 50 50
200 50 50
200 50 50
200 50 50
200 50 50
200 50 50
200 50 50
200 50 50
200 50 50
200 50 50
200 50 50
200 50 50
200 50 50
200 50 50
200 50 50
200 50 50
200 50 50
200 50 50
200 50 50
200 50 50
200 50 50
200 50 50
200 50 50
200 50 50
200 50 50
200 50 50
200 50 50
200 50 50
200 50 50
200 50 50
200 50 50
200 50 50
255 255 255
255 255 255
255 255 255
255 255 255
255 255 255
255 255 255
255 255 255
255 255 255
255 255 255
255 255 255
255 255 255
255 255 255
255 255 255
255 255 255
255 255 255
255 255 255
255 255 255
255 255 255
255 255 255
255 255 255
255 255 255
255 255 255
255 255 255
255 255 255
255 255 255
255 255 255
255 255 255
255 255 255
255 255 255
255 255 255
255 255 255
255 255 255
200 50 50
200 50 50
200 50 50
200 50 50
200 50 50
200 50 50
200 50 50
200 50 50
200 50 50
200 50 50
200 50 50
200 50 50
200 50 50
200 50 50
200 50 50
200 50 50
200 50 50
200 50 50
200 50 50
200 50 50
200 50 50
200 50 50
200 50 50
200 50 50
200 50 50
200 50 50
200 50 50
200 50 50
200 50 50
200 50 50
200 50 50
200 50 50
255 255 255
255 255 255
255 255 255
255 255 255
255 255 255
255 255 255
255 255 255
255 255 255
255 255 255
255 255 255
255 255 255
255 255 255
255 255 255
255 255 255
255 255 255
255 255 255
255 255 255
255 255 255
255 255 255
255 255 255
255 255 255
255 255 255
255 255 255
255 255 255
255 255 255
255 255 255
255 255 255
255 255 255
255 255 255
255 255 255
255 255 255
255 255 255
200 50 50
200 50 50
200 50 50
200 50 50
200 50 50
200 50 50
200 50 50
200 50 50
200 50 50
200 50 50
200 50 50
200 50 50
200 50 50
200 50 50
200 50 50
200 50 50
200 50 50
200 50 50
200 50 50
200 50 50
200 50 50
200 50 50
200 50 50
200 50 50
200 50 50
200 50 50
200 50 50
200 50 50
200 50 50
200 50 50
200 50 50
200 50 50
255 255 255
255 255 255
255 255 255
255 255 255
255 255 255
255 255 255
255 255 255
255 255 255
255 255 255
255 255 255
255 255 255
255 255 255
255 255 255
255 255 255
255 255 255
255 255 255
255 255 255
255 255 255
255 255 255
255 255 255
255 255 255
255 255 255
255 255 255
255 255 255
255 255 255
255 255 255
255 255 255
255 255 255
255 255 255
255 255 255
255 255 255
255 255 255
200 50 50
200 50 50
200 50 50
200 50 50
200 50 50
200 50 50
200 50 50
200 50 50
200 50 50
200 50 50
200 50 50
200 50 50
200 50 50
200 50 50
200 50 50
200 50 50
200 50 50
200 50 50
200 50 50
200 50 50
200 50 50
200 50 50
200 50 50
200 50 50
200 50 50
200 50 50
200 50 50
200 50 50
200 50 50
200 50 50
200 50 50
200 50 50
255 255 255
255 255 255
255 255 255
255 255 255
255 255 255
255 255 255
255 255 255
255 255 255
255 255 255
255 255 255
255 255 255
255 255 255
255 255 255
255 255 255
255 255 255
255 255 255
255 255 255
255 255 255
255 255 255
255 255 255
255 255 255
255 255 255
255 255 255
255 255 255
255 255 255
255 255 255
255 255 255
255 255 255
255 255 255
255 255 255
255 255 255
255 255 255
200 50 50
200 50 50
200 50 50
200 50 50
200 50 50
200 50 50
200 50 50
200 50 50
200 50 50
200 50 50
200 50 50
200 50 50
200 50 50
200 50 50
200 50 50
200 50 50
200 50 50
200 50 50
200 50 50
200 50 50
200 50 50
200 50 50
200 50 50
200 50 50
200 50 50
200 50 50
200 50 50
200 50 50
200 50 50
200 50 50
200 50 50
200 50 50
255 255 255
255 255 255
255 255 255
255 255 255
255 255 255
255 255 255
255 255 255
255 255 255
255 255 255
255 255 255
255 255 255
255 255 255
255 255 255
255 255 255
255 255 255
255 255 255
255 255 255
255 255 255
255 255 255
255 255 255
255 255 255
255 255 255
255 255 255
255 255 255
255 255 255
255 255 255
255 255 255
255 255 255
255 255 255
255 255 255
255 255 255
255 255 255
200 50 50
200 50 50
200 50 50
200 50 50
200 50 50
200 50 50
200 50 50
200 50 50
200 50 50
200 50 50
200 50 50
200 50 50
200 50 50
200 50 50
200 50 50
200 50 50
200 50 50
200 50 50
200 50 50
200 50 50
200 50 50
200 50 50
200 50 50
200 50 50
200 50 50
200 50 50
200 50 50
200 50 50
200 50 50
200 50 50
200 50 50
200 50 50
255 255 255
255 255 255
255 255 255
255 255 255
255 255 255
255 255 255
255 255 255
255 255 255
255 255 255
255 255 255
255 255 255
255 255 255
255 255 255
255 255 255
255 255 255
255 255 255
255 255 255
255 255 255
255 255 255
255 255 255
255 255 255
255 255 255
255 255 255
255 255 255
255 255 255
255 255 255
255 255 255
255 255 255
255 255 255
255 255 255
255 255 255
255 255 255
200 50 50
200 50 50
200 50 50
200 50 50
200 50 50
200 50 50
200 50 50
200 50 50
200 50 50
200 50 50
200 50 50
200 50 50
200 50 50
200 50 50
200 50 50
200 50 50
200 50 50
200 50 50
200 50 50
200 50 50
200 50 50
200 50 50
200 50 50
200 50 50
200 50 50
200 50 50
200 50 50
200 50 50
200 50 50
200 50 50
200 50 50
200 50 50
255 255 255
255 255 255
255 255 255
255 255 255
255 255 255
255 255 255
255 255 255
255 255 255
255 255 255
255 255 255
255 255 255
255 255 255
255 255 255
255 255 255
255 255 255
255 255 255
255 255 255
255 255 255
255 255 255
255 255 255
255 255 255
255 255 255
255 255 255
255 255 255
255 255 255
255 255 255
255 255 255
255 255 255
255 255 255
255 255 255
255 255 255
255 255 255
200 50 50
200 50 50
200 50 50
200 50 50
200 50 50
200 50 50
200 50 50
200 50 50
200 50 50
200 50 50
200 50 50
200 50 50
200 50 50
200 50 50
200 50 50
200 50 50
200 50 50
200 50 50
200 50 50
200 50 50
200 50 50
200 50 50
200 50 50
200 50 50
200 50 50
200 50 50
200 50 50
200 50 50
200 50 50
200 50 50
200 50 50
200 50 50
255 255 255
255 255 255
255 255 255
255 255 255
255 255 255
255 255 255
255 255 255
255 255 255
255 255 255
255 255 255
255 255 255
255 255 255
255 255 255
255 255 255
255 255 255
255 255 255
255 255 255
255 255 255
255 255 255
255 255 255
255 255 255
255 255 255
255 255 255
255 255 255
255 255 255
255 255 255
255 255 255
255 255 255
255 255 255
255 255 255
255 255 255
255 255 255
200 50 50
200 50 50
200 50 50
200 50 50
200 50 50
200 50 50
200 50 50
200 50 50
200 50 50
200 50 50
200 50 50
200 50 50
200 50 50
200 50 50
200 50 50
200 50 50
200 50 50
200 50 50
200 50 50
200 50 50
200 50 50
200 50 50
200 50 50
200 50 50
200 50 50
200 50 50
200 50 50
200 50 50
200 50 50
200 50 50
200 50 50
200 50 50
255 255 255
255 255 255
255 255 255
255 255 255
255 255 255
255 255 255
255 255 255
255 255 255
255 255 255
255 255 255
255 255 255
255 255 255
255 255 255
255 255 255
255 255 255
255 255 255
255 255 255
255 255 255
255 255 255
255 255 255
255 255 255
255 255 255
255 255 255
255 255 255
255 255 255
255 255 255
255 255 255
255 255 255
255 255 255
255 255 255
255 255 255
255 255 255
200 50 50
200 50 50
200 50 50
200 50 50
200 50 50
200 50 50
200 50 50
200 50 50
200 50 50
200 50 50
200 50 50
200 50 50
200 50 50
200 50 50
200 50 50
200 50 50
200 50 50
200 50 50
200 50 50
200 50 50
200 50 50
200 50 50
200 50 50
200 50 50
200 50 50
200 50 50
200 50 50
200 50 50
200 50 50
200 50 50
200 50 50
200 50 50
255 255 255
255 255 255
255 255 255
255 255 255
255 255 255
255 255 255
255 255 255
255 255 255
255 255 255
255 255 255
255 255 255
255 255 255
255 255 255
255 255 255
255 255 255
255 255 255
255 255 255
255 255 255
255 255 255
255 255 255
255 255 255
255 255 255
255 255 255
255 255 255
255 255 255
255 255 255
255 255 255
255 255 255
255 255 255
255 255 255
255 255 255
255 255 255
200 50 50
200 50 50
200 50 50
200 50 50
200 50 50
200 50 50
200 50 50
200 50 50
200 50 50
200 50 50
200 50 50
200 50 50
200 50 50
200 50 50
200 50 50
200 50 50
200 50 50
200 50 50
200 50 50
200 50 50
200 50 50
200 50 50
200 50 50
200 50 50
200 50 50
200 50 50
200 50 50
200 50 50
200 50 50
200 50 50
200 50 50
200 50 50
255 255 255
255 255 255
255 255 255
255 255 255
255 255 255
255 255 255
255 255 255
255 255 255
255 255 255
255 255 255
255 255 255
255 255 255
255 255 255
255 255 255
255 255 255
255 255 255
255 255 255
255 255 255
255 255 255
255 255 255
255 255 255
255 255 255
255 255 255
255 255 255
255 255 255
255 255 255
255 255 255
255 255 255
255 255 255
255 255 255
255 255 255
255 255 255
200 50 50
200 50 50
200 50 50
200 50 50
200 50 50
200 50 50
200 50 50
200 50 50
200 50 50
200 50 50
200 50 50
200 50 50
200 50 50
200 50 50
200 50 50
200 50 50
200 50 50
200 50 50
200 50 50
200 50 50
200 50 50
200 50 50
200 50 50
200 50 50
200 50 50
200 50 50
200 50 50
200 50 50
200 50 50
200 50 50
200 50 50
200 50 50
255 255 255
255 255 255
255 255 255
255 255 255
255 255 255
255 255 255
255 255 255
255 255 255
255 255 255
255 255 255
255 255 255
255 255 255
255 255 255
255 255 255
255 255 255
255 255 255
255 255 255
255 255 255
255 255 255
255 255 255
255 255 255
255 255 255
255 255 255
255 255 255
255 255 255
255 255 255
255 255 255
255 255 255
255 255 255
255 255 255
255 255 255
255 255 255
200 50 50
200 50 50
200 50 50
200 50 50
200 50 50
200 50 50
200 50 50
200 50 50
200 50 50
200 50 50
200 50 50
200 50 50
200 50 50
200 50 50
200 50 50
200 50 50
200 50 50
200 50 50
200 50 50
200 50 50
200 50 50
200 50 50
200 50 50
200 50 50
200 50 50
200 50 50
200 50 50
200 50 50
200 50 50
200 50 50
200 50 50
200 50 50
255 255 255
255 255 255
255 255 255
255 255 255
255 255 255
255 255 255
255 255 255
255 255 255
255 255 255
255 255 255
255 255 255
255 255 255
255 255 255
255 255 255
255 255 255
255 255 255
255 255 255
255 255 255
255 255 255
255 255 255
255 255 255
255 255 255
255 255 255
255 255 255
255 255 255
255 255 255
255 255 255
255 255 255
255 255 255
255 255 255
255 255 255
255 255 255
200 50 50
200 50 50
200 50 50
200 50 50
200 50 50
200 50 50
200 50 50
200 50 50
200 50 50
200 50 50
200 50 50
200 50 50
200 50 50
200 50 50
200 50 50
200 50 50
200 50 50
200 50 50
200 50 50
200 50 50
200 50 50
200 50 50
200 50 50
200 50 50
200 50 50
200 50 50
200 50 50
200 50 50
200 50 50
200 50 50
200 50 50
200 50 50
255 255 255
255 255 255
255 255 255
255 255 255
255 255 255
255 255 255
255 255 255
255 255 255
255 255 255
255 255 255
255 255 255
255 255 255
255 255 255
255 255 255
255 255 255
255 255 255
255 255 255
255 255 255
255 255 255
255 255 255
255 255 255
255 255 255
255 255 255
255 255 255
255 255 255
255 255 255
255 255 255
255 255 255
255 255 255
255 255 255
255 255 255
255 255 255
200 50 50
200 50 50
200 50 50
200 50 50
200 50 50
200 50 50
200 50 50
200 50 50
200 50 50
200 50 50
200 50 50
200 50 50
200 50 50
200 50 50
200 50 50
200 50 50
200 50 50
200 50 50
200 50 50
200 50 50
200 50 50
200 50 50
200 50 50
200 50 50
200 50 50
200 50 50
200 50 50
200 50 50
200 50 50
200 50 50
200 50 50
200 50 50
255 255 255
255 255 255
255 255 255
255 255 255
255 255 255
255 255 255
255 255 255
255 255 255
255 255 255
255 255 255
255 255 255
255 255 255
255 255 255
255 255 255
255 255 255
255 255 255
255 255 255
255 255 255
255 255 255
255 255 255
255 255 255
255 255 255
255 255 255
255 255 255
255 255 255
255 255 255
255 255 255
255 255 255
255 255 255
255 255 255
255 255 255
255 255 255
200 50 50
200 50 50
200 50 50
200 50 50
200 50 50
200 50 50
200 50 50
200 50 50
200 50 50
200 50 50
200 50 50
200 50 50
200 50 50
200 50 50
200 50 50
200 50 50
200 50 50
200 50 50
200 50 50
200 50 50
200 50 50
200 50 50
200 50 50
200 50 50
200 50 50
200 50 50
200 50 50
200 50 50
200 50 50
200 50 50
200 50 50
200 50 50
255 255 255
255 255 255
255 255 255
255 255 255
255 255 255
255 255 255
255 255 255
255 255 255
255 255 255
255 255 255
255 255 255
255 255 255
255 255 255
255 255 255
255 255 255
255 255 255
255 255 255
255 255 255
255 255 255
255 255 255
255 255 255
255 255 255
255 255 255
255 255 255
255 255 255
255 255 255
255 255 255
255 255 255
255 255 255
255 255 255
255 255 255
255 255 255
200 50 50
200 50 50
200 50 50
200 50 50
200 50 50
200 50 50
200 50 50
200 50 50
200 50 50
200 50 50
200 50 50
200 50 50
200 50 50
200 50 50
200 50 50
200 50 50
200 50 50
200 50 50
200 50 50
200 50 50
200 50 50
200 50 50
200 50 50
200 50 50
200 50 50
200 50 50
200 50 50
200 50 50
200 50 50
200 50 50
200 50 50
200 50 50
255 255 255
255 255 255
255 255 255
255 255 255
255 255 255
255 255 255
255 255 255
255 255 255
255 255 255
255 255 255
255 255 255
255 255 255
255 255 255
255 255 255
255 255 255
255 255 255
255 255 255
255 255 255
255 255 255
255 255 255
255 255 255
255 255 255
255 255 255
255 255 255
255 255 255
255 255 255
255 255 255
255 255 255
255 255 255
255 255 255
255 255 255
255 255 255
200 50 50
200 50 50
200 50 50
200 50 50
200 50 50
200 50 50
200 50 50
200 50 50
200 50 50
200 50 50
200 50 50
200 50 50
200 50 50
200 50 50
200 50 50
200 50 50
200 50 50
200 50 50
200 50 50
200 50 50
200 50 50
200 50 50
200 50 50
200 50 50
200 50 50
200 50 50
200 50 50
200 50 50
200 50 50
200 50 50
200 50 50
200 50 50
255 255 255
255 255 255
255 255 255
255 255 255
255 255 255
255 255 255
255 255 255
255 255 255
255 255 255
255 255 255
255 255 255
255 255 255
255 255 255
255 255 255
255 255 255
255 255 255
255 255 255
255 255 255
255 255 255
255 255 255
255 255 255
255 255 255
255 255 255
255 255 255
255 255 255
255 255 255
255 255 255
255 255 255
255 255 255
255 255 255
255 255 255
255 255 255
200 50 50
200 50 50
200 50 50
200 50 50
200 50 50
200 50 50
200 50 50
200 50 50
200 50 50
200 50 50
200 50 50
200 50 50
200 50 50
200 50 50
200 50 50
200 50 50
200 50 50
200 50 50
200 50 50
200 50 50
200 50 50
200 50 50
200 50 50
200 50 50
200 50 50
200 50 50
200 50 50
200 50 50
200 50 50
200 50 50
200 50 50
200 50 50
255 255 255
255 255 255
255 255 255
255 255 255
255 255 255
255 255 255
255 255 255
255 255 255
255 255 255
255 255 255
255 255 255
255 255 255
255 255 255
255 255 255
255 255 255
255 255 255
255 255 255
255 255 255
255 255 255
255 255 255
255 255 255
255 255 255
255 255 255
255 255 255
255 255 255
255 255 255
255 255 255
255 255 255
255 255 255
255 255 255
255 255 255
255 255 255
200 50 50
200 50 50
200 50 50
200 50 50
200 50 50
200 50 50
200 50 50
200 50 50
200 50 50
200 50 50
200 50 50
200 50 50
200 50 50
200 50 50
200 50 50
200 50 50
200 50 50
200 50 50
200 50 50
200 50 50
200 50 50
200 50 50
200 50 50
200 50 50
200 50 50
200 50 50
200 50 50
200 50 50
200 50 50
200 50 50
200 50 50
200 50 50
255 255 255
255 255 255
255 255 255
255 255 255
255 255 255
255 255 255
255 255 255
255 255 255
255 255 255
255 255 255
255 255 255
255 255 255
255 255 255
255 255 255
255 255 255
255 255 255
255 255 255
255 255 255
255 255 255
255 255 255
255 255 255
255 255 255
255 255 255
255 255 255
255 255 255
255 255 255
255 255 255
255 255 255
255 255 255
255 255 255
255 255 255
255 255 255
200 50 50
200 50 50
200 50 50
200 50 50
200 50 50
200 50 50
200 50 50
200 50 50
200 50 50
200 50 50
200 50 50
200 50 50
200 50 50
200 50 50
200 50 50
200 50 50
200 50 50
200 50 50
200 50 50
200 50 50
200 50 50
200 50 50
200 50 50
200 50 50
200 50 50
200 50 50
200 50 50
200 50 50
200 50 50
200 50 50
200 50 50
200 50 50
255 255 255
255 255 255
255 255 255
255 255 255
255 255 255
255 255 255
255 255 255
255 255 255
255 255 255
255 255 255
255 255 255
255 255 255
255 255 255
255 255 255
255 255 255
255 255 255
255 255 255
255 255 255
255 255 255
255 255 255
255 255 255
255 255 255
255 255 255
255 255 255
255 255 255
255 255 255
255 255 255
255 255 255
255 255 255
255 255 255
255 255 255
255 255 255
200 50 50
200 50 50
200 50 50
200 50 50
200 50 50
200 50 50
200 50 50
200 50 50
200 50 50
200 50 50
200 50 50
200 50 50
200 50 50
200 50 50
200 50 50
200 50 50
200 50 50
200 50 50
200 50 50
200 50 50
200 50 50
200 50 50
200 50 50
200 50 50
200 50 50
200 50 50
200 50 50
200 50 50
200 50 50
200 50 50
200 50 50
200 50 50
255 255 255
255 255 255
255 255 255
255 255 255
255 255 255
255 255 255
255 255 255
255 255 255
255 255 255
255 255 255
255 255 255
255 255 255
255 255 255
255 255 255
255 255 255
255 255 255
255 255 255
255 255 255
255 255 255
255 255 255
255 255 255
255 255 255
255 255 255
255 255 255
255 255 255
255 255 255
255 255 255
255 255 255
255 255 255
255 255 255
255 255 255
255 255 255
200 50 50
200 50 50
200 50 50
200 50 50
200 50 50
200 50 50
200 50 50
200 50 50
200 50 50
200 50 50
200 50 50
200 50 50
200 50 50
200 50 50
200 50 50
200 50 50
200 50 50
200 50 50
200 50 50
200 50 50
200 50 50
200 50 50
200 50 50
200 50 50
200 50 50
200 50 50
200 50 50
200 50 50
200 50 50
200 50 50
200 50 50
200 50 50
255 255 255
255 255 255
255 255 255
255 255 255
255 255 255
255 255 255
255 255 255
255 255 255
255 255 255
255 255 255
255 255 255
255 255 255
255 255 255
255 255 255
255 255 255
255 255 255
255 255 255
255 255 255
255 255 255
255 255 255
255 255 255
255 255 255
255 255 255
255 255 255
255 255 255
255 255 255
255 255 255
255 255 255
255 255 255
255 255 255
255 255 255
255 255 255
200 50 50
200 50 50
200 50 50
200 50 50
200 50 50
200 50 50
200 50 50
200 50 50
200 50 50
200 50 50
200 50 50
200 50 50
200 50 50
200 50 50
200 50 50
200 50 50
200 50 50
200 50 50
200 50 50
200 50 50
200 50 50
200 50 50
200 50 50
200 50 50
200 50 50
200 50 50
200 50 50
200 50 50
200 50 50
200 50 50
200 50 50
200 50 50
255 255 255
255 255 255
255 255 255
255 255 255
255 255 255
255 255 255
255 255 255
255 255 255
255 255 255
255 255 255
255 255 255
255 255 255
255 255 255
255 255 255
255 255 255
255 255 255
255 255 255
255 255 255
255 255 255
255 255 255
255 255 255
255 255 255
255 255 255
255 255 255
255 255 255
255 255 255
255 255 255
255 255 255
255 255 255
255 255 255
255 255 255
255 255 255
200 50 50
200 50 50
200 50 50
200 50 50
200 50 50
200 50 50
200 50 50
200 50 50
200 50 50
200 50 50
200 50 50
200 50 50
200 50 50
200 50 50
200 50 50
200 50 50
200 50 50
200 50 50
200 50 50
200 50 50
200 50 50
200 50 50
200 50 50
200 50 50
200 50 50
200 50 50
200 50 50
200 50 50
200 50 50
200 50 50
200 50 50
200 50 50
255 255 255
255 255 255
255 255 255
255 255 255
255 255 255
255 255 255
255 255 255
255 255 255
255 255 255
255 255 255
255 255 255
255 255 255
255 255 255
255 255 255
255 255 255
255 255 255
255 255 255
255 255 255
255 255 255
255 255 255
255 255 255
255 255 255
255 255 255
255 255 255
255 255 255
255 255 255
255 255 255
255 255 255
255 255 255
255 255 255
255 255 255
255 255 255
200 50 50
200 50 50
200 50 50
200 50 50
200 50 50
200 50 50
200 50 50
200 50 50
200 50 50
200 50 50
200 50 50
200 50 50
200 50 50
200 50 50
200 50 50
200 50 50
200 50 50
200 50 50
200 50 50
200 50 50
200 50 50
200 50 50
200 50 50
200 50 50
200 50 50
200 50 50
200 50 50
200 50 50
200 50 50
200 50 50
200 50 50
200 50 50
255 255 255
255 255 255
255 255 255
255 255 255
255 255 255
255 255 255
255 255 255
255 255 255
255 255 255
255 255 255
255 255 255
255 255 255
255 255 255
255 255 255
255 255 255
255 255 255
255 255 255
255 255 255
255 255 255
255 255 255
255 255 255
255 255 255
255 255 255
255 255 255
255 255 255
255 255 255
255 255 255
255 255 255
255 255 255
255 255 255
255 255 255
255 255 255
200 50 50
200 50 50
200 50 50
200 50 50
200 50 50
200 50 50
200 50 50
200 50 50
200 50 50
200 50 50
200 50 50
200 50 50
200 50 50
200 50 50
200 50 50
200 50 50
200 50 50
200 50 50
200 50 50
200 50 50
200 50 50
200 50 50
200 50 50
200 50 50
200 50 50
200 50 50
200 50 50
200 50 50
200 50 50
200 50 50
200 50 50
200 50 50
255 255 255
255 255 255
255 255 255
255 255 255
255 255 255
255 255 255
255 255 255
255 255 255
255 255 255
255 255 255
255 255 255
255 255 255
255 255 255
255 255 255
255 255 255
255 255 255
255 255 255
255 255 255
255 255 255
255 255 255
255 255 255
255 255 255
255 255 255
255 255 255
255 255 255
255 255 255
255 255 255
255 255 255
255 255 255
255 255 255
255 255 255
255 255 255
200 50 50
200 50 50
200 50 50
200 50 50
200 50 50
200 50 50
200 50 50
200 50 50
200 50 50
200 50 50
200 50 50
200 50 50
200 50 50
200 50 50
200 50 50
200 50 50
200 50 50
200 50 50
200 50 50
200 50 50
200 50 50
200 50 50
200 50 50
200 50 50
200 50 50
200 50 50
200 50 50
200 50 50
200 50 50
200 50 50
200 50 50
200 50 50
255 255 255
255 255 255
255 255 255
255 255 255
255 255 255
255 255 255
255 255 255
255 255 255
255 255 255
255 255 255
255 255 255
255 255 255
255 255 255
255 255 255
255 255 255
255 255 255
255 255 255
255 255 255
255 255 255
255 255 255
255 255 255
255 255 255
255 255 255
255 255 255
255 255 255
255 255 255
255 255 255
255 255 255
255 255 255
255 255 255
255 255 255
255 255 255
200 50 50
200 50 50
200 50 50
200 50 50
200 50 50
200 50 50
200 50 50
200 50 50
200 50 50
200 50 50
200 50 50
200 50 50
200 50 50
200 50 50
200 50 50
200 50 50
200 50 50
200 50 50
200 50 50
200 50 50
200 50 50
200 50 50
200 50 50
200 50 50
200 50 50
200 50 50
200 50 50
200 50 50
200 50 50
200 50 50
200 50 50
200 50 50
255 255 255
255 255 255
255 255 255
255 255 255
255 255 255
255 255 255
255 255 255
255 255 255
255 255 255
255 255 255
255 255 255
255 255 255
255 255 255
255 255 255
255 255 255
255 255 255
255 255 255
255 255 255
255 255 255
255 255 255
255 255 255
255 255 255
255 255 255
255 255 255
255 255 255
255 255 255
255 255 255
255 255 255
255 255 255
255 255 255
255 255 255
255 255 255
200 50 50
200 50 50
200 50 50
200 50 50
200 50 50
200 50 50
200 50 50
200 50 50
200 50 50
200 50 50
200 50 50
200 50 50
200 50 50
200 50 50
200 50 50
200 50 50
200 50 50
200 50 50
200 50 50
200 50 50
200 50 50
200 50 50
200 50 50
200 50 50
200 50 50
200 50 50
200 50 50
200 50 50
200 50 50
200 50 50
200 50 50
200 50 50
255 255 255
255 255 255
255 255 255
255 255 255
255 255 255
255 255 255
255 255 255
255 255 255
255 255 255
255 255 255
255 255 255
255 255 255
255 255 255
255 255 255
255 255 255
255 255 255
255 255 255
255 255 255
255 255 255
255 255 255
255 255 255
255 255 255
255 255 255
255 255 255
255 255 255
255 255 255
255 255 255
255 255 255
255 255 255
255 255 255
255 255 255
255 255 255
200 50 50
200 50 50
200 50 50
200 50 50
200 50 50
200 50 50
200 50 50
200 50 50
200 50 50
200 50 50
200 50 50
200 50 50
200 50 50
200 50 50
200 50 50
200 50 50
200 50 50
200 50 50
200 50 50
200 50 50
200 50 50
200 50 50
200 50 50
200 50 50
200 50 50
200 50 50
200 50 50
200 50 50
200 50 50
200 50 50
200 50 50
200 50 50
255 255 255
255 255 255
255 255 255
255 255 255
255 255 255
255 255 255
255 255 255
255 255 255
255 255 255
255 255 255
255 255 255
255 255 255
255 255 255
255 255 255
255 255 255
255 255 255
255 255 255
255 255 255
255 255 255
255 255 255
255 255 255
255 255 255
255 255 255
255 255 255
255 255 255
255 255 255
255 255 255
255 255 255
255 255 255
255 255 255
255 255 255
255 255 255
200 50 50
200 50 50
200 50 50
200 50 50
200 50 50
200 50 50
200 50 50
200 50 50
200 50 50
200 50 50
200 50 50
200 50 50
200 50 50
200 50 50
200 50 50
200 50 50
200 50 50
200 50 50
200 50 50
200 50 50
200 50 50
200 50 50
200 50 50
200 50 50
200 50 50
200 50 50
200 50 50
200 50 50
200 50 50
200 50 50
200 50 50
200 50 50
255 255 255
255 255 255
255 255 255
255 255 255
255 255 255
255 255 255
255 255 255
255 255 255
255 255 255
255 255 255
255 255 255
255 255 255
255 255 255
255 255 255
255 255 255
255 255 255
255 255 255
255 255 255
255 255 255
255 255 255
255 255 255
255 255 255
255 255 255
255 255 255
255 255 255
255 255 255
255 255 255
255 255 255
255 255 255
255 255 255
255 255 255
255 255 255
200 50 50
200 50 50
200 50 50
200 50 50
200 50 50
200 50 50
200 50 50
200 50 50
200 50 50
200 50 50
200 50 50
200 50 50
200 50 50
200 50 50
200 50 50
200 50 50
200 50 50
200 50 50
200 50 50
200 50 50
200 50 50
200 50 50
200 50 50
200 50 50
200 50 50
200 50 50
200 50 50
200 50 50
200 50 50
200 50 50
200 50 50
200 50 50
255 255 255
255 255 255
255 255 255
255 255 255
255 255 255
255 255 255
255 255 255
255 255 255
255 255 255
255 255 255
255 255 255
255 255 255
255 255 255
255 255 255
255 255 255
255 255 255
255 255 255
255 255 255
255 255 255
255 255 255
255 255 255
255 255 255
255 255 255
255 255 255
255 255 255
255 255 255
255 255 255
255 255 255
255 255 255
255 255 255
255 255 255
255 255 255
200 50 50
200 50 50
200 50 50
200 50 50
200 50 50
200 50 50
200 50 50
200 50 50
200 50 50
200 50 50
200 50 50
200 50 50
200 50 50
200 50 50
200 50 50
200 50 50
200 50 50
200 50 50
200 50 50
200 50 50
200 50 50
200 50 50
200 50 50
200 50 50
200 50 50
200 50 50
200 50 50
200 50 50
200 50 50
200 50 50
200 50 50
200 50 50
255 255 255
255 255 255
255 255 255
255 255 255
255 255 255
255 255 255
255 255 255
255 255 255
255 255 255
255 255 255
255 255 255
255 255 255
255 255 255
255 255 255
255 255 255
255 255 255
255 255 255
255 255 255
255 255 255
255 255 255
255 255 255
255 255 255
255 255 255
255 255 255
255 255 255
255 255 255
255 255 255
255 255 255
255 255 255
255 255 255
255 255 255
255 255 255
200 50 50
200 50 50
200 50 50
200 50 50
200 50 50
200 50 50
200 50 50
200 50 50
200 50 50
200 50 50
200 50 50
200 50 50
200 50 50
200 50 50
200 50 50
200 50 50
200 50 50
200 50 50
200 50 50
200 50 50
200 50 50
200 50 50
200 50 50
200 50 50
200 50 50
200 50 50
200 50 50
200 50 50
200 50 50
200 50 50
200 50 50
200 50 50
255 255 255
255 255 255
255 255 255
255 255 255
255 255 255
255 255 255
255 255 255
255 255 255
255 255 255
255 255 255
255 255 255
255 255 255
255 255 255
255 255 255
255 255 255
255 255 255
255 255 255
255 255 255
255 255 255
255 255 255
255 255 255
255 255 255
255 255 255
255 255 255
255 255 255
255 255 255
255 255 255
255 255 255
255 255 255
255 255 255
255 255 255
255 255 255
200 50 50
200 50 50
200 50 50
200 50 50
200 50 50
200 50 50
200 50 50
200 50 50
200 50 50
200 50 50
200 50 50
200 50 50
200 50 50
200 50 50
200 50 50
200 50 50
200 50 50
200 50 50
200 50 50
200 50 50
200 50 50
200 50 50
200 50 50
200 50 50
200 50 50
200 50 50
200 50 50
200 50 50
200 50 50
200 50 50
200 50 50
200 50 50
255 255 255
255 255 255
255 255 255
255 255 255
255 255 255
255 255 255
255 255 255
255 255 255
255 255 255
255 255 255
255 255 255
255 255 255
255 255 255
255 255 255
255 255 255
255 255 255
255 255 255
255 255 255
255 255 255
255 255 255
255 255 255
255 255 255
255 255 255
255 255 255
255 255 255
255 255 255
255 255 255
255 255 255
255 255 255
255 255 255
255 255 255
255 255 255
200 50 50
200 50 50
200 50 50
200 50 50
200 50 50
200 50 50
200 50 50
200 50 50
200 50 50
200 50 50
200 50 50
200 50 50
200 50 50
200 50 50
200 50 50
200 50 50
200 50 50
200 50 50
200 50 50
200 50 50
200 50 50
200 50 50
200 50 50
200 50 50
200 50 50
200 50 50
200 50 50
200 50 50
200 50 50
200 50 50
200 50 50
200 50 50
255 255 255
255 255 255
255 255 255
255 255 255
255 255 255
255 255 255
255 255 255
255 255 255
255 255 255
255 255 255
255 255 255
255 255 255
255 255 255
255 255 255
255 255 255
255 255 255
255 255 255
255 255 255
255 255 255
255 255 255
255 255 255
255 255 255
255 255 255
255 255 255
255 255 255
255 255 255
255 255 255
255 255 255
255 255 255
255 255 255
255 255 255
255 255 255
200 50 50
200 50 50
200 50 50
200 50 50
200 50 50
200 50 50
200 50 50
200 50 50
200 50 50
200 50 50
200 50 50
200 50 50
200 50 50
200 50 50
200 50 50
200 50 50
200 50 50
200 50 50
200 50 50
200 50 50
200 50 50
200 50 50
200 50 50
200 50 50
200 50 50
200 50 50
200 50 50
200 50 50
200 50 50
200 50 50
200 50 50
200 50 50
255 255 255
255 255 255
255 255 255
255 255 255
255 255 255
255 255 255
255 255 255
255 255 255
255 255 255
255 255 255
255 255 255
255 255 255
255 255 255
255 255 255
255 255 255
255 255 255
255 255 255
255 255 255
255 255 255
255 255 255
255 255 255
255 255 255
255 255 255
255 255 255
255 255 255
255 255 255
255 255 255
255 255 255
255 255 255
255 255 255
255 255 255
255 255 255
200 50 50
200 50 50
200 50 50
200 50 50
200 50 50
200 50 50
200 50 50
200 50 50
200 50 50
200 50 50
200 50 50
200 50 50
200 50 50
200 50 50
200 50 50
200 50 50
200 50 50
200 50 50
200 50 50
200 50 50
200 50 50
200 50 50
200 50 50
200 50 50
200 50 50
200 50 50
200 50 50
200 50 50
200 50 50
200 50 50
200 50 50
200 50 50
255 255 255
255 255 255
255 255 255
255 255 255
255 255 255
255 255 255
255 255 255
255 255 255
255 255 255
255 255 255
255 255 255
255 255 255
255 255 255
255 255 255
255 255 255
255 255 255
255 255 255
255 255 255
255 255 255
255 255 255
255 255 255
255 255 255
255 255 255
255 255 255
255 255 255
255 255 255
255 255 255
255 255 255
255 255 255
255 255 255
255 255 255
255 255 255
200 50 50
200 50 50
200 50 50
200 50 50
200 50 50
200 50 50
200 50 50
200 50 50
200 50 50
200 50 50
200 50 50
200 50 50
200 50 50
200 50 50
200 50 50
200 50 50
200 50 50
200 50 50
200 50 50
200 50 50
200 50 50
200 50 50
200 50 50
200 50 50
200 50 50
200 50 50
200 50 50
200 50 50
200 50 50
200 50 50
200 50 50
200 50 50
255 255 255
255 255 255
255 255 255
255 255 255
255 255 255
255 255 255
255 255 255
255 255 255
255 255 255
255 255 255
255 255 255
255 255 255
255 255 255
255 255 255
255 255 255
255 255 255
255 255 255
255 255 255
255 255 255
255 255 255
255 255 255
255 255 255
255 255 255
255 255 255
255 255 255
255 255 255
255 255 255
255 255 255
255 255 255
255 255 255
255 255 255
255 255 255
200 50 50
200 50 50
200 50 50
200 50 50
200 50 50
200 50 50
200 50 50
200 50 50
200 50 50
200 50 50
200 50 50
200 50 50
200 50 50
200 50 50
200 50 50
200 50 50
200 50 50
200 50 50
200 50 50
200 50 50
200 50 50
200 50 50
200 50 50
200 50 50
200 50 50
200 50 50
200 50 50
200 50 50
200 50 50
200 50 50
200 50 50
200 50 50
255 255 255
255 255 255
255 255 255
255 255 255
255 255 255
255 255 255
255 255 255
255 255 255
255 255 255
255 255 255
255 255 255
255 255 255
255 255 255
255 255 255
255 255 255
255 255 255
255 255 255
255 255 255
255 255 255
255 255 255
255 255 255
255 255 255
255 255 255
255 255 255
255 255 255
255 255 255
255 255 255
255 255 255
255 255 255
255 255 255
255 255 255
255 255 255
255 255 255
255 255 255
255 255 255
255 255 255
255 255 255
255 255 255
255 255 255
255 255 255
255 255 255
255 255 255
255 255 255
255 255 255
255 255 255
255 255 255
255 255 255
255 255 255
255 255 255
255 255 255
255 255 255
255 255 255
255 255 255
255 255 255
255 255 255
255 255 255
255 255 255
255 255 255
255 255 255
255 255 255
255 255 255
255 255 255
255 255 255
255 255 255
200 50 50
200 50 50
200 50 50
200 50 50
200 50 50
200 50 50
200 50 50
200 50 50
200 50 50
200 50 50
200 50 50
200 50 50
200 50 50
200 50 50
200 50 50
200 50 50
200 50 50
200 50 50
200 50 50
200 50 50
200 50 50
200 50 50
200 50 50
200 50 50
200 50 50
200 50 50
200 50 50
200 50 50
200 50 50
200 50 50
200 50 50
200 50 50
255 255 255
255 255 255
255 255 255
255 255 255
255 255 255
255 255 255
255 255 255
255 255 255
255 255 255
255 255 255
255 255 255
255 255 255
255 255 255
255 255 255
255 255 255
255 255 255
255 255 255
255 255 255
255 255 255
255 255 255
255 255 255
255 255 255
255 255 255
255 255 255
255 255 255
255 255 255
255 255 255
255 255 255
255 255 255
255 255 255
255 255 255
255 255 255
200 50 50
200 50 50
200 50 50
200 50 50
200 50 50
200 50 50
200 50 50
200 50 50
200 50 50
200 50 50
200 50 50
200 50 50
200 50 50
200 50 50
200 50 50
200 50 50
200 50 50
200 50 50
200 50 50
200 50 50
200 50 50
200 50 50
200 50 50
200 50 50
200 50 50
200 50 50
200 50 50
200 50 50
200 50 50
200 50 50
200 50 50
200 50 50
255 255 255
255 255 255
255 255 255
255 255 255
255 255 255
255 255 255
255 255 255
255 255 255
255 255 255
255 255 255
255 255 255
255 255 255
255 255 255
255 255 255
255 255 255
255 255 255
255 255 255
255 255 255
255 255 255
255 255 255
255 255 255
255 255 255
255 255 255
255 255 255
255 255 255
255 255 255
255 255 255
255 255 255
255 255 255
255 255 255
255 255 255
255 255 255
200 50 50
200 50 50
200 50 50
200 50 50
200 50 50
200 50 50
200 50 50
200 50 50
200 50 50
200 50 50
200 50 50
200 50 50
200 50 50
200 50 50
200 50 50
200 50 50
200 50 50
200 50 50
200 50 50
200 50 50
200 50 50
200 50 50
200 50 50
200 50 50
200 50 50
200 50 50
200 50 50
200 50 50
200 50 50
200 50 50
200 50 50
200 50 50
255 255 255
255 255 255
255 255 255
255 255 255
255 255 255
255 255 255
255 255 255
255 255 255
255 255 255
255 255 255
255 255 255
255 255 255
255 255 255
255 255 255
255 255 255
255 255 255
255 255 255
255 255 255
255 255 255
255 255 255
255 255 255
255 255 255
255 255 255
255 255 255
255 255 255
255 255 255
255 255 255
255 255 255
255 255 255
255 255 255
255 255 255
255 255 255
200 50 50
200 50 50
200 50 50
200 50 50
200 50 50
200 50 50
200 50 50
200 50 50
200 50 50
200 50 50
200 50 50
200 50 50
200 50 50
200 50 50
200 50 50
200 50 50
200 50 50
200 50 50
200 50 50
200 50 50
200 50 50
200 50 50
200 50 50
200 50 50
200 50 50
200 50 50
200 50 50
200 50 50
200 50 50
200 50 50
200 50 50
200 50 50
255 255 255
255 255 255
255 255 255
255 255 255
255 255 255
255 255 255
255 255 255
255 255 255
255 255 255
255 255 255
255 255 255
255 255 255
255 255 255
255 255 255
255 255 255
255 255 255
255 255 255
255 255 255
255 255 255
255 255 255
255 255 255
255 255 255
255 255 255
255 255 255
255 255 255
255 255 255
255 255 255
255 255 255
255 255 255
255 255 255
255 255 255
255 255 255
200 50 50
200 50 50
200 50 50
200 50 50
200 50 50
200 50 50
200 50 50
200 50 50
200 50 50
200 50 50
200 50 50
200 50 50
200 50 50
200 50 50
200 50 50
200 50 50
200 50 50
200 50 50
200 50 50
200 50 50
200 50 50
200 50 50
200 50 50
200 50 50
200 50 50
200 50 50
200 50 50
200 50 50
200 50 50
200 50 50
200 50 50
200 50 50
255 255 255
255 255 255
255 255 255
255 255 255
255 255 255
255 255 255
255 255 255
255 255 255
255 255 255
255 255 255
255 255 255
255 255 255
255 255 255
255 255 255
255 255 255
255 255 255
255 255 255
255 255 255
255 255 255
255 255 255
255 255 255
255 255 255
255 255 255
255 255 255
255 255 255
255 255 255
255 255 255
255 255 255
255 255 255
255 255 255
255 255 255
255 255 255
200 50 50
200 50 50
200 50 50
200 50 50
200 50 50
200 50 50
200 50 50
200 50 50
200 50 50
200 50 50
200 50 50
200 50 50
200 50 50
200 50 50
200 50 50
200 50 50
200 50 50
200 50 50
200 50 50
200 50 50
200 50 50
200 50 50
200 50 50
200 50 50
200 50 50
200 50 50
200 50 50
200 50 50
200 50 50
200 50 50
200 50 50
200 50 50
255 255 255
255 255 255
255 255 255
255 255 255
255 255 255
255 255 255
255 255 255
255 255 255
255 255 255
255 255 255
255 255 255
255 255 255
255 255 255
255 255 255
255 255 255
255 255 255
255 255 255
255 255 255
255 255 255
255 255 255
255 255 255
255 255 255
255 255 255
255 255 255
255 255 255
255 255 255
255 255 255
255 255 255
255 255 255
255 255 255
255 255 255
255 255 255
200 50 50
200 50 50
200 50 50
200 50 50
200 50 50
200 50 50
200 50 50
200 50 50
200 50 50
200 50 50
200 50 50
200 50 50
200 50 50
200 50 50
200 50 50
200 50 50
200 50 50
200 50 50
200 50 50
200 50 50
200 50 50
200 50 50
200 50 50
200 50 50
200 50 50
200 50 50
200 50 50
200 50 50
200 50 50
200 50 50
200 50 50
200 50 50
255 255 255
255 255 255
255 255 255
255 255 255
255 255 255
255 255 255
255 255 255
255 255 255
255 255 255
255 255 255
255 255 255
255 255 255
255 255 255
255 255 255
255 255 255
255 255 255
255 255 255
255 255 255
255 255 255
255 255 255
255 255 255
255 255 255
255 255 255
255 255 255
255 255 255
255 255 255
255 255 255
255 255 255
255 255 255
255 255 255
255 255 255
255 255 255
200 50 50
200 50 50
200 50 50
200 50 50
200 50 50
200 50 50
200 50 50
200 50 50
200 50 50
200 50 50
200 50 50
200 50 50
200 50 50
200 50 50
200 50 50
200 50 50
200 50 50
200 50 50
200 50 50
200 50 50
200 50 50
200 50 50
200 50 50
200 50 50
200 50 50
200 50 50
200 50 50
200 50 50
200 50 50
200 50 50
200 50 50
200 50 50
255 255 255
255 255 255
255 255 255
255 255 255
255 255 255
255 255 255
255 255 255
255 255 255
255 255 255
255 255 255
255 255 255
255 255 255
255 255 255
255 255 255
255 255 255
255 255 255
255 255 255
255 255 255
255 255 255
255 255 255
255 255 255
255 255 255
255 255 255
255 255 255
255 255 255
255 255 255
255 255 255
255 255 255
255 255 255
255 255 255
255 255 255
255 255 255
200 50 50
200 50 50
200 50 50
200 50 50
200 50 50
200 50 50
200 50 50
200 50 50
200 50 50
200 50 50
200 50 50
200 50 50
200 50 50
200 50 50
200 50 50
200 50 50
200 50 50
200 50 50
200 50 50
200 50 50
200 50 50
200 50 50
200 50 50
200 50 50
200 50 50
200 50 50
200 50 50
200 50 50
200 50 50
200 50 50
200 50 50
200 50 50
255 255 255
255 255 255
255 255 255
255 255 255
255 255 255
255 255 255
255 255 255
255 255 255
255 255 255
255 255 255
255 255 255
255 255 255
255 255 255
255 255 255
255 255 255
255 255 255
255 255 255
255 255 255
255 255 255
255 255 255
255 255 255
255 255 255
255 255 255
255 255 255
255 255 255
255 255 255
255 255 255
255 255 255
255 255 255
255 255 255
255 255 255
255 255 255
200 50 50
200 50 50
200 50 50
200 50 50
200 50 50
200 50 50
200 50 50
200 50 50
200 50 50
200 50 50
200 50 50
200 50 50
200 50 50
200 50 50
200 50 50
200 50 50
200 50 50
200 50 50
200 50 50
200 50 50
200 50 50
200 50 50
200 50 50
200 50 50
200 50 50
200 50 50
200 50 50
200 50 50
200 50 50
200 50 50
200 50 50
200 50 50
255 255 255
255 255 255
255 255 255
255 255 255
255 255 255
255 255 255
255 255 255
255 255 255
255 255 255
255 255 255
255 255 255
255 255 255
255 255 255
255 255 255
255 255 255
255 255 255
255 255 255
255 255 255
255 255 255
255 255 255
255 255 255
255 255 255
255 255 255
255 255 255
255 255 255
255 255 255
255 255 255
255 255 255
255 255 255
255 255 255
255 255 255
255 255 255
200 50 50
200 50 50
200 50 50
200 50 50
200 50 50
200 50 50
200 50 50
200 50 50
200 50 50
200 50 50
200 50 50
200 50 50
200 50 50
200 50 50
200 50 50
200 50 50
200 50 50
200 50 50
200 50 50
200 50 50
200 50 50
200 50 50
200 50 50
200 50 50
200 50 50
200 50 50
200 50 50
200 50 50
200 50 50
200 50 50
200 50 50
200 50 50
255 255 255
255 255 255
255 255 255
255 255 255
255 255 255
255 255 255
255 255 255
255 255 255
255 255 255
255 255 255
255 255 255
255 255 255
255 255 255
255 255 255
255 255 255
255 255 255
255 255 255
255 255 255
255 255 255
255 255 255
255 255 255
255 255 255
255 255 255
255 255 255
255 255 255
255 255 255
255 255 255
255 255 255
255 255 255
255 255 255
255 255 255
255 255 255
200 50 50
200 50 50
200 50 50
200 50 50
200 50 50
200 50 50
200 50 50
200 50 50
200 50 50
200 50 50
200 50 50
200 50 50
200 50 50
200 50 50
200 50 50
200 50 50
200 50 50
200 50 50
200 50 50
200 50 50
200 50 50
200 50 50
200 50 50
200 50 50
200 50 50
200 50 50
200 50 50
200 50 50
200 50 50
200 50 50
200 50 50
200 50 50
255 255 255
255 255 255
255 255 255
255 255 255
255 255 255
255 255 255
255 255 255
255 255 255
255 255 255
255 255 255
255 255 255
255 255 255
255 255 255
255 255 255
255 255 255
255 255 255
255 255 255
255 255 255
255 255 255
255 255 255
255 255 255
255 255 255
255 255 255
255 255 255
255 255 255
255 255 255
255 255 255
255 255 255
255 255 255
255 255 255
255 255 255
255 255 255
200 50 50
200 50 50
200 50 50
200 50 50
200 50 50
200 50 50
200 50 50
200 50 50
200 50 50
200 50 50
200 50 50
200 50 50
200 50 50
200 50 50
200 50 50
200 50 50
200 50 50
200 50 50
200 50 50
200 50 50
200 50 50
200 50 50
200 50 50
200 50 50
200 50 50
200 50 50
200 50 50
200 50 50
200 50 50
200 50 50
200 50 50
200 50 50
255 255 255
255 255 255
255 255 255
255 255 255
255 255 255
255 255 255
255 255 255
255 255 255
255 255 255
255 255 255
255 255 255
255 255 255
255 255 255
255 255 255
255 255 255
255 255 255
255 255 255
255 255 255
255 255 255
255 255 255
255 255 255
255 255 255
255 255 255
255 255 255
255 255 255
255 255 255
255 255 255
255 255 255
255 255 255
255 255 255
255 255 255
255 255 255
200 50 50
200 50 50
200 50 50
200 50 50
200 50 50
200 50 50
200 50 50
200 50 50
200 50 50
200 50 50
200 50 50
200 50 50
200 50 50
200 50 50
200 50 50
200 50 50
200 50 50
200 50 50
200 50 50
200 50 50
200 50 50
200 50 50
200 50 50
200 50 50
200 50 50
200 50 50
200 50 50
200 50 50
200 50 50
200 50 50
200 50 50
200 50 50
255 255 255
255 255 255
255 255 255
255 255 255
255 255 255
255 255 255
255 255 255
255 255 255
255 255 255
255 255 255
255 255 255
255 255 255
255 255 255
255 255 255
255 255 255
255 255 255
255 255 255
255 255 255
255 255 255
255 255 255
255 255 255
255 255 255
255 255 255
255 255 255
255 255 255
255 255 255
255 255 255
255 255 255
255 255 255
255 255 255
255 255 255
255 255 255
200 50 50
200 50 50
200 50 50
200 50 50
200 50 50
200 50 50
200 50 50
200 50 50
200 50 50
200 50 50
200 50 50
200 50 50
200 50 50
200 50 50
200 50 50
200 50 50
200 50 50
200 50 50
200 50 50
200 50 50
200 50 50
200 50 50
200 50 50
200 50 50
200 50 50
200 50 50
200 50 50
200 50 50
200 50 50
200 50 50
200 50 50
200 50 50
255 255 255
255 255 255
255 255 255
255 255 255
255 255 255
255 255 255
255 255 255
255 255 255
255 255 255
255 255 255
255 255 255
255 255 255
255 255 255
255 255 255
255 255 255
255 255 255
255 255 255
255 255 255
255 255 255
255 255 255
255 255 255
255 255 255
255 255 255
255 255 255
255 255 255
255 255 255
255 255 255
255 255 255
255 255 255
255 255 255
255 255 255
255 255 255
200 50 50
200 50 50
200 50 50
200 50 50
200 50 50
200 50 50
200 50 50
200 50 50
200 50 50
200 50 50
200 50 50
200 50 50
200 50 50
200 50 50
200 50 50
200 50 50
200 50 50
200 50 50
200 50 50
200 50 50
200 50 50
200 50 50
200 50 50
200 50 50
200 50 50
200 50 50
200 50 50
200 50 50
200 50 50
200 50 50
200 50 50
200 50 50
255 255 255
255 255 255
255 255 255
255 255 255
255 255 255
255 255 255
255 255 255
255 255 255
255 255 255
255 255 255
255 255 255
255 255 255
255 255 255
255 255 255
255 255 255
255 255 255
255 255 255
255 255 255
255 255 255
255 255 255
255 255 255
255 255 255
255 255 255
255 255 255
255 255 255
255 255 255
255 255 255
255 255 255
255 255 255
255 255 255
255 255 255
255 255 255
200 50 50
200 50 50
200 50 50
200 50 50
200 50 50
200 50 50
200 50 50
200 50 50
200 50 50
200 50 50
200 50 50
200 50 50
200 50 50
200 50 50
200 50 50
200 50 50
200 50 50
200 50 50
200 50 50
200 50 50
200 50 50
200 50 50
200 50 50
200 50 50
200 50 50
200 50 50
200 50 50
200 50 50
200 50 50
200 50 50
200 50 50
200 50 50
255 255 255
255 255 255
255 255 255
255 255 255
255 255 255
255 255 255
255 255 255
255 255 255
255 255 255
255 255 255
255 255 255
255 255 255
255 255 255
255 255 255
255 255 255
255 255 255
255 255 255
255 255 255
255 255 255
255 255 255
255 255 255
255 255 255
255 255 255
255 255 255
255 255 255
255 255 255
255 255 255
255 255 255
255 255 255
255 255 255
255 255 255
255 255 255
200 50 50
200 50 50
200 50 50
200 50 50
200 50 50
200 50 50
200 50 50
200 50 50
200 50 50
200 50 50
200 50 50
200 50 50
200 50 50
200 50 50
200 50 50
200 50 50
200 50 50
200 50 50
200 50 50
200 50 50
200 50 50
200 50 50
200 50 50
200 50 50
200 50 50
200 50 50
200 50 50
200 50 50
200 50 50
200 50 50
200 50 50
200 50 50
255 255 255
255 255 255
255 255 255
255 255 255
255 255 255
255 255 255
255 255 255
255 255 255
255 255 255
255 255 255
255 255 255
255 255 255
255 255 255
255 255 255
255 255 255
255 255 255
255 255 255
255 255 255
255 255 255
255 255 255
255 255 255
255 255 255
255 255 255
255 255 255
255 255 255
255 255 255
255 255 255
255 255 255
255 255 255
255 255 255
255 255 255
255 255 255
200 50 50
200 50 50
200 50 50
200 50 50
200 50 50
200 50 50
200 50 50
200 50 50
200 50 50
200 50 50
200 50 50
200 50 50
200 50 50
200 50 50
200 50 50
200 50 50
200 50 50
200 50 50
200 50 50
200 50 50
200 50 50
200 50 50
200 50 50
200 50 50
200 50 50
200 50 50
200 50 50
200 50 50
200 50 50
200 50 50
200 50 50
200 50 50
255 255 255
255 255 255
255 255 255
255 255 255
255 255 255
255 255 255
255 255 255
255 255 255
255 255 255
255 255 255
255 255 255
255 255 255
255 255 255
255 255 255
255 255 255
255 255 255
255 255 255
255 255 255
255 255 255
255 255 255
255 255 255
255 255 255
255 255 255
255 255 255
255 255 255
255 255 255
255 255 255
255 255 255
255 255 255
255 255 255
255 255 255
255 255 255
200 50 50
200 50 50
200 50 50
200 50 50
200 50 50
200 50 50
200 50 50
200 50 50
200 50 50
200 50 50
200 50 50
200 50 50
200 50 50
200 50 50
200 50 50
200 50 50
200 50 50
200 50 50
200 50 50
200 50 50
200 50 50
200 50 50
200 50 50
200 50 50
200 50 50
200 50 50
200 50 50
200 50 50
200 50 50
200 50 50
200 50 50
200 50 50
255 255 255
255 255 255
255 255 255
255 255 255
255 255 255
255 255 255
255 255 255
255 255 255
255 255 255
255 255 255
255 255 255
255 255 255
255 255 255
255 255 255
255 255 255
255 255 255
255 255 255
255 255 255
255 255 255
255 255 255
255 255 255
255 255 255
255 255 255
255 255 255
255 255 255
255 255 255
255 255 255
255 255 255
255 255 255
255 255 255
255 255 255
255 255 255
200 50 50
200 50 50
200 50 50
200 50 50
200 50 50
200 50 50
200 50 50
200 50 50
200 50 50
200 50 50
200 50 50
200 50 50
200 50 50
200 50 50
200 50 50
200 50 50
200 50 50
200 50 50
200 50 50
200 50 50
200 50 50
200 50 50
200 50 50
200 50 50
200 50 50
200 50 50
200 50 50
200 50 50
200 50 50
200 50 50
200 50 50
200 50 50
255 255 255
255 255 255
255 255 255
255 255 255
255 255 255
255 255 255
255 255 255
255 255 255
255 255 255
255 255 255
255 255 255
255 255 255
255 255 255
255 255 255
255 255 255
255 255 255
255 255 255
255 255 255
255 255 255
255 255 255
255 255 255
255 255 255
255 255 255
255 255 255
255 255 255
255 255 255
255 255 255
255 255 255
255 255 255
255 255 255
255 255 255
255 255 255
200 50 50
200 50 50
200 50 50
200 50 50
200 50 50
200 50 50
200 50 50
200 50 50
200 50 50
200 50 50
200 50 50
200 50 50
200 50 50
200 50 50
200 50 50
200 50 50
200 50 50
200 50 50
200 50 50
200 50 50
200 50 50
200 50 50
200 50 50
200 50 50
200 50 50
200 50 50
200 50 50
200 50 50
200 50 50
200 50 50
200 50 50
200 50 50
255 255 255
255 255 255
255 255 255
255 255 255
255 255 255
255 255 255
255 255 255
255 255 255
255 255 255
255 255 255
255 255 255
255 255 255
255 255 255
255 255 255
255 255 255
255 255 255
255 255 255
255 255 255
255 255 255
255 255 255
255 255 255
255 255 255
255 255 255
255 255 255
255 255 255
255 255 255
255 255 255
255 255 255
255 255 255
255 255 255
255 255 255
255 255 255
200 50 50
200 50 50
200 50 50
200 50 50
200 50 50
200 50 50
200 50 50
200 50 50
200 50 50
200 50 50
200 50 50
200 50 50
200 50 50
200 50 50
200 50 50
200 50 50
200 50 50
200 50 50
200 50 50
200 50 50
200 50 50
200 50 50
200 50 50
200 50 50
200 50 50
200 50 50
200 50 50
200 50 50
200 50 50
200 50 50
200 50 50
200 50 50
255 255 255
255 255 255
255 255 255
255 255 255
255 255 255
255 255 255
255 255 255
255 255 255
255 255 255
255 255 255
255 255 255
255 255 255
255 255 255
255 255 255
255 255 255
255 255 255
255 255 255
255 255 255
255 255 255
255 255 255
255 255 255
255 255 255
255 255 255
255 255 255
255 255 255
255 255 255
255 255 255
255 255 255
255 255 255
255 255 255
255 255 255
255 255 255
200 50 50
200 50 50
200 50 50
200 50 50
200 50 50
200 50 50
200 50 50
200 50 50
200 50 50
200 50 50
200 50 50
200 50 50
200 50 50
200 50 50
200 50 50
200 50 50
200 50 50
200 50 50
200 50 50
200 50 50
200 50 50
200 50 50
200 50 50
200 50 50
200 50 50
200 50 50
200 50 50
200 50 50
200 50 50
200 50 50
200 50 50
200 50 50
255 255 255
255 255 255
255 255 255
255 255 255
255 255 255
255 255 255
255 255 255
255 255 255
255 255 255
255 255 255
255 255 255
255 255 255
255 255 255
255 255 255
255 255 255
255 255 255
255 255 255
255 255 255
255 255 255
255 255 255
255 255 255
255 255 255
255 255 255
255 255 255
255 255 255
255 255 255
255 255 255
255 255 255
255 255 255
255 255 255
255 255 255
255 255 255
200 50 50
200 50 50
200 50 50
200 50 50
200 50 50
200 50 50
200 50 50
200 50 50
200 50 50
200 50 50
200 50 50
200 50 50
200 50 50
200 50 50
200 50 50
200 50 50
200 50 50
200 50 50
200 50 50
200 50 50
200 50 50
200 50 50
200 50 50
200 50 50
200 50 50
200 50 50
200 50 50
200 50 50
200 50 50
200 50 50
200 50 50
200 50 50
255 255 255
255 255 255
255 255 255
255 255 255
255 255 255
255 255 255
255 255 255
255 255 255
255 255 255
255 255 255
255 255 255
255 255 255
255 255 255
255 255 255
255 255 255
255 255 255
255 255 255
255 255 255
255 255 255
255 255 255
255 255 255
255 255 255
255 255 255
255 255 255
255 255 255
255 255 255
255 255 255
255 255 255
255 255 255
255 255 255
255 255 255
255 255 255
200 50 50
200 50 50
200 50 50
200 50 50
200 50 50
200 50 50
200 50 50
200 50 50
200 50 50
200 50 50
200 50 50
200 50 50
200 50 50
200 50 50
200 50 50
200 50 50
200 50 50
200 50 50
200 50 50
200 50 50
200 50 50
200 50 50
200 50 50
200 50 50
200 50 50
200 50 50
200 50 50
200 50 50
200 50 50
200 50 50
200 50 50
200 50 50
255 255 255
255 255 255
255 255 255
255 255 255
255 255 255
255 255 255
255 255 255
255 255 255
255 255 255
255 255 255
255 255 255
255 255 255
255 255 255
255 255 255
255 255 255
255 255 255
255 255 255
255 255 255
255 255 255
255 255 255
255 255 255
255 255 255
255 255 255
255 255 255
255 255 255
255 255 255
255 255 255
255 255 255
255 255 255
255 255 255
255 255 255
255 255 255
200 50 50
200 50 50
200 50 50
200 50 50
200 50 50
200 50 50
200 50 50
200 50 50
200 50 50
200 50 50
200 50 50
200 50 50
200 50 50
200 50 50
200 50 50
200 50 50
200 50 50
200 50 50
200 50 50
200 50 50
200 50 50
200 50 50
200 50 50
200 50 50
200 50 50
200 50 50
200 50 50
200 50 50
200 50 50
200 50 50
200 50 50
200 50 50
255 255 255
255 255 255
255 255 255
255 255 255
255 255 255
255 255 255
255 255 255
255 255 255
255 255 255
255 255 255
255 255 255
255 255 255
255 255 255
255 255 255
255 255 255
255 255 255
255 255 255
255 255 255
255 255 255
255 255 255
255 255 255
255 255 255
255 255 255
255 255 255
255 255 255
255 255 255
255 255 255
255 255 255
255 255 255
255 255 255
255 255 255
255 255 255
200 50 50
200 50 50
200 50 50
200 50 50
200 50 50
200 50 50
200 50 50
200 50 50
200 50 50
200 50 50
200 50 50
200 50 50
200 50 50
200 50 50
200 50 50
200 50 50
200 50 50
200 50 50
200 50 50
200 50 50
200 50 50
200 50 50
200 50 50
200 50 50
200 50 50
200 50 50
200 50 50
200 50 50
200 50 50
200 50 50
200 50 50
200 50 50
255 255 255
255 255 255
255 255 255
255 255 255
255 255 255
255 255 255
255 255 255
255 255 255
255 255 255
255 255 255
255 255 255
255 255 255
255 255 255
255 255 255
255 255 255
255 255 255
255 255 255
255 255 255
255 255 255
255 255 255
255 255 255
255 255 255
255 255 255
255 255 255
255 255 255
255 255 255
255 255 255
255 255 255
255 255 255
255 255 255
255 255 255
255 255 255
200 50 50
200 50 50
200 50 50
200 50 50
200 50 50
200 50 50
200 50 50
200 50 50
200 50 50
200 50 50
200 50 50
200 50 50
200 50 50
200 50 50
200 50 50
200 50 50
200 50 50
200 50 50
200 50 50
200 50 50
200 50 50
200 50 50
200 50 50
200 50 50
200 50 50
200 50 50
200 50 50
200 50 50
200 50 50
200 50 50
200 50 50
200 50 50
255 255 255
255 255 255
255 255 255
255 255 255
255 255 255
255 255 255
255 255 255
255 255 255
255 255 255
255 255 255
255 255 255
255 255 255
255 255 255
255 255 255
255 255 255
255 255 255
255 255 255
255 255 255
255 255 255
255 255 255
255 255 255
255 255 255
255 255 255
255 255 255
255 255 255
255 255 255
255 255 255
255 255 255
255 255 255
255 255 255
255 255 255
255 255 255
200 50 50
200 50 50
200 50 50
200 50 50
200 50 50
200 50 50
200 50 50
200 50 50
200 50 50
200 50 50
200 50 50
200 50 50
200 50 50
200 50 50
200 50 50
200 50 50
200 50 50
200 50 50
200 50 50
200 50 50
200 50 50
200 50 50
200 50 50
200 50 50
200 50 50
200 50 50
200 50 50
200 50 50
200 50 50
200 50 50
200 50 50
200 50 50
255 255 255
255 255 255
255 255 255
255 255 255
255 255 255
255 255 255
255 255 255
255 255 255
255 255 255
255 255 255
255 255 255
255 255 255
255 255 255
255 255 255
255 255 255
255 255 255
255 255 255
255 255 255
255 255 255
255 255 255
255 255 255
255 255 255
255 255 255
255 255 255
255 255 255
255 255 255
255 255 255
255 255 255
255 255 255
255 255 255
255 255 255
255 255 255
200 50 50
200 50 50
200 50 50
200 50 50
200 50 50
200 50 50
200 50 50
200 50 50
200 50 50
200 50 50
200 50 50
200 50 50
200 50 50
200 50 50
200 50 50
200 50 50
200 50 50
200 50 50
200 50 50
200 50 50
200 50 50
200 50 50
200 50 50
200 50 50
200 50 50
200 50 50
200 50 50
200 50 50
200 50 50
200 50 50
200 50 50
200 50 50
255 255 255
255 255 255
255 255 255
255 255 255
255 255 255
255 255 255
255 255 255
255 255 255
255 255 255
255 255 255
255 255 255
255 255 255
255 255 255
255 255 255
255 255 255
255 255 255
255 255 255
255 255 255
255 255 255
255 255 255
255 255 255
255 255 255
255 255 255
255 255 255
255 255 255
255 255 255
255 255 255
255 255 255
255 255 255
255 255 255
255 255 255
255 255 255
200 50 50
200 50 50
200 50 50
200 50 50
200 50 50
200 50 50
200 50 50
200 50 50
200 50 50
200 50 50
200 50 50
200 50 50
200 50 50
200 50 50
200 50 50
200 50 50
200 50 50
200 50 50
200 50 50
200 50 50
200 50 50
200 50 50
200 50 50
200 50 50
200 50 50
200 50 50
200 50 50
200 50 50
200 50 50
200 50 50
200 50 50
200 50 50
255 255 255
255 255 255
255 255 255
255 255 255
255 255 255
255 255 255
255 255 255
255 255 255
255 255 255
255 255 255
255 255 255
255 255 255
255 255 255
255 255 255
255 255 255
255 255 255
255 255 255
255 255 255
255 255 255
255 255 255
255 255 255
255 255 255
255 255 255
255 255 255
255 255 255
255 255 255
255 255 255
255 255 255
255 255 255
255 255 255
255 255 255
255 255 255
200 50 50
200 50 50
200 50 50
200 50 50
200 50 50
200 50 50
200 50 50
200 50 50
200 50 50
200 50 50
200 50 50
200 50 50
200 50 50
200 50 50
200 50 50
200 50 50
200 50 50
200 50 50
200 50 50
200 50 50
200 50 50
200 50 50
200 50 50
200 50 50
200 50 50
200 50 50
200 50 50
200 50 50
200 50 50
200 50 50
200 50 50
200 50 50
255 255 255
255 255 255
255 255 255
255 255 255
255 255 255
255 255 255
255 255 255
255 255 255
255 255 255
255 255 255
255 255 255
255 255 255
255 255 255
255 255 255
255 255 255
255 255 255
255 255 255
255 255 255
255 255 255
255 255 255
255 255 255
255 255 255
255 255 255
255 255 255
255 255 255
255 255 255
255 255 255
255 255 255
255 255 255
255 255 255
255 255 255
255 255 255
200 50 50
200 50 50
200 50 50
200 50 50
200 50 50
200 50 50
200 50 50
200 50 50
200 50 50
200 50 50
200 50 50
200 50 50
200 50 50
200 50 50
200 50 50
200 50 50
200 50 50
200 50 50
200 50 50
200 50 50
200 50 50
200 50 50
200 50 50
200 50 50
200 50 50
200 50 50
200 50 50
200 50 50
200 50 50
200 50 50
200 50 50
200 50 50
255 255 255
255 255 255
255 255 255
255 255 255
255 255 255
255 255 255
255 255 255
255 255 255
255 255 255
255 255 255
255 255 255
255 255 255
255 255 255
255 255 255
255 255 255
255 255 255
255 255 255
255 255 255
255 255 255
255 255 255
255 255 255
255 255 255
255 255 255
255 255 255
255 255 255
255 255 255
255 255 255
255 255 255
255 255 255
255 255 255
255 255 255
255 255 255
200 50 50
200 50 50
200 50 50
200 50 50
200 50 50
200 50 50
200 50 50
200 50 50
200 50 50
200 50 50
200 50 50
200 50 50
200 50 50
200 50 50
200 50 50
200 50 50
200 50 50
200 50 50
200 50 50
200 50 50
200 50 50
200 50 50
200 50 50
200 50 50
200 50 50
200 50 50
200 50 50
200 50 50
200 50 50
200 50 50
200 50 50
200 50 50
255 255 255
255 255 255
255 255 255
255 255 255
255 255 255
255 255 255
255 255 255
255 255 255
255 255 255
255 255 255
255 255 255
255 255 255
255 255 255
255 255 255
255 255 255
255 255 255
255 255 255
255 255 255
255 255 255
255 255 255
255 255 255
255 255 255
255 255 255
255 255 255
255 255 255
255 255 255
255 255 255
255 255 255
255 255 255
255 255 255
255 255 255
255 255 255
200 50 50
200 50 50
200 50 50
200 50 50
200 50 50
200 50 50
200 50 50
200 50 50
200 50 50
200 50 50
200 50 50
200 50 50
200 50 50
200 50 50
200 50 50
200 50 50
200 50 50
200 50 50
200 50 50
200 50 50
200 50 50
200 50 50
200 50 50
200 50 50
200 50 50
200 50 50
200 50 50
200 50 50
200 50 50
200 50 50
200 50 50
200 50 50
255 255 255
255 255 255
255 255 255
255 255 255
255 255 255
255 255 255
255 255 255
255 255 255
255 255 255
255 255 255
255 255 255
255 255 255
255 255 255
255 255 255
255 255 255
255 255 255
255 255 255
255 255 255
255 255 255
255 255 255
255 255 255
255 255 255
255 255 255
255 255 255
255 255 255
255 255 255
255 255 255
255 255 255
255 255 255
255 255 255
255 255 255
255 255 255
200 50 50
200 50 50
200 50 50
200 50 50
200 50 50
200 50 50
200 50 50
200 50 50
200 50 50
200 50 50
200 50 50
200 50 50
200 50 50
200 50 50
200 50 50
200 50 50
200 50 50
200 50 50
200 50 50
200 50 50
200 50 50
200 50 50
200 50 50
200 50 50
200 50 50
200 50 50
200 50 50
200 50 50
200 50 50
200 50 50
200 50 50
200 50 50
255 255 255
255 255 255
255 255 255
255 255 255
255 255 255
255 255 255
255 255 255
255 255 255
255 255 255
255 255 255
255 255 255
255 255 255
255 255 255
255 255 255
255 255 255
255 255 255
255 255 255
255 255 255
255 255 255
255 255 255
255 255 255
255 255 255
255 255 255
255 255 255
255 255 255
255 255 255
255 255 255
255 255 255
255 255 255
255 255 255
255 255 255
255 255 255
200 50 50
200 50 50
200 50 50
200 50 50
200 50 50
200 50 50
200 50 50
200 50 50
200 50 50
200 50 50
200 50 50
200 50 50
200 50 50
200 50 50
200 50 50
200 50 50
200 50 50
200 50 50
200 50 50
200 50 50
200 50 50
200 50 50
200 50 50
200 50 50
200 50 50
200 50 50
200 50 50
200 50 50
200 50 50
200 50 50
200 50 50
200 50 50
255 255 255
255 255 255
255 255 255
255 255 255
255 255 255
255 255 255
255 255 255
255 255 255
255 255 255
255 255 255
255 255 255
255 255 255
255 255 255
255 255 255
255 255 255
255 255 255
255 255 255
255 255 255
255 255 255
255 255 255
255 255 255
255 255 255
255 255 255
255 255 255
255 255 255
255 255 255
255 255 255
255 255 255
255 255 255
255 255 255
255 255 255
255 255 255
200 50 50
200 50 50
200 50 50
200 50 50
200 50 50
200 50 50
200 50 50
200 50 50
200 50 50
200 50 50
200 50 50
200 50 50
200 50 50
200 50 50
200 50 50
200 50 50
200 50 50
200 50 50
200 50 50
200 50 50
200 50 50
200 50 50
200 50 50
200 50 50
200 50 50
200 50 50
200 50 50
200 50 50
200 50 50
200 50 50
200 50 50
200 50 50
255 255 255
255 255 255
255 255 255
255 255 255
255 255 255
255 255 255
255 255 255
255 255 255
255 255 255
255 255 255
255 255 255
255 255 255
255 255 255
255 255 255
255 255 255
255 255 255
255 255 255
255 255 255
255 255 255
255 255 255
255 255 255
255 255 255
255 255 255
255 255 255
255 255 255
255 255 255
255 255 255
255 255 255
255 255 255
255 255 255
255 255 255
255 255 255
200 50 50
200 50 50
200 50 50
200 50 50
200 50 50
200 50 50
200 50 50
200 50 50
200 50 50
200 50 50
200 50 50
200 50 50
200 50 50
200 50 50
200 50 50
200 50 50
200 50 50
200 50 50
200 50 50
200 50 50
200 50 50
200 50 50
200 50 50
200 50 50
200 50 50
200 50 50
200 50 50
200 50 50
200 50 50
200 50 50
200 50 50
200 50 50
255 255 255
255 255 255
255 255 255
255 255 255
255 255 255
255 255 255
255 255 255
255 255 255
255 255 255
255 255 255
255 255 255
255 255 255
255 255 255
255 255 255
255 255 255
255 255 255
255 255 255
255 255 255
255 255 255
255 255 255
255 255 255
255 255 255
255 255 255
255 255 255
255 255 255
255 255 255
255 255 255
255 255 255
255 255 255
255 255 255
255 255 255
255 255 255
200 50 50
200 50 50
200 50 50
200 50 50
200 50 50
200 50 50
200 50 50
200 50 50
200 50 50
200 50 50
200 50 50
200 50 50
200 50 50
200 50 50
200 50 50
200 50 50
200 50 50
200 50 50
200 50 50
200 50 50
200 50 50
200 50 50
200 50 50
200 50 50
200 50 50
200 50 50
200 50 50
200 50 50
200 50 50
200 50 50
200 50 50
200 50 50
255 255 255
255 255 255
255 255 255
255 255 255
255 255 255
255 255 255
255 255 255
255 255 255
255 255 255
255 255 255
255 255 255
255 255 255
255 255 255
255 255 255
255 255 255
255 255 255
255 255 255
255 255 255
255 255 255
255 255 255
255 255 255
255 255 255
255 255 255
255 255 255
255 255 255
255 255 255
255 255 255
255 255 255
255 255 255
255 255 255
255 255 255
255 255 255
200 50 50
200 50 50
200 50 50
200 50 50
200 50 50
200 50 50
200 50 50
200 50 50
200 50 50
200 50 50
200 50 50
200 50 50
200 50 50
200 50 50
200 50 50
200 50 50
200 50 50
200 50 50
200 50 50
200 50 50
200 50 50
200 50 50
200 50 50
200 50 50
200 50 50
200 50 50
200 50 50
200 50 50
200 50 50
200 50 50
200 50 50
200 50 50
255 255 255
255 255 255
255 255 255
255 255 255
255 255 255
255 255 255
255 255 255
255 255 255
255 255 255
255 255 255
255 255 255
255 255 255
255 255 255
255 255 255
255 255 255
255 255 255
255 255 255
255 255 255
255 255 255
255 255 255
255 255 255
255 255 255
255 255 255
255 255 255
255 255 255
255 255 255
255 255 255
255 255 255
255 255 255
255 255 255
255 255 255
255 255 255
200 50 50
200 50 50
200 50 50
200 50 50
200 50 50
200 50 50
200 50 50
200 50 50
200 50 50
200 50 50
200 50 50
200 50 50
200 50 50
200 50 50
200 50 50
200 50 50
200 50 50
200 50 50
200 50 50
200 50 50
200 50 50
200 50 50
200 50 50
200 50 50
200 50 50
200 50 50
200 50 50
200 50 50
200 50 50
200 50 50
200 50 50
200 50 50
255 255 255
255 255 255
255 255 255
255 255 255
255 255 255
255 255 255
255 255 255
255 255 255
255 255 255
255 255 255
255 255 255
255 255 255
255 255 255
255 255 255
255 255 255
255 255 255
255 255 255
255 255 255
255 255 255
255 255 255
255 255 255
255 255 255
255 255 255
255 255 255
255 255 255
255 255 255
255 255 255
255 255 255
255 255 255
255 255 255
255 255 255
255 255 255
200 50 50
200 50 50
200 50 50
200 50 50
200 50 50
200 50 50
200 50 50
200 50 50
200 50 50
200 50 50
200 50 50
200 50 50
200 50 50
200 50 50
200 50 50
200 50 50
200 50 50
200 50 50
200 50 50
200 50 50
200 50 50
200 50 50
200 50 50
200 50 50
200 50 50
200 50 50
200 50 50
200 50 50
200 50 50
200 50 50
200 50 50
200 50 50
255 255 255
255 255 255
255 255 255
255 255 255
255 255 255
255 255 255
255 255 255
255 255 255
255 255 255
255 255 255
255 255 255
255 255 255
255 255 255
255 255 255
255 255 255
255 255 255
255 255 255
255 255 255
255 255 255
255 255 255
255 255 255
255 255 255
255 255 255
255 255 255
255 255 255
255 255 255
255 255 255
255 255 255
255 255 255
255 255 255
255 255 255
255 255 255
200 50 50
200 50 50
200 50 50
200 50 50
200 50 50
200 50 50
200 50 50
200 50 50
200 50 50
200 50 50
200 50 50
200 50 50
200 50 50
200 50 50
200 50 50
200 50 50
200 50 50
200 50 50
200 50 50
200 50 50
200 50 50
200 50 50
200 50 50
200 50 50
200 50 50
200 50 50
200 50 50
200 50 50
200 50 50
200 50 50
200 50 50
200 50 50
255 255 255
255 255 255
255 255 255
255 255 255
255 255 255
255 255 255
255 255 255
255 255 255
255 255 255
255 255 255
255 255 255
255 255 255
255 255 255
255 255 255
255 255 255
255 255 255
255 255 255
255 255 255
255 255 255
255 255 255
255 255 255
255 255 255
255 255 255
255 255 255
255 255 255
255 255 255
255 255 255
255 255 255
255 255 255
255 255 255
255 255 255
255 255 255
200 50 50
200 50 50
200 50 50
200 50 50
200 50 50
200 50 50
200 50 50
200 50 50
200 50 50
200 50 50
200 50 50
200 50 50
200 50 50
200 50 50
200 50 50
200 50 50
200 50 50
200 50 50
200 50 50
200 50 50
200 50 50
200 50 50
200 50 50
200 50 50
200 50 50
200 50 50
200 50 50
200 50 50
200 50 50
200 50 50
200 50 50
200 50 50
255 255 255
255 255 255
255 255 255
255 255 255
255 255 255
255 255 255
255 255 255
255 255 255
255 255 255
255 255 255
255 255 255
255 255 255
255 255 255
255 255 255
255 255 255
255 255 255
255 255 255
255 255 255
255 255 255
255 255 255
255 255 255
255 255 255
255 255 255
255 255 255
255 255 255
255 255 255
255 255 255
255 255 255
255 255 255
255 255 255
255 255 255
255 255 255
200 50 50
200 50 50
200 50 50
200 50 50
200 50 50
200 50 50
200 50 50
200 50 50
200 50 50
200 50 50
200 50 50
200 50 50
200 50 50
200 50 50
200 50 50
200 50 50
200 50 50
200 50 50
200 50 50
200 50 50
200 50 50
200 50 50
200 50 50
200 50 50
200 50 50
200 50 50
200 50 50
200 50 50
200 50 50
200 50 50
200 50 50
200 50 50
255 255 255
255 255 255
255 255 255
255 255 255
255 255 255
255 255 255
255 255 255
255 255 255
255 255 255
255 255 255
255 255 255
255 255 255
255 255 255
255 255 255
255 255 255
255 255 255
255 255 255
255 255 255
255 255 255
255 255 255
255 255 255
255 255 255
255 255 255
255 255 255
255 255 255
255 255 255
255 255 255
255 255 255
255 255 255
255 255 255
255 255 255
255 255 255
200 50 50
200 50 50
200 50 50
200 50 50
200 50 50
200 50 50
200 50 50
200 50 50
200 50 50
200 50 50
200 50 50
200 50 50
200 50 50
200 50 50
200 50 50
200 50 50
200 50 50
200 50 50
200 50 50
200 50 50
200 50 50
200 50 50
200 50 50
200 50 50
200 50 50
200 50 50
200 50 50
200 50 50
200 50 50
200 50 50
200 50 50
200 50 50
255 255 255
255 255 255
255 255 255
255 255 255
255 255 255
255 255 255
255 255 255
255 255 255
255 255 255
255 255 255
255 255 255
255 255 255
255 255 255
255 255 255
255 255 255
255 255 255
255 255 255
255 255 255
255 255 255
255 255 255
255 255 255
255 255 255
255 255 255
255 255 255
255 255 255
255 255 255
255 255 255
255 255 255
255 255 255
255 255 255
255 255 255
255 255 255
200 50 50
200 50 50
200 50 50
200 50 50
200 50 50
200 50 50
200 50 50
200 50 50
200 50 50
200 50 50
200 50 50
200 50 50
200 50 50
200 50 50
200 50 50
200 50 50
200 50 50
200 50 50
200 50 50
200 50 50
200 50 50
200 50 50
200 50 50
200 50 50
200 50 50
200 50 50
200 50 50
200 50 50
200 50 50
200 50 50
200 50 50
200 50 50
255 255 255
255 255 255
255 255 255
255 255 255
255 255 255
255 255 255
255 255 255
255 255 255
255 255 255
255 255 255
255 255 255
255 255 255
255 255 255
255 255 255
255 255 255
255 255 255
255 255 255
255 255 255
255 255 255
255 255 255
255 255 255
255 255 255
255 255 255
255 255 255
255 255 255
255 255 255
255 255 255
255 255 255
255 255 255
255 255 255
255 255 255
255 255 255
200 50 50
200 50 50
200 50 50
200 50 50
200 50 50
200 50 50
200 50 50
200 50 50
200 50 50
200 50 50
200 50 50
200 50 50
200 50 50
200 50 50
200 50 50
200 50 50
200 50 50
200 50 50
200 50 50
200 50 50
200 50 50
200 50 50
200 50 50
200 50 50
200 50 50
200 50 50
200 50 50
200 50 50
200 50 50
200 50 50
200 50 50
200 50 50
255 255 255
255 255 255
255 255 255
255 255 255
255 255 255
255 255 255
255 255 255
255 255 255
255 255 255
255 255 255
255 255 255
255 255 255
255 255 255
255 255 255
255 255 255
255 255 255
255 255 255
255 255 255
255 255 255
255 255 255
255 255 255
255 255 255
255 255 255
255 255 255
255 255 255
255 255 255
255 255 255
255 255 255
255 255 255
255 255 255
255 255 255
255 255 255
200 50 50
200 50 50
200 50 50
200 50 50
200 50 50
200 50 50
200 50 50
200 50 50
200 50 50
200 50 50
200 50 50
200 50 50
200 50 50
200 50 50
200 50 50
200 50 50
200 50 50
200 50 50
200 50 50
200 50 50
200 50 50
200 50 50
200 50 50
200 50 50
200 50 50
200 50 50
200 50 50
200 50 50
200 50 50
200 50 50
200 50 50
200 50 50
255 255 255
255 255 255
255 255 255
255 255 255
255 255 255
255 255 255
255 255 255
255 255 255
255 255 255
255 255 255
255 255 255
255 255 255
255 255 255
255 255 255
255 255 255
255 255 255
255 255 255
255 255 255
255 255 255
255 255 255
255 255 255
255 255 255
255 255 255
255 255 255
255 255 255
255 255 255
255 255 255
255 255 255
255 255 255
255 255 255
255 255 255
255 255 255
200 50 50
200 50 50
200 50 50
200 50 50
200 50 50
200 50 50
200 50 50
200 50 50
200 50 50
200 50 50
200 50 50
200 50 50
200 50 50
200 50 50
200 50 50
200 50 50
200 50 50
200 50 50
200 50 50
200 50 50
200 50 50
200 50 50
200 50 50
200 50 50
200 50 50
200 50 50
200 50 50
200 50 50
200 50 50
200 50 50
200 50 50
200 50 50
255 255 255
255 255 255
255 255 255
255 255 255
255 255 255
255 255 255
255 255 255
255 255 255
255 255 255
255 255 255
255 255 255
255 255 255
255 255 255
255 255 255
255 255 255
255 255 255
255 255 255
255 255 255
255 255 255
255 255 255
255 255 255
255 255 255
255 255 255
255 255 255
255 255 255
255 255 255
255 255 255
255 255 255
255 255 255
255 255 255
255 255 255
255 255 255
200 50 50
200 50 50
200 50 50
200 50 50
200 50 50
200 50 50
200 50 50
200 50 50
200 50 50
200 50 50
200 50 50
200 50 50
200 50 50
200 50 50
200 50 50
200 50 50
200 50 50
200 50 50
200 50 50
200 50 50
200 50 50
200 50 50
200 50 50
200 50 50
200 50 50
200 50 50
200 50 50
200 50 50
200 50 50
200 50 50
200 50 50
200 50 50
255 255 255
255 255 255
255 255 255
255 255 255
255 255 255
255 255 255
255 255 255
255 255 255
255 255 255
255 255 255
255 255 255
255 255 255
255 255 255
255 255 255
255 255 255
255 255 255
255 255 255
255 255 255
255 255 255
255 255 255
255 255 255
255 255 255
255 255 255
255 255 255
255 255 255
255 255 255
255 255 255
255 255 255
255 255 255
255 255 255
255 255 255
255 255 255
200 50 50
200 50 50
200 50 50
200 50 50
200 50 50
200 50 50
200 50 50
200 50 50
200 50 50
200 50 50
200 50 50
200 50 50
200 50 50
200 50 50
200 50 50
200 50 50
200 50 50
200 50 50
200 50 50
200 50 50
200 50 50
200 50 50
200 50 50
200 50 50
200 50 50
200 50 50
200 50 50
200 50 50
200 50 50
200 50 50
200 50 50
200 50 50
255 255 255
255 255 255
255 255 255
255 255 255
255 255 255
255 255 255
255 255 255
255 255 255
255 255 255
255 255 255
255 255 255
255 255 255
255 255 255
255 255 255
255 255 255
255 255 255
255 255 255
255 255 255
255 255 255
255 255 255
255 255 255
255 255 255
255 255 255
255 255 255
255 255 255
255 255 255
255 255 255
255 255 255
255 255 255
255 255 255
255 255 255
255 255 255
200 50 50
200 50 50
200 50 50
200 50 50
200 50 50
200 50 50
200 50 50
200 50 50
200 50 50
200 50 50
200 50 50
200 50 50
200 50 50
200 50 50
200 50 50
200 50 50
200 50 50
200 50 50
200 50 50
200 50 50
200 50 50
200 50 50
200 50 50
200 50 50
200 50 50
200 50 50
200 50 50
200 50 50
200 50 50
200 50 50
200 50 50
200 50 50
255 255 255
255 255 255
255 255 255
255 255 255
255 255 255
255 255 255
255 255 255
255 255 255
255 255 255
255 255 255
255 255 255
255 255 255
255 255 255
255 255 255
255 255 255
255 255 255
255 255 255
255 255 255
255 255 255
255 255 255
255 255 255
255 255 255
255 255 255
255 255 255
255 255 255
255 255 255
255 255 255
255 255 255
255 255 255
255 255 255
255 255 255
255 255 255
200 50 50
200 50 50
200 50 50
200 50 50
200 50 50
200 50 50
200 50 50
200 50 50
200 50 50
200 50 50
200 50 50
200 50 50
200 50 50
200 50 50
200 50 50
200 50 50
200 50 50
200 50 50
200 50 50
200 50 50
200 50 50
200 50 50
200 50 50
200 50 50
200 50 50
200 50 50
200 50 50
200 50 50
200 50 50
200 50 50
200 50 50
200 50 50
255 255 255
255 255 255
255 255 255
255 255 255
255 255 255
255 255 255
255 255 255
255 255 255
255 255 255
255 255 255
255 255 255
255 255 255
255 255 255
255 255 255
255 255 255
255 255 255
255 255 255
255 255 255
255 255 255
255 255 255
255 255 255
255 255 255
255 255 255
255 255 255
255 255 255
255 255 255
255 255 255
255 255 255
255 255 255
255 255 255
255 255 255
255 255 255
200 50 50
200 50 50
200 50 50
200 50 50
200 50 50
200 50 50
200 50 50
200 50 50
200 50 50
200 50 50
200 50 50
200 50 50
200 50 50
200 50 50
200 50 50
200 50 50
200 50 50
200 50 50
200 50 50
200 50 50
200 50 50
200 50 50
200 50 50
200 50 50
200 50 50
200 50 50
200 50 50
200 50 50
200 50 50
200 50 50
200 50 50
200 50 50
255 255 255
255 255 255
255 255 255
255 255 255
255 255 255
255 255 255
255 255 255
255 255 255
255 255 255
255 255 255
255 255 255
255 255 255
255 255 255
255 255 255
255 255 255
255 255 255
255 255 255
255 255 255
255 255 255
255 255 255
255 255 255
255 255 255
255 255 255
255 255 255
255 255 255
255 255 255
255 255 255
255 255 255
255 255 255
255 255 255
255 255 255
255 255 255
200 50 50
200 50 50
200 50 50
200 50 50
200 50 50
200 50 50
200 50 50
200 50 50
200 50 50
200 50 50
200 50 50
200 50 50
200 50 50
200 50 50
200 50 50
200 50 50
200 50 50
200 50 50
200 50 50
200 50 50
200 50 50
200 50 50
200 50 50
200 50 50
200 50 50
200 50 50
200 50 50
200 50 50
200 50 50
200 50 50
200 50 50
200 50 50
255 255 255
255 255 255
255 255 255
255 255 255
255 255 255
255 255 255
255 255 255
255 255 255
255 255 255
255 255 255
255 255 255
255 255 255
255 255 255
255 255 255
255 255 255
255 255 255
255 255 255
255 255 255
255 255 255
255 255 255
255 255 255
255 255 255
255 255 255
255 255 255
255 255 255
255 255 255
255 255 255
255 255 255
255 255 255
255 255 255
255 255 255
255 255 255
200 50 50
200 50 50
200 50 50
200 50 50
200 50 50
200 50 50
200 50 50
200 50 50
200 50 50
200 50 50
200 50 50
200 50 50
200 50 50
200 50 50
200 50 50
200 50 50
200 50 50
200 50 50
200 50 50
200 50 50
200 50 50
200 50 50
200 50 50
200 50 50
200 50 50
200 50 50
200 50 50
200 50 50
200 50 50
200 50 50
200 50 50
200 50 50
255 255 255
255 255 255
255 255 255
255 255 255
255 255 255
255 255 255
255 255 255
255 255 255
255 255 255
255 255 255
255 255 255
255 255 255
255 255 255
255 255 255
255 255 255
255 255 255
255 255 255
255 255 255
255 255 255
255 255 255
255 255 255
255 255 255
255 255 255
255 255 255
255 255 255
255 255 255
255 255 255
255 255 255
255 255 255
255 255 255
255 255 255
255 255 255
200 50 50
200 50 50
200 50 50
200 50 50
200 50 50
200 50 50
200 50 50
200 50 50
200 50 50
200 50 50
200 50 50
200 50 50
200 50 50
200 50 50
200 50 50
200 50 50
200 50 50
200 50 50
200 50 50
200 50 50
200 50 50
200 50 50
200 50 50
200 50 50
200 50 50
200 50 50
200 50 50
200 50 50
200 50 50
200 50 50
200 50 50
200 50 50
255 255 255
255 255 255
255 255 255
255 255 255
255 255 255
255 255 255
255 255 255
255 255 255
255 255 255
255 255 255
255 255 255
255 255 255
255 255 255
255 255 255
255 255 255
255 255 255
255 255 255
255 255 255
255 255 255
255 255 255
255 255 255
255 255 255
255 255 255
255 255 255
255 255 255
255 255 255
255 255 255
255 255 255
255 255 255
255 255 255
255 255 255
255 255 255
200 50 50
200 50 50
200 50 50
200 50 50
200 50 50
200 50 50
200 50 50
200 50 50
200 50 50
200 50 50
200 50 50
200 50 50
200 50 50
200 50 50
200 50 50
200 50 50
200 50 50
200 50 50
200 50 50
200 50 50
200 50 50
200 50 50
200 50 50
200 50 50
200 50 50
200 50 50
200 50 50
200 50 50
200 50 50
200 50 50
200 50 50
200 50 50
255 255 255
255 255 255
255 255 255
255 255 255
255 255 255
255 255 255
255 255 255
255 255 255
255 255 255
255 255 255
255 255 255
255 255 255
255 255 255
255 255 255
255 255 255
255 255 255
255 255 255
255 255 255
255 255 255
255 255 255
255 255 255
255 255 255
255 255 255
255 255 255
255 255 255
255 255 255
255 255 255
255 255 255
255 255 255
255 255 255
255 255 255
255 255 255
200 50 50
200 50 50
200 50 50
200 50 50
200 50 50
200 50 50
200 50 50
200 50 50
200 50 50
200 50 50
200 50 50
200 50 50
200 50 50
200 50 50
200 50 50
200 50 50
200 50 50
200 50 50
200 50 50
200 50 50
200 50 50
200 50 50
200 50 50
200 50 50
200 50 50
200 50 50
200 50 50
200 50 50
200 50 50
200 50 50
200 50 50
200 50 50
255 255 255
255 255 255
255 255 255
255 255 255
255 255 255
255 255 255
255 255 255
255 255 255
255 255 255
255 255 255
255 255 255
255 255 255
255 255 255
255 255 255
255 255 255
255 255 255
255 255 255
255 255 255
255 255 255
255 255 255
255 255 255
255 255 255
255 255 255
255 255 255
255 255 255
255 255 255
255 255 255
255 255 255
255 255 255
255 255 255
255 255 255
255 255 255
200 50 50
200 50 50
200 50 50
200 50 50
200 50 50
200 50 50
200 50 50
200 50 50
200 50 50
200 50 50
200 50 50
200 50 50
200 50 50
200 50 50
200 50 50
200 50 50
200 50 50
200 50 50
200 50 50
200 50 50
200 50 50
200 50 50
200 50 50
200 50 50
200 50 50
200 50 50
200 50 50
200 50 50
200 50 50
200 50 50
200 50 50
200 50 50
255 255 255
255 255 255
255 255 255
255 255 255
255 255 255
255 255 255
255 255 255
255 255 255
255 255 255
255 255 255
255 255 255
255 255 255
255 255 255
255 255 255
255 255 255
255 255 255
255 255 255
255 255 255
255 255 255
255 255 255
255 255 255
255 255 255
255 255 255
255 255 255
255 255 255
255 255 255
255 255 255
255 255 255
255 255 255
255 255 255
255 255 255
255 255 255
200 50 50
200 50 50
200 50 50
200 50 50
200 50 50
200 50 50
200 50 50
200 50 50
200 50 50
200 50 50
200 50 50
200 50 50
200 50 50
200 50 50
200 50 50
200 50 50
200 50 50
200 50 50
200 50 50
200 50 50
200 50 50
200 50 50
200 50 50
200 50 50
200 50 50
200 50 50
200 50 50
200 50 50
200 50 50
200 50 50
200 50 50
200 50 50
255 255 255
255 255 255
255 255 255
255 255 255
255 255 255
255 255 255
255 255 255
255 255 255
255 255 255
255 255 255
255 255 255
255 255 255
255 255 255
255 255 255
255 255 255
255 255 255
255 255 255
255 255 255
255 255 255
255 255 255
255 255 255
255 255 255
255 255 255
255 255 255
255 255 255
255 255 255
255 255 255
255 255 255
255 255 255
255 255 255
255 255 255
255 255 255
200 50 50
200 50 50
200 50 50
200 50 50
200 50 50
200 50 50
200 50 50
200 50 50
200 50 50
200 50 50
200 50 50
200 50 50
200 50 50
200 50 50
200 50 50
200 50 50
200 50 50
200 50 50
200 50 50
200 50 50
200 50 50
200 50 50
200 50 50
200 50 50
200 50 50
200 50 50
200 50 50
200 50 50
200 50 50
200 50 50
200 50 50
200 50 50
255 255 255
255 255 255
255 255 255
255 255 255
255 255 255
255 255 255
255 255 255
255 255 255
255 255 255
255 255 255
255 255 255
255 255 255
255 255 255
255 255 255
255 255 255
255 255 255
255 255 255
255 255 255
255 255 255
255 255 255
255 255 255
255 255 255
255 255 255
255 255 255
255 255 255
255 255 255
255 255 255
255 255 255
255 255 255
255 255 255
255 255 255
255 255 255
200 50 50
200 50 50
200 50 50
200 50 50
200 50 50
200 50 50
200 50 50
200 50 50
200 50 50
200 50 50
200 50 50
200 50 50
200 50 50
200 50 50
200 50 50
200 50 50
200 50 50
200 50 50
200 50 50
200 50 50
200 50 50
200 50 50
200 50 50
200 50 50
200 50 50
200 50 50
200 50 50
200 50 50
200 50 50
200 50 50
200 50 50
200 50 50
255 255 255
255 255 255
255 255 255
255 255 255
255 255 255
255 255 255
255 255 255
255 255 255
255 255 255
255 255 255
255 255 255
255 255 255
255 255 255
255 255 255
255 255 255
255 255 255
255 255 255
255 255 255
255 255 255
255 255 255
255 255 255
255 255 255
255 255 255
255 255 255
255 255 255
255 255 255
255 255 255
255 255 255
255 255 255
255 255 255
255 255 255
255 255 255
200 50 50
200 50 50
200 50 50
200 50 50
200 50 50
200 50 50
200 50 50
200 50 50
200 50 50
200 50 50
200 50 50
200 50 50
200 50 50
200 50 50
200 50 50
200 50 50
200 50 50
200 50 50
200 50 50
200 50 50
200 50 50
200 50 50
200 50 50
200 50 50
200 50 50
200 50 50
200 50 50
200 50 50
200 50 50
200 50 50
200 50 50
200 50 50
255 255 255
255 255 255
255 255 255
255 255 255
255 255 255
255 255 255
255 255 255
255 255 255
255 255 255
255 255 255
255 255 255
255 255 255
255 255 255
255 255 255
255 255 255
255 255 255
255 255 255
255 255 255
255 255 255
255 255 255
255 255 255
255 255 255
255 255 255
255 255 255
255 255 255
255 255 255
255 255 255
255 255 255
255 255 255
255 255 255
255 255 255
255 255 255
200 50 50
200 50 50
200 50 50
200 50 50
200 50 50
200 50 50
200 50 50
200 50 50
200 50 50
200 50 50
200 50 50
200 50 50
200 50 50
200 50 50
200 50 50
200 50 50
200 50 50
200 50 50
200 50 50
200 50 50
200 50 50
200 50 50
200 50 50
200 50 50
200 50 50
200 50 50
200 50 50
200 50 50
200 50 50
200 50 50
200 50 50
200 50 50
255 255 255
255 255 255
255 255 255
255 255 255
255 255 255
255 255 255
255 255 255
255 255 255
255 255 255
255 255 255
255 255 255
255 255 255
255 255 255
255 255 255
255 255 255
255 255 255
255 255 255
255 255 255
255 255 255
255 255 255
255 255 255
255 255 255
255 255 255
255 255 255
255 255 255
255 255 255
255 255 255
255 255 255
255 255 255
255 255 255
255 255 255
255 255 255
200 50 50
200 50 50
200 50 50
200 50 50
200 50 50
200 50 50
200 50 50
200 50 50
200 50 50
200 50 50
200 50 50
200 50 50
200 50 50
200 50 50
200 50 50
200 50 50
200 50 50
200 50 50
200 50 50
200 50 50
200 50 50
200 50 50
200 50 50
200 50 50
200 50 50
200 50 50
200 50 50
200 50 50
200 50 50
200 50 50
200 50 50
200 50 50
255 255 255
255 255 255
255 255 255
255 255 255
255 255 255
255 255 255
255 255 255
255 255 255
255 255 255
255 255 255
255 255 255
255 255 255
255 255 255
255 255 255
255 255 255
255 255 255
255 255 255
255 255 255
255 255 255
255 255 255
255 255 255
255 255 255
255 255 255
255 255 255
255 255 255
255 255 255
255 255 255
255 255 255
255 255 255
255 255 255
255 255 255
255 255 255
200 50 50
200 50 50
200 50 50
200 50 50
200 50 50
200 50 50
200 50 50
200 50 50
200 50 50
200 50 50
200 50 50
200 50 50
200 50 50
200 50 50
200 50 50
200 50 50
200 50 50
200 50 50
200 50 50
200 50 50
200 50 50
200 50 50
200 50 50
200 50 50
200 50 50
200 50 50
200 50 50
200 50 50
200 50 50
200 50 50
200 50 50
200 50 50
255 255 255
255 255 255
255 255 255
255 255 255
255 255 255
255 255 255
255 255 255
255 255 255
255 255 255
255 255 255
255 255 255
255 255 255
255 255 255
255 255 255
255 255 255
255 255 255
255 255 255
255 255 255
255 255 255
255 255 255
255 255 255
255 255 255
255 255 255
255 255 255
255 255 255
255 255 255
255 255 255
255 255 255
255 255 255
255 255 255
255 255 255
255 255 255
200 50 50
200 50 50
200 50 50
200 50 50
200 50 50
200 50 50
200 50 50
200 50 50
200 50 50
200 50 50
200 50 50
200 50 50
200 50 50
200 50 50
200 50 50
200 50 50
200 50 50
200 50 50
200 50 50
200 50 50
200 50 50
200 50 50
200 50 50
200 50 50
200 50 50
200 50 50
200 50 50
200 50 50
200 50 50
200 50 50
200 50 50
200 50 50
255 255 255
255 255 255
255 255 255
255 255 255
255 255 255
255 255 255
255 255 255
255 255 255
255 255 255
255 255 255
255 255 255
255 255 255
255 255 255
255 255 255
255 255 255
255 255 255
255 255 255
255 255 255
255 255 255
255 255 255
255 255 255
255 255 255
255 255 255
255 255 255
255 255 255
255 255 255
255 255 255
255 255 255
255 255 255
255 255 255
255 255 255
255 255 255
200 50 50
200 50 50
200 50 50
200 50 50
200 50 50
200 50 50
200 50 50
200 50 50
200 50 50
200 50 50
200 50 50
200 50 50
200 50 50
200 50 50
200 50 50
200 50 50
200 50 50
200 50 50
200 50 50
200 50 50
200 50 50
200 50 50
200 50 50
200 50 50
200 50 50
200 50 50
200 50 50
200 50 50
200 50 50
200 50 50
200 50 50
200 50 50
255 255 255
255 255 255
255 255 255
255 255 255
255 255 255
255 255 255
255 255 255
255 255 255
255 255 255
255 255 255
255 255 255
255 255 255
255 255 255
255 255 255
255 255 255
255 255 255
255 255 255
255 255 255
255 255 255
255 255 255
255 255 255
255 255 255
255 255 255
255 255 255
255 255 255
255 255 255
255 255 255
255 255 255
255 255 255
255 255 255
255 255 255
255 255 255
200 50 50
200 50 50
200 50 50
200 50 50
200 50 50
200 50 50
200 50 50
200 50 50
200 50 50
200 50 50
200 50 50
200 50 50
200 50 50
200 50 50
200 50 50
200 50 50
200 50 50
200 50 50
200 50 50
200 50 50
200 50 50
200 50 50
200 50 50
200 50 50
200 50 50
200 50 50
200 50 50
200 50 50
200 50 50
200 50 50
200 50 50
200 50 50
255 255 255
255 255 255
255 255 255
255 255 255
255 255 255
255 255 255
255 255 255
255 255 255
255 255 255
255 255 255
255 255 255
255 255 255
255 255 255
255 255 255
255 255 255
255 255 255
255 255 255
255 255 255
255 255 255
255 255 255
255 255 255
255 255 255
255 255 255
255 255 255
255 255 255
255 255 255
255 255 255
255 255 255
255 255 255
255 255 255
255 255 255
255 255 255
200 50 50
200 50 50
200 50 50
200 50 50
200 50 50
200 50 50
200 50 50
200 50 50
200 50 50
200 50 50
200 50 50
200 50 50
200 50 50
200 50 50
200 50 50
200 50 50
200 50 50
200 50 50
200 50 50
200 50 50
200 50 50
200 50 50
200 50 50
200 50 50
200 50 50
200 50 50
200 50 50
200 50 50
200 50 50
200 50 50
200 50 50
200 50 50
255 255 255
255 255 255
255 255 255
255 255 255
255 255 255
255 255 255
255 255 255
255 255 255
255 255 255
255 255 255
255 255 255
255 255 255
255 255 255
255 255 255
255 255 255
255 255 255
255 255 255
255 255 255
255 255 255
255 255 255
255 255 255
255 255 255
255 255 255
255 255 255
255 255 255
255 255 255
255 255 255
255 255 255
255 255 255
255 255 255
255 255 255
255 255 255
200 50 50
200 50 50
200 50 50
200 50 50
200 50 50
200 50 50
200 50 50
200 50 50
200 50 50
200 50 50
200 50 50
200 50 50
200 50 50
200 50 50
200 50 50
200 50 50
200 50 50
200 50 50
200 50 50
200 50 50
200 50 50
200 50 50
200 50 50
200 50 50
200 50 50
200 50 50
200 50 50
200 50 50
200 50 50
200 50 50
200 50 50
200 50 50
255 255 255
255 255 255
255 255 255
255 255 255
255 255 255
255 255 255
255 255 255
255 255 255
255 255 255
255 255 255
255 255 255
255 255 255
255 255 255
255 255 255
255 255 255
255 255 255
255 255 255
255 255 255
255 255 255
255 255 255
255 255 255
255 255 255
255 255 255
255 255 255
255 255 255
255 255 255
255 255 255
255 255 255
255 255 255
255 255 255
255 255 255
255 255 255
200 50 50
200 50 50
200 50 50
200 50 50
200 50 50
200 50 50
200 50 50
200 50 50
200 50 50
200 50 50
200 50 50
200 50 50
200 50 50
200 50 50
200 50 50
200 50 50
200 50 50
200 50 50
200 50 50
200 50 50
200 50 50
200 50 50
200 50 50
200 50 50
200 50 50
200 50 50
200 50 50
200 50 50
200 50 50
200 50 50
200 50 50
200 50 50
255 255 255
255 255 255
255 255 255
255 255 255
255 255 255
255 255 255
255 255 255
255 255 255
255 255 255
255 255 255
255 255 255
255 255 255
255 255 255
255 255 255
255 255 255
255 255 255
255 255 255
255 255 255
255 255 255
255 255 255
255 255 255
255 255 255
255 255 255
255 255 255
255 255 255
255 255 255
255 255 255
255 255 255
255 255 255
255 255 255
255 255 255
255 255 255
200 50 50
200 50 50
200 50 50
200 50 50
200 50 50
200 50 50
200 50 50
200 50 50
200 50 50
200 50 50
200 50 50
200 50 50
200 50 50
200 50 50
200 50 50
200 50 50
200 50 50
200 50 50
200 50 50
200 50 50
200 50 50
200 50 50
200 50 50
200 50 50
200 50 50
200 50 50
200 50 50
200 50 50
200 50 50
200 50 50
200 50 50
200 50 50
255 255 255
255 255 255
255 255 255
255 255 255
255 255 255
255 255 255
255 255 255
255 255 255
255 255 255
255 255 255
255 255 255
255 255 255
255 255 255
255 255 255
255 255 255
255 255 255
255 255 255
255 255 255
255 255 255
255 255 255
255 255 255
255 255 255
255 255 255
255 255 255
255 255 255
255 255 255
255 255 255
255 255 255
255 255 255
255 255 255
255 255 255
255 255 255
200 50 50
200 50 50
200 50 50
200 50 50
200 50 50
200 50 50
200 50 50
200 50 50
200 50 50
200 50 50
200 50 50
200 50 50
200 50 50
200 50 50
200 50 50
200 50 50
200 50 50
200 50 50
200 50 50
200 50 50
200 50 50
200 50 50
200 50 50
200 50 50
200 50 50
200 50 50
200 50 50
200 50 50
200 50 50
200 50 50
200 50 50
200 50 50
255 255 255
255 255 255
255 255 255
255 255 255
255 255 255
255 255 255
255 255 255
255 255 255
255 255 255
255 255 255
255 255 255
255 255 255
255 255 255
255 255 255
255 255 255
255 255 255
255 255 255
255 255 255
255 255 255
255 255 255
255 255 255
255 255 255
255 255 255
255 255 255
255 255 255
255 255 255
255 255 255
255 255 255
255 255 255
255 255 255
255 255 255
255 255 255
200 50 50
200 50 50
200 50 50
200 50 50
200 50 50
200 50 50
200 50 50
200 50 50
200 50 50
200 50 50
200 50 50
200 50 50
200 50 50
200 50 50
200 50 50
200 50 50
200 50 50
200 50 50
200 50 50
200 50 50
200 50 50
200 50 50
200 50 50
200 50 50
200 50 50
200 50 50
200 50 50
200 50 50
200 50 50
200 50 50
200 50 50
200 50 50
255 255 255
255 255 255
255 255 255
255 255 255
255 255 255
255 255 255
255 255 255
255 255 255
255 255 255
255 255 255
255 255 255
255 255 255
255 255 255
255 255 255
255 255 255
255 255 255
255 255 255
255 255 255
255 255 255
255 255 255
255 255 255
255 255 255
255 255 255
255 255 255
255 255 255
255 255 255
255 255 255
255 255 255
255 255 255
255 255 255
255 255 255
255 255 255
200 50 50
200 50 50
200 50 50
200 50 50
200 50 50
200 50 50
200 50 50
200 50 50
200 50 50
200 50 50
200 50 50
200 50 50
200 50 50
200 50 50
200 50 50
200 50 50
200 50 50
200 50 50
200 50 50
200 50 50
200 50 50
200 50 50
200 50 50
200 50 50
200 50 50
200 50 50
200 50 50
200 50 50
200 50 50
200 50 50
200 50 50
200 50 50
255 255 255
255 255 255
255 255 255
255 255 255
255 255 255
255 255 255
255 255 255
255 255 255
255 255 255
255 255 255
255 255 255
255 255 255
255 255 255
255 255 255
255 255 255
255 255 255
255 255 255
255 255 255
255 255 255
255 255 255
255 255 255
255 255 255
255 255 255
255 255 255
255 255 255
255 255 255
255 255 255
255 255 255
255 255 255
255 255 255
255 255 255
255 255 255
200 50 50
200 50 50
200 50 50
200 50 50
200 50 50
200 50 50
200 50 50
200 50 50
200 50 50
200 50 50
200 50 50
200 50 50
200 50 50
200 50 50
200 50 50
200 50 50
200 50 50
200 50 50
200 50 50
200 50 50
200 50 50
200 50 50
200 50 50
200 50 50
200 50 50
200 50 50
200 50 50
200 50 50
200 50 50
200 50 50
200 50 50
200 50 50
255 255 255
255 255 255
255 255 255
255 255 255
255 255 255
255 255 255
255 255 255
255 255 255
255 255 255
255 255 255
255 255 255
255 255 255
255 255 255
255 255 255
255 255 255
255 255 255
255 255 255
255 255 255
255 255 255
255 255 255
255 255 255
255 255 255
255 255 255
255 255 255
255 255 255
255 255 255
255 255 255
255 255 255
255 255 255
255 255 255
255 255 255
255 255 255
200 50 50
200 50 50
200 50 50
200 50 50
200 50 50
200 50 50
200 50 50
200 50 50
200 50 50
200 50 50
200 50 50
200 50 50
200 50 50
200 50 50
200 50 50
200 50 50
200 50 50
200 50 50
200 50 50
200 50 50
200 50 50
200 50 50
200 50 50
200 50 50
200 50 50
200 50 50
200 50 50
200 50 50
200 50 50
200 50 50
200 50 50
200 50 50
255 255 255
255 255 255
255 255 255
255 255 255
255 255 255
255 255 255
255 255 255
255 255 255
255 255 255
255 255 255
255 255 255
255 255 255
255 255 255
255 255 255
255 255 255
255 255 255
255 255 255
255 255 255
255 255 255
255 255 255
255 255 255
255 255 255
255 255 255
255 255 255
255 255 255
255 255 255
255 255 255
255 255 255
255 255 255
255 255 255
255 255 255
255 255 255
200 50 50
200 50 50
200 50 50
200 50 50
200 50 50
200 50 50
200 50 50
200 50 50
200 50 50
200 50 50
200 50 50
200 50 50
200 50 50
200 50 50
200 50 50
200 50 50
200 50 50
200 50 50
200 50 50
200 50 50
200 50 50
200 50 50
200 50 50
200 50 50
200 50 50
200 50 50
200 50 50
200 50 50
200 50 50
200 50 50
200 50 50
200 50 50
255 255 255
255 255 255
255 255 255
255 255 255
255 255 255
255 255 255
255 255 255
255 255 255
255 255 255
255 255 255
255 255 255
255 255 255
255 255 255
255 255 255
255 255 255
255 255 255
255 255 255
255 255 255
255 255 255
255 255 255
255 255 255
255 255 255
255 255 255
255 255 255
255 255 255
255 255 255
255 255 255
255 255 255
255 255 255
255 255 255
255 255 255
255 255 255
200 50 50
200 50 50
200 50 50
200 50 50
200 50 50
200 50 50
200 50 50
200 50 50
200 50 50
200 50 50
200 50 50
200 50 50
200 50 50
200 50 50
200 50 50
200 50 50
200 50 50
200 50 50
200 50 50
200 50 50
200 50 50
200 50 50
200 50 50
200 50 50
200 50 50
200 50 50
200 50 50
200 50 50
200 50 50
200 50 50
200 50 50
200 50 50
255 255 255
255 255 255
255 255 255
255 255 255
255 255 255
255 255 255
255 255 255
255 255 255
255 255 255
255 255 255
255 255 255
255 255 255
255 255 255
255 255 255
255 255 255
255 255 255
255 255 255
255 255 255
255 255 255
255 255 255
255 255 255
255 255 255
255 255 255
255 255 255
255 255 255
255 255 255
255 255 255
255 255 255
255 255 255
255 255 255
255 255 255
255 255 255
200 50 50
200 50 50
200 50 50
200 50 50
200 50 50
200 50 50
200 50 50
200 50 50
200 50 50
200 50 50
200 50 50
200 50 50
200 50 50
200 50 50
200 50 50
200 50 50
200 50 50
200 50 50
200 50 50
200 50 50
200 50 50
200 50 50
200 50 50
200 50 50
200 50 50
200 50 50
200 50 50
200 50 50
200 50 50
200 50 50
200 50 50
200 50 50
255 255 255
255 255 255
255 255 255
255 255 255
255 255 255
255 255 255
255 255 255
255 255 255
255 255 255
255 255 255
255 255 255
255 255 255
255 255 255
255 255 255
255 255 255
255 255 255
255 255 255
255 255 255
255 255 255
255 255 255
255 255 255
255 255 255
255 255 255
255 255 255
255 255 255
255 255 255
255 255 255
255 255 255
255 255 255
255 255 255
255 255 255
255 255 255
200 50 50
200 50 50
200 50 50
200 50 50
200 50 50
200 50 50
200 50 50
200 50 50
200 50 50
200 50 50
200 50 50
200 50 50
200 50 50
200 50 50
200 50 50
200 50 50
200 50 50
200 50 50
200 50 50
200 50 50
200 50 50
200 50 50
200 50 50
200 50 50
200 50 50
200 50 50
200 50 50
200 50 50
200 50 50
200 50 50
200 50 50
200 50 50
255 255 255
255 255 255
255 255 255
255 255 255
255 255 255
255 255 255
255 255 255
255 255 255
255 255 255
255 255 255
255 255 255
255 255 255
255 255 255
255 255 255
255 255 255
255 255 255
255 255 255
255 255 255
255 255 255
255 255 255
255 255 255
255 255 255
255 255 255
255 255 255
255 255 255
255 255 255
255 255 255
255 255 255
255 255 255
255 255 255
255 255 255
255 255 255
200 50 50
200 50 50
200 50 50
200 50 50
200 50 50
200 50 50
200 50 50
200 50 50
200 50 50
200 50 50
200 50 50
200 50 50
200 50 50
200 50 50
200 50 50
200 50 50
200 50 50
200 50 50
200 50 50
200 50 50
200 50 50
200 50 50
200 50 50
200 50 50
200 50 50
200 50 50
200 50 50
200 50 50
200 50 50
200 50 50
200 50 50
200 50 50
255 255 255
255 255 255
255 255 255
255 255 255
255 255 255
255 255 255
255 255 255
255 255 255
255 255 255
255 255 255
255 255 255
255 255 255
255 255 255
255 255 255
255 255 255
255 255 255
255 255 255
255 255 255
255 255 255
255 255 255
255 255 255
255 255 255
255 255 255
255 255 255
255 255 255
255 255 255
255 255 255
255 255 255
255 255 255
255 255 255
255 255 255
255 255 255
200 50 50
200 50 50
200 50 50
200 50 50
200 50 50
200 50 50
200 50 50
200 50 50
200 50 50
200 50 50
200 50 50
200 50 50
200 50 50
200 50 50
200 50 50
200 50 50
200 50 50
200 50 50
200 50 50
200 50 50
200 50 50
200 50 50
200 50 50
200 50 50
200 50 50
200 50 50
200 50 50
200 50 50
200 50 50
200 50 50
200 50 50
200 50 50
255 255 255
255 255 255
255 255 255
255 255 255
255 255 255
255 255 255
255 255 255
255 255 255
255 255 255
255 255 255
255 255 255
255 255 255
255 255 255
255 255 255
255 255 255
255 255 255
255 255 255
255 255 255
255 255 255
255 255 255
255 255 255
255 255 255
255 255 255
255 255 255
255 255 255
255 255 255
255 255 255
255 255 255
255 255 255
255 255 255
255 255 255
255 255 255
200 50 50
200 50 50
200 50 50
200 50 50
200 50 50
200 50 50
200 50 50
200 50 50
200 50 50
200 50 50
200 50 50
200 50 50
200 50 50
200 50 50
200 50 50
200 50 50
200 50 50
200 50 50
200 50 50
200 50 50
200 50 50
200 50 50
200 50 50
200 50 50
200 50 50
200 50 50
200 50 50
200 50 50
200 50 50
200 50 50
200 50 50
200 50 50
255 255 255
255 255 255
255 255 255
255 255 255
255 255 255
255 255 255
255 255 255
255 255 255
255 255 255
255 255 255
255 255 255
255 255 255
255 255 255
255 255 255
255 255 255
255 255 255
255 255 255
255 255 255
255 255 255
255 255 255
255 255 255
255 255 255
255 255 255
255 255 255
255 255 255
255 255 255
255 255 255
255 255 255
255 255 255
255 255 255
255 255 255
255 255 255
200 50 50
200 50 50
200 50 50
200 50 50
200 50 50
200 50 50
200 50 50
200 50 50
200 50 50
200 50 50
200 50 50
200 50 50
200 50 50
200 50 50
200 50 50
200 50 50
200 50 50
200 50 50
200 50 50
200 50 50
200 50 50
200 50 50
200 50 50
200 50 50
200 50 50
200 50 50
200 50 50
200 50 50
200 50 50
200 50 50
200 50 50
200 50 50
255 255 255
255 255 255
255 255 255
255 255 255
255 255 255
255 255 255
255 255 255
255 255 255
255 255 255
255 255 255
255 255 255
255 255 255
255 255 255
255 255 255
255 255 255
255 255 255
255 255 255
255 255 255
255 255 255
255 255 255
255 255 255
255 255 255
255 255 255
255 255 255
255 255 255
255 255 255
255 255 255
255 255 255
255 255 255
255 255 255
255 255 255
255 255 255
200 50 50
200 50 50
200 50 50
200 50 50
200 50 50
200 50 50
200 50 50
200 50 50
200 50 50
200 50 50
200 50 50
200 50 50
200 50 50
200 50 50
200 50 50
200 50 50
200 50 50
200 50 50
200 50 50
200 50 50
200 50 50
200 50 50
200 50 50
200 50 50
200 50 50
200 50 50
200 50 50
200 50 50
200 50 50
200 50 50
200 50 50
200 50 50
255 255 255
255 255 255
255 255 255
255 255 255
255 255 255
255 255 255
255 255 255
255 255 255
255 255 255
255 255 255
255 255 255
255 255 255
255 255 255
255 255 255
255 255 255
255 255 255
255 255 255
255 255 255
255 255 255
255 255 255
255 255 255
255 255 255
255 255 255
255 255 255
255 255 255
255 255 255
255 255 255
255 255 255
255 255 255
255 255 255
255 255 255
255 255 255
200 50 50
200 50 50
200 50 50
200 50 50
200 50 50
200 50 50
200 50 50
200 50 50
200 50 50
200 50 50
200 50 50
200 50 50
200 50 50
200 50 50
200 50 50
200 50 50
200 50 50
200 50 50
200 50 50
200 50 50
200 50 50
200 50 50
200 50 50
200 50 50
200 50 50
200 50 50
200 50 50
200 50 50
200 50 50
200 50 50
200 50 50
200 50 50
255 255 255
255 255 255
255 255 255
255 255 255
255 255 255
255 255 255
255 255 255
255 255 255
255 255 255
255 255 255
255 255 255
255 255 255
255 255 255
255 255 255
255 255 255
255 255 255
255 255 255
255 255 255
255 255 255
255 255 255
255 255 255
255 255 255
255 255 255
255 255 255
255 255 255
255 255 255
255 255 255
255 255 255
255 255 255
255 255 255
255 255 255
255 255 255
200 50 50
200 50 50
200 50 50
200 50 50
200 50 50
200 50 50
200 50 50
200 50 50
200 50 50
200 50 50
200 50 50
200 50 50
200 50 50
200 50 50
200 50 50
200 50 50
200 50 50
200 50 50
200 50 50
200 50 50
200 50 50
200 50 50
200 50 50
200 50 50
200 50 50
200 50 50
200 50 50
200 50 50
200 50 50
200 50 50
200 50 50
200 50 50
255 255 255
255 255 255
255 255 255
255 255 255
255 255 255
255 255 255
255 255 255
255 255 255
255 255 255
255 255 255
255 255 255
255 255 255
255 255 255
255 255 255
255 255 255
255 255 255
255 255 255
255 255 255
255 255 255
255 255 255
255 255 255
255 255 255
255 255 255
255 255 255
255 255 255
255 255 255
255 255 255
255 255 255
255 255 255
255 255 255
255 255 255
255 255 255
200 50 50
200 50 50
200 50 50
200 50 50
200 50 50
200 50 50
200 50 50
200 50 50
200 50 50
200 50 50
200 50 50
200 50 50
200 50 50
200 50 50
200 50 50
200 50 50
200 50 50
200 50 50
200 50 50
200 50 50
200 50 50
200 50 50
200 50 50
200 50 50
200 50 50
200 50 50
200 50 50
200 50 50
200 50 50
200 50 50
200 50 50
200 50 50
255 255 255
255 255 255
255 255 255
255 255 255
255 255 255
255 255 255
255 255 255
255 255 255
255 255 255
255 255 255
255 255 255
255 255 255
255 255 255
255 255 255
255 255 255
255 255 255
255 255 255
255 255 255
255 255 255
255 255 255
255 255 255
255 255 255
255 255 255
255 255 255
255 255 255
255 255 255
255 255 255
255 255 255
255 255 255
255 255 255
255 255 255
255 255 255
200 50 50
200 50 50
200 50 50
200 50 50
200 50 50
200 50 50
200 50 50
200 50 50
200 50 50
200 50 50
200 50 50
200 50 50
200 50 50
200 50 50
200 50 50
200 50 50
200 50 50
200 50 50
200 50 50
200 50 50
200 50 50
200 50 50
200 50 50
200 50 50
200 50 50
200 50 50
200 50 50
200 50 50
200 50 50
200 50 50
200 50 50
200 50 50
255 255 255
255 255 255
255 255 255
255 255 255
255 255 255
255 255 255
255 255 255
255 255 255
255 255 255
255 255 255
255 255 255
255 255 255
255 255 255
255 255 255
255 255 255
255 255 255
255 255 255
255 255 255
255 255 255
255 255 255
255 255 255
255 255 255
255 255 255
255 255 255
255 255 255
255 255 255
255 255 255
255 255 255
255 255 255
255 255 255
255 255 255
255 255 255
200 50 50
200 50 50
200 50 50
200 50 50
200 50 50
200 50 50
200 50 50
200 50 50
200 50 50
200 50 50
200 50 50
200 50 50
200 50 50
200 50 50
200 50 50
200 50 50
200 50 50
200 50 50
200 50 50
200 50 50
200 50 50
200 50 50
200 50 50
200 50 50
200 50 50
200 50 50
200 50 50
200 50 50
200 50 50
200 50 50
200 50 50
200 50 50
255 255 255
255 255 255
255 255 255
255 255 255
255 255 255
255 255 255
255 255 255
255 255 255
255 255 255
255 255 255
255 255 255
255 255 255
255 255 255
255 255 255
255 255 255
255 255 255
255 255 255
255 255 255
255 255 255
255 255 255
255 255 255
255 255 255
255 255 255
255 255 255
255 255 255
255 255 255
255 255 255
255 255 255
255 255 255
255 255 255
255 255 255
255 255 255
200 50 50
200 50 50
200 50 50
200 50 50
200 50 50
200 50 50
200 50 50
200 50 50
200 50 50
200 50 50
200 50 50
200 50 50
200 50 50
200 50 50
200 50 50
200 50 50
200 50 50
200 50 50
200 50 50
200 50 50
200 50 50
200 50 50
200 50 50
200 50 50
200 50 50
200 50 50
200 50 50
200 50 50
200 50 50
200 50 50
200 50 50
200 50 50
255 255 255
255 255 255
255 255 255
255 255 255
255 255 255
255 255 255
255 255 255
255 255 255
255 255 255
255 255 255
255 255 255
255 255 255
255 255 255
255 255 255
255 255 255
255 255 255
255 255 255
255 255 255
255 255 255
255 255 255
255 255 255
255 255 255
255 255 255
255 255 255
255 255 255
255 255 255
255 255 255
255 255 255
255 255 255
255 255 255
255 255 255
255 255 255
200 50 50
200 50 50
200 50 50
200 50 50
200 50 50
200 50 50
200 50 50
200 50 50
200 50 50
200 50 50
200 50 50
200 50 50
200 50 50
200 50 50
200 50 50
200 50 50
200 50 50
200 50 50
200 50 50
200 50 50
200 50 50
200 50 50
200 50 50
200 50 50
200 50 50
200 50 50
200 50 50
200 50 50
200 50 50
200 50 50
200 50 50
200 50 50
255 255 255
255 255 255
255 255 255
255 255 255
255 255 255
255 255 255
255 255 255
255 255 255
255 255 255
255 255 255
255 255 255
255 255 255
255 255 255
255 255 255
255 255 255
255 255 255
255 255 255
255 255 255
255 255 255
255 255 255
255 255 255
255 255 255
255 255 255
255 255 255
255 255 255
255 255 255
255 255 255
255 255 255
255 255 255
255 255 255
255 255 255
255 255 255
200 50 50
200 50 50
200 50 50
200 50 50
200 50 50
200 50 50
200 50 50
200 50 50
200 50 50
200 50 50
200 50 50
200 50 50
200 50 50
200 50 50
200 50 50
200 50 50
200 50 50
200 50 50
200 50 50
200 50 50
200 50 50
200 50 50
200 50 50
200 50 50
200 50 50
200 50 50
200 50 50
200 50 50
200 50 50
200 50 50
200 50 50
200 50 50
255 255 255
255 255 255
255 255 255
255 255 255
255 255 255
255 255 255
255 255 255
255 255 255
255 255 255
255 255 255
255 255 255
255 255 255
255 255 255
255 255 255
255 255 255
255 255 255
255 255 255
255 255 255
255 255 255
255 255 255
255 255 255
255 255 255
255 255 255
255 255 255
255 255 255
255 255 255
255 255 255
255 255 255
255 255 255
255 255 255
255 255 255
255 255 255
200 50 50
200 50 50
200 50 50
200 50 50
200 50 50
200 50 50
200 50 50
200 50 50
200 50 50
200 50 50
200 50 50
200 50 50
200 50 50
200 50 50
200 50 50
200 50 50
200 50 50
200 50 50
200 50 50
200 50 50
200 50 50
200 50 50
200 50 50
200 50 50
200 50 50
200 50 50
200 50 50
200 50 50
200 50 50
200 50 50
200 50 50
200 50 50
255 255 255
255 255 255
255 255 255
255 255 255
255 255 255
255 255 255
255 255 255
255 255 255
255 255 255
255 255 255
255 255 255
255 255 255
255 255 255
255 255 255
255 255 255
255 255 255
255 255 255
255 255 255
255 255 255
255 255 255
255 255 255
255 255 255
255 255 255
255 255 255
255 255 255
255 255 255
255 255 255
255 255 255
255 255 255
255 255 255
255 255 255
255 255 255
200 50 50
200 50 50
200 50 50
200 50 50
200 50 50
200 50 50
200 50 50
200 50 50
200 50 50
200 50 50
200 50 50
200 50 50
200 50 50
200 50 50
200 50 50
200 50 50
200 50 50
200 50 50
200 50 50
200 50 50
200 50 50
200 50 50
200 50 50
200 50 50
200 50 50
200 50 50
200 50 50
200 50 50
200 50 50
200 50 50
200 50 50
200 50 50
255 255 255
255 255 255
255 255 255
255 255 255
255 255 255
255 255 255
255 255 255
255 255 255
255 255 255
255 255 255
255 255 255
255 255 255
255 255 255
255 255 255
255 255 255
255 255 255
255 255 255
255 255 255
255 255 255
255 255 255
255 255 255
255 255 255
255 255 255
255 255 255
255 255 255
255 255 255
255 255 255
255 255 255
255 255 255
255 255 255
255 255 255
255 255 255
200 50 50
200 50 50
200 50 50
200 50 50
200 50 50
200 50 50
200 50 50
200 50 50
200 50 50
200 50 50
200 50 50
200 50 50
200 50 50
200 50 50
200 50 50
200 50 50
200 50 50
200 50 50
200 50 50
200 50 50
200 50 50
200 50 50
200 50 50
200 50 50
200 50 50
200 50 50
200 50 50
200 50 50
200 50 50
200 50 50
200 50 50
200 50 50
255 255 255
255 255 255
255 255 255
255 255 255
255 255 255
255 255 255
255 255 255
255 255 255
255 255 255
255 255 255
255 255 255
255 255 255
255 255 255
255 255 255
255 255 255
255 255 255
255 255 255
255 255 255
255 255 255
255 255 255
255 255 255
255 255 255
255 255 255
255 255 255
255 255 255
255 255 255
255 255 255
255 255 255
255 255 255
255 255 255
255 255 255
255 255 255
200 50 50
200 50 50
200 50 50
200 50 50
200 50 50
200 50 50
200 50 50
200 50 50
200 50 50
200 50 50
200 50 50
200 50 50
200 50 50
200 50 50
200 50 50
200 50 50
200 50 50
200 50 50
200 50 50
200 50 50
200 50 50
200 50 50
200 50 50
200 50 50
200 50 50
200 50 50
200 50 50
200 50 50
200 50 50
200 50 50
200 50 50
200 50 50
255 255 255
255 255 255
255 255 255
255 255 255
255 255 255
255 255 255
255 255 255
255 255 255
255 255 255
255 255 255
255 255 255
255 255 255
255 255 255
255 255 255
255 255 255
255 255 255
255 255 255
255 255 255
255 255 255
255 255 255
255 255 255
255 255 255
255 255 255
255 255 255
255 255 255
255 255 255
255 255 255
255 255 255
255 255 255
255 255 255
255 255 255
255 255 255
200 50 50
200 50 50
200 50 50
200 50 50
200 50 50
200 50 50
200 50 50
200 50 50
200 50 50
200 50 50
200 50 50
200 50 50
200 50 50
200 50 50
200 50 50
200 50 50
200 50 50
200 50 50
200 50 50
200 50 50
200 50 50
200 50 50
200 50 50
200 50 50
200 50 50
200 50 50
200 50 50
200 50 50
200 50 50
200 50 50
200 50 50
200 50 50
255 255 255
255 255 255
255 255 255
255 255 255
255 255 255
255 255 255
255 255 255
255 255 255
255 255 255
255 255 255
255 255 255
255 255 255
255 255 255
255 255 255
255 255 255
255 255 255
255 255 255
255 255 255
255 255 255
255 255 255
255 255 255
255 255 255
255 255 255
255 255 255
255 255 255
255 255 255
255 255 255
255 255 255
255 255 255
255 255 255
255 255 255
255 255 255
200 50 50
200 50 50
200 50 50
200 50 50
200 50 50
200 50 50
200 50 50
200 50 50
200 50 50
200 50 50
200 50 50
200 50 50
200 50 50
200 50 50
200 50 50
200 50 50
200 50 50
200 50 50
200 50 50
200 50 50
200 50 50
200 50 50
200 50 50
200 50 50
200 50 50
200 50 50
200 50 50
200 50 50
200 50 50
200 50 50
200 50 50
200 50 50
255 255 255
255 255 255
255 255 255
255 255 255
255 255 255
255 255 255
255 255 255
255 255 255
255 255 255
255 255 255
255 255 255
255 255 255
255 255 255
255 255 255
255 255 255
255 255 255
255 255 255
255 255 255
255 255 255
255 255 255
255 255 255
255 255 255
255 255 255
255 255 255
255 255 255
255 255 255
255 255 255
255 255 255
255 255 255
255 255 255
255 255 255
255 255 255
200 50 50
200 50 50
200 50 50
200 50 50
200 50 50
200 50 50
200 50 50
200 50 50
200 50 50
200 50 50
200 50 50
200 50 50
200 50 50
200 50 50
200 50 50
200 50 50
200 50 50
200 50 50
200 50 50
200 50 50
200 50 50
200 50 50
200 50 50
200 50 50
200 50 50
200 50 50
200 50 50
200 50 50
200 50 50
200 50 50
200 50 50
200 50 50
255 255 255
255 255 255
255 255 255
255 255 255
255 255 255
255 255 255
255 255 255
255 255 255
255 255 255
255 255 255
255 255 255
255 255 255
255 255 255
255 255 255
255 255 255
255 255 255
255 255 255
255 255 255
255 255 255
255 255 255
255 255 255
255 255 255
255 255 255
255 255 255
255 255 255
255 255 255
255 255 255
255 255 255
255 255 255
255 255 255
255 255 255
255 255 255
200 50 50
200 50 50
200 50 50
200 50 50
200 50 50
200 50 50
200 50 50
200 50 50
200 50 50
200 50 50
200 50 50
200 50 50
200 50 50
200 50 50
200 50 50
200 50 50
200 50 50
200 50 50
200 50 50
200 50 50
200 50 50
200 50 50
200 50 50
200 50 50
200 50 50
200 50 50
200 50 50
200 50 50
200 50 50
200 50 50
200 50 50
200 50 50
255 255 255
255 255 255
255 255 255
255 255 255
255 255 255
255 255 255
255 255 255
255 255 255
255 255 255
255 255 255
255 255 255
255 255 255
255 255 255
255 255 255
255 255 255
255 255 255
255 255 255
255 255 255
255 255 255
255 255 255
255 255 255
255 255 255
255 255 255
255 255 255
255 255 255
255 255 255
255 255 255
255 255 255
255 255 255
255 255 255
255 255 255
255 255 255
200 50 50
200 50 50
200 50 50
200 50 50
200 50 50
200 50 50
200 50 50
200 50 50
200 50 50
200 50 50
200 50 50
200 50 50
200 50 50
200 50 50
200 50 50
200 50 50
200 50 50
200 50 50
200 50 50
200 50 50
200 50 50
200 50 50
200 50 50
200 50 50
200 50 50
200 50 50
200 50 50
200 50 50
200 50 50
200 50 50
200 50 50
200 50 50
255 255 255
255 255 255
255 255 255
255 255 255
255 255 255
255 255 255
255 255 255
255 255 255
255 255 255
255 255 255
255 255 255
255 255 255
255 255 255
255 255 255
255 255 255
255 255 255
255 255 255
255 255 255
255 255 255
255 255 255
255 255 255
255 255 255
255 255 255
255 255 255
255 255 255
255 255 255
255 255 255
255 255 255
255 255 255
255 255 255
255 255 255
255 255 255
200 50 50
200 50 50
200 50 50
200 50 50
200 50 50
200 50 50
200 50 50
200 50 50
200 50 50
200 50 50
200 50 50
200 50 50
200 50 50
200 50 50
200 50 50
200 50 50
200 50 50
200 50 50
200 50 50
200 50 50
200 50 50
200 50 50
200 50 50
200 50 50
200 50 50
200 50 50
200 50 50
200 50 50
200 50 50
200 50 50
200 50 50
200 50 50
255 255 255
255 255 255
255 255 255
255 255 255
255 255 255
255 255 255
255 255 255
255 255 255
255 255 255
255 255 255
255 255 255
255 255 255
255 255 255
255 255 255
255 255 255
255 255 255
255 255 255
255 255 255
255 255 255
255 255 255
255 255 255
255 255 255
255 255 255
255 255 255
255 255 255
255 255 255
255 255 255
255 255 255
255 255 255
255 255 255
255 255 255
255 255 255
200 50 50
200 50 50
200 50 50
200 50 50
200 50 50
200 50 50
200 50 50
200 50 50
200 50 50
200 50 50
200 50 50
200 50 50
200 50 50
200 50 50
200 50 50
200 50 50
200 50 50
200 50 50
200 50 50
200 50 50
200 50 50
200 50 50
200 50 50
200 50 50
200 50 50
200 50 50
200 50 50
200 50 50
200 50 50
200 50 50
200 50 50
200 50 50
255 255 255
255 255 255
255 255 255
255 255 255
255 255 255
255 255 255
255 255 255
255 255 255
255 255 255
255 255 255
255 255 255
255 255 255
255 255 255
255 255 255
255 255 255
255 255 255
255 255 255
255 255 255
255 255 255
255 255 255
255 255 255
255 255 255
255 255 255
255 255 255
255 255 255
255 255 255
255 255 255
255 255 255
255 255 255
255 255 255
255 255 255
255 255 255
200 50 50
200 50 50
200 50 50
200 50 50
200 50 50
200 50 50
200 50 50
200 50 50
200 50 50
200 50 50
200 50 50
200 50 50
200 50 50
200 50 50
200 50 50
200 50 50
200 50 50
200 50 50
200 50 50
200 50 50
200 50 50
200 50 50
200 50 50
200 50 50
200 50 50
200 50 50
200 50 50
200 50 50
200 50 50
200 50 50
200 50 50
200 50 50
255 255 255
255 255 255
255 255 255
255 255 255
255 255 255
255 255 255
255 255 255
255 255 255
255 255 255
255 255 255
255 255 255
255 255 255
255 255 255
255 255 255
255 255 255
255 255 255
255 255 255
255 255 255
255 255 255
255 255 255
255 255 255
255 255 255
255 255 255
255 255 255
255 255 255
255 255 255
255 255 255
255 255 255
255 255 255
255 255 255
255 255 255
255 255 255
200 50 50
200 50 50
200 50 50
200 50 50
200 50 50
200 50 50
200 50 50
200 50 50
200 50 50
200 50 50
200 50 50
200 50 50
200 50 50
200 50 50
200 50 50
200 50 50
200 50 50
200 50 50
200 50 50
200 50 50
200 50 50
200 50 50
200 50 50
200 50 50
200 50 50
200 50 50
200 50 50
200 50 50
200 50 50
200 50 50
200 50 50
200 50 50
255 255 255
255 255 255
255 255 255
255 255 255
255 255 255
255 255 255
255 255 255
255 255 255
255 255 255
255 255 255
255 255 255
255 255 255
255 255 255
255 255 255
255 255 255
255 255 255
255 255 255
255 255 255
255 255 255
255 255 255
255 255 255
255 255 255
255 255 255
255 255 255
255 255 255
255 255 255
255 255 255
255 255 255
255 255 255
255 255 255
255 255 255
255 255 255
200 50 50
200 50 50
200 50 50
200 50 50
200 50 50
200 50 50
200 50 50
200 50 50
200 50 50
200 50 50
200 50 50
200 50 50
200 50 50
200 50 50
200 50 50
200 50 50
200 50 50
200 50 50
200 50 50
200 50 50
200 50 50
200 50 50
200 50 50
200 50 50
200 50 50
200 50 50
200 50 50
200 50 50
200 50 50
200 50 50
200 50 50
200 50 50
255 255 255
255 255 255
255 255 255
255 255 255
255 255 255
255 255 255
255 255 255
255 255 255
255 255 255
255 255 255
255 255 255
255 255 255
255 255 255
255 255 255
255 255 255
255 255 255
255 255 255
255 255 255
255 255 255
255 255 255
255 255 255
255 255 255
255 255 255
255 255 255
255 255 255
255 255 255
255 255 255
255 255 255
255 255 255
255 255 255
255 255 255
255 255 255
200 50 50
200 50 50
200 50 50
200 50 50
200 50 50
200 50 50
200 50 50
200 50 50
200 50 50
200 50 50
200 50 50
200 50 50
200 50 50
200 50 50
200 50 50
200 50 50
200 50 50
200 50 50
200 50 50
200 50 50
200 50 50
200 50 50
200 50 50
200 50 50
200 50 50
200 50 50
200 50 50
200 50 50
200 50 50
200 50 50
200 50 50
200 50 50
255 255 255
255 255 255
255 255 255
255 255 255
255 255 255
255 255 255
255 255 255
255 255 255
255 255 255
255 255 255
255 255 255
255 255 255
255 255 255
255 255 255
255 255 255
255 255 255
255 255 255
255 255 255
255 255 255
255 255 255
255 255 255
255 255 255
255 255 255
255 255 255
255 255 255
255 255 255
255 255 255
255 255 255
255 255 255
255 255 255
255 255 255
255 255 255
200 50 50
200 50 50
200 50 50
200 50 50
200 50 50
200 50 50
200 50 50
200 50 50
200 50 50
200 50 50
200 50 50
200 50 50
200 50 50
200 50 50
200 50 50
200 50 50
200 50 50
200 50 50
200 50 50
200 50 50
200 50 50
200 50 50
200 50 50
200 50 50
200 50 50
200 50 50
200 50 50
200 50 50
200 50 50
200 50 50
200 50 50
200 50 50
255 255 255
255 255 255
255 255 255
255 255 255
255 255 255
255 255 255
255 255 255
255 255 255
255 255 255
255 255 255
255 255 255
255 255 255
255 255 255
255 255 255
255 255 255
255 255 255
255 255 255
255 255 255
255 255 255
255 255 255
255 255 255
255 255 255
255 255 255
255 255 255
255 255 255
255 255 255
255 255 255
255 255 255
255 255 255
255 255 255
255 255 255
255 255 255
200 50 50
200 50 50
200 50 50
200 50 50
200 50 50
200 50 50
200 50 50
200 50 50
200 50 50
200 50 50
200 50 50
200 50 50
200 50 50
200 50 50
200 50 50
200 50 50
200 50 50
200 50 50
200 50 50
200 50 50
200 50 50
200 50 50
200 50 50
200 50 50
200 50 50
200 50 50
200 50 50
200 50 50
200 50 50
200 50 50
200 50 50
200 50 50
255 255 255
255 255 255
255 255 255
255 255 255
255 255 255
255 255 255
255 255 255
255 255 255
255 255 255
255 255 255
255 255 255
255 255 255
255 255 255
255 255 255
255 255 255
255 255 255
255 255 255
255 255 255
255 255 255
255 255 255
255 255 255
255 255 255
255 255 255
255 255 255
255 255 255
255 255 255
255 255 255
255 255 255
255 255 255
255 255 255
255 255 255
255 255 255
200 50 50
200 50 50
200 50 50
200 50 50
200 50 50
200 50 50
200 50 50
200 50 50
200 50 50
200 50 50
200 50 50
200 50 50
200 50 50
200 50 50
200 50 50
200 50 50
200 50 50
200 50 50
200 50 50
200 50 50
200 50 50
200 50 50
200 50 50
200 50 50
200 50 50
200 50 50
200 50 50
200 50 50
200 50 50
200 50 50
200 50 50
200 50 50
255 255 255
255 255 255
255 255 255
255 255 255
255 255 255
255 255 255
255 255 255
255 255 255
255 255 255
255 255 255
255 255 255
255 255 255
255 255 255
255 255 255
255 255 255
255 255 255
255 255 255
255 255 255
255 255 255
255 255 255
255 255 255
255 255 255
255 255 255
255 255 255
255 255 255
255 255 255
255 255 255
255 255 255
255 255 255
255 255 255
255 255 255
255 255 255
200 50 50
200 50 50
200 50 50
200 50 50
200 50 50
200 50 50
200 50 50
200 50 50
200 50 50
200 50 50
200 50 50
200 50 50
200 50 50
200 50 50
200 50 50
200 50 50
200 50 50
200 50 50
200 50 50
200 50 50
200 50 50
200 50 50
200 50 50
200 50 50
200 50 50
200 50 50
200 50 50
200 50 50
200 50 50
200 50 50
200 50 50
200 50 50
255 255 255
255 255 255
255 255 255
255 255 255
255 255 255
255 255 255
255 255 255
255 255 255
255 255 255
255 255 255
255 255 255
255 255 255
255 255 255
255 255 255
255 255 255
255 255 255
255 255 255
255 255 255
255 255 255
255 255 255
255 255 255
255 255 255
255 255 255
255 255 255
255 255 255
255 255 255
255 255 255
255 255 255
255 255 255
255 255 255
255 255 255
255 255 255
200 50 50
200 50 50
200 50 50
200 50 50
200 50 50
200 50 50
200 50 50
200 50 50
200 50 50
200 50 50
200 50 50
200 50 50
200 50 50
200 50 50
200 50 50
200 50 50
200 50 50
200 50 50
200 50 50
200 50 50
200 50 50
200 50 50
200 50 50
200 50 50
200 50 50
200 50 50
200 50 50
200 50 50
200 50 50
200 50 50
200 50 50
200 50 50
255 255 255
255 255 255
255 255 255
255 255 255
255 255 255
255 255 255
255 255 255
255 255 255
255 255 255
255 255 255
255 255 255
255 255 255
255 255 255
255 255 255
255 255 255
255 255 255
255 255 255
255 255 255
255 255 255
255 255 255
255 255 255
255 255 255
255 255 255
255 255 255
255 255 255
255 255 255
255 255 255
255 255 255
255 255 255
255 255 255
255 255 255
255 255 255
200 50 50
200 50 50
200 50 50
200 50 50
200 50 50
200 50 50
200 50 50
200 50 50
200 50 50
200 50 50
200 50 50
200 50 50
200 50 50
200 50 50
200 50 50
200 50 50
200 50 50
200 50 50
200 50 50
200 50 50
200 50 50
200 50 50
200 50 50
200 50 50
200 50 50
200 50 50
200 50 50
200 50 50
200 50 50
200 50 50
200 50 50
200 50 50
255 255 255
255 255 255
255 255 255
255 255 255
255 255 255
255 255 255
255 255 255
255 255 255
255 255 255
255 255 255
255 255 255
255 255 255
255 255 255
255 255 255
255 255 255
255 255 255
255 255 255
255 255 255
255 255 255
255 255 255
255 255 255
255 255 255
255 255 255
255 255 255
255 255 255
255 255 255
255 255 255
255 255 255
255 255 255
255 255 255
255 255 255
255 255 255
200 50 50
200 50 50
200 50 50
200 50 50
200 50 50
200 50 50
200 50 50
200 50 50
200 50 50
200 50 50
200 50 50
200 50 50
200 50 50
200 50 50
200 50 50
200 50 50
200 50 50
200 50 50
200 50 50
200 50 50
200 50 50
200 50 50
200 50 50
200 50 50
200 50 50
200 50 50
200 50 50
200 50 50
200 50 50
200 50 50
200 50 50
200 50 50
255 255 255
255 255 255
255 255 255
255 255 255
255 255 255
255 255 255
255 255 255
255 255 255
255 255 255
255 255 255
255 255 255
255 255 255
255 255 255
255 255 255
255 255 255
255 255 255
255 255 255
255 255 255
255 255 255
255 255 255
255 255 255
255 255 255
255 255 255
255 255 255
255 255 255
255 255 255
255 255 255
255 255 255
255 255 255
255 255 255
255 255 255
255 255 255
200 50 50
200 50 50
200 50 50
200 50 50
200 50 50
200 50 50
200 50 50
200 50 50
200 50 50
200 50 50
200 50 50
200 50 50
200 50 50
200 50 50
200 50 50
200 50 50
200 50 50
200 50 50
200 50 50
200 50 50
200 50 50
200 50 50
200 50 50
200 50 50
200 50 50
200 50 50
200 50 50
200 50 50
200 50 50
200 50 50
200 50 50
200 50 50
255 255 255
255 255 255
255 255 255
255 255 255
255 255 255
255 255 255
255 255 255
255 255 255
255 255 255
255 255 255
255 255 255
255 255 255
255 255 255
255 255 255
255 255 255
255 255 255
255 255 255
255 255 255
255 255 255
255 255 255
255 255 255
255 255 255
255 255 255
255 255 255
255 255 255
255 255 255
255 255 255
255 255 255
255 255 255
255 255 255
255 255 255
255 255 255
200 50 50
200 50 50
200 50 50
200 50 50
200 50 50
200 50 50
200 50 50
200 50 50
200 50 50
200 50 50
200 50 50
200 50 50
200 50 50
200 50 50
200 50 50
200 50 50
200 50 50
200 50 50
200 50 50
200 50 50
200 50 50
200 50 50
200 50 50
200 50 50
200 50 50
200 50 50
200 50 50
200 50 50
200 50 50
200 50 50
200 50 50
200 50 50
255 255 255
255 255 255
255 255 255
255 255 255
255 255 255
255 255 255
255 255 255
255 255 255
255 255 255
255 255 255
255 255 255
255 255 255
255 255 255
255 255 255
255 255 255
255 255 255
255 255 255
255 255 255
255 255 255
255 255 255
255 255 255
255 255 255
255 255 255
255 255 255
255 255 255
255 255 255
255 255 255
255 255 255
255 255 255
255 255 255
255 255 255
255 255 255
200 50 50
200 50 50
200 50 50
200 50 50
200 50 50
200 50 50
200 50 50
200 50 50
200 50 50
200 50 50
200 50 50
200 50 50
200 50 50
200 50 50
200 50 50
200 50 50
200 50 50
200 50 50
200 50 50
200 50 50
200 50 50
200 50 50
200 50 50
200 50 50
200 50 50
200 50 50
200 50 50
200 50 50
200 50 50
200 50 50
200 50 50
200 50 50
255 255 255
255 255 255
255 255 255
255 255 255
255 255 255
255 255 255
255 255 255
255 255 255
255 255 255
255 255 255
255 255 255
255 255 255
255 255 255
255 255 255
255 255 255
255 255 255
255 255 255
255 255 255
255 255 255
255 255 255
255 255 255
255 255 255
255 255 255
255 255 255
255 255 255
255 255 255
255 255 255
255 255 255
255 255 255
255 255 255
255 255 255
255 255 255
200 50 50
200 50 50
200 50 50
200 50 50
200 50 50
200 50 50
200 50 50
200 50 50
200 50 50
200 50 50
200 50 50
200 50 50
200 50 50
200 50 50
200 50 50
200 50 50
200 50 50
200 50 50
200 50 50
200 50 50
200 50 50
200 50 50
200 50 50
200 50 50
200 50 50
200 50 50
200 50 50
200 50 50
200 50 50
200 50 50
200 50 50
200 50 50
255 255 255
255 255 255
255 255 255
255 255 255
255 255 255
255 255 255
255 255 255
255 255 255
255 255 255
255 255 255
255 255 255
255 255 255
255 255 255
255 255 255
255 255 255
255 255 255
255 255 255
255 255 255
255 255 255
255 255 255
255 255 255
255 255 255
255 255 255
255 255 255
255 255 255
255 255 255
255 255 255
255 255 255
255 255 255
255 255 255
255 255 255
255 255 255
200 50 50
200 50 50
200 50 50
200 50 50
200 50 50
200 50 50
200 50 50
200 50 50
200 50 50
200 50 50
200 50 50
200 50 50
200 50 50
200 50 50
200 50 50
200 50 50
200 50 50
200 50 50
200 50 50
200 50 50
200 50 50
200 50 50
200 50 50
200 50 50
200 50 50
200 50 50
200 50 50
200 50 50
200 50 50
200 50 50
200 50 50
200 50 50
255 255 255
255 255 255
255 255 255
255 255 255
255 255 255
255 255 255
255 255 255
255 255 255
255 255 255
255 255 255
255 255 255
255 255 255
255 255 255
255 255 255
255 255 255
255 255 255
255 255 255
255 255 255
255 255 255
255 255 255
255 255 255
255 255 255
255 255 255
255 255 255
255 255 255
255 255 255
255 255 255
255 255 255
255 255 255
255 255 255
255 255 255
255 255 255
200 50 50
200 50 50
200 50 50
200 50 50
200 50 50
200 50 50
200 50 50
200 50 50
200 50 50
200 50 50
200 50 50
200 50 50
200 50 50
200 50 50
200 50 50
200 50 50
200 50 50
200 50 50
200 50 50
200 50 50
200 50 50
200 50 50
200 50 50
200 50 50
200 50 50
200 50 50
200 50 50
200 50 50
200 50 50
200 50 50
200 50 50
200 50 50
255 255 255
255 255 255
255 255 255
255 255 255
255 255 255
255 255 255
255 255 255
255 255 255
255 255 255
255 255 255
255 255 255
255 255 255
255 255 255
255 255 255
255 255 255
255 255 255
255 255 255
255 255 255
255 255 255
255 255 255
255 255 255
255 255 255
255 255 255
255 255 255
255 255 255
255 255 255
255 255 255
255 255 255
255 255 255
255 255 255
255 255 255
255 255 255
200 50 50
200 50 50
200 50 50
200 50 50
200 50 50
200 50 50
200 50 50
200 50 50
200 50 50
200 50 50
200 50 50
200 50 50
200 50 50
200 50 50
200 50 50
200 50 50
200 50 50
200 50 50
200 50 50
200 50 50
200 50 50
200 50 50
200 50 50
200 50 50
200 50 50
200 50 50
200 50 50
200 50 50
200 50 50
200 50 50
200 50 50
200 50 50
200 50 50
200 50 50
200 50 50
200 50 50
200 50 50
200 50 50
200 50 50
200 50 50
200 50 50
200 50 50
200 50 50
200 50 50
200 50 50
200 50 50
200 50 50
200 50 50
200 50 50
200 50 50
200 50 50
200 50 50
200 50 50
200 50 50
200 50 50
200 50 50
200 50 50
200 50 50
200 50 50
200 50 50
200 50 50
200 50 50
200 50 50
200 50 50
255 255 255
255 255 255
255 255 255
255 255 255
255 255 255
255 255 255
255 255 255
255 255 255
255 255 255
255 255 255
255 255 255
255 255 255
255 255 255
255 255 255
255 255 255
255 255 255
255 255 255
255 255 255
255 255 255
255 255 255
255 255 255
255 255 255
255 255 255
255 255 255
255 255 255
255 255 255
255 255 255
255 255 255
255 255 255
255 255 255
255 255 255
255 255 255
200 50 50
200 50 50
200 50 50
200 50 50
200 50 50
200 50 50
200 50 50
200 50 50
200 50 50
200 50 50
200 50 50
200 50 50
200 50 50
200 50 50
200 50 50
200 50 50
200 50 50
200 50 50
200 50 50
200 50 50
200 50 50
200 50 50
200 50 50
200 50 50
200 50 50
200 50 50
200 50 50
200 50 50
200 50 50
200 50 50
200 50 50
200 50 50
255 255 255
255 255 255
255 255 255
255 255 255
255 255 255
255 255 255
255 255 255
255 255 255
255 255 255
255 255 255
255 255 255
255 255 255
255 255 255
255 255 255
255 255 255
255 255 255
255 255 255
255 255 255
255 255 255
255 255 255
255 255 255
255 255 255
255 255 255
255 255 255
255 255 255
255 255 255
255 255 255
255 255 255
255 255 255
255 255 255
255 255 255
255 255 255
200 50 50
200 50 50
200 50 50
200 50 50
200 50 50
200 50 50
200 50 50
200 50 50
200 50 50
200 50 50
200 50 50
200 50 50
200 50 50
200 50 50
200 50 50
200 50 50
200 50 50
200 50 50
200 50 50
200 50 50
200 50 50
200 50 50
200 50 50
200 50 50
200 50 50
200 50 50
200 50 50
200 50 50
200 50 50
200 50 50
200 50 50
200 50 50
255 255 255
255 255 255
255 255 255
255 255 255
255 255 255
255 255 255
255 255 255
255 255 255
255 255 255
255 255 255
255 255 255
255 255 255
255 255 255
255 255 255
255 255 255
255 255 255
255 255 255
255 255 255
255 255 255
255 255 255
255 255 255
255 255 255
255 255 255
255 255 255
255 255 255
255 255 255
255 255 255
255 255 255
255 255 255
255 255 255
255 255 255
255 255 255
200 50 50
200 50 50
200 50 50
200 50 50
200 50 50
200 50 50
200 50 50
200 50 50
200 50 50
200 50 50
200 50 50
200 50 50
200 50 50
200 50 50
200 50 50
200 50 50
200 50 50
200 50 50
200 50 50
200 50 50
200 50 50
200 50 50
200 50 50
200 50 50
200 50 50
200 50 50
200 50 50
200 50 50
200 50 50
200 50 50
200 50 50
200 50 50
255 255 255
255 255 255
255 255 255
255 255 255
255 255 255
255 255 255
255 255 255
255 255 255
255 255 255
255 255 255
255 255 255
255 255 255
255 255 255
255 255 255
255 255 255
255 255 255
255 255 255
255 255 255
255 255 255
255 255 255
255 255 255
255 255 255
255 255 255
255 255 255
255 255 255
255 255 255
255 255 255
255 255 255
255 255 255
255 255 255
255 255 255
255 255 255
200 50 50
200 50 50
200 50 50
200 50 50
200 50 50
200 50 50
200 50 50
200 50 50
200 50 50
200 50 50
200 50 50
200 50 50
200 50 50
200 50 50
200 50 50
200 50 50
200 50 50
200 50 50
200 50 50
200 50 50
200 50 50
200 50 50
200 50 50
200 50 50
200 50 50
200 50 50
200 50 50
200 50 50
200 50 50
200 50 50
200 50 50
200 50 50
255 255 255
255 255 255
255 255 255
255 255 255
255 255 255
255 255 255
255 255 255
255 255 255
255 255 255
255 255 255
255 255 255
255 255 255
255 255 255
255 255 255
255 255 255
255 255 255
255 255 255
255 255 255
255 255 255
255 255 255
255 255 255
255 255 255
255 255 255
255 255 255
255 255 255
255 255 255
255 255 255
255 255 255
255 255 255
255 255 255
255 255 255
255 255 255
200 50 50
200 50 50
200 50 50
200 50 50
200 50 50
200 50 50
200 50 50
200 50 50
200 50 50
200 50 50
200 50 50
200 50 50
200 50 50
200 50 50
200 50 50
200 50 50
200 50 50
200 50 50
200 50 50
200 50 50
200 50 50
200 50 50
200 50 50
200 50 50
200 50 50
200 50 50
200 50 50
200 50 50
200 50 50
200 50 50
200 50 50
200 50 50
255 255 255
255 255 255
255 255 255
255 255 255
255 255 255
255 255 255
255 255 255
255 255 255
255 255 255
255 255 255
255 255 255
255 255 255
255 255 255
255 255 255
255 255 255
255 255 255
255 255 255
255 255 255
255 255 255
255 255 255
255 255 255
255 255 255
255 255 255
255 255 255
255 255 255
255 255 255
255 255 255
255 255 255
255 255 255
255 255 255
255 255 255
255 255 255
200 50 50
200 50 50
200 50 50
200 50 50
200 50 50
200 50 50
200 50 50
200 50 50
200 50 50
200 50 50
200 50 50
200 50 50
200 50 50
200 50 50
200 50 50
200 50 50
200 50 50
200 50 50
200 50 50
200 50 50
200 50 50
200 50 50
200 50 50
200 50 50
200 50 50
200 50 50
200 50 50
200 50 50
200 50 50
200 50 50
200 50 50
200 50 50
255 255 255
255 255 255
255 255 255
255 255 255
255 255 255
255 255 255
255 255 255
255 255 255
255 255 255
255 255 255
255 255 255
255 255 255
255 255 255
255 255 255
255 255 255
255 255 255
255 255 255
255 255 255
255 255 255
255 255 255
255 255 255
255 255 255
255 255 255
255 255 255
255 255 255
255 255 255
255 255 255
255 255 255
255 255 255
255 255 255
255 255 255
255 255 255
200 50 50
200 50 50
200 50 50
200 50 50
200 50 50
200 50 50
200 50 50
200 50 50
200 50 50
200 50 50
200 50 50
200 50 50
200 50 50
200 50 50
200 50 50
200 50 50
200 50 50
200 50 50
200 50 50
200 50 50
200 50 50
200 50 50
200 50 50
200 50 50
200 50 50
200 50 50
200 50 50
200 50 50
200 50 50
200 50 50
200 50 50
200 50 50
255 255 255
255 255 255
255 255 255
255 255 255
255 255 255
255 255 255
255 255 255
255 255 255
255 255 255
255 255 255
255 255 255
255 255 255
255 255 255
255 255 255
255 255 255
255 255 255
255 255 255
255 255 255
255 255 255
255 255 255
255 255 255
255 255 255
255 255 255
255 255 255
255 255 255
255 255 255
255 255 255
255 255 255
255 255 255
255 255 255
255 255 255
255 255 255
200 50 50
200 50 50
200 50 50
200 50 50
200 50 50
200 50 50
200 50 50
200 50 50
200 50 50
200 50 50
200 50 50
200 50 50
200 50 50
200 50 50
200 50 50
200 50 50
200 50 50
200 50 50
200 50 50
200 50 50
200 50 50
200 50 50
200 50 50
200 50 50
200 50 50
200 50 50
200 50 50
200 50 50
200 50 50
200 50 50
200 50 50
200 50 50
255 255 255
255 255 255
255 255 255
255 255 255
255 255 255
255 255 255
255 255 255
255 255 255
255 255 255
255 255 255
255 255 255
255 255 255
255 255 255
255 255 255
255 255 255
255 255 255
255 255 255
255 255 255
255 255 255
255 255 255
255 255 255
255 255 255
255 255 255
255 255 255
255 255 255
255 255 255
255 255 255
255 255 255
255 255 255
255 255 255
255 255 255
255 255 255
200 50 50
200 50 50
200 50 50
200 50 50
200 50 50
200 50 50
200 50 50
200 50 50
200 50 50
200 50 50
200 50 50
200 50 50
200 50 50
200 50 50
200 50 50
200 50 50
200 50 50
200 50 50
200 50 50
200 50 50
200 50 50
200 50 50
200 50 50
200 50 50
200 50 50
200 50 50
200 50 50
200 50 50
200 50 50
200 50 50
200 50 50
200 50 50
255 255 255
255 255 255
255 255 255
255 255 255
255 255 255
255 255 255
255 255 255
255 255 255
255 255 255
255 255 255
255 255 255
255 255 255
255 255 255
255 255 255
255 255 255
255 255 255
255 255 255
255 255 255
255 255 255
255 255 255
255 255 255
255 255 255
255 255 255
255 255 255
255 255 255
255 255 255
255 255 255
255 255 255
255 255 255
255 255 255
255 255 255
255 255 255
200 50 50
200 50 50
200 50 50
200 50 50
200 50 50
200 50 50
200 50 50
200 50 50
200 50 50
200 50 50
200 50 50
200 50 50
200 50 50
200 50 50
200 50 50
200 50 50
200 50 50
200 50 50
200 50 50
200 50 50
200 50 50
200 50 50
200 50 50
200 50 50
200 50 50
200 50 50
200 50 50
200 50 50
200 50 50
200 50 50
200 50 50
200 50 50
255 255 255
255 255 255
255 255 255
255 255 255
255 255 255
255 255 255
255 255 255
255 255 255
255 255 255
255 255 255
255 255 255
255 255 255
255 255 255
255 255 255
255 255 255
255 255 255
255 255 255
255 255 255
255 255 255
255 255 255
255 255 255
255 255 255
255 255 255
255 255 255
255 255 255
255 255 255
255 255 255
255 255 255
255 255 255
255 255 255
255 255 255
255 255 255
200 50 50
200 50 50
200 50 50
200 50 50
200 50 50
200 50 50
200 50 50
200 50 50
200 50 50
200 50 50
200 50 50
200 50 50
200 50 50
200 50 50
200 50 50
200 50 50
200 50 50
200 50 50
200 50 50
200 50 50
200 50 50
200 50 50
200 50 50
200 50 50
200 50 50
200 50 50
200 50 50
200 50 50
200 50 50
200 50 50
200 50 50
200 50 50
255 255 255
255 255 255
255 255 255
255 255 255
255 255 255
255 255 255
255 255 255
255 255 255
255 255 255
255 255 255
255 255 255
255 255 255
255 255 255
255 255 255
255 255 255
255 255 255
255 255 255
255 255 255
255 255 255
255 255 255
255 255 255
255 255 255
255 255 255
255 255 255
255 255 255
255 255 255
255 255 255
255 255 255
255 255 255
255 255 255
255 255 255
255 255 255
200 50 50
200 50 50
200 50 50
200 50 50
200 50 50
200 50 50
200 50 50
200 50 50
200 50 50
200 50 50
200 50 50
200 50 50
200 50 50
200 50 50
200 50 50
200 50 50
200 50 50
200 50 50
200 50 50
200 50 50
200 50 50
200 50 50
200 50 50
200 50 50
200 50 50
200 50 50
200 50 50
200 50 50
200 50 50
200 50 50
200 50 50
200 50 50
255 255 255
255 255 255
255 255 255
255 255 255
255 255 255
255 255 255
255 255 255
255 255 255
255 255 255
255 255 255
255 255 255
255 255 255
255 255 255
255 255 255
255 255 255
255 255 255
255 255 255
255 255 255
255 255 255
255 255 255
255 255 255
255 255 255
255 255 255
255 255 255
255 255 255
255 255 255
255 255 255
255 255 255
255 255 255
255 255 255
255 255 255
255 255 255
200 50 50
200 50 50
200 50 50
200 50 50
200 50 50
200 50 50
200 50 50
200 50 50
200 50 50
200 50 50
200 50 50
200 50 50
200 50 50
200 50 50
200 50 50
200 50 50
200 50 50
200 50 50
200 50 50
200 50 50
200 50 50
200 50 50
200 50 50
200 50 50
200 50 50
200 50 50
200 50 50
200 50 50
200 50 50
200 50 50
200 50 50
200 50 50
255 255 255
255 255 255
255 255 255
255 255 255
255 255 255
255 255 255
255 255 255
255 255 255
255 255 255
255 255 255
255 255 255
255 255 255
255 255 255
255 255 255
255 255 255
255 255 255
255 255 255
255 255 255
255 255 255
255 255 255
255 255 255
255 255 255
255 255 255
255 255 255
255 255 255
255 255 255
255 255 255
255 255 255
255 255 255
255 255 255
255 255 255
255 255 255
200 50 50
200 50 50
200 50 50
200 50 50
200 50 50
200 50 50
200 50 50
200 50 50
200 50 50
200 50 50
200 50 50
200 50 50
200 50 50
200 50 50
200 50 50
200 50 50
200 50 50
200 50 50
200 50 50
200 50 50
200 50 50
200 50 50
200 50 50
200 50 50
200 50 50
200 50 50
200 50 50
200 50 50
200 50 50
200 50 50
200 50 50
200 50 50
255 255 255
255 255 255
255 255 255
255 255 255
255 255 255
255 255 255
255 255 255
255 255 255
255 255 255
255 255 255
255 255 255
255 255 255
255 255 255
255 255 255
255 255 255
255 255 255
255 255 255
255 255 255
255 255 255
255 255 255
255 255 255
255 255 255
255 255 255
255 255 255
255 255 255
255 255 255
255 255 255
255 255 255
255 255 255
255 255 255
255 255 255
255 255 255
200 50 50
200 50 50
200 50 50
200 50 50
200 50 50
200 50 50
200 50 50
200 50 50
200 50 50
200 50 50
200 50 50
200 50 50
200 50 50
200 50 50
200 50 50
200 50 50
200 50 50
200 50 50
200 50 50
200 50 50
200 50 50
200 50 50
200 50 50
200 50 50
200 50 50
200 50 50
200 50 50
200 50 50
200 50 50
200 50 50
200 50 50
200 50 50
255 255 255
255 255 255
255 255 255
255 255 255
255 255 255
255 255 255
255 255 255
255 255 255
255 255 255
255 255 255
255 255 255
255 255 255
255 255 255
255 255 255
255 255 255
255 255 255
255 255 255
255 255 255
255 255 255
255 255 255
255 255 255
255 255 255
255 255 255
255 255 255
255 255 255
255 255 255
255 255 255
255 255 255
255 255 255
255 255 255
255 255 255
255 255 255
200 50 50
200 50 50
200 50 50
200 50 50
200 50 50
200 50 50
200 50 50
200 50 50
200 50 50
200 50 50
200 50 50
200 50 50
200 50 50
200 50 50
200 50 50
200 50 50
200 50 50
200 50 50
200 50 50
200 50 50
200 50 50
200 50 50
200 50 50
200 50 50
200 50 50
200 50 50
200 50 50
200 50 50
200 50 50
200 50 50
200 50 50
200 50 50
255 255 255
255 255 255
255 255 255
255 255 255
255 255 255
255 255 255
255 255 255
255 255 255
255 255 255
255 255 255
255 255 255
255 255 255
255 255 255
255 255 255
255 255 255
255 255 255
255 255 255
255 255 255
255 255 255
255 255 255
255 255 255
255 255 255
255 255 255
255 255 255
255 255 255
255 255 255
255 255 255
255 255 255
255 255 255
255 255 255
255 255 255
255 255 255
200 50 50
200 50 50
200 50 50
200 50 50
200 50 50
200 50 50
200 50 50
200 50 50
200 50 50
200 50 50
200 50 50
200 50 50
200 50 50
200 50 50
200 50 50
200 50 50
200 50 50
200 50 50
200 50 50
200 50 50
200 50 50
200 50 50
200 50 50
200 50 50
200 50 50
200 50 50
200 50 50
200 50 50
200 50 50
200 50 50
200 50 50
200 50 50
255 255 255
255 255 255
255 255 255
255 255 255
255 255 255
255 255 255
255 255 255
255 255 255
255 255 255
255 255 255
255 255 255
255 255 255
255 255 255
255 255 255
255 255 255
255 255 255
255 255 255
255 255 255
255 255 255
255 255 255
255 255 255
255 255 255
255 255 255
255 255 255
255 255 255
255 255 255
255 255 255
255 255 255
255 255 255
255 255 255
255 255 255
255 255 255
200 50 50
200 50 50
200 50 50
200 50 50
200 50 50
200 50 50
200 50 50
200 50 50
200 50 50
200 50 50
200 50 50
200 50 50
200 50 50
200 50 50
200 50 50
200 50 50
200 50 50
200 50 50
200 50 50
200 50 50
200 50 50
200 50 50
200 50 50
200 50 50
200 50 50
200 50 50
200 50 50
200 50 50
200 50 50
200 50 50
200 50 50
200 50 50
255 255 255
255 255 255
255 255 255
255 255 255
255 255 255
255 255 255
255 255 255
255 255 255
255 255 255
255 255 255
255 255 255
255 255 255
255 255 255
255 255 255
255 255 255
255 255 255
255 255 255
255 255 255
255 255 255
255 255 255
255 255 255
255 255 255
255 255 255
255 255 255
255 255 255
255 255 255
255 255 255
255 255 255
255 255 255
255 255 255
255 255 255
255 255 255
200 50 50
200 50 50
200 50 50
200 50 50
200 50 50
200 50 50
200 50 50
200 50 50
200 50 50
200 50 50
200 50 50
200 50 50
200 50 50
200 50 50
200 50 50
200 50 50
200 50 50
200 50 50
200 50 50
200 50 50
200 50 50
200 50 50
200 50 50
200 50 50
200 50 50
200 50 50
200 50 50
200 50 50
200 50 50
200 50 50
200 50 50
200 50 50
255 255 255
255 255 255
255 255 255
255 255 255
255 255 255
255 255 255
255 255 255
255 255 255
255 255 255
255 255 255
255 255 255
255 255 255
255 255 255
255 255 255
255 255 255
255 255 255
255 255 255
255 255 255
255 255 255
255 255 255
255 255 255
255 255 255
255 255 255
255 255 255
255 255 255
255 255 255
255 255 255
255 255 255
255 255 255
255 255 255
255 255 255
255 255 255
200 50 50
200 50 50
200 50 50
200 50 50
200 50 50
200 50 50
200 50 50
200 50 50
200 50 50
200 50 50
200 50 50
200 50 50
200 50 50
200 50 50
200 50 50
200 50 50
200 50 50
200 50 50
200 50 50
200 50 50
200 50 50
200 50 50
200 50 50
200 50 50
200 50 50
200 50 50
200 50 50
200 50 50
200 50 50
200 50 50
200 50 50
200 50 50
255 255 255
255 255 255
255 255 255
255 255 255
255 255 255
255 255 255
255 255 255
255 255 255
255 255 255
255 255 255
255 255 255
255 255 255
255 255 255
255 255 255
255 255 255
255 255 255
255 255 255
255 255 255
255 255 255
255 255 255
255 255 255
255 255 255
255 255 255
255 255 255
255 255 255
255 255 255
255 255 255
255 255 255
255 255 255
255 255 255
255 255 255
255 255 255
200 50 50
200 50 50
200 50 50
200 50 50
200 50 50
200 50 50
200 50 50
200 50 50
200 50 50
200 50 50
200 50 50
200 50 50
200 50 50
200 50 50
200 50 50
200 50 50
200 50 50
200 50 50
200 50 50
200 50 50
200 50 50
200 50 50
200 50 50
200 50 50
200 50 50
200 50 50
200 50 50
200 50 50
200 50 50
200 50 50
200 50 50
200 50 50
255 255 255
255 255 255
255 255 255
255 255 255
255 255 255
255 255 255
255 255 255
255 255 255
255 255 255
255 255 255
255 255 255
255 255 255
255 255 255
255 255 255
255 255 255
255 255 255
255 255 255
255 255 255
255 255 255
255 255 255
255 255 255
255 255 255
255 255 255
255 255 255
255 255 255
255 255 255
255 255 255
255 255 255
255 255 255
255 255 255
255 255 255
255 255 255
200 50 50
200 50 50
200 50 50
200 50 50
200 50 50
200 50 50
200 50 50
200 50 50
200 50 50
200 50 50
200 50 50
200 50 50
200 50 50
200 50 50
200 50 50
200 50 50
200 50 50
200 50 50
200 50 50
200 50 50
200 50 50
200 50 50
200 50 50
200 50 50
200 50 50
200 50 50
200 50 50
200 50 50
200 50 50
200 50 50
200 50 50
200 50 50
255 255 255
255 255 255
255 255 255
255 255 255
255 255 255
255 255 255
255 255 255
255 255 255
255 255 255
255 255 255
255 255 255
255 255 255
255 255 255
255 255 255
255 255 255
255 255 255
255 255 255
255 255 255
255 255 255
255 255 255
255 255 255
255 255 255
255 255 255
255 255 255
255 255 255
255 255 255
255 255 255
255 255 255
255 255 255
255 255 255
255 255 255
255 255 255
200 50 50
200 50 50
200 50 50
200 50 50
200 50 50
200 50 50
200 50 50
200 50 50
200 50 50
200 50 50
200 50 50
200 50 50
200 50 50
200 50 50
200 50 50
200 50 50
200 50 50
200 50 50
200 50 50
200 50 50
200 50 50
200 50 50
200 50 50
200 50 50
200 50 50
200 50 50
200 50 50
200 50 50
200 50 50
200 50 50
200 50 50
200 50 50
255 255 255
255 255 255
255 255 255
255 255 255
255 255 255
255 255 255
255 255 255
255 255 255
255 255 255
255 255 255
255 255 255
255 255 255
255 255 255
255 255 255
255 255 255
255 255 255
255 255 255
255 255 255
255 255 255
255 255 255
255 255 255
255 255 255
255 255 255
255 255 255
255 255 255
255 255 255
255 255 255
255 255 255
255 255 255
255 255 255
255 255 255
255 255 255
200 50 50
200 50 50
200 50 50
200 50 50
200 50 50
200 50 50
200 50 50
200 50 50
200 50 50
200 50 50
200 50 50
200 50 50
200 50 50
200 50 50
200 50 50
200 50 50
200 50 50
200 50 50
200 50 50
200 50 50
200 50 50
200 50 50
200 50 50
200 50 50
200 50 50
200 50 50
200 50 50
200 50 50
200 50 50
200 50 50
200 50 50
200 50 50
255 255 255
255 255 255
255 255 255
255 255 255
255 255 255
255 255 255
255 255 255
255 255 255
255 255 255
255 255 255
255 255 255
255 255 255
255 255 255
255 255 255
255 255 255
255 255 255
255 255 255
255 255 255
255 255 255
255 255 255
255 255 255
255 255 255
255 255 255
255 255 255
255 255 255
255 255 255
255 255 255
255 255 255
255 255 255
255 255 255
255 255 255
255 255 255
200 50 50
200 50 50
200 50 50
200 50 50
200 50 50
200 50 50
200 50 50
200 50 50
200 50 50
200 50 50
200 50 50
200 50 50
200 50 50
200 50 50
200 50 50
200 50 50
200 50 50
200 50 50
200 50 50
200 50 50
200 50 50
200 50 50
200 50 50
200 50 50
200 50 50
200 50 50
200 50 50
200 50 50
200 50 50
200 50 50
200 50 50
200 50 50
255 255 255
255 255 255
255 255 255
255 255 255
255 255 255
255 255 255
255 255 255
255 255 255
255 255 255
255 255 255
255 255 255
255 255 255
255 255 255
255 255 255
255 255 255
255 255 255
255 255 255
255 255 255
255 255 255
255 255 255
255 255 255
255 255 255
255 255 255
255 255 255
255 255 255
255 255 255
255 255 255
255 255 255
255 255 255
255 255 255
255 255 255
255 255 255
200 50 50
200 50 50
200 50 50
200 50 50
200 50 50
200 50 50
200 50 50
200 50 50
200 50 50
200 50 50
200 50 50
200 50 50
200 50 50
200 50 50
200 50 50
200 50 50
200 50 50
200 50 50
200 50 50
200 50 50
200 50 50
200 50 50
200 50 50
200 50 50
200 50 50
200 50 50
200 50 50
200 50 50
200 50 50
200 50 50
200 50 50
200 50 50
255 255 255
255 255 255
255 255 255
255 255 255
255 255 255
255 255 255
255 255 255
255 255 255
255 255 255
255 255 255
255 255 255
255 255 255
255 255 255
255 255 255
255 255 255
255 255 255
255 255 255
255 255 255
255 255 255
255 255 255
255 255 255
255 255 255
255 255 255
255 255 255
255 255 255
255 255 255
255 255 255
255 255 255
255 255 255
255 255 255
255 255 255
255 255 255
200 50 50
200 50 50
200 50 50
200 50 50
200 50 50
200 50 50
200 50 50
200 50 50
200 50 50
200 50 50
200 50 50
200 50 50
200 50 50
200 50 50
200 50 50
200 50 50
200 50 50
200 50 50
200 50 50
200 50 50
200 50 50
200 50 50
200 50 50
200 50 50
200 50 50
200 50 50
200 50 50
200 50 50
200 50 50
200 50 50
200 50 50
200 50 50
255 255 255
255 255 255
255 255 255
255 255 255
255 255 255
255 255 255
255 255 255
255 255 255
255 255 255
255 255 255
255 255 255
255 255 255
255 255 255
255 255 255
255 255 255
255 255 255
255 255 255
255 255 255
255 255 255
255 255 255
255 255 255
255 255 255
255 255 255
255 255 255
255 255 255
255 255 255
255 255 255
255 255 255
255 255 255
255 255 255
255 255 255
255 255 255
200 50 50
200 50 50
200 50 50
200 50 50
200 50 50
200 50 50
200 50 50
200 50 50
200 50 50
200 50 50
200 50 50
200 50 50
200 50 50
200 50 50
200 50 50
200 50 50
200 50 50
200 50 50
200 50 50
200 50 50
200 50 50
200 50 50
200 50 50
200 50 50
200 50 50
200 50 50
200 50 50
200 50 50
200 50 50
200 50 50
200 50 50
200 50 50
255 255 255
255 255 255
255 255 255
255 255 255
255 255 255
255 255 255
255 255 255
255 255 255
255 255 255
255 255 255
255 255 255
255 255 255
255 255 255
255 255 255
255 255 255
255 255 255
255 255 255
255 255 255
255 255 255
255 255 255
255 255 255
255 255 255
255 255 255
255 255 255
255 255 255
255 255 255
255 255 255
255 255 255
255 255 255
255 255 255
255 255 255
255 255 255
200 50 50
200 50 50
200 50 50
200 50 50
200 50 50
200 50 50
200 50 50
200 50 50
200 50 50
200 50 50
200 50 50
200 50 50
200 50 50
200 50 50
200 50 50
200 50 50
200 50 50
200 50 50
200 50 50
200 50 50
200 50 50
200 50 50
200 50 50
200 50 50
200 50 50
200 50 50
200 50 50
200 50 50
200 50 50
200 50 50
200 50 50
200 50 50
255 255 255
255 255 255
255 255 255
255 255 255
255 255 255
255 255 255
255 255 255
255 255 255
255 255 255
255 255 255
255 255 255
255 255 255
255 255 255
255 255 255
255 255 255
255 255 255
255 255 255
255 255 255
255 255 255
255 255 255
255 255 255
255 255 255
255 255 255
255 255 255
255 255 255
255 255 255
255 255 255
255 255 255
255 255 255
255 255 255
255 255 255
255 255 255
200 50 50
200 50 50
200 50 50
200 50 50
200 50 50
200 50 50
200 50 50
200 50 50
200 50 50
200 50 50
200 50 50
200 50 50
200 50 50
200 50 50
200 50 50
200 50 50
200 50 50
200 50 50
200 50 50
200 50 50
200 50 50
200 50 50
200 50 50
200 50 50
200 50 50
200 50 50
200 50 50
200 50 50
200 50 50
200 50 50
200 50 50
200 50 50
255 255 255
255 255 255
255 255 255
255 255 255
255 255 255
255 255 255
255 255 255
255 255 255
255 255 255
255 255 255
255 255 255
255 255 255
255 255 255
255 255 255
255 255 255
255 255 255
255 255 255
255 255 255
255 255 255
255 255 255
255 255 255
255 255 255
255 255 255
255 255 255
255 255 255
255 255 255
255 255 255
255 255 255
255 255 255
255 255 255
255 255 255
255 255 255
200 50 50
200 50 50
200 50 50
200 50 50
200 50 50
200 50 50
200 50 50
200 50 50
200 50 50
200 50 50
200 50 50
200 50 50
200 50 50
200 50 50
200 50 50
200 50 50
200 50 50
200 50 50
200 50 50
200 50 50
200 50 50
200 50 50
200 50 50
200 50 50
200 50 50
200 50 50
200 50 50
200 50 50
200 50 50
200 50 50
200 50 50
200 50 50
255 255 255
255 255 255
255 255 255
255 255 255
255 255 255
255 255 255
255 255 255
255 255 255
255 255 255
255 255 255
255 255 255
255 255 255
255 255 255
255 255 255
255 255 255
255 255 255
255 255 255
255 255 255
255 255 255
255 255 255
255 255 255
255 255 255
255 255 255
255 255 255
255 255 255
255 255 255
255 255 255
255 255 255
255 255 255
255 255 255
255 255 255
255 255 255
200 50 50
200 50 50
200 50 50
200 50 50
200 50 50
200 50 50
200 50 50
200 50 50
200 50 50
200 50 50
200 50 50
200 50 50
200 50 50
200 50 50
200 50 50
200 50 50
200 50 50
200 50 50
200 50 50
200 50 50
200 50 50
200 50 50
200 50 50
200 50 50
200 50 50
200 50 50
200 50 50
200 50 50
200 50 50
200 50 50
200 50 50
200 50 50
255 255 255
255 255 255
255 255 255
255 255 255
255 255 255
255 255 255
255 255 255
255 255 255
255 255 255
255 255 255
255 255 255
255 255 255
255 255 255
255 255 255
255 255 255
255 255 255
255 255 255
255 255 255
255 255 255
255 255 255
255 255 255
255 255 255
255 255 255
255 255 255
255 255 255
255 255 255
255 255 255
255 255 255
255 255 255
255 255 255
255 255 255
255 255 255
200 50 50
200 50 50
200 50 50
200 50 50
200 50 50
200 50 50
200 50 50
200 50 50
200 50 50
200 50 50
200 50 50
200 50 50
200 50 50
200 50 50
200 50 50
200 50 50
200 50 50
200 50 50
200 50 50
200 50 50
200 50 50
200 50 50
200 50 50
200 50 50
200 50 50
200 50 50
200 50 50
200 50 50
200 50 50
200 50 50
200 50 50
200 50 50
255 255 255
255 255 255
255 255 255
255 255 255
255 255 255
255 255 255
255 255 255
255 255 255
255 255 255
255 255 255
255 255 255
255 255 255
255 255 255
255 255 255
255 255 255
255 255 255
255 255 255
255 255 255
255 255 255
255 255 255
255 255 255
255 255 255
255 255 255
255 255 255
255 255 255
255 255 255
255 255 255
255 255 255
255 255 255
255 255 255
255 255 255
255 255 255
200 50 50
200 50 50
200 50 50
200 50 50
200 50 50
200 50 50
200 50 50
200 50 50
200 50 50
200 50 50
200 50 50
200 50 50
200 50 50
200 50 50
200 50 50
200 50 50
200 50 50
200 50 50
200 50 50
200 50 50
200 50 50
200 50 50
200 50 50
200 50 50
200 50 50
200 50 50
200 50 50
200 50 50
200 50 50
200 50 50
200 50 50
200 50 50
255 255 255
255 255 255
255 255 255
255 255 255
255 255 255
255 255 255
255 255 255
255 255 255
255 255 255
255 255 255
255 255 255
255 255 255
255 255 255
255 255 255
255 255 255
255 255 255
255 255 255
255 255 255
255 255 255
255 255 255
255 255 255
255 255 255
255 255 255
255 255 255
255 255 255
255 255 255
255 255 255
255 255 255
255 255 255
255 255 255
255 255 255
255 255 255
200 50 50
200 50 50
200 50 50
200 50 50
200 50 50
200 50 50
200 50 50
200 50 50
200 50 50
200 50 50
200 50 50
200 50 50
200 50 50
200 50 50
200 50 50
200 50 50
200 50 50
200 50 50
200 50 50
200 50 50
200 50 50
200 50 50
200 50 50
200 50 50
200 50 50
200 50 50
200 50 50
200 50 50
200 50 50
200 50 50
200 50 50
200 50 50
255 255 255
255 255 255
255 255 255
255 255 255
255 255 255
255 255 255
255 255 255
255 255 255
255 255 255
255 255 255
255 255 255
255 255 255
255 255 255
255 255 255
255 255 255
255 255 255
255 255 255
255 255 255
255 255 255
255 255 255
255 255 255
255 255 255
255 255 255
255 255 255
255 255 255
255 255 255
255 255 255
255 255 255
255 255 255
255 255 255
255 255 255
255 255 255
200 50 50
200 50 50
200 50 50
200 50 50
200 50 50
200 50 50
200 50 50
200 50 50
200 50 50
200 50 50
200 50 50
200 50 50
200 50 50
200 50 50
200 50 50
200 50 50
200 50 50
200 50 50
200 50 50
200 50 50
200 50 50
200 50 50
200 50 50
200 50 50
200 50 50
200 50 50
200 50 50
200 50 50
200 50 50
200 50 50
200 50 50
200 50 50
255 255 255
255 255 255
255 255 255
255 255 255
255 255 255
255 255 255
255 255 255
255 255 255
255 255 255
255 255 255
255 255 255
255 255 255
255 255 255
255 255 255
255 255 255
255 255 255
255 255 255
255 255 255
255 255 255
255 255 255
255 255 255
255 255 255
255 255 255
255 255 255
255 255 255
255 255 255
255 255 255
255 255 255
255 255 255
255 255 255
255 255 255
255 255 255
200 50 50
200 50 50
200 50 50
200 50 50
200 50 50
200 50 50
200 50 50
200 50 50
200 50 50
200 50 50
200 50 50
200 50 50
200 50 50
200 50 50
200 50 50
200 50 50
200 50 50
200 50 50
200 50 50
200 50 50
200 50 50
200 50 50
200 50 50
200 50 50
200 50 50
200 50 50
200 50 50
200 50 50
200 50 50
200 50 50
200 50 50
200 50 50
255 255 255
255 255 255
255 255 255
255 255 255
255 255 255
255 255 255
255 255 255
255 255 255
255 255 255
255 255 255
255 255 255
255 255 255
255 255 255
255 255 255
255 255 255
255 255 255
255 255 255
255 255 255
255 255 255
255 255 255
255 255 255
255 255 255
255 255 255
255 255 255
255 255 255
255 255 255
255 255 255
255 255 255
255 255 255
255 255 255
255 255 255
255 255 255
200 50 50
200 50 50
200 50 50
200 50 50
200 50 50
200 50 50
200 50 50
200 50 50
200 50 50
200 50 50
200 50 50
200 50 50
200 50 50
200 50 50
200 50 50
200 50 50
200 50 50
200 50 50
200 50 50
200 50 50
200 50 50
200 50 50
200 50 50
200 50 50
200 50 50
200 50 50
200 50 50
200 50 50
200 50 50
200 50 50
200 50 50
200 50 50
255 255 255
255 255 255
255 255 255
255 255 255
255 255 255
255 255 255
255 255 255
255 255 255
255 255 255
255 255 255
255 255 255
255 255 255
255 255 255
255 255 255
255 255 255
255 255 255
255 255 255
255 255 255
255 255 255
255 255 255
255 255 255
255 255 255
255 255 255
255 255 255
255 255 255
255 255 255
255 255 255
255 255 255
255 255 255
255 255 255
255 255 255
255 255 255
200 50 50
200 50 50
200 50 50
200 50 50
200 50 50
200 50 50
200 50 50
200 50 50
200 50 50
200 50 50
200 50 50
200 50 50
200 50 50
200 50 50
200 50 50
200 50 50
200 50 50
200 50 50
200 50 50
200 50 50
200 50 50
200 50 50
200 50 50
200 50 50
200 50 50
200 50 50
200 50 50
200 50 50
200 50 50
200 50 50
200 50 50
200 50 50
255 255 255
255 255 255
255 255 255
255 255 255
255 255 255
255 255 255
255 255 255
255 255 255
255 255 255
255 255 255
255 255 255
255 255 255
255 255 255
255 255 255
255 255 255
255 255 255
255 255 255
255 255 255
255 255 255
255 255 255
255 255 255
255 255 255
255 255 255
255 255 255
255 255 255
255 255 255
255 255 255
255 255 255
255 255 255
255 255 255
255 255 255
255 255 255
200 50 50
200 50 50
200 50 50
200 50 50
200 50 50
200 50 50
200 50 50
200 50 50
200 50 50
200 50 50
200 50 50
200 50 50
200 50 50
200 50 50
200 50 50
200 50 50
200 50 50
200 50 50
200 50 50
200 50 50
200 50 50
200 50 50
200 50 50
200 50 50
200 50 50
200 50 50
200 50 50
200 50 50
200 50 50
200 50 50
200 50 50
200 50 50
255 255 255
255 255 255
255 255 255
255 255 255
255 255 255
255 255 255
255 255 255
255 255 255
255 255 255
255 255 255
255 255 255
255 255 255
255 255 255
255 255 255
255 255 255
255 255 255
255 255 255
255 255 255
255 255 255
255 255 255
255 255 255
255 255 255
255 255 255
255 255 255
255 255 255
255 255 255
255 255 255
255 255 255
255 255 255
255 255 255
255 255 255
255 255 255
200 50 50
200 50 50
200 50 50
200 50 50
200 50 50
200 50 50
200 50 50
200 50 50
200 50 50
200 50 50
200 50 50
200 50 50
200 50 50
200 50 50
200 50 50
200 50 50
200 50 50
200 50 50
200 50 50
200 50 50
200 50 50
200 50 50
200 50 50
200 50 50
200 50 50
200 50 50
200 50 50
200 50 50
200 50 50
200 50 50
200 50 50
200 50 50
255 255 255
255 255 255
255 255 255
255 255 255
255 255 255
255 255 255
255 255 255
255 255 255
255 255 255
255 255 255
255 255 255
255 255 255
255 255 255
255 255 255
255 255 255
255 255 255
255 255 255
255 255 255
255 255 255
255 255 255
255 255 255
255 255 255
255 255 255
255 255 255
255 255 255
255 255 255
255 255 255
255 255 255
255 255 255
255 255 255
255 255 255
255 255 255
200 50 50
200 50 50
200 50 50
200 50 50
200 50 50
200 50 50
200 50 50
200 50 50
200 50 50
200 50 50
200 50 50
200 50 50
200 50 50
200 50 50
200 50 50
200 50 50
200 50 50
200 50 50
200 50 50
200 50 50
200 50 50
200 50 50
200 50 50
200 50 50
200 50 50
200 50 50
200 50 50
200 50 50
200 50 50
200 50 50
200 50 50
200 50 50
255 255 255
255 255 255
255 255 255
255 255 255
255 255 255
255 255 255
255 255 255
255 255 255
255 255 255
255 255 255
255 255 255
255 255 255
255 255 255
255 255 255
255 255 255
255 255 255
255 255 255
255 255 255
255 255 255
255 255 255
255 255 255
255 255 255
255 255 255
255 255 255
255 255 255
255 255 255
255 255 255
255 255 255
255 255 255
255 255 255
255 255 255
255 255 255
200 50 50
200 50 50
200 50 50
200 50 50
200 50 50
200 50 50
200 50 50
200 50 50
200 50 50
200 50 50
200 50 50
200 50 50
200 50 50
200 50 50
200 50 50
200 50 50
200 50 50
200 50 50
200 50 50
200 50 50
200 50 50
200 50 50
200 50 50
200 50 50
200 50 50
200 50 50
200 50 50
200 50 50
200 50 50
200 50 50
200 50 50
200 50 50
255 255 255
255 255 255
255 255 255
255 255 255
255 255 255
255 255 255
255 255 255
255 255 255
255 255 255
255 255 255
255 255 255
255 255 255
255 255 255
255 255 255
255 255 255
255 255 255
255 255 255
255 255 255
255 255 255
255 255 255
255 255 255
255 255 255
255 255 255
255 255 255
255 255 255
255 255 255
255 255 255
255 255 255
255 255 255
255 255 255
255 255 255
255 255 255
200 50 50
200 50 50
200 50 50
200 50 50
200 50 50
200 50 50
200 50 50
200 50 50
200 50 50
200 50 50
200 50 50
200 50 50
200 50 50
200 50 50
200 50 50
200 50 50
200 50 50
200 50 50
200 50 50
200 50 50
200 50 50
200 50 50
200 50 50
200 50 50
200 50 50
200 50 50
200 50 50
200 50 50
200 50 50
200 50 50
200 50 50
200 50 50
255 255 255
255 255 255
255 255 255
255 255 255
255 255 255
255 255 255
255 255 255
255 255 255
255 255 255
255 255 255
255 255 255
255 255 255
255 255 255
255 255 255
255 255 255
255 255 255
255 255 255
255 255 255
255 255 255
255 255 255
255 255 255
255 255 255
255 255 255
255 255 255
255 255 255
255 255 255
255 255 255
255 255 255
255 255 255
255 255 255
255 255 255
255 255 255
200 50 50
200 50 50
200 50 50
200 50 50
200 50 50
200 50 50
200 50 50
200 50 50
200 50 50
200 50 50
200 50 50
200 50 50
200 50 50
200 50 50
200 50 50
200 50 50
200 50 50
200 50 50
200 50 50
200 50 50
200 50 50
200 50 50
200 50 50
200 50 50
200 50 50
200 50 50
200 50 50
200 50 50
200 50 50
200 50 50
200 50 50
200 50 50
255 255 255
255 255 255
255 255 255
255 255 255
255 255 255
255 255 255
255 255 255
255 255 255
255 255 255
255 255 255
255 255 255
255 255 255
255 255 255
255 255 255
255 255 255
255 255 255
255 255 255
255 255 255
255 255 255
255 255 255
255 255 255
255 255 255
255 255 255
255 255 255
255 255 255
255 255 255
255 255 255
255 255 255
255 255 255
255 255 255
255 255 255
255 255 255
200 50 50
200 50 50
200 50 50
200 50 50
200 50 50
200 50 50
200 50 50
200 50 50
200 50 50
200 50 50
200 50 50
200 50 50
200 50 50
200 50 50
200 50 50
200 50 50
200 50 50
200 50 50
200 50 50
200 50 50
200 50 50
200 50 50
200 50 50
200 50 50
200 50 50
200 50 50
200 50 50
200 50 50
200 50 50
200 50 50
200 50 50
200 50 50
255 255 255
255 255 255
255 255 255
255 255 255
255 255 255
255 255 255
255 255 255
255 255 255
255 255 255
255 255 255
255 255 255
255 255 255
255 255 255
255 255 255
255 255 255
255 255 255
255 255 255
255 255 255
255 255 255
255 255 255
255 255 255
255 255 255
255 255 255
255 255 255
255 255 255
255 255 255
255 255 255
255 255 255
255 255 255
255 255 255
255 255 255
255 255 255
200 50 50
200 50 50
200 50 50
200 50 50
200 50 50
200 50 50
200 50 50
200 50 50
200 50 50
200 50 50
200 50 50
200 50 50
200 50 50
200 50 50
200 50 50
200 50 50
200 50 50
200 50 50
200 50 50
200 50 50
200 50 50
200 50 50
200 50 50
200 50 50
200 50 50
200 50 50
200 50 50
200 50 50
200 50 50
200 50 50
200 50 50
200 50 50
255 255 255
255 255 255
255 255 255
255 255 255
255 255 255
255 255 255
255 255 255
255 255 255
255 255 255
255 255 255
255 255 255
255 255 255
255 255 255
255 255 255
255 255 255
255 255 255
255 255 255
255 255 255
255 255 255
255 255 255
255 255 255
255 255 255
255 255 255
255 255 255
255 255 255
255 255 255
255 255 255
255 255 255
255 255 255
255 255 255
255 255 255
255 255 255
200 50 50
200 50 50
200 50 50
200 50 50
200 50 50
200 50 50
200 50 50
200 50 50
200 50 50
200 50 50
200 50 50
200 50 50
200 50 50
200 50 50
200 50 50
200 50 50
200 50 50
200 50 50
200 50 50
200 50 50
200 50 50
200 50 50
200 50 50
200 50 50
200 50 50
200 50 50
200 50 50
200 50 50
200 50 50
200 50 50
200 50 50
200 50 50
255 255 255
255 255 255
255 255 255
255 255 255
255 255 255
255 255 255
255 255 255
255 255 255
255 255 255
255 255 255
255 255 255
255 255 255
255 255 255
255 255 255
255 255 255
255 255 255
255 255 255
255 255 255
255 255 255
255 255 255
255 255 255
255 255 255
255 255 255
255 255 255
255 255 255
255 255 255
255 255 255
255 255 255
255 255 255
255 255 255
255 255 255
255 255 255
200 50 50
200 50 50
200 50 50
200 50 50
200 50 50
200 50 50
200 50 50
200 50 50
200 50 50
200 50 50
200 50 50
200 50 50
200 50 50
200 50 50
200 50 50
200 50 50
200 50 50
200 50 50
200 50 50
200 50 50
200 50 50
200 50 50
200 50 50
200 50 50
200 50 50
200 50 50
200 50 50
200 50 50
200 50 50
200 50 50
200 50 50
200 50 50
255 255 255
255 255 255
255 255 255
255 255 255
255 255 255
255 255 255
255 255 255
255 255 255
255 255 255
255 255 255
255 255 255
255 255 255
255 255 255
255 255 255
255 255 255
255 255 255
255 255 255
255 255 255
255 255 255
255 255 255
255 255 255
255 255 255
255 255 255
255 255 255
255 255 255
255 255 255
255 255 255
255 255 255
255 255 255
255 255 255
255 255 255
255 255 255
200 50 50
200 50 50
200 50 50
200 50 50
200 50 50
200 50 50
200 50 50
200 50 50
200 50 50
200 50 50
200 50 50
200 50 50
200 50 50
200 50 50
200 50 50
200 50 50
200 50 50
200 50 50
200 50 50
200 50 50
200 50 50
200 50 50
200 50 50
200 50 50
200 50 50
200 50 50
200 50 50
200 50 50
200 50 50
200 50 50
200 50 50
200 50 50
255 255 255
255 255 255
255 255 255
255 255 255
255 255 255
255 255 255
255 255 255
255 255 255
255 255 255
255 255 255
255 255 255
255 255 255
255 255 255
255 255 255
255 255 255
255 255 255
255 255 255
255 255 255
255 255 255
255 255 255
255 255 255
255 255 255
255 255 255
255 255 255
255 255 255
255 255 255
255 255 255
255 255 255
255 255 255
255 255 255
255 255 255
255 255 255
200 50 50
200 50 50
200 50 50
200 50 50
200 50 50
200 50 50
200 50 50
200 50 50
200 50 50
200 50 50
200 50 50
200 50 50
200 50 50
200 50 50
200 50 50
200 50 50
200 50 50
200 50 50
200 50 50
200 50 50
200 50 50
200 50 50
200 50 50
200 50 50
200 50 50
200 50 50
200 50 50
200 50 50
200 50 50
200 50 50
200 50 50
200 50 50
255 255 255
255 255 255
255 255 255
255 255 255
255 255 255
255 255 255
255 255 255
255 255 255
255 255 255
255 255 255
255 255 255
255 255 255
255 255 255
255 255 255
255 255 255
255 255 255
255 255 255
255 255 255
255 255 255
255 255 255
255 255 255
255 255 255
255 255 255
255 255 255
255 255 255
255 255 255
255 255 255
255 255 255
255 255 255
255 255 255
255 255 255
255 255 255
200 50 50
200 50 50
200 50 50
200 50 50
200 50 50
200 50 50
200 50 50
200 50 50
200 50 50
200 50 50
200 50 50
200 50 50
200 50 50
200 50 50
200 50 50
200 50 50
200 50 50
200 50 50
200 50 50
200 50 50
200 50 50
200 50 50
200 50 50
200 50 50
200 50 50
200 50 50
200 50 50
200 50 50
200 50 50
200 50 50
200 50 50
200 50 50
255 255 255
255 255 255
255 255 255
255 255 255
255 255 255
255 255 255
255 255 255
255 255 255
255 255 255
255 255 255
255 255 255
255 255 255
255 255 255
255 255 255
255 255 255
255 255 255
255 255 255
255 255 255
255 255 255
255 255 255
255 255 255
255 255 255
255 255 255
255 255 255
255 255 255
255 255 255
255 255 255
255 255 255
255 255 255
255 255 255
255 255 255
255 255 255
200 50 50
200 50 50
200 50 50
200 50 50
200 50 50
200 50 50
200 50 50
200 50 50
200 50 50
200 50 50
200 50 50
200 50 50
200 50 50
200 50 50
200 50 50
200 50 50
200 50 50
200 50 50
200 50 50
200 50 50
200 50 50
200 50 50
200 50 50
200 50 50
200 50 50
200 50 50
200 50 50
200 50 50
200 50 50
200 50 50
200 50 50
200 50 50
255 255 255
255 255 255
255 255 255
255 255 255
255 255 255
255 255 255
255 255 255
255 255 255
255 255 255
255 255 255
255 255 255
255 255 255
255 255 255
255 255 255
255 255 255
255 255 255
255 255 255
255 255 255
255 255 255
255 255 255
255 255 255
255 255 255
255 255 255
255 255 255
255 255 255
255 255 255
255 255 255
255 255 255
255 255 255
255 255 255
255 255 255
255 255 255
200 50 50
200 50 50
200 50 50
200 50 50
200 50 50
200 50 50
200 50 50
200 50 50
200 50 50
200 50 50
200 50 50
200 50 50
200 50 50
200 50 50
200 50 50
200 50 50
200 50 50
200 50 50
200 50 50
200 50 50
200 50 50
200 50 50
200 50 50
200 50 50
200 50 50
200 50 50
200 50 50
200 50 50
200 50 50
200 50 50
200 50 50
200 50 50
255 255 255
255 255 255
255 255 255
255 255 255
255 255 255
255 255 255
255 255 255
255 255 255
255 255 255
255 255 255
255 255 255
255 255 255
255 255 255
255 255 255
255 255 255
255 255 255
255 255 255
255 255 255
255 255 255
255 255 255
255 255 255
255 255 255
255 255 255
255 255 255
255 255 255
255 255 255
255 255 255
255 255 255
255 255 255
255 255 255
255 255 255
255 255 255
200 50 50
200 50 50
200 50 50
200 50 50
200 50 50
200 50 50
200 50 50
200 50 50
200 50 50
200 50 50
200 50 50
200 50 50
200 50 50
200 50 50
200 50 50
200 50 50
200 50 50
200 50 50
200 50 50
200 50 50
200 50 50
200 50 50
200 50 50
200 50 50
200 50 50
200 50 50
200 50 50
200 50 50
200 50 50
200 50 50
200 50 50
200 50 50
255 255 255
255 255 255
255 255 255
255 255 255
255 255 255
255 255 255
255 255 255
255 255 255
255 255 255
255 255 255
255 255 255
255 255 255
255 255 255
255 255 255
255 255 255
255 255 255
255 255 255
255 255 255
255 255 255
255 255 255
255 255 255
255 255 255
255 255 255
255 255 255
255 255 255
255 255 255
255 255 255
255 255 255
255 255 255
255 255 255
255 255 255
255 255 255
200 50 50
200 50 50
200 50 50
200 50 50
200 50 50
200 50 50
200 50 50
200 50 50
200 50 50
200 50 50
200 50 50
200 50 50
200 50 50
200 50 50
200 50 50
200 50 50
200 50 50
200 50 50
200 50 50
200 50 50
200 50 50
200 50 50
200 50 50
200 50 50
200 50 50
200 50 50
200 50 50
200 50 50
200 50 50
200 50 50
200 50 50
200 50 50
255 255 255
255 255 255
255 255 255
255 255 255
255 255 255
255 255 255
255 255 255
255 255 255
255 255 255
255 255 255
255 255 255
255 255 255
255 255 255
255 255 255
255 255 255
255 255 255
255 255 255
255 255 255
255 255 255
255 255 255
255 255 255
255 255 255
255 255 255
255 255 255
255 255 255
255 255 255
255 255 255
255 255 255
255 255 255
255 255 255
255 255 255
255 255 255
200 50 50
200 50 50
200 50 50
200 50 50
200 50 50
200 50 50
200 50 50
200 50 50
200 50 50
200 50 50
200 50 50
200 50 50
200 50 50
200 50 50
200 50 50
200 50 50
200 50 50
200 50 50
200 50 50
200 50 50
200 50 50
200 50 50
200 50 50
200 50 50
200 50 50
200 50 50
200 50 50
200 50 50
200 50 50
200 50 50
200 50 50
200 50 50
255 255 255
255 255 255
255 255 255
255 255 255
255 255 255
255 255 255
255 255 255
255 255 255
255 255 255
255 255 255
255 255 255
255 255 255
255 255 255
255 255 255
255 255 255
255 255 255
255 255 255
255 255 255
255 255 255
255 255 255
255 255 255
255 255 255
255 255 255
255 255 255
255 255 255
255 255 255
255 255 255
255 255 255
255 255 255
255 255 255
255 255 255
255 255 255
200 50 50
200 50 50
200 50 50
200 50 50
200 50 50
200 50 50
200 50 50
200 50 50
200 50 50
200 50 50
200 50 50
200 50 50
200 50 50
200 50 50
200 50 50
200 50 50
200 50 50
200 50 50
200 50 50
200 50 50
200 50 50
200 50 50
200 50 50
200 50 50
200 50 50
200 50 50
200 50 50
200 50 50
200 50 50
200 50 50
200 50 50
200 50 50
255 255 255
255 255 255
255 255 255
255 255 255
255 255 255
255 255 255
255 255 255
255 255 255
255 255 255
255 255 255
255 255 255
255 255 255
255 255 255
255 255 255
255 255 255
255 255 255
255 255 255
255 255 255
255 255 255
255 255 255
255 255 255
255 255 255
255 255 255
255 255 255
255 255 255
255 255 255
255 255 255
255 255 255
255 255 255
255 255 255
255 255 255
255 255 255
200 50 50
200 50 50
200 50 50
200 50 50
200 50 50
200 50 50
200 50 50
200 50 50
200 50 50
200 50 50
200 50 50
200 50 50
200 50 50
200 50 50
200 50 50
200 50 50
200 50 50
200 50 50
200 50 50
200 50 50
200 50 50
200 50 50
200 50 50
200 50 50
200 50 50
200 50 50
200 50 50
200 50 50
200 50 50
200 50 50
200 50 50
200 50 50
255 255 255
255 255 255
255 255 255
255 255 255
255 255 255
255 255 255
255 255 255
255 255 255
255 255 255
255 255 255
255 255 255
255 255 255
255 255 255
255 255 255
255 255 255
255 255 255
255 255 255
255 255 255
255 255 255
255 255 255
255 255 255
255 255 255
255 255 255
255 255 255
255 255 255
255 255 255
255 255 255
255 255 255
255 255 255
255 255 255
255 255 255
255 255 255
200 50 50
200 50 50
200 50 50
200 50 50
200 50 50
200 50 50
200 50 50
200 50 50
200 50 50
200 50 50
200 50 50
200 50 50
200 50 50
200 50 50
200 50 50
200 50 50
200 50 50
200 50 50
200 50 50
200 50 50
200 50 50
200 50 50
200 50 50
200 50 50
200 50 50
200 50 50
200 50 50
200 50 50
200 50 50
200 50 50
200 50 50
200 50 50
255 255 255
255 255 255
255 255 255
255 255 255
255 255 255
255 255 255
255 255 255
255 255 255
255 255 255
255 255 255
255 255 255
255 255 255
255 255 255
255 255 255
255 255 255
255 255 255
255 255 255
255 255 255
255 255 255
255 255 255
255 255 255
255 255 255
255 255 255
255 255 255
255 255 255
255 255 255
255 255 255
255 255 255
255 255 255
255 255 255
255 255 255
255 255 255
200 50 50
200 50 50
200 50 50
200 50 50
200 50 50
200 50 50
200 50 50
200 50 50
200 50 50
200 50 50
200 50 50
200 50 50
200 50 50
200 50 50
200 50 50
200 50 50
200 50 50
200 50 50
200 50 50
200 50 50
200 50 50
200 50 50
200 50 50
200 50 50
200 50 50
200 50 50
200 50 50
200 50 50
200 50 50
200 50 50
200 50 50
200 50 50
255 255 255
255 255 255
255 255 255
255 255 255
255 255 255
255 255 255
255 255 255
255 255 255
255 255 255
255 255 255
255 255 255
255 255 255
255 255 255
255 255 255
255 255 255
255 255 255
255 255 255
255 255 255
255 255 255
255 255 255
255 255 255
255 255 255
255 255 255
255 255 255
255 255 255
255 255 255
255 255 255
255 255 255
255 255 255
255 255 255
255 255 255
255 255 255
200 50 50
200 50 50
200 50 50
200 50 50
200 50 50
200 50 50
200 50 50
200 50 50
200 50 50
200 50 50
200 50 50
200 50 50
200 50 50
200 50 50
200 50 50
200 50 50
200 50 50
200 50 50
200 50 50
200 50 50
200 50 50
200 50 50
200 50 50
200 50 50
200 50 50
200 50 50
200 50 50
200 50 50
200 50 50
200 50 50
200 50 50
200 50 50
255 255 255
255 255 255
255 255 255
255 255 255
255 255 255
255 255 255
255 255 255
255 255 255
255 255 255
255 255 255
255 255 255
255 255 255
255 255 255
255 255 255
255 255 255
255 255 255
255 255 255
255 255 255
255 255 255
255 255 255
255 255 255
255 255 255
255 255 255
255 255 255
255 255 255
255 255 255
255 255 255
255 255 255
255 255 255
255 255 255
255 255 255
255 255 255
200 50 50
200 50 50
200 50 50
200 50 50
200 50 50
200 50 50
200 50 50
200 50 50
200 50 50
200 50 50
200 50 50
200 50 50
200 50 50
200 50 50
200 50 50
200 50 50
200 50 50
200 50 50
200 50 50
200 50 50
200 50 50
200 50 50
200 50 50
200 50 50
200 50 50
200 50 50
200 50 50
200 50 50
200 50 50
200 50 50
200 50 50
200 50 50
255 255 255
255 255 255
255 255 255
255 255 255
255 255 255
255 255 255
255 255 255
255 255 255
255 255 255
255 255 255
255 255 255
255 255 255
255 255 255
255 255 255
255 255 255
255 255 255
255 255 255
255 255 255
255 255 255
255 255 255
255 255 255
255 255 255
255 255 255
255 255 255
255 255 255
255 255 255
255 255 255
255 255 255
255 255 255
255 255 255
255 255 255
255 255 255
200 50 50
200 50 50
200 50 50
200 50 50
200 50 50
200 50 50
200 50 50
200 50 50
200 50 50
200 50 50
200 50 50
200 50 50
200 50 50
200 50 50
200 50 50
200 50 50
200 50 50
200 50 50
200 50 50
200 50 50
200 50 50
200 50 50
200 50 50
200 50 50
200 50 50
200 50 50
200 50 50
200 50 50
200 50 50
200 50 50
200 50 50
200 50 50
255 255 255
255 255 255
255 255 255
255 255 255
255 255 255
255 255 255
255 255 255
255 255 255
255 255 255
255 255 255
255 255 255
255 255 255
255 255 255
255 255 255
255 255 255
255 255 255
255 255 255
255 255 255
255 255 255
255 255 255
255 255 255
255 255 255
255 255 255
255 255 255
255 255 255
255 255 255
255 255 255
255 255 255
255 255 255
255 255 255
255 255 255
255 255 255
200 50 50
200 50 50
200 50 50
200 50 50
200 50 50
200 50 50
200 50 50
200 50 50
200 50 50
200 50 50
200 50 50
200 50 50
200 50 50
200 50 50
200 50 50
200 50 50
200 50 50
200 50 50
200 50 50
200 50 50
200 50 50
200 50 50
200 50 50
200 50 50
200 50 50
200 50 50
200 50 50
200 50 50
200 50 50
200 50 50
200 50 50
200 50 50
255 255 255
255 255 255
255 255 255
255 255 255
255 255 255
255 255 255
255 255 255
255 255 255
255 255 255
255 255 255
255 255 255
255 255 255
255 255 255
255 255 255
255 255 255
255 255 255
255 255 255
255 255 255
255 255 255
255 255 255
255 255 255
255 255 255
255 255 255
255 255 255
255 255 255
255 255 255
255 255 255
255 255 255
255 255 255
255 255 255
255 255 255
255 255 255
200 50 50
200 50 50
200 50 50
200 50 50
200 50 50
200 50 50
200 50 50
200 50 50
200 50 50
200 50 50
200 50 50
200 50 50
200 50 50
200 50 50
200 50 50
200 50 50
200 50 50
200 50 50
200 50 50
200 50 50
200 50 50
200 50 50
200 50 50
200 50 50
200 50 50
200 50 50
200 50 50
200 50 50
200 50 50
200 50 50
200 50 50
200 50 50
255 255 255
255 255 255
255 255 255
255 255 255
255 255 255
255 255 255
255 255 255
255 255 255
255 255 255
255 255 255
255 255 255
255 255 255
255 255 255
255 255 255
255 255 255
255 255 255
255 255 255
255 255 255
255 255 255
255 255 255
255 255 255
255 255 255
255 255 255
255 255 255
255 255 255
255 255 255
255 255 255
255 255 255
255 255 255
255 255 255
255 255 255
255 255 255
200 50 50
200 50 50
200 50 50
200 50 50
200 50 50
200 50 50
200 50 50
200 50 50
200 50 50
200 50 50
200 50 50
200 50 50
200 50 50
200 50 50
200 50 50
200 50 50
200 50 50
200 50 50
200 50 50
200 50 50
200 50 50
200 50 50
200 50 50
200 50 50
200 50 50
200 50 50
200 50 50
200 50 50
200 50 50
200 50 50
200 50 50
200 50 50
255 255 255
255 255 255
255 255 255
255 255 255
255 255 255
255 255 255
255 255 255
255 255 255
255 255 255
255 255 255
255 255 255
255 255 255
255 255 255
255 255 255
255 255 255
255 255 255
255 255 255
255 255 255
255 255 255
255 255 255
255 255 255
255 255 255
255 255 255
255 255 255
255 255 255
255 255 255
255 255 255
255 255 255
255 255 255
255 255 255
255 255 255
255 255 255
200 50 50
200 50 50
200 50 50
200 50 50
200 50 50
200 50 50
200 50 50
200 50 50
200 50 50
200 50 50
200 50 50
200 50 50
200 50 50
200 50 50
200 50 50
200 50 50
200 50 50
200 50 50
200 50 50
200 50 50
200 50 50
200 50 50
200 50 50
200 50 50
200 50 50
200 50 50
200 50 50
200 50 50
200 50 50
200 50 50
200 50 50
200 50 50
255 255 255
255 255 255
255 255 255
255 255 255
255 255 255
255 255 255
255 255 255
255 255 255
255 255 255
255 255 255
255 255 255
255 255 255
255 255 255
255 255 255
255 255 255
255 255 255
255 255 255
255 255 255
255 255 255
255 255 255
255 255 255
255 255 255
255 255 255
255 255 255
255 255 255
255 255 255
255 255 255
255 255 255
255 255 255
255 255 255
255 255 255
255 255 255
200 50 50
200 50 50
200 50 50
200 50 50
200 50 50
200 50 50
200 50 50
200 50 50
200 50 50
200 50 50
200 50 50
200 50 50
200 50 50
200 50 50
200 50 50
200 50 50
200 50 50
200 50 50
200 50 50
200 50 50
200 50 50
200 50 50
200 50 50
200 50 50
200 50 50
200 50 50
200 50 50
200 50 50
200 50 50
200 50 50
200 50 50
200 50 50
255 255 255
255 255 255
255 255 255
255 255 255
255 255 255
255 255 255
255 255 255
255 255 255
255 255 255
255 255 255
255 255 255
255 255 255
255 255 255
255 255 255
255 255 255
255 255 255
255 255 255
255 255 255
255 255 255
255 255 255
255 255 255
255 255 255
255 255 255
255 255 255
255 255 255
255 255 255
255 255 255
255 255 255
255 255 255
255 255 255
255 255 255
255 255 255
200 50 50
200 50 50
200 50 50
200 50 50
200 50 50
200 50 50
200 50 50
200 50 50
200 50 50
200 50 50
200 50 50
200 50 50
200 50 50
200 50 50
200 50 50
200 50 50
200 50 50
200 50 50
200 50 50
200 50 50
200 50 50
200 50 50
200 50 50
200 50 50
200 50 50
200 50 50
200 50 50
200 50 50
200 50 50
200 50 50
200 50 50
200 50 50
255 255 255
255 255 255
255 255 255
255 255 255
255 255 255
255 255 255
255 255 255
255 255 255
255 255 255
255 255 255
255 255 255
255 255 255
255 255 255
255 255 255
255 255 255
255 255 255
255 255 255
255 255 255
255 255 255
255 255 255
255 255 255
255 255 255
255 255 255
255 255 255
255 255 255
255 255 255
255 255 255
255 255 255
255 255 255
255 255 255
255 255 255
255 255 255
200 50 50
200 50 50
200 50 50
200 50 50
200 50 50
200 50 50
200 50 50
200 50 50
200 50 50
200 50 50
200 50 50
200 50 50
200 50 50
200 50 50
200 50 50
200 50 50
200 50 50
200 50 50
200 50 50
200 50 50
200 50 50
200 50 50
200 50 50
200 50 50
200 50 50
200 50 50
200 50 50
200 50 50
200 50 50
200 50 50
200 50 50
200 50 50
255 255 255
255 255 255
255 255 255
255 255 255
255 255 255
255 255 255
255 255 255
255 255 255
255 255 255
255 255 255
255 255 255
255 255 255
255 255 255
255 255 255
255 255 255
255 255 255
255 255 255
255 255 255
255 255 255
255 255 255
255 255 255
255 255 255
255 255 255
255 255 255
255 255 255
255 255 255
255 255 255
255 255 255
255 255 255
255 255 255
255 255 255
255 255 255
200 50 50
200 50 50
200 50 50
200 50 50
200 50 50
200 50 50
200 50 50
200 50 50
200 50 50
200 50 50
200 50 50
200 50 50
200 50 50
200 50 50
200 50 50
200 50 50
200 50 50
200 50 50
200 50 50
200 50 50
200 50 50
200 50 50
200 50 50
200 50 50
200 50 50
200 50 50
200 50 50
200 50 50
200 50 50
200 50 50
200 50 50
200 50 50
255 255 255
255 255 255
255 255 255
255 255 255
255 255 255
255 255 255
255 255 255
255 255 255
255 255 255
255 255 255
255 255 255
255 255 255
255 255 255
255 255 255
255 255 255
255 255 255
255 255 255
255 255 255
255 255 255
255 255 255
255 255 255
255 255 255
255 255 255
255 255 255
255 255 255
255 255 255
255 255 255
255 255 255
255 255 255
255 255 255
255 255 255
255 255 255
200 50 50
200 50 50
200 50 50
200 50 50
200 50 50
200 50 50
200 50 50
200 50 50
200 50 50
200 50 50
200 50 50
200 50 50
200 50 50
200 50 50
200 50 50
200 50 50
200 50 50
200 50 50
200 50 50
200 50 50
200 50 50
200 50 50
200 50 50
200 50 50
200 50 50
200 50 50
200 50 50
200 50 50
200 50 50
200 50 50
200 50 50
200 50 50
255 255 255
255 255 255
255 255 255
255 255 255
255 255 255
255 255 255
255 255 255
255 255 255
255 255 255
255 255 255
255 255 255
255 255 255
255 255 255
255 255 255
255 255 255
255 255 255
255 255 255
255 255 255
255 255 255
255 255 255
255 255 255
255 255 255
255 255 255
255 255 255
255 255 255
255 255 255
255 255 255
255 255 255
255 255 255
255 255 255
255 255 255
255 255 255
200 50 50
200 50 50
200 50 50
200 50 50
200 50 50
200 50 50
200 50 50
200 50 50
200 50 50
200 50 50
200 50 50
200 50 50
200 50 50
200 50 50
200 50 50
200 50 50
200 50 50
200 50 50
200 50 50
200 50 50
200 50 50
200 50 50
200 50 50
200 50 50
200 50 50
200 50 50
200 50 50
200 50 50
200 50 50
200 50 50
200 50 50
200 50 50
255 255 255
255 255 255
255 255 255
255 255 255
255 255 255
255 255 255
255 255 255
255 255 255
255 255 255
255 255 255
255 255 255
255 255 255
255 255 255
255 255 255
255 255 255
255 255 255
255 255 255
255 255 255
255 255 255
255 255 255
255 255 255
255 255 255
255 255 255
255 255 255
255 255 255
255 255 255
255 255 255
255 255 255
255 255 255
255 255 255
255 255 255
255 255 255
200 50 50
200 50 50
200 50 50
200 50 50
200 50 50
200 50 50
200 50 50
200 50 50
200 50 50
200 50 50
200 50 50
200 50 50
200 50 50
200 50 50
200 50 50
200 50 50
200 50 50
200 50 50
200 50 50
200 50 50
200 50 50
200 50 50
200 50 50
200 50 50
200 50 50
200 50 50
200 50 50
200 50 50
200 50 50
200 50 50
200 50 50
200 50 50
255 255 255
255 255 255
255 255 255
255 255 255
255 255 255
255 255 255
255 255 255
255 255 255
255 255 255
255 255 255
255 255 255
255 255 255
255 255 255
255 255 255
255 255 255
255 255 255
255 255 255
255 255 255
255 255 255
255 255 255
255 255 255
255 255 255
255 255 255
255 255 255
255 255 255
255 255 255
255 255 255
255 255 255
255 255 255
255 255 255
255 255 255
255 255 255
200 50 50
200 50 50
200 50 50
200 50 50
200 50 50
200 50 50
200 50 50
200 50 50
200 50 50
200 50 50
200 50 50
200 50 50
200 50 50
200 50 50
200 50 50
200 50 50
200 50 50
200 50 50
200 50 50
200 50 50
200 50 50
200 50 50
200 50 50
200 50 50
200 50 50
200 50 50
200 50 50
200 50 50
200 50 50
200 50 50
200 50 50
200 50 50
255 255 255
255 255 255
255 255 255
255 255 255
255 255 255
255 255 255
255 255 255
255 255 255
255 255 255
255 255 255
255 255 255
255 255 255
255 255 255
255 255 255
255 255 255
255 255 255
255 255 255
255 255 255
255 255 255
255 255 255
255 255 255
255 255 255
255 255 255
255 255 255
255 255 255
255 255 255
255 255 255
255 255 255
255 255 255
255 255 255
255 255 255
255 255 255
200 50 50
200 50 50
200 50 50
200 50 50
200 50 50
200 50 50
200 50 50
200 50 50
200 50 50
200 50 50
200 50 50
200 50 50
200 50 50
200 50 50
200 50 50
200 50 50
200 50 50
200 50 50
200 50 50
200 50 50
200 50 50
200 50 50
200 50 50
200 50 50
200 50 50
200 50 50
200 50 50
200 50 50
200 50 50
200 50 50
200 50 50
200 50 50
255 255 255
255 255 255
255 255 255
255 255 255
255 255 255
255 255 255
255 255 255
255 255 255
255 255 255
255 255 255
255 255 255
255 255 255
255 255 255
255 255 255
255 255 255
255 255 255
255 255 255
255 255 255
255 255 255
255 255 255
255 255 255
255 255 255
255 255 255
255 255 255
255 255 255
255 255 255
255 255 255
255 255 255
255 255 255
255 255 255
255 255 255
255 255 255
200 50 50
200 50 50
200 50 50
200 50 50
200 50 50
200 50 50
200 50 50
200 50 50
200 50 50
200 50 50
200 50 50
200 50 50
200 50 50
200 50 50
200 50 50
200 50 50
200 50 50
200 50 50
200 50 50
200 50 50
200 50 50
200 50 50
200 50 50
200 50 50
200 50 50
200 50 50
200 50 50
200 50 50
200 50 50
200 50 50
200 50 50
200 50 50
255 255 255
255 255 255
255 255 255
255 255 255
255 255 255
255 255 255
255 255 255
255 255 255
255 255 255
255 255 255
255 255 255
255 255 255
255 255 255
255 255 255
255 255 255
255 255 255
255 255 255
255 255 255
255 255 255
255 255 255
255 255 255
255 255 255
255 255 255
255 255 255
255 255 255
255 255 255
255 255 255
255 255 255
255 255 255
255 255 255
255 255 255
255 255 255
200 50 50
200 50 50
200 50 50
200 50 50
200 50 50
200 50 50
200 50 50
200 50 50
200 50 50
200 50 50
200 50 50
200 50 50
200 50 50
200 50 50
200 50 50
200 50 50
200 50 50
200 50 50
200 50 50
200 50 50
200 50 50
200 50 50
200 50 50
200 50 50
200 50 50
200 50 50
200 50 50
200 50 50
200 50 50
200 50 50
200 50 50
200 50 50
255 255 255
255 255 255
255 255 255
255 255 255
255 255 255
255 255 255
255 255 255
255 255 255
255 255 255
255 255 255
255 255 255
255 255 255
255 255 255
255 255 255
255 255 255
255 255 255
255 255 255
255 255 255
255 255 255
255 255 255
255 255 255
255 255 255
255 255 255
255 255 255
255 255 255
255 255 255
255 255 255
255 255 255
255 255 255
255 255 255
255 255 255
255 255 255
200 50 50
200 50 50
200 50 50
200 50 50
200 50 50
200 50 50
200 50 50
200 50 50
200 50 50
200 50 50
200 50 50
200 50 50
200 50 50
200 50 50
200 50 50
200 50 50
200 50 50
200 50 50
200 50 50
200 50 50
200 50 50
200 50 50
200 50 50
200 50 50
200 50 50
200 50 50
200 50 50
200 50 50
200 50 50
200 50 50
200 50 50
200 50 50
255 255 255
255 255 255
255 255 255
255 255 255
255 255 255
255 255 255
255 255 255
255 255 255
255 255 255
255 255 255
255 255 255
255 255 255
255 255 255
255 255 255
255 255 255
255 255 255
255 255 255
255 255 255
255 255 255
255 255 255
255 255 255
255 255 255
255 255 255
255 255 255
255 255 255
255 255 255
255 255 255
255 255 255
255 255 255
255 255 255
255 255 255
255 255 255
200 50 50
200 50 50
200 50 50
200 50 50
200 50 50
200 50 50
200 50 50
200 50 50
200 50 50
200 50 50
200 50 50
200 50 50
200 50 50
200 50 50
200 50 50
200 50 50
200 50 50
200 50 50
200 50 50
200 50 50
200 50 50
200 50 50
200 50 50
200 50 50
200 50 50
200 50 50
200 50 50
200 50 50
200 50 50
200 50 50
200 50 50
200 50 50
255 255 255
255 255 255
255 255 255
255 255 255
255 255 255
255 255 255
255 255 255
255 255 255
255 255 255
255 255 255
255 255 255
255 255 255
255 255 255
255 255 255
255 255 255
255 255 255
255 255 255
255 255 255
255 255 255
255 255 255
255 255 255
255 255 255
255 255 255
255 255 255
255 255 255
255 255 255
255 255 255
255 255 255
255 255 255
255 255 255
255 255 255
255 255 255
200 50 50
200 50 50
200 50 50
200 50 50
200 50 50
200 50 50
200 50 50
200 50 50
200 50 50
200 50 50
200 50 50
200 50 50
200 50 50
200 50 50
200 50 50
200 50 50
200 50 50
200 50 50
200 50 50
200 50 50
200 50 50
200 50 50
200 50 50
200 50 50
200 50 50
200 50 50
200 50 50
200 50 50
200 50 50
200 50 50
200 50 50
200 50 50
255 255 255
255 255 255
255 255 255
255 255 255
255 255 255
255 255 255
255 255 255
255 255 255
255 255 255
255 255 255
255 255 255
255 255 255
255 255 255
255 255 255
255 255 255
255 255 255
255 255 255
255 255 255
255 255 255
255 255 255
255 255 255
255 255 255
255 255 255
255 255 255
255 255 255
255 255 255
255 255 255
255 255 255
255 255 255
255 255 255
255 255 255
255 255 255
200 50 50
200 50 50
200 50 50
200 50 50
200 50 50
200 50 50
200 50 50
200 50 50
200 50 50
200 50 50
200 50 50
200 50 50
200 50 50
200 50 50
200 50 50
200 50 50
200 50 50
200 50 50
200 50 50
200 50 50
200 50 50
200 50 50
200 50 50
200 50 50
200 50 50
200 50 50
200 50 50
200 50 50
200 50 50
200 50 50
200 50 50
200 50 50
255 255 255
255 255 255
255 255 255
255 255 255
255 255 255
255 255 255
255 255 255
255 255 255
255 255 255
255 255 255
255 255 255
255 255 255
255 255 255
255 255 255
255 255 255
255 255 255
255 255 255
255 255 255
255 255 255
255 255 255
255 255 255
255 255 255
255 255 255
255 255 255
255 255 255
255 255 255
255 255 255
255 255 255
255 255 255
255 255 255
255 255 255
255 255 255
200 50 50
200 50 50
200 50 50
200 50 50
200 50 50
200 50 50
200 50 50
200 50 50
200 50 50
200 50 50
200 50 50
200 50 50
200 50 50
200 50 50
200 50 50
200 50 50
200 50 50
200 50 50
200 50 50
200 50 50
200 50 50
200 50 50
200 50 50
200 50 50
200 50 50
200 50 50
200 50 50
200 50 50
200 50 50
200 50 50
200 50 50
200 50 50
255 255 255
255 255 255
255 255 255
255 255 255
255 255 255
255 255 255
255 255 255
255 255 255
255 255 255
255 255 255
255 255 255
255 255 255
255 255 255
255 255 255
255 255 255
255 255 255
255 255 255
255 255 255
255 255 255
255 255 255
255 255 255
255 255 255
255 255 255
255 255 255
255 255 255
255 255 255
255 255 255
255 255 255
255 255 255
255 255 255
255 255 255
255 255 255
200 50 50
200 50 50
200 50 50
200 50 50
200 50 50
200 50 50
200 50 50
200 50 50
200 50 50
200 50 50
200 50 50
200 50 50
200 50 50
200 50 50
200 50 50
200 50 50
200 50 50
200 50 50
200 50 50
200 50 50
200 50 50
200 50 50
200 50 50
200 50 50
200 50 50
200 50 50
200 50 50
200 50 50
200 50 50
200 50 50
200 50 50
200 50 50
255 255 255
255 255 255
255 255 255
255 255 255
255 255 255
255 255 255
255 255 255
255 255 255
255 255 255
255 255 255
255 255 255
255 255 255
255 255 255
255 255 255
255 255 255
255 255 255
255 255 255
255 255 255
255 255 255
255 255 255
255 255 255
255 255 255
255 255 255
255 255 255
255 255 255
255 255 255
255 255 255
255 255 255
255 255 255
255 255 255
255 255 255
255 255 255
200 50 50
200 50 50
200 50 50
200 50 50
200 50 50
200 50 50
200 50 50
200 50 50
200 50 50
200 50 50
200 50 50
200 50 50
200 50 50
200 50 50
200 50 50
200 50 50
200 50 50
200 50 50
200 50 50
200 50 50
200 50 50
200 50 50
200 50 50
200 50 50
200 50 50
200 50 50
200 50 50
200 50 50
200 50 50
200 50 50
200 50 50
200 50 50
255 255 255
255 255 255
255 255 255
255 255 255
255 255 255
255 255 255
255 255 255
255 255 255
255 255 255
255 255 255
255 255 255
255 255 255
255 255 255
255 255 255
255 255 255
255 255 255
255 255 255
255 255 255
255 255 255
255 255 255
255 255 255
255 255 255
255 255 255
255 255 255
255 255 255
255 255 255
255 255 255
255 255 255
255 255 255
255 255 255
255 255 255
255 255 255
200 50 50
200 50 50
200 50 50
200 50 50
200 50 50
200 50 50
200 50 50
200 50 50
200 50 50
200 50 50
200 50 50
200 50 50
200 50 50
200 50 50
200 50 50
200 50 50
200 50 50
200 50 50
200 50 50
200 50 50
200 50 50
200 50 50
200 50 50
200 50 50
200 50 50
200 50 50
200 50 50
200 50 50
200 50 50
200 50 50
200 50 50
200 50 50
255 255 255
255 255 255
255 255 255
255 255 255
255 255 255
255 255 255
255 255 255
255 255 255
255 255 255
255 255 255
255 255 255
255 255 255
255 255 255
255 255 255
255 255 255
255 255 255
255 255 255
255 255 255
255 255 255
255 255 255
255 255 255
255 255 255
255 255 255
255 255 255
255 255 255
255 255 255
255 255 255
255 255 255
255 255 255
255 255 255
255 255 255
255 255 255
200 50 50
200 50 50
200 50 50
200 50 50
200 50 50
200 50 50
200 50 50
200 50 50
200 50 50
200 50 50
200 50 50
200 50 50
200 50 50
200 50 50
200 50 50
200 50 50
200 50 50
200 50 50
200 50 50
200 50 50
200 50 50
200 50 50
200 50 50
200 50 50
200 50 50
200 50 50
200 50 50
200 50 50
200 50 50
200 50 50
200 50 50
200 50 50
255 255 255
255 255 255
255 255 255
255 255 255
255 255 255
255 255 255
255 255 255
255 255 255
255 255 255
255 255 255
255 255 255
255 255 255
255 255 255
255 255 255
255 255 255
255 255 255
255 255 255
255 255 255
255 255 255
255 255 255
255 255 255
255 255 255
255 255 255
255 255 255
255 255 255
255 255 255
255 255 255
255 255 255
255 255 255
255 255 255
255 255 255
255 255 255
200 50 50
200 50 50
200 50 50
200 50 50
200 50 50
200 50 50
200 50 50
200 50 50
200 50 50
200 50 50
200 50 50
200 50 50
200 50 50
200 50 50
200 50 50
200 50 50
200 50 50
200 50 50
200 50 50
200 50 50
200 50 50
200 50 50
200 50 50
200 50 50
200 50 50
200 50 50
200 50 50
200 50 50
200 50 50
200 50 50
200 50 50
200 50 50
255 255 255
255 255 255
255 255 255
255 255 255
255 255 255
255 255 255
255 255 255
255 255 255
255 255 255
255 255 255
255 255 255
255 255 255
255 255 255
255 255 255
255 255 255
255 255 255
255 255 255
255 255 255
255 255 255
255 255 255
255 255 255
255 255 255
255 255 255
255 255 255
255 255 255
255 255 255
255 255 255
255 255 255
255 255 255
255 255 255
255 255 255
255 255 255
200 50 50
200 50 50
200 50 50
200 50 50
200 50 50
200 50 50
200 50 50
200 50 50
200 50 50
200 50 50
200 50 50
200 50 50
200 50 50
200 50 50
200 50 50
200 50 50
200 50 50
200 50 50
200 50 50
200 50 50
200 50 50
200 50 50
200 50 50
200 50 50
200 50 50
200 50 50
200 50 50
200 50 50
200 50 50
200 50 50
200 50 50
200 50 50
255 255 255
255 255 255
255 255 255
255 255 255
255 255 255
255 255 255
255 255 255
255 255 255
255 255 255
255 255 255
255 255 255
255 255 255
255 255 255
255 255 255
255 255 255
255 255 255
255 255 255
255 255 255
255 255 255
255 255 255
255 255 255
255 255 255
255 255 255
255 255 255
255 255 255
255 255 255
255 255 255
255 255 255
255 255 255
255 255 255
255 255 255
255 255 255
200 50 50
200 50 50
200 50 50
200 50 50
200 50 50
200 50 50
200 50 50
200 50 50
200 50 50
200 50 50
200 50 50
200 50 50
200 50 50
200 50 50
200 50 50
200 50 50
200 50 50
200 50 50
200 50 50
200 50 50
200 50 50
200 50 50
200 50 50
200 50 50
200 50 50
200 50 50
200 50 50
200 50 50
200 50 50
200 50 50
200 50 50
200 50 50
255 255 255
255 255 255
255 255 255
255 255 255
255 255 255
255 255 255
255 255 255
255 255 255
255 255 255
255 255 255
255 255 255
255 255 255
255 255 255
255 255 255
255 255 255
255 255 255
255 255 255
255 255 255
255 255 255
255 255 255
255 255 255
255 255 255
255 255 255
255 255 255
255 255 255
255 255 255
255 255 255
255 255 255
255 255 255
255 255 255
255 255 255
255 255 255
200 50 50
200 50 50
200 50 50
200 50 50
200 50 50
200 50 50
200 50 50
200 50 50
200 50 50
200 50 50
200 50 50
200 50 50
200 50 50
200 50 50
200 50 50
200 50 50
200 50 50
200 50 50
200 50 50
200 50 50
200 50 50
200 50 50
200 50 50
200 50 50
200 50 50
200 50 50
200 50 50
200 50 50
200 50 50
200 50 50
200 50 50
200 50 50
255 255 255
255 255 255
255 255 255
255 255 255
255 255 255
255 255 255
255 255 255
255 255 255
255 255 255
255 255 255
255 255 255
255 255 255
255 255 255
255 255 255
255 255 255
255 255 255
255 255 255
255 255 255
255 255 255
255 255 255
255 255 255
255 255 255
255 255 255
255 255 255
255 255 255
255 255 255
255 255 255
255 255 255
255 255 255
255 255 255
255 255 255
255 255 255
200 50 50
200 50 50
200 50 50
200 50 50
200 50 50
200 50 50
200 50 50
200 50 50
200 50 50
200 50 50
200 50 50
200 50 50
200 50 50
200 50 50
200 50 50
200 50 50
200 50 50
200 50 50
200 50 50
200 50 50
200 50 50
200 50 50
200 50 50
200 50 50
200 50 50
200 50 50
200 50 50
200 50 50
200 50 50
200 50 50
200 50 50
200 50 50
255 255 255
255 255 255
255 255 255
255 255 255
255 255 255
255 255 255
255 255 255
255 255 255
255 255 255
255 255 255
255 255 255
255 255 255
255 255 255
255 255 255
255 255 255
255 255 255
255 255 255
255 255 255
255 255 255
255 255 255
255 255 255
255 255 255
255 255 255
255 255 255
255 255 255
255 255 255
255 255 255
255 255 255
255 255 255
255 255 255
255 255 255
255 255 255
200 50 50
200 50 50
200 50 50
200 50 50
200 50 50
200 50 50
200 50 50
200 50 50
200 50 50
200 50 50
200 50 50
200 50 50
200 50 50
200 50 50
200 50 50
200 50 50
200 50 50
200 50 50
200 50 50
200 50 50
200 50 50
200 50 50
200 50 50
200 50 50
200 50 50
200 50 50
200 50 50
200 50 50
200 50 50
200 50 50
200 50 50
200 50 50
255 255 255
255 255 255
255 255 255
255 255 255
255 255 255
255 255 255
255 255 255
255 255 255
255 255 255
255 255 255
255 255 255
255 255 255
255 255 255
255 255 255
255 255 255
255 255 255
255 255 255
255 255 255
255 255 255
255 255 255
255 255 255
255 255 255
255 255 255
255 255 255
255 255 255
255 255 255
255 255 255
255 255 255
255 255 255
255 255 255
255 255 255
255 255 255
200 50 50
200 50 50
200 50 50
200 50 50
200 50 50
200 50 50
200 50 50
200 50 50
200 50 50
200 50 50
200 50 50
200 50 50
200 50 50
200 50 50
200 50 50
200 50 50
200 50 50
200 50 50
200 50 50
200 50 50
200 50 50
200 50 50
200 50 50
200 50 50
200 50 50
200 50 50
200 50 50
200 50 50
200 50 50
200 50 50
200 50 50
200 50 50
255 255 255
255 255 255
255 255 255
255 255 255
255 255 255
255 255 255
255 255 255
255 255 255
255 255 255
255 255 255
255 255 255
255 255 255
255 255 255
255 255 255
255 255 255
255 255 255
255 255 255
255 255 255
255 255 255
255 255 255
255 255 255
255 255 255
255 255 255
255 255 255
255 255 255
255 255 255
255 255 255
255 255 255
255 255 255
255 255 255
255 255 255
255 255 255
200 50 50
200 50 50
200 50 50
200 50 50
200 50 50
200 50 50
200 50 50
200 50 50
200 50 50
200 50 50
200 50 50
200 50 50
200 50 50
200 50 50
200 50 50
200 50 50
200 50 50
200 50 50
200 50 50
200 50 50
200 50 50
200 50 50
200 50 50
200 50 50
200 50 50
200 50 50
200 50 50
200 50 50
200 50 50
200 50 50
200 50 50
200 50 50
255 255 255
255 255 255
255 255 255
255 255 255
255 255 255
255 255 255
255 255 255
255 255 255
255 255 255
255 255 255
255 255 255
255 255 255
255 255 255
255 255 255
255 255 255
255 255 255
255 255 255
255 255 255
255 255 255
255 255 255
255 255 255
255 255 255
255 255 255
255 255 255
255 255 255
255 255 255
255 255 255
255 255 255
255 255 255
255 255 255
255 255 255
255 255 255
200 50 50
200 50 50
200 50 50
200 50 50
200 50 50
200 50 50
200 50 50
200 50 50
200 50 50
200 50 50
200 50 50
200 50 50
200 50 50
200 50 50
200 50 50
200 50 50
200 50 50
200 50 50
200 50 50
200 50 50
200 50 50
200 50 50
200 50 50
200 50 50
200 50 50
200 50 50
200 50 50
200 50 50
200 50 50
200 50 50
200 50 50
200 50 50
255 255 255
255 255 255
255 255 255
255 255 255
255 255 255
255 255 255
255 255 255
255 255 255
255 255 255
255 255 255
255 255 255
255 255 255
255 255 255
255 255 255
255 255 255
255 255 255
255 255 255
255 255 255
255 255 255
255 255 255
255 255 255
255 255 255
255 255 255
255 255 255
255 255 255
255 255 255
255 255 255
255 255 255
255 255 255
255 255 255
255 255 255
255 255 255
200 50 50
200 50 50
200 50 50
200 50 50
200 50 50
200 50 50
200 50 50
200 50 50
200 50 50
200 50 50
200 50 50
200 50 50
200 50 50
200 50 50
200 50 50
200 50 50
200 50 50
200 50 50
200 50 50
200 50 50
200 50 50
200 50 50
200 50 50
200 50 50
200 50 50
200 50 50
200 50 50
200 50 50
200 50 50
200 50 50
200 50 50
200 50 50
255 255 255
255 255 255
255 255 255
255 255 255
255 255 255
255 255 255
255 255 255
255 255 255
255 255 255
255 255 255
255 255 255
255 255 255
255 255 255
255 255 255
255 255 255
255 255 255
255 255 255
255 255 255
255 255 255
255 255 255
255 255 255
255 255 255
255 255 255
255 255 255
255 255 255
255 255 255
255 255 255
255 255 255
255 255 255
255 255 255
255 255 255
255 255 255
200 50 50
200 50 50
200 50 50
200 50 50
200 50 50
200 50 50
200 50 50
200 50 50
200 50 50
200 50 50
200 50 50
200 50 50
200 50 50
200 50 50
200 50 50
200 50 50
200 50 50
200 50 50
200 50 50
200 50 50
200 50 50
200 50 50
200 50 50
200 50 50
200 50 50
200 50 50
200 50 50
200 50 50
200 50 50
200 50 50
200 50 50
200 50 50
255 255 255
255 255 255
255 255 255
255 255 255
255 255 255
255 255 255
255 255 255
255 255 255
255 255 255
255 255 255
255 255 255
255 255 255
255 255 255
255 255 255
255 255 255
255 255 255
255 255 255
255 255 255
255 255 255
255 255 255
255 255 255
255 255 255
255 255 255
255 255 255
255 255 255
255 255 255
255 255 255
255 255 255
255 255 255
255 255 255
255 255 255
255 255 255
200 50 50
200 50 50
200 50 50
200 50 50
200 50 50
200 50 50
200 50 50
200 50 50
200 50 50
200 50 50
200 50 50
200 50 50
200 50 50
200 50 50
200 50 50
200 50 50
200 50 50
200 50 50
200 50 50
200 50 50
200 50 50
200 50 50
200 50 50
200 50 50
200 50 50
200 50 50
200 50 50
200 50 50
200 50 50
200 50 50
200 50 50
200 50 50
255 255 255
255 255 255
255 255 255
255 255 255
255 255 255
255 255 255
255 255 255
255 255 255
255 255 255
255 255 255
255 255 255
255 255 255
255 255 255
255 255 255
255 255 255
255 255 255
255 255 255
255 255 255
255 255 255
255 255 255
255 255 255
255 255 255
255 255 255
255 255 255
255 255 255
255 255 255
255 255 255
255 255 255
255 255 255
255 255 255
255 255 255
255 255 255
200 50 50
200 50 50
200 50 50
200 50 50
200 50 50
200 50 50
200 50 50
200 50 50
200 50 50
200 50 50
200 50 50
200 50 50
200 50 50
200 50 50
200 50 50
200 50 50
200 50 50
200 50 50
200 50 50
200 50 50
200 50 50
200 50 50
200 50 50
200 50 50
200 50 50
200 50 50
200 50 50
200 50 50
200 50 50
200 50 50
200 50 50
200 50 50
255 255 255
255 255 255
255 255 255
255 255 255
255 255 255
255 255 255
255 255 255
255 255 255
255 255 255
255 255 255
255 255 255
255 255 255
255 255 255
255 255 255
255 255 255
255 255 255
255 255 255
255 255 255
255 255 255
255 255 255
255 255 255
255 255 255
255 255 255
255 255 255
255 255 255
255 255 255
255 255 255
255 255 255
255 255 255
255 255 255
255 255 255
255 255 255
200 50 50
200 50 50
200 50 50
200 50 50
200 50 50
200 50 50
200 50 50
200 50 50
200 50 50
200 50 50
200 50 50
200 50 50
200 50 50
200 50 50
200 50 50
200 50 50
200 50 50
200 50 50
200 50 50
200 50 50
200 50 50
200 50 50
200 50 50
200 50 50
200 50 50
200 50 50
200 50 50
200 50 50
200 50 50
200 50 50
200 50 50
200 50 50
255 255 255
255 255 255
255 255 255
255 255 255
255 255 255
255 255 255
255 255 255
255 255 255
255 255 255
255 255 255
255 255 255
255 255 255
255 255 255
255 255 255
255 255 255
255 255 255
255 255 255
255 255 255
255 255 255
255 255 255
255 255 255
255 255 255
255 255 255
255 255 255
255 255 255
255 255 255
255 255 255
255 255 255
255 255 255
255 255 255
255 255 255
255 255 255
200 50 50
200 50 50
200 50 50
200 50 50
200 50 50
200 50 50
200 50 50
200 50 50
200 50 50
200 50 50
200 50 50
200 50 50
200 50 50
200 50 50
200 50 50
200 50 50
200 50 50
200 50 50
200 50 50
200 50 50
200 50 50
200 50 50
200 50 50
200 50 50
200 50 50
200 50 50
200 50 50
200 50 50
200 50 50
200 50 50
200 50 50
200 50 50
255 255 255
255 255 255
255 255 255
255 255 255
255 255 255
255 255 255
255 255 255
255 255 255
255 255 255
255 255 255
255 255 255
255 255 255
255 255 255
255 255 255
255 255 255
255 255 255
255 255 255
255 255 255
255 255 255
255 255 255
255 255 255
255 255 255
255 255 255
255 255 255
255 255 255
255 255 255
255 255 255
255 255 255
255 255 255
255 255 255
255 255 255
255 255 255
200 50 50
200 50 50
200 50 50
200 50 50
200 50 50
200 50 50
200 50 50
200 50 50
200 50 50
200 50 50
200 50 50
200 50 50
200 50 50
200 50 50
200 50 50
200 50 50
200 50 50
200 50 50
200 50 50
200 50 50
200 50 50
200 50 50
200 50 50
200 50 50
200 50 50
200 50 50
200 50 50
200 50 50
200 50 50
200 50 50
200 50 50
200 50 50
255 255 255
255 255 255
255 255 255
255 255 255
255 255 255
255 255 255
255 255 255
255 255 255
255 255 255
255 255 255
255 255 255
255 255 255
255 255 255
255 255 255
255 255 255
255 255 255
255 255 255
255 255 255
255 255 255
255 255 255
255 255 255
255 255 255
255 255 255
255 255 255
255 255 255
255 255 255
255 255 255
255 255 255
255 255 255
255 255 255
255 255 255
255 255 255
200 50 50
200 50 50
200 50 50
200 50 50
200 50 50
200 50 50
200 50 50
200 50 50
200 50 50
200 50 50
200 50 50
200 50 50
200 50 50
200 50 50
200 50 50
200 50 50
200 50 50
200 50 50
200 50 50
200 50 50
200 50 50
200 50 50
200 50 50
200 50 50
200 50 50
200 50 50
200 50 50
200 50 50
200 50 50
200 50 50
200 50 50
200 50 50
255 255 255
255 255 255
255 255 255
255 255 255
255 255 255
255 255 255
255 255 255
255 255 255
255 255 255
255 255 255
255 255 255
255 255 255
255 255 255
255 255 255
255 255 255
255 255 255
255 255 255
255 255 255
255 255 255
255 255 255
255 255 255
255 255 255
255 255 255
255 255 255
255 255 255
255 255 255
255 255 255
255 255 255
255 255 255
255 255 255
255 255 255
255 255 255
200 50 50
200 50 50
200 50 50
200 50 50
200 50 50
200 50 50
200 50 50
200 50 50
200 50 50
200 50 50
200 50 50
200 50 50
200 50 50
200 50 50
200 50 50
200 50 50
200 50 50
200 50 50
200 50 50
200 50 50
200 50 50
200 50 50
200 50 50
200 50 50
200 50 50
200 50 50
200 50 50
200 50 50
200 50 50
200 50 50
200 50 50
200 50 50
255 255 255
255 255 255
255 255 255
255 255 255
255 255 255
255 255 255
255 255 255
255 255 255
255 255 255
255 255 255
255 255 255
255 255 255
255 255 255
255 255 255
255 255 255
255 255 255
255 255 255
255 255 255
255 255 255
255 255 255
255 255 255
255 255 255
255 255 255
255 255 255
255 255 255
255 255 255
255 255 255
255 255 255
255 255 255
255 255 255
255 255 255
255 255 255
200 50 50
200 50 50
200 50 50
200 50 50
200 50 50
200 50 50
200 50 50
200 50 50
200 50 50
200 50 50
200 50 50
200 50 50
200 50 50
200 50 50
200 50 50
200 50 50
200 50 50
200 50 50
200 50 50
200 50 50
200 50 50
200 50 50
200 50 50
200 50 50
200 50 50
200 50 50
200 50 50
200 50 50
200 50 50
200 50 50
200 50 50
200 50 50
255 255 255
255 255 255
255 255 255
255 255 255
255 255 255
255 255 255
255 255 255
255 255 255
255 255 255
255 255 255
255 255 255
255 255 255
255 255 255
255 255 255
255 255 255
255 255 255
255 255 255
255 255 255
255 255 255
255 255 255
255 255 255
255 255 255
255 255 255
255 255 255
255 255 255
255 255 255
255 255 255
255 255 255
255 255 255
255 255 255
255 255 255
255 255 255
200 50 50
200 50 50
200 50 50
200 50 50
200 50 50
200 50 50
200 50 50
200 50 50
200 50 50
200 50 50
200 50 50
200 50 50
200 50 50
200 50 50
200 50 50
200 50 50
200 50 50
200 50 50
200 50 50
200 50 50
200 50 50
200 50 50
200 50 50
200 50 50
200 50 50
200 50 50
200 50 50
200 50 50
200 50 50
200 50 50
200 50 50
200 50 50
255 255 255
255 255 255
255 255 255
255 255 255
255 255 255
255 255 255
255 255 255
255 255 255
255 255 255
255 255 255
255 255 255
255 255 255
255 255 255
255 255 255
255 255 255
255 255 255
255 255 255
255 255 255
255 255 255
255 255 255
255 255 255
255 255 255
255 255 255
255 255 255
255 255 255
255 255 255
255 255 255
255 255 255
255 255 255
255 255 255
255 255 255
255 255 255
200 50 50
200 50 50
200 50 50
200 50 50
200 50 50
200 50 50
200 50 50
200 50 50
200 50 50
200 50 50
200 50 50
200 50 50
200 50 50
200 50 50
200 50 50
200 50 50
200 50 50
200 50 50
200 50 50
200 50 50
200 50 50
200 50 50
200 50 50
200 50 50
200 50 50
200 50 50
200 50 50
200 50 50
200 50 50
200 50 50
200 50 50
200 50 50
255 255 255
255 255 255
255 255 255
255 255 255
255 255 255
255 255 255
255 255 255
255 255 255
255 255 255
255 255 255
255 255 255
255 255 255
255 255 255
255 255 255
255 255 255
255 255 255
255 255 255
255 255 255
255 255 255
255 255 255
255 255 255
255 255 255
255 255 255
255 255 255
255 255 255
255 255 255
255 255 255
255 255 255
255 255 255
255 255 255
255 255 255
255 255 255
200 50 50
200 50 50
200 50 50
200 50 50
200 50 50
200 50 50
200 50 50
200 50 50
200 50 50
200 50 50
200 50 50
200 50 50
200 50 50
200 50 50
200 50 50
200 50 50
200 50 50
200 50 50
200 50 50
200 50 50
200 50 50
200 50 50
200 50 50
200 50 50
200 50 50
200 50 50
200 50 50
200 50 50
200 50 50
200 50 50
200 50 50
200 50 50
255 255 255
255 255 255
255 255 255
255 255 255
255 255 255
255 255 255
255 255 255
255 255 255
255 255 255
255 255 255
255 255 255
255 255 255
255 255 255
255 255 255
255 255 255
255 255 255
255 255 255
255 255 255
255 255 255
255 255 255
255 255 255
255 255 255
255 255 255
255 255 255
255 255 255
255 255 255
255 255 255
255 255 255
255 255 255
255 255 255
255 255 255
255 255 255
200 50 50
200 50 50
200 50 50
200 50 50
200 50 50
200 50 50
200 50 50
200 50 50
200 50 50
200 50 50
200 50 50
200 50 50
200 50 50
200 50 50
200 50 50
200 50 50
200 50 50
200 50 50
200 50 50
200 50 50
200 50 50
200 50 50
200 50 50
200 50 50
200 50 50
200 50 50
200 50 50
200 50 50
200 50 50
200 50 50
200 50 50
200 50 50
255 255 255
255 255 255
255 255 255
255 255 255
255 255 255
255 255 255
255 255 255
255 255 255
255 255 255
255 255 255
255 255 255
255 255 255
255 255 255
255 255 255
255 255 255
255 255 255
255 255 255
255 255 255
255 255 255
255 255 255
255 255 255
255 255 255
255 255 255
255 255 255
255 255 255
255 255 255
255 255 255
255 255 255
255 255 255
255 255 255
255 255 255
255 255 255
200 50 50
200 50 50
200 50 50
200 50 50
200 50 50
200 50 50
200 50 50
200 50 50
200 50 50
200 50 50
200 50 50
200 50 50
200 50 50
200 50 50
200 50 50
200 50 50
200 50 50
200 50 50
200 50 50
200 50 50
200 50 50
200 50 50
200 50 50
200 50 50
200 50 50
200 50 50
200 50 50
200 50 50
200 50 50
200 50 50
200 50 50
200 50 50
255 255 255
255 255 255
255 255 255
255 255 255
255 255 255
255 255 255
255 255 255
255 255 255
255 255 255
255 255 255
255 255 255
255 255 255
255 255 255
255 255 255
255 255 255
255 255 255
255 255 255
255 255 255
255 255 255
255 255 255
255 255 255
255 255 255
255 255 255
255 255 255
255 255 255
255 255 255
255 255 255
255 255 255
255 255 255
255 255 255
255 255 255
255 255 255
200 50 50
200 50 50
200 50 50
200 50 50
200 50 50
200 50 50
200 50 50
200 50 50
200 50 50
200 50 50
200 50 50
200 50 50
200 50 50
200 50 50
200 50 50
200 50 50
200 50 50
200 50 50
200 50 50
200 50 50
200 50 50
200 50 50
200 50 50
200 50 50
200 50 50
200 50 50
200 50 50
200 50 50
200 50 50
200 50 50
200 50 50
200 50 50
255 255 255
255 255 255
255 255 255
255 255 255
255 255 255
255 255 255
255 255 255
255 255 255
255 255 255
255 255 255
255 255 255
255 255 255
255 255 255
255 255 255
255 255 255
255 255 255
255 255 255
255 255 255
255 255 255
255 255 255
255 255 255
255 255 255
255 255 255
255 255 255
255 255 255
255 255 255
255 255 255
255 255 255
255 255 255
255 255 255
255 255 255
255 255 255
200 50 50
200 50 50
200 50 50
200 50 50
200 50 50
200 50 50
200 50 50
200 50 50
200 50 50
200 50 50
200 50 50
200 50 50
200 50 50
200 50 50
200 50 50
200 50 50
200 50 50
200 50 50
200 50 50
200 50 50
200 50 50
200 50 50
200 50 50
200 50 50
200 50 50
200 50 50
200 50 50
200 50 50
200 50 50
200 50 50
200 50 50
200 50 50
255 255 255
255 255 255
255 255 255
255 255 255
255 255 255
255 255 255
255 255 255
255 255 255
255 255 255
255 255 255
255 255 255
255 255 255
255 255 255
255 255 255
255 255 255
255 255 255
255 255 255
255 255 255
255 255 255
255 255 255
255 255 255
255 255 255
255 255 255
255 255 255
255 255 255
255 255 255
255 255 255
255 255 255
255 255 255
255 255 255
255 255 255
255 255 255
200 50 50
200 50 50
200 50 50
200 50 50
200 50 50
200 50 50
200 50 50
200 50 50
200 50 50
200 50 50
200 50 50
200 50 50
200 50 50
200 50 50
200 50 50
200 50 50
200 50 50
200 50 50
200 50 50
200 50 50
200 50 50
200 50 50
200 50 50
200 50 50
200 50 50
200 50 50
200 50 50
200 50 50
200 50 50
200 50 50
200 50 50
200 50 50
255 255 255
255 255 255
255 255 255
255 255 255
255 255 255
255 255 255
255 255 255
255 255 255
255 255 255
255 255 255
255 255 255
255 255 255
255 255 255
255 255 255
255 255 255
255 255 255
255 255 255
255 255 255
255 255 255
255 255 255
255 255 255
255 255 255
255 255 255
255 255 255
255 255 255
255 255 255
255 255 255
255 255 255
255 255 255
255 255 255
255 255 255
255 255 255
200 50 50
200 50 50
200 50 50
200 50 50
200 50 50
200 50 50
200 50 50
200 50 50
200 50 50
200 50 50
200 50 50
200 50 50
200 50 50
200 50 50
200 50 50
200 50 50
200 50 50
200 50 50
200 50 50
200 50 50
200 50 50
200 50 50
200 50 50
200 50 50
200 50 50
200 50 50
200 50 50
200 50 50
200 50 50
200 50 50
200 50 50
200 50 50
255 255 255
255 255 255
255 255 255
255 255 255
255 255 255
255 255 255
255 255 255
255 255 255
255 255 255
255 255 255
255 255 255
255 255 255
255 255 255
255 255 255
255 255 255
255 255 255
255 255 255
255 255 255
255 255 255
255 255 255
255 255 255
255 255 255
255 255 255
255 255 255
255 255 255
255 255 255
255 255 255
255 255 255
255 255 255
255 255 255
255 255 255
255 255 255
200 50 50
200 50 50
200 50 50
200 50 50
200 50 50
200 50 50
200 50 50
200 50 50
200 50 50
200 50 50
200 50 50
200 50 50
200 50 50
200 50 50
200 50 50
200 50 50
200 50 50
200 50 50
200 50 50
200 50 50
200 50 50
200 50 50
200 50 50
200 50 50
200 50 50
200 50 50
200 50 50
200 50 50
200 50 50
200 50 50
200 50 50
200 50 50
255 255 255
255 255 255
255 255 255
255 255 255
255 255 255
255 255 255
255 255 255
255 255 255
255 255 255
255 255 255
255 255 255
255 255 255
255 255 255
255 255 255
255 255 255
255 255 255
255 255 255
255 255 255
255 255 255
255 255 255
255 255 255
255 255 255
255 255 255
255 255 255
255 255 255
255 255 255
255 255 255
255 255 255
255 255 255
255 255 255
255 255 255
255 255 255
200 50 50
200 50 50
200 50 50
200 50 50
200 50 50
200 50 50
200 50 50
200 50 50
200 50 50
200 50 50
200 50 50
200 50 50
200 50 50
200 50 50
200 50 50
200 50 50
200 50 50
200 50 50
200 50 50
200 50 50
200 50 50
200 50 50
200 50 50
200 50 50
200 50 50
200 50 50
200 50 50
200 50 50
200 50 50
200 50 50
200 50 50
200 50 50
255 255 255
255 255 255
255 255 255
255 255 255
255 255 255
255 255 255
255 255 255
255 255 255
255 255 255
255 255 255
255 255 255
255 255 255
255 255 255
255 255 255
255 255 255
255 255 255
255 255 255
255 255 255
255 255 255
255 255 255
255 255 255
255 255 255
255 255 255
255 255 255
255 255 255
255 255 255
255 255 255
255 255 255
255 255 255
255 255 255
255 255 255
255 255 255
200 50 50
200 50 50
200 50 50
200 50 50
200 50 50
200 50 50
200 50 50
200 50 50
200 50 50
200 50 50
200 50 50
200 50 50
200 50 50
200 50 50
200 50 50
200 50 50
200 50 50
200 50 50
200 50 50
200 50 50
200 50 50
200 50 50
200 50 50
200 50 50
200 50 50
200 50 50
200 50 50
200 50 50
200 50 50
200 50 50
200 50 50
200 50 50
255 255 255
255 255 255
255 255 255
255 255 255
255 255 255
255 255 255
255 255 255
255 255 255
255 255 255
255 255 255
255 255 255
255 255 255
255 255 255
255 255 255
255 255 255
255 255 255
255 255 255
255 255 255
255 255 255
255 255 255
255 255 255
255 255 255
255 255 255
255 255 255
255 255 255
255 255 255
255 255 255
255 255 255
255 255 255
255 255 255
255 255 255
255 255 255
200 50 50
200 50 50
200 50 50
200 50 50
200 50 50
200 50 50
200 50 50
200 50 50
200 50 50
200 50 50
200 50 50
200 50 50
200 50 50
200 50 50
200 50 50
200 50 50
200 50 50
200 50 50
200 50 50
200 50 50
200 50 50
200 50 50
200 50 50
200 50 50
200 50 50
200 50 50
200 50 50
200 50 50
200 50 50
200 50 50
200 50 50
200 50 50
255 255 255
255 255 255
255 255 255
255 255 255
255 255 255
255 255 255
255 255 255
255 255 255
255 255 255
255 255 255
255 255 255
255 255 255
255 255 255
255 255 255
255 255 255
255 255 255
255 255 255
255 255 255
255 255 255
255 255 255
255 255 255
255 255 255
255 255 255
255 255 255
255 255 255
255 255 255
255 255 255
255 255 255
255 255 255
255 255 255
255 255 255
255 255 255
200 50 50
200 50 50
200 50 50
200 50 50
200 50 50
200 50 50
200 50 50
200 50 50
200 50 50
200 50 50
200 50 50
200 50 50
200 50 50
200 50 50
200 50 50
200 50 50
200 50 50
200 50 50
200 50 50
200 50 50
200 50 50
200 50 50
200 50 50
200 50 50
200 50 50
200 50 50
200 50 50
200 50 50
200 50 50
200 50 50
200 50 50
200 50 50
255 255 255
255 255 255
255 255 255
255 255 255
255 255 255
255 255 255
255 255 255
255 255 255
255 255 255
255 255 255
255 255 255
255 255 255
255 255 255
255 255 255
255 255 255
255 255 255
255 255 255
255 255 255
255 255 255
255 255 255
255 255 255
255 255 255
255 255 255
255 255 255
255 255 255
255 255 255
255 255 255
255 255 255
255 255 255
255 255 255
255 255 255
255 255 255
200 50 50
200 50 50
200 50 50
200 50 50
200 50 50
200 50 50
200 50 50
200 50 50
200 50 50
200 50 50
200 50 50
200 50 50
200 50 50
200 50 50
200 50 50
200 50 50
200 50 50
200 50 50
200 50 50
200 50 50
200 50 50
200 50 50
200 50 50
200 50 50
200 50 50
200 50 50
200 50 50
200 50 50
200 50 50
200 50 50
200 50 50
200 50 50
255 255 255
255 255 255
255 255 255
255 255 255
255 255 255
255 255 255
255 255 255
255 255 255
255 255 255
255 255 255
255 255 255
255 255 255
255 255 255
255 255 255
255 255 255
255 255 255
255 255 255
255 255 255
255 255 255
255 255 255
255 255 255
255 255 255
255 255 255
255 255 255
255 255 255
255 255 255
255 255 255
255 255 255
255 255 255
255 255 255
255 255 255
255 255 255
200 50 50
200 50 50
200 50 50
200 50 50
200 50 50
200 50 50
200 50 50
200 50 50
200 50 50
200 50 50
200 50 50
200 50 50
200 50 50
200 50 50
200 50 50
200 50 50
200 50 50
200 50 50
200 50 50
200 50 50
200 50 50
200 50 50
200 50 50
200 50 50
200 50 50
200 50 50
200 50 50
200 50 50
200 50 50
200 50 50
200 50 50
200 50 50
255 255 255
255 255 255
255 255 255
255 255 255
255 255 255
255 255 255
255 255 255
255 255 255
255 255 255
255 255 255
255 255 255
255 255 255
255 255 255
255 255 255
255 255 255
255 255 255
255 255 255
255 255 255
255 255 255
255 255 255
255 255 255
255 255 255
255 255 255
255 255 255
255 255 255
255 255 255
255 255 255
255 255 255
255 255 255
255 255 255
255 255 255
255 255 255
200 50 50
200 50 50
200 50 50
200 50 50
200 50 50
200 50 50
200 50 50
200 50 50
200 50 50
200 50 50
200 50 50
200 50 50
200 50 50
200 50 50
200 50 50
200 50 50
200 50 50
200 50 50
200 50 50
200 50 50
200 50 50
200 50 50
200 50 50
200 50 50
200 50 50
200 50 50
200 50 50
200 50 50
200 50 50
200 50 50
200 50 50
200 50 50
255 255 255
255 255 255
255 255 255
255 255 255
255 255 255
255 255 255
255 255 255
255 255 255
255 255 255
255 255 255
255 255 255
255 255 255
255 255 255
255 255 255
255 255 255
255 255 255
255 255 255
255 255 255
255 255 255
255 255 255
255 255 255
255 255 255
255 255 255
255 255 255
255 255 255
255 255 255
255 255 255
255 255 255
255 255 255
255 255 255
255 255 255
255 255 255
200 50 50
200 50 50
200 50 50
200 50 50
200 50 50
200 50 50
200 50 50
200 50 50
200 50 50
200 50 50
200 50 50
200 50 50
200 50 50
200 50 50
200 50 50
200 50 50
200 50 50
200 50 50
200 50 50
200 50 50
200 50 50
200 50 50
200 50 50
200 50 50
200 50 50
200 50 50
200 50 50
200 50 50
200 50 50
200 50 50
200 50 50
200 50 50
255 255 255
255 255 255
255 255 255
255 255 255
255 255 255
255 255 255
255 255 255
255 255 255
255 255 255
255 255 255
255 255 255
255 255 255
255 255 255
255 255 255
255 255 255
255 255 255
255 255 255
255 255 255
255 255 255
255 255 255
255 255 255
255 255 255
255 255 255
255 255 255
255 255 255
255 255 255
255 255 255
255 255 255
255 255 255
255 255 255
255 255 255
255 255 255
200 50 50
200 50 50
200 50 50
200 50 50
200 50 50
200 50 50
200 50 50
200 50 50
200 50 50
200 50 50
200 50 50
200 50 50
200 50 50
200 50 50
200 50 50
200 50 50
200 50 50
200 50 50
200 50 50
200 50 50
200 50 50
200 50 50
200 50 50
200 50 50
200 50 50
200 50 50
200 50 50
200 50 50
200 50 50
200 50 50
200 50 50
200 50 50
255 255 255
255 255 255
255 255 255
255 255 255
255 255 255
255 255 255
255 255 255
255 255 255
255 255 255
255 255 255
255 255 255
255 255 255
255 255 255
255 255 255
255 255 255
255 255 255
255 255 255
255 255 255
255 255 255
255 255 255
255 255 255
255 255 255
255 255 255
255 255 255
255 255 255
255 255 255
255 255 255
255 255 255
255 255 255
255 255 255
255 255 255
255 255 255
200 50 50
200 50 50
200 50 50
200 50 50
200 50 50
200 50 50
200 50 50
200 50 50
200 50 50
200 50 50
200 50 50
200 50 50
200 50 50
200 50 50
200 50 50
200 50 50
200 50 50
200 50 50
200 50 50
200 50 50
200 50 50
200 50 50
200 50 50
200 50 50
200 50 50
200 50 50
200 50 50
200 50 50
200 50 50
200 50 50
200 50 50
200 50 50
255 255 255
255 255 255
255 255 255
255 255 255
255 255 255
255 255 255
255 255 255
255 255 255
255 255 255
255 255 255
255 255 255
255 255 255
255 255 255
255 255 255
255 255 255
255 255 255
255 255 255
255 255 255
255 255 255
255 255 255
255 255 255
255 255 255
255 255 255
255 255 255
255 255 255
255 255 255
255 255 255
255 255 255
255 255 255
255 255 255
255 255 255
255 255 255
255 255 255
255 255 255
255 255 255
255 255 255
255 255 255
255 255 255
255 255 255
255 255 255
255 255 255
255 255 255
255 255 255
255 255 255
255 255 255
255 255 255
255 255 255
255 255 255
255 255 255
255 255 255
255 255 255
255 255 255
255 255 255
255 255 255
255 255 255
255 255 255
255 255 255
255 255 255
255 255 255
255 255 255
255 255 255
255 255 255
255 255 255
255 255 255
200 50 50
200 50 50
200 50 50
200 50 50
200 50 50
200 50 50
200 50 50
200 50 50
200 50 50
200 50 50
200 50 50
200 50 50
200 50 50
200 50 50
200 50 50
200 50 50
200 50 50
200 50 50
200 50 50
200 50 50
200 50 50
200 50 50
200 50 50
200 50 50
200 50 50
200 50 50
200 50 50
200 50 50
200 50 50
200 50 50
200 50 50
200 50 50
255 255 255
255 255 255
255 255 255
255 255 255
255 255 255
255 255 255
255 255 255
255 255 255
255 255 255
255 255 255
255 255 255
255 255 255
255 255 255
255 255 255
255 255 255
255 255 255
255 255 255
255 255 255
255 255 255
255 255 255
255 255 255
255 255 255
255 255 255
255 255 255
255 255 255
255 255 255
255 255 255
255 255 255
255 255 255
255 255 255
255 255 255
255 255 255
200 50 50
200 50 50
200 50 50
200 50 50
200 50 50
200 50 50
200 50 50
200 50 50
200 50 50
200 50 50
200 50 50
200 50 50
200 50 50
200 50 50
200 50 50
200 50 50
200 50 50
200 50 50
200 50 50
200 50 50
200 50 50
200 50 50
200 50 50
200 50 50
200 50 50
200 50 50
200 50 50
200 50 50
200 50 50
200 50 50
200 50 50
200 50 50
255 255 255
255 255 255
255 255 255
255 255 255
255 255 255
255 255 255
255 255 255
255 255 255
255 255 255
255 255 255
255 255 255
255 255 255
255 255 255
255 255 255
255 255 255
255 255 255
255 255 255
255 255 255
255 255 255
255 255 255
255 255 255
255 255 255
255 255 255
255 255 255
255 255 255
255 255 255
255 255 255
255 255 255
255 255 255
255 255 255
255 255 255
255 255 255
200 50 50
200 50 50
200 50 50
200 50 50
200 50 50
200 50 50
200 50 50
200 50 50
200 50 50
200 50 50
200 50 50
200 50 50
200 50 50
200 50 50
200 50 50
200 50 50
200 50 50
200 50 50
200 50 50
200 50 50
200 50 50
200 50 50
200 50 50
200 50 50
200 50 50
200 50 50
200 50 50
200 50 50
200 50 50
200 50 50
200 50 50
200 50 50
255 255 255
255 255 255
255 255 255
255 255 255
255 255 255
255 255 255
255 255 255
255 255 255
255 255 255
255 255 255
255 255 255
255 255 255
255 255 255
255 255 255
255 255 255
255 255 255
255 255 255
255 255 255
255 255 255
255 255 255
255 255 255
255 255 255
255 255 255
255 255 255
255 255 255
255 255 255
255 255 255
255 255 255
255 255 255
255 255 255
255 255 255
255 255 255
200 50 50
200 50 50
200 50 50
200 50 50
200 50 50
200 50 50
200 50 50
200 50 50
200 50 50
200 50 50
200 50 50
200 50 50
200 50 50
200 50 50
200 50 50
200 50 50
200 50 50
200 50 50
200 50 50
200 50 50
200 50 50
200 50 50
200 50 50
200 50 50
200 50 50
200 50 50
200 50 50
200 50 50
200 50 50
200 50 50
200 50 50
200 50 50
255 255 255
255 255 255
255 255 255
255 255 255
255 255 255
255 255 255
255 255 255
255 255 255
255 255 255
255 255 255
255 255 255
255 255 255
255 255 255
255 255 255
255 255 255
255 255 255
255 255 255
255 255 255
255 255 255
255 255 255
255 255 255
255 255 255
255 255 255
255 255 255
255 255 255
255 255 255
255 255 255
255 255 255
255 255 255
255 255 255
255 255 255
255 255 255
200 50 50
200 50 50
200 50 50
200 50 50
200 50 50
200 50 50
200 50 50
200 50 50
200 50 50
200 50 50
200 50 50
200 50 50
200 50 50
200 50 50
200 50 50
200 50 50
200 50 50
200 50 50
200 50 50
200 50 50
200 50 50
200 50 50
200 50 50
200 50 50
200 50 50
200 50 50
200 50 50
200 50 50
200 50 50
200 50 50
200 50 50
200 50 50
255 255 255
255 255 255
255 255 255
255 255 255
255 255 255
255 255 255
255 255 255
255 255 255
255 255 255
255 255 255
255 255 255
255 255 255
255 255 255
255 255 255
255 255 255
255 255 255
255 255 255
255 255 255
255 255 255
255 255 255
255 255 255
255 255 255
255 255 255
255 255 255
255 255 255
255 255 255
255 255 255
255 255 255
255 255 255
255 255 255
255 255 255
255 255 255
200 50 50
200 50 50
200 50 50
200 50 50
200 50 50
200 50 50
200 50 50
200 50 50
200 50 50
200 50 50
200 50 50
200 50 50
200 50 50
200 50 50
200 50 50
200 50 50
200 50 50
200 50 50
200 50 50
200 50 50
200 50 50
200 50 50
200 50 50
200 50 50
200 50 50
200 50 50
200 50 50
200 50 50
200 50 50
200 50 50
200 50 50
200 50 50
255 255 255
255 255 255
255 255 255
255 255 255
255 255 255
255 255 255
255 255 255
255 255 255
255 255 255
255 255 255
255 255 255
255 255 255
255 255 255
255 255 255
255 255 255
255 255 255
255 255 255
255 255 255
255 255 255
255 255 255
255 255 255
255 255 255
255 255 255
255 255 255
255 255 255
255 255 255
255 255 255
255 255 255
255 255 255
255 255 255
255 255 255
255 255 255
200 50 50
200 50 50
200 50 50
200 50 50
200 50 50
200 50 50
200 50 50
200 50 50
200 50 50
200 50 50
200 50 50
200 50 50
200 50 50
200 50 50
200 50 50
200 50 50
200 50 50
200 50 50
200 50 50
200 50 50
200 50 50
200 50 50
200 50 50
200 50 50
200 50 50
200 50 50
200 50 50
200 50 50
200 50 50
200 50 50
200 50 50
200 50 50
255 255 255
255 255 255
255 255 255
255 255 255
255 255 255
255 255 255
255 255 255
255 255 255
255 255 255
255 255 255
255 255 255
255 255 255
255 255 255
255 255 255
255 255 255
255 255 255
255 255 255
255 255 255
255 255 255
255 255 255
255 255 255
255 255 255
255 255 255
255 255 255
255 255 255
255 255 255
255 255 255
255 255 255
255 255 255
255 255 255
255 255 255
255 255 255
200 50 50
200 50 50
200 50 50
200 50 50
200 50 50
200 50 50
200 50 50
200 50 50
200 50 50
200 50 50
200 50 50
200 50 50
200 50 50
200 50 50
200 50 50
200 50 50
200 50 50
200 50 50
200 50 50
200 50 50
200 50 50
200 50 50
200 50 50
200 50 50
200 50 50
200 50 50
200 50 50
200 50 50
200 50 50
200 50 50
200 50 50
200 50 50
255 255 255
255 255 255
255 255 255
255 255 255
255 255 255
255 255 255
255 255 255
255 255 255
255 255 255
255 255 255
255 255 255
255 255 255
255 255 255
255 255 255
255 255 255
255 255 255
255 255 255
255 255 255
255 255 255
255 255 255
255 255 255
255 255 255
255 255 255
255 255 255
255 255 255
255 255 255
255 255 255
255 255 255
255 255 255
255 255 255
255 255 255
255 255 255
200 50 50
200 50 50
200 50 50
200 50 50
200 50 50
200 50 50
200 50 50
200 50 50
200 50 50
200 50 50
200 50 50
200 50 50
200 50 50
200 50 50
200 50 50
200 50 50
200 50 50
200 50 50
200 50 50
200 50 50
200 50 50
200 50 50
200 50 50
200 50 50
200 50 50
200 50 50
200 50 50
200 50 50
200 50 50
200 50 50
200 50 50
200 50 50
255 255 255
255 255 255
255 255 255
255 255 255
255 255 255
255 255 255
255 255 255
255 255 255
255 255 255
255 255 255
255 255 255
255 255 255
255 255 255
255 255 255
255 255 255
255 255 255
255 255 255
255 255 255
255 255 255
255 255 255
255 255 255
255 255 255
255 255 255
255 255 255
255 255 255
255 255 255
255 255 255
255 255 255
255 255 255
255 255 255
255 255 255
255 255 255
200 50 50
200 50 50
200 50 50
200 50 50
200 50 50
200 50 50
200 50 50
200 50 50
200 50 50
200 50 50
200 50 50
200 50 50
200 50 50
200 50 50
200 50 50
200 50 50
200 50 50
200 50 50
200 50 50
200 50 50
200 50 50
200 50 50
200 50 50
200 50 50
200 50 50
200 50 50
200 50 50
200 50 50
200 50 50
200 50 50
200 50 50
200 50 50
255 255 255
255 255 255
255 255 255
255 255 255
255 255 255
255 255 255
255 255 255
255 255 255
255 255 255
255 255 255
255 255 255
255 255 255
255 255 255
255 255 255
255 255 255
255 255 255
255 255 255
255 255 255
255 255 255
255 255 255
255 255 255
255 255 255
255 255 255
255 255 255
255 255 255
255 255 255
255 255 255
255 255 255
255 255 255
255 255 255
255 255 255
255 255 255
200 50 50
200 50 50
200 50 50
200 50 50
200 50 50
200 50 50
200 50 50
200 50 50
200 50 50
200 50 50
200 50 50
200 50 50
200 50 50
200 50 50
200 50 50
200 50 50
200 50 50
200 50 50
200 50 50
200 50 50
200 50 50
200 50 50
200 50 50
200 50 50
200 50 50
200 50 50
200 50 50
200 50 50
200 50 50
200 50 50
200 50 50
200 50 50
255 255 255
255 255 255
255 255 255
255 255 255
255 255 255
255 255 255
255 255 255
255 255 255
255 255 255
255 255 255
255 255 255
255 255 255
255 255 255
255 255 255
255 255 255
255 255 255
255 255 255
255 255 255
255 255 255
255 255 255
255 255 255
255 255 255
255 255 255
255 255 255
255 255 255
255 255 255
255 255 255
255 255 255
255 255 255
255 255 255
255 255 255
255 255 255
200 50 50
200 50 50
200 50 50
200 50 50
200 50 50
200 50 50
200 50 50
200 50 50
200 50 50
200 50 50
200 50 50
200 50 50
200 50 50
200 50 50
200 50 50
200 50 50
200 50 50
200 50 50
200 50 50
200 50 50
200 50 50
200 50 50
200 50 50
200 50 50
200 50 50
200 50 50
200 50 50
200 50 50
200 50 50
200 50 50
200 50 50
200 50 50
255 255 255
255 255 255
255 255 255
255 255 255
255 255 255
255 255 255
255 255 255
255 255 255
255 255 255
255 255 255
255 255 255
255 255 255
255 255 255
255 255 255
255 255 255
255 255 255
255 255 255
255 255 255
255 255 255
255 255 255
255 255 255
255 255 255
255 255 255
255 255 255
255 255 255
255 255 255
255 255 255
255 255 255
255 255 255
255 255 255
255 255 255
255 255 255
200 50 50
200 50 50
200 50 50
200 50 50
200 50 50
200 50 50
200 50 50
200 50 50
200 50 50
200 50 50
200 50 50
200 50 50
200 50 50
200 50 50
200 50 50
200 50 50
200 50 50
200 50 50
200 50 50
200 50 50
200 50 50
200 50 50
200 50 50
200 50 50
200 50 50
200 50 50
200 50 50
200 50 50
200 50 50
200 50 50
200 50 50
200 50 50
255 255 255
255 255 255
255 255 255
255 255 255
255 255 255
255 255 255
255 255 255
255 255 255
255 255 255
255 255 255
255 255 255
255 255 255
255 255 255
255 255 255
255 255 255
255 255 255
255 255 255
255 255 255
255 255 255
255 255 255
255 255 255
255 255 255
255 255 255
255 255 255
255 255 255
255 255 255
255 255 255
255 255 255
255 255 255
255 255 255
255 255 255
255 255 255
200 50 50
200 50 50
200 50 50
200 50 50
200 50 50
200 50 50
200 50 50
200 50 50
200 50 50
200 50 50
200 50 50
200 50 50
200 50 50
200 50 50
200 50 50
200 50 50
200 50 50
200 50 50
200 50 50
200 50 50
200 50 50
200 50 50
200 50 50
200 50 50
200 50 50
200 50 50
200 50 50
200 50 50
200 50 50
200 50 50
200 50 50
200 50 50
255 255 255
255 255 255
255 255 255
255 255 255
255 255 255
255 255 255
255 255 255
255 255 255
255 255 255
255 255 255
255 255 255
255 255 255
255 255 255
255 255 255
255 255 255
255 255 255
255 255 255
255 255 255
255 255 255
255 255 255
255 255 255
255 255 255
255 255 255
255 255 255
255 255 255
255 255 255
255 255 255
255 255 255
255 255 255
255 255 255
255 255 255
255 255 255
200 50 50
200 50 50
200 50 50
200 50 50
200 50 50
200 50 50
200 50 50
200 50 50
200 50 50
200 50 50
200 50 50
200 50 50
200 50 50
200 50 50
200 50 50
200 50 50
200 50 50
200 50 50
200 50 50
200 50 50
200 50 50
200 50 50
200 50 50
200 50 50
200 50 50
200 50 50
200 50 50
200 50 50
200 50 50
200 50 50
200 50 50
200 50 50
255 255 255
255 255 255
255 255 255
255 255 255
255 255 255
255 255 255
255 255 255
255 255 255
255 255 255
255 255 255
255 255 255
255 255 255
255 255 255
255 255 255
255 255 255
255 255 255
255 255 255
255 255 255
255 255 255
255 255 255
255 255 255
255 255 255
255 255 255
255 255 255
255 255 255
255 255 255
255 255 255
255 255 255
255 255 255
255 255 255
255 255 255
255 255 255
200 50 50
200 50 50
200 50 50
200 50 50
200 50 50
200 50 50
200 50 50
200 50 50
200 50 50
200 50 50
200 50 50
200 50 50
200 50 50
200 50 50
200 50 50
200 50 50
200 50 50
200 50 50
200 50 50
200 50 50
200 50 50
200 50 50
200 50 50
200 50 50
200 50 50
200 50 50
200 50 50
200 50 50
200 50 50
200 50 50
200 50 50
200 50 50
255 255 255
255 255 255
255 255 255
255 255 255
255 255 255
255 255 255
255 255 255
255 255 255
255 255 255
255 255 255
255 255 255
255 255 255
255 255 255
255 255 255
255 255 255
255 255 255
255 255 255
255 255 255
255 255 255
255 255 255
255 255 255
255 255 255
255 255 255
255 255 255
255 255 255
255 255 255
255 255 255
255 255 255
255 255 255
255 255 255
255 255 255
255 255 255
200 50 50
200 50 50
200 50 50
200 50 50
200 50 50
200 50 50
200 50 50
200 50 50
200 50 50
200 50 50
200 50 50
200 50 50
200 50 50
200 50 50
200 50 50
200 50 50
200 50 50
200 50 50
200 50 50
200 50 50
200 50 50
200 50 50
200 50 50
200 50 50
200 50 50
200 50 50
200 50 50
200 50 50
200 50 50
200 50 50
200 50 50
200 50 50
255 255 255
255 255 255
255 255 255
255 255 255
255 255 255
255 255 255
255 255 255
255 255 255
255 255 255
255 255 255
255 255 255
255 255 255
255 255 255
255 255 255
255 255 255
255 255 255
255 255 255
255 255 255
255 255 255
255 255 255
255 255 255
255 255 255
255 255 255
255 255 255
255 255 255
255 255 255
255 255 255
255 255 255
255 255 255
255 255 255
255 255 255
255 255 255
200 50 50
200 50 50
200 50 50
200 50 50
200 50 50
200 50 50
200 50 50
200 50 50
200 50 50
200 50 50
200 50 50
200 50 50
200 50 50
200 50 50
200 50 50
200 50 50
200 50 50
200 50 50
200 50 50
200 50 50
200 50 50
200 50 50
200 50 50
200 50 50
200 50 50
200 50 50
200 50 50
200 50 50
200 50 50
200 50 50
200 50 50
200 50 50
255 255 255
255 255 255
255 255 255
255 255 255
255 255 255
255 255 255
255 255 255
255 255 255
255 255 255
255 255 255
255 255 255
255 255 255
255 255 255
255 255 255
255 255 255
255 255 255
255 255 255
255 255 255
255 255 255
255 255 255
255 255 255
255 255 255
255 255 255
255 255 255
255 255 255
255 255 255
255 255 255
255 255 255
255 255 255
255 255 255
255 255 255
255 255 255
200 50 50
200 50 50
200 50 50
200 50 50
200 50 50
200 50 50
200 50 50
200 50 50
200 50 50
200 50 50
200 50 50
200 50 50
200 50 50
200 50 50
200 50 50
200 50 50
200 50 50
200 50 50
200 50 50
200 50 50
200 50 50
200 50 50
200 50 50
200 50 50
200 50 50
200 50 50
200 50 50
200 50 50
200 50 50
200 50 50
200 50 50
200 50 50
255 255 255
255 255 255
255 255 255
255 255 255
255 255 255
255 255 255
255 255 255
255 255 255
255 255 255
255 255 255
255 255 255
255 255 255
255 255 255
255 255 255
255 255 255
255 255 255
255 255 255
255 255 255
255 255 255
255 255 255
255 255 255
255 255 255
255 255 255
255 255 255
255 255 255
255 255 255
255 255 255
255 255 255
255 255 255
255 255 255
255 255 255
255 255 255
200 50 50
200 50 50
200 50 50
200 50 50
200 50 50
200 50 50
200 50 50
200 50 50
200 50 50
200 50 50
200 50 50
200 50 50
200 50 50
200 50 50
200 50 50
200 50 50
200 50 50
200 50 50
200 50 50
200 50 50
200 50 50
200 50 50
200 50 50
200 50 50
200 50 50
200 50 50
200 50 50
200 50 50
200 50 50
200 50 50
200 50 50
200 50 50
255 255 255
255 255 255
255 255 255
255 255 255
255 255 255
255 255 255
255 255 255
255 255 255
255 255 255
255 255 255
255 255 255
255 255 255
255 255 255
255 255 255
255 255 255
255 255 255
255 255 255
255 255 255
255 255 255
255 255 255
255 255 255
255 255 255
255 255 255
255 255 255
255 255 255
255 255 255
255 255 255
255 255 255
255 255 255
255 255 255
255 255 255
255 255 255
200 50 50
200 50 50
200 50 50
200 50 50
200 50 50
200 50 50
200 50 50
200 50 50
200 50 50
200 50 50
200 50 50
200 50 50
200 50 50
200 50 50
200 50 50
200 50 50
200 50 50
200 50 50
200 50 50
200 50 50
200 50 50
200 50 50
200 50 50
200 50 50
200 50 50
200 50 50
200 50 50
200 50 50
200 50 50
200 50 50
200 50 50
200 50 50
255 255 255
255 255 255
255 255 255
255 255 255
255 255 255
255 255 255
255 255 255
255 255 255
255 255 255
255 255 255
255 255 255
255 255 255
255 255 255
255 255 255
255 255 255
255 255 255
255 255 255
255 255 255
255 255 255
255 255 255
255 255 255
255 255 255
255 255 255
255 255 255
255 255 255
255 255 255
255 255 255
255 255 255
255 255 255
255 255 255
255 255 255
255 255 255
200 50 50
200 50 50
200 50 50
200 50 50
200 50 50
200 50 50
200 50 50
200 50 50
200 50 50
200 50 50
200 50 50
200 50 50
200 50 50
200 50 50
200 50 50
200 50 50
200 50 50
200 50 50
200 50 50
200 50 50
200 50 50
200 50 50
200 50 50
200 50 50
200 50 50
200 50 50
200 50 50
200 50 50
200 50 50
200 50 50
200 50 50
200 50 50
255 255 255
255 255 255
255 255 255
255 255 255
255 255 255
255 255 255
255 255 255
255 255 255
255 255 255
255 255 255
255 255 255
255 255 255
255 255 255
255 255 255
255 255 255
255 255 255
255 255 255
255 255 255
255 255 255
255 255 255
255 255 255
255 255 255
255 255 255
255 255 255
255 255 255
255 255 255
255 255 255
255 255 255
255 255 255
255 255 255
255 255 255
255 255 255
200 50 50
200 50 50
200 50 50
200 50 50
200 50 50
200 50 50
200 50 50
200 50 50
200 50 50
200 50 50
200 50 50
200 50 50
200 50 50
200 50 50
200 50 50
200 50 50
200 50 50
200 50 50
200 50 50
200 50 50
200 50 50
200 50 50
200 50 50
200 50 50
200 50 50
200 50 50
200 50 50
200 50 50
200 50 50
200 50 50
200 50 50
200 50 50
255 255 255
255 255 255
255 255 255
255 255 255
255 255 255
255 255 255
255 255 255
255 255 255
255 255 255
255 255 255
255 255 255
255 255 255
255 255 255
255 255 255
255 255 255
255 255 255
255 255 255
255 255 255
255 255 255
255 255 255
255 255 255
255 255 255
255 255 255
255 255 255
255 255 255
255 255 255
255 255 255
255 255 255
255 255 255
255 255 255
255 255 255
255 255 255
200 50 50
200 50 50
200 50 50
200 50 50
200 50 50
200 50 50
200 50 50
200 50 50
200 50 50
200 50 50
200 50 50
200 50 50
200 50 50
200 50 50
200 50 50
200 50 50
200 50 50
200 50 50
200 50 50
200 50 50
200 50 50
200 50 50
200 50 50
200 50 50
200 50 50
200 50 50
200 50 50
200 50 50
200 50 50
200 50 50
200 50 50
200 50 50
255 255 255
255 255 255
255 255 255
255 255 255
255 255 255
255 255 255
255 255 255
255 255 255
255 255 255
255 255 255
255 255 255
255 255 255
255 255 255
255 255 255
255 255 255
255 255 255
255 255 255
255 255 255
255 255 255
255 255 255
255 255 255
255 255 255
255 255 255
255 255 255
255 255 255
255 255 255
255 255 255
255 255 255
255 255 255
255 255 255
255 255 255
255 255 255
200 50 50
200 50 50
200 50 50
200 50 50
200 50 50
200 50 50
200 50 50
200 50 50
200 50 50
200 50 50
200 50 50
200 50 50
200 50 50
200 50 50
200 50 50
200 50 50
200 50 50
200 50 50
200 50 50
200 50 50
200 50 50
200 50 50
200 50 50
200 50 50
200 50 50
200 50 50
200 50 50
200 50 50
200 50 50
200 50 50
200 50 50
200 50 50
255 255 255
255 255 255
255 255 255
255 255 255
255 255 255
255 255 255
255 255 255
255 255 255
255 255 255
255 255 255
255 255 255
255 255 255
255 255 255
255 255 255
255 255 255
255 255 255
255 255 255
255 255 255
255 255 255
255 255 255
255 255 255
255 255 255
255 255 255
255 255 255
255 255 255
255 255 255
255 255 255
255 255 255
255 255 255
255 255 255
255 255 255
255 255 255
200 50 50
200 50 50
200 50 50
200 50 50
200 50 50
200 50 50
200 50 50
200 50 50
200 50 50
200 50 50
200 50 50
200 50 50
200 50 50
200 50 50
200 50 50
200 50 50
200 50 50
200 50 50
200 50 50
200 50 50
200 50 50
200 50 50
200 50 50
200 50 50
200 50 50
200 50 50
200 50 50
200 50 50
200 50 50
200 50 50
200 50 50
200 50 50
255 255 255
255 255 255
255 255 255
255 255 255
255 255 255
255 255 255
255 255 255
255 255 255
255 255 255
255 255 255
255 255 255
255 255 255
255 255 255
255 255 255
255 255 255
255 255 255
255 255 255
255 255 255
255 255 255
255 255 255
255 255 255
255 255 255
255 255 255
255 255 255
255 255 255
255 255 255
255 255 255
255 255 255
255 255 255
255 255 255
255 255 255
255 255 255
200 50 50
200 50 50
200 50 50
200 50 50
200 50 50
200 50 50
200 50 50
200 50 50
200 50 50
200 50 50
200 50 50
200 50 50
200 50 50
200 50 50
200 50 50
200 50 50
200 50 50
200 50 50
200 50 50
200 50 50
200 50 50
200 50 50
200 50 50
200 50 50
200 50 50
200 50 50
200 50 50
200 50 50
200 50 50
200 50 50
200 50 50
200 50 50
255 255 255
255 255 255
255 255 255
255 255 255
255 255 255
255 255 255
255 255 255
255 255 255
255 255 255
255 255 255
255 255 255
255 255 255
255 255 255
255 255 255
255 255 255
255 255 255
255 255 255
255 255 255
255 255 255
255 255 255
255 255 255
255 255 255
255 255 255
255 255 255
255 255 255
255 255 255
255 255 255
255 255 255
255 255 255
255 255 255
255 255 255
255 255 255
200 50 50
200 50 50
200 50 50
200 50 50
200 50 50
200 50 50
200 50 50
200 50 50
200 50 50
200 50 50
200 50 50
200 50 50
200 50 50
200 50 50
200 50 50
200 50 50
200 50 50
200 50 50
200 50 50
200 50 50
200 50 50
200 50 50
200 50 50
200 50 50
200 50 50
200 50 50
200 50 50
200 50 50
200 50 50
200 50 50
200 50 50
200 50 50
255 255 255
255 255 255
255 255 255
255 255 255
255 255 255
255 255 255
255 255 255
255 255 255
255 255 255
255 255 255
255 255 255
255 255 255
255 255 255
255 255 255
255 255 255
255 255 255
255 255 255
255 255 255
255 255 255
255 255 255
255 255 255
255 255 255
255 255 255
255 255 255
255 255 255
255 255 255
255 255 255
255 255 255
255 255 255
255 255 255
255 255 255
255 255 255
200 50 50
200 50 50
200 50 50
200 50 50
200 50 50
200 50 50
200 50 50
200 50 50
200 50 50
200 50 50
200 50 50
200 50 50
200 50 50
200 50 50
200 50 50
200 50 50
200 50 50
200 50 50
200 50 50
200 50 50
200 50 50
200 50 50
200 50 50
200 50 50
200 50 50
200 50 50
200 50 50
200 50 50
200 50 50
200 50 50
200 50 50
200 50 50
255 255 255
255 255 255
255 255 255
255 255 255
255 255 255
255 255 255
255 255 255
255 255 255
255 255 255
255 255 255
255 255 255
255 255 255
255 255 255
255 255 255
255 255 255
255 255 255
255 255 255
255 255 255
255 255 255
255 255 255
255 255 255
255 255 255
255 255 255
255 255 255
255 255 255
255 255 255
255 255 255
255 255 255
255 255 255
255 255 255
255 255 255
255 255 255
200 50 50
200 50 50
200 50 50
200 50 50
200 50 50
200 50 50
200 50 50
200 50 50
200 50 50
200 50 50
200 50 50
200 50 50
200 50 50
200 50 50
200 50 50
200 50 50
200 50 50
200 50 50
200 50 50
200 50 50
200 50 50
200 50 50
200 50 50
200 50 50
200 50 50
200 50 50
200 50 50
200 50 50
200 50 50
200 50 50
200 50 50
200 50 50
255 255 255
255 255 255
255 255 255
255 255 255
255 255 255
255 255 255
255 255 255
255 255 255
255 255 255
255 255 255
255 255 255
255 255 255
255 255 255
255 255 255
255 255 255
255 255 255
255 255 255
255 255 255
255 255 255
255 255 255
255 255 255
255 255 255
255 255 255
255 255 255
255 255 255
255 255 255
255 255 255
255 255 255
255 255 255
255 255 255
255 255 255
255 255 255
200 50 50
200 50 50
200 50 50
200 50 50
200 50 50
200 50 50
200 50 50
200 50 50
200 50 50
200 50 50
200 50 50
200 50 50
200 50 50
200 50 50
200 50 50
200 50 50
200 50 50
200 50 50
200 50 50
200 50 50
200 50 50
200 50 50
200 50 50
200 50 50
200 50 50
200 50 50
200 50 50
200 50 50
200 50 50
200 50 50
200 50 50
200 50 50
255 255 255
255 255 255
255 255 255
255 255 255
255 255 255
255 255 255
255 255 255
255 255 255
255 255 255
255 255 255
255 255 255
255 255 255
255 255 255
255 255 255
255 255 255
255 255 255
255 255 255
255 255 255
255 255 255
255 255 255
255 255 255
255 255 255
255 255 255
255 255 255
255 255 255
255 255 255
255 255 255
255 255 255
255 255 255
255 255 255
255 255 255
255 255 255
200 50 50
200 50 50
200 50 50
200 50 50
200 50 50
200 50 50
200 50 50
200 50 50
200 50 50
200 50 50
200 50 50
200 50 50
200 50 50
200 50 50
200 50 50
200 50 50
200 50 50
200 50 50
200 50 50
200 50 50
200 50 50
200 50 50
200 50 50
200 50 50
200 50 50
200 50 50
200 50 50
200 50 50
200 50 50
200 50 50
200 50 50
200 50 50
255 255 255
255 255 255
255 255 255
255 255 255
255 255 255
255 255 255
255 255 255
255 255 255
255 255 255
255 255 255
255 255 255
255 255 255
255 255 255
255 255 255
255 255 255
255 255 255
255 255 255
255 255 255
255 255 255
255 255 255
255 255 255
255 255 255
255 255 255
255 255 255
255 255 255
255 255 255
255 255 255
255 255 255
255 255 255
255 255 255
255 255 255
255 255 255
200 50 50
200 50 50
200 50 50
200 50 50
200 50 50
200 50 50
200 50 50
200 50 50
200 50 50
200 50 50
200 50 50
200 50 50
200 50 50
200 50 50
200 50 50
200 50 50
200 50 50
200 50 50
200 50 50
200 50 50
200 50 50
200 50 50
200 50 50
200 50 50
200 50 50
200 50 50
200 50 50
200 50 50
200 50 50
200 50 50
200 50 50
200 50 50
255 255 255
255 255 255
255 255 255
255 255 255
255 255 255
255 255 255
255 255 255
255 255 255
255 255 255
255 255 255
255 255 255
255 255 255
255 255 255
255 255 255
255 255 255
255 255 255
255 255 255
255 255 255
255 255 255
255 255 255
255 255 255
255 255 255
255 255 255
255 255 255
255 255 255
255 255 255
255 255 255
255 255 255
255 255 255
255 255 255
255 255 255
255 255 255
200 50 50
200 50 50
200 50 50
200 50 50
200 50 50
200 50 50
200 50 50
200 50 50
200 50 50
200 50 50
200 50 50
200 50 50
200 50 50
200 50 50
200 50 50
200 50 50
200 50 50
200 50 50
200 50 50
200 50 50
200 50 50
200 50 50
200 50 50
200 50 50
200 50 50
200 50 50
200 50 50
200 50 50
200 50 50
200 50 50
200 50 50
200 50 50
255 255 255
255 255 255
255 255 255
255 255 255
255 255 255
255 255 255
255 255 255
255 255 255
255 255 255
255 255 255
255 255 255
255 255 255
255 255 255
255 255 255
255 255 255
255 255 255
255 255 255
255 255 255
255 255 255
255 255 255
255 255 255
255 255 255
255 255 255
255 255 255
255 255 255
255 255 255
255 255 255
255 255 255
255 255 255
255 255 255
255 255 255
255 255 255
200 50 50
200 50 50
200 50 50
200 50 50
200 50 50
200 50 50
200 50 50
200 50 50
200 50 50
200 50 50
200 50 50
200 50 50
200 50 50
200 50 50
200 50 50
200 50 50
200 50 50
200 50 50
200 50 50
200 50 50
200 50 50
200 50 50
200 50 50
200 50 50
200 50 50
200 50 50
200 50 50
200 50 50
200 50 50
200 50 50
200 50 50
200 50 50
255 255 255
255 255 255
255 255 255
255 255 255
255 255 255
255 255 255
255 255 255
255 255 255
255 255 255
255 255 255
255 255 255
255 255 255
255 255 255
255 255 255
255 255 255
255 255 255
255 255 255
255 255 255
255 255 255
255 255 255
255 255 255
255 255 255
255 255 255
255 255 255
255 255 255
255 255 255
255 255 255
255 255 255
255 255 255
255 255 255
255 255 255
255 255 255
200 50 50
200 50 50
200 50 50
200 50 50
200 50 50
200 50 50
200 50 50
200 50 50
200 50 50
200 50 50
200 50 50
200 50 50
200 50 50
200 50 50
200 50 50
200 50 50
200 50 50
200 50 50
200 50 50
200 50 50
200 50 50
200 50 50
200 50 50
200 50 50
200 50 50
200 50 50
200 50 50
200 50 50
200 50 50
200 50 50
200 50 50
200 50 50
255 255 255
255 255 255
255 255 255
255 255 255
255 255 255
255 255 255
255 255 255
255 255 255
255 255 255
255 255 255
255 255 255
255 255 255
255 255 255
255 255 255
255 255 255
255 255 255
255 255 255
255 255 255
255 255 255
255 255 255
255 255 255
255 255 255
255 255 255
255 255 255
255 255 255
255 255 255
255 255 255
255 255 255
255 255 255
255 255 255
255 255 255
255 255 255
200 50 50
200 50 50
200 50 50
200 50 50
200 50 50
200 50 50
200 50 50
200 50 50
200 50 50
200 50 50
200 50 50
200 50 50
200 50 50
200 50 50
200 50 50
200 50 50
200 50 50
200 50 50
200 50 50
200 50 50
200 50 50
200 50 50
200 50 50
200 50 50
200 50 50
200 50 50
200 50 50
200 50 50
200 50 50
200 50 50
200 50 50
200 50 50
255 255 255
255 255 255
255 255 255
255 255 255
255 255 255
255 255 255
255 255 255
255 255 255
255 255 255
255 255 255
255 255 255
255 255 255
255 255 255
255 255 255
255 255 255
255 255 255
255 255 255
255 255 255
255 255 255
255 255 255
255 255 255
255 255 255
255 255 255
255 255 255
255 255 255
255 255 255
255 255 255
255 255 255
255 255 255
255 255 255
255 255 255
255 255 255
200 50 50
200 50 50
200 50 50
200 50 50
200 50 50
200 50 50
200 50 50
200 50 50
200 50 50
200 50 50
200 50 50
200 50 50
200 50 50
200 50 50
200 50 50
200 50 50
200 50 50
200 50 50
200 50 50
200 50 50
200 50 50
200 50 50
200 50 50
200 50 50
200 50 50
200 50 50
200 50 50
200 50 50
200 50 50
200 50 50
200 50 50
200 50 50
255 255 255
255 255 255
255 255 255
255 255 255
255 255 255
255 255 255
255 255 255
255 255 255
255 255 255
255 255 255
255 255 255
255 255 255
255 255 255
255 255 255
255 255 255
255 255 255
255 255 255
255 255 255
255 255 255
255 255 255
255 255 255
255 255 255
255 255 255
255 255 255
255 255 255
255 255 255
255 255 255
255 255 255
255 255 255
255 255 255
255 255 255
255 255 255
200 50 50
200 50 50
200 50 50
200 50 50
200 50 50
200 50 50
200 50 50
200 50 50
200 50 50
200 50 50
200 50 50
200 50 50
200 50 50
200 50 50
200 50 50
200 50 50
200 50 50
200 50 50
200 50 50
200 50 50
200 50 50
200 50 50
200 50 50
200 50 50
200 50 50
200 50 50
200 50 50
200 50 50
200 50 50
200 50 50
200 50 50
200 50 50
255 255 255
255 255 255
255 255 255
255 255 255
255 255 255
255 255 255
255 255 255
255 255 255
255 255 255
255 255 255
255 255 255
255 255 255
255 255 255
255 255 255
255 255 255
255 255 255
255 255 255
255 255 255
255 255 255
255 255 255
255 255 255
255 255 255
255 255 255
255 255 255
255 255 255
255 255 255
255 255 255
255 255 255
255 255 255
255 255 255
255 255 255
255 255 255
200 50 50
200 50 50
200 50 50
200 50 50
200 50 50
200 50 50
200 50 50
200 50 50
200 50 50
200 50 50
200 50 50
200 50 50
200 50 50
200 50 50
200 50 50
200 50 50
200 50 50
200 50 50
200 50 50
200 50 50
200 50 50
200 50 50
200 50 50
200 50 50
200 50 50
200 50 50
200 50 50
200 50 50
200 50 50
200 50 50
200 50 50
200 50 50
255 255 255
255 255 255
255 255 255
255 255 255
255 255 255
255 255 255
255 255 255
255 255 255
255 255 255
255 255 255
255 255 255
255 255 255
255 255 255
255 255 255
255 255 255
255 255 255
255 255 255
255 255 255
255 255 255
255 255 255
255 255 255
255 255 255
255 255 255
255 255 255
255 255 255
255 255 255
255 255 255
255 255 255
255 255 255
255 255 255
255 255 255
255 255 255
200 50 50
200 50 50
200 50 50
200 50 50
200 50 50
200 50 50
200 50 50
200 50 50
200 50 50
200 50 50
200 50 50
200 50 50
200 50 50
200 50 50
200 50 50
200 50 50
200 50 50
200 50 50
200 50 50
200 50 50
200 50 50
200 50 50
200 50 50
200 50 50
200 50 50
200 50 50
200 50 50
200 50 50
200 50 50
200 50 50
200 50 50
200 50 50
255 255 255
255 255 255
255 255 255
255 255 255
255 255 255
255 255 255
255 255 255
255 255 255
255 255 255
255 255 255
255 255 255
255 255 255
255 255 255
255 255 255
255 255 255
255 255 255
255 255 255
255 255 255
255 255 255
255 255 255
255 255 255
255 255 255
255 255 255
255 255 255
255 255 255
255 255 255
255 255 255
255 255 255
255 255 255
255 255 255
255 255 255
255 255 255
200 50 50
200 50 50
200 50 50
200 50 50
200 50 50
200 50 50
200 50 50
200 50 50
200 50 50
200 50 50
200 50 50
200 50 50
200 50 50
200 50 50
200 50 50
200 50 50
200 50 50
200 50 50
200 50 50
200 50 50
200 50 50
200 50 50
200 50 50
200 50 50
200 50 50
200 50 50
200 50 50
200 50 50
200 50 50
200 50 50
200 50 50
200 50 50
255 255 255
255 255 255
255 255 255
255 255 255
255 255 255
255 255 255
255 255 255
255 255 255
255 255 255
255 255 255
255 255 255
255 255 255
255 255 255
255 255 255
255 255 255
255 255 255
255 255 255
255 255 255
255 255 255
255 255 255
255 255 255
255 255 255
255 255 255
255 255 255
255 255 255
255 255 255
255 255 255
255 255 255
255 255 255
255 255 255
255 255 255
255 255 255
200 50 50
200 50 50
200 50 50
200 50 50
200 50 50
200 50 50
200 50 50
200 50 50
200 50 50
200 50 50
200 50 50
200 50 50
200 50 50
200 50 50
200 50 50
200 50 50
200 50 50
200 50 50
200 50 50
200 50 50
200 50 50
200 50 50
200 50 50
200 50 50
200 50 50
200 50 50
200 50 50
200 50 50
200 50 50
200 50 50
200 50 50
200 50 50
255 255 255
255 255 255
255 255 255
255 255 255
255 255 255
255 255 255
255 255 255
255 255 255
255 255 255
255 255 255
255 255 255
255 255 255
255 255 255
255 255 255
255 255 255
255 255 255
255 255 255
255 255 255
255 255 255
255 255 255
255 255 255
255 255 255
255 255 255
255 255 255
255 255 255
255 255 255
255 255 255
255 255 255
255 255 255
255 255 255
255 255 255
255 255 255
200 50 50
200 50 50
200 50 50
200 50 50
200 50 50
200 50 50
200 50 50
200 50 50
200 50 50
200 50 50
200 50 50
200 50 50
200 50 50
200 50 50
200 50 50
200 50 50
200 50 50
200 50 50
200 50 50
200 50 50
200 50 50
200 50 50
200 50 50
200 50 50
200 50 50
200 50 50
200 50 50
200 50 50
200 50 50
200 50 50
200 50 50
200 50 50
255 255 255
255 255 255
255 255 255
255 255 255
255 255 255
255 255 255
255 255 255
255 255 255
255 255 255
255 255 255
255 255 255
255 255 255
255 255 255
255 255 255
255 255 255
255 255 255
255 255 255
255 255 255
255 255 255
255 255 255
255 255 255
255 255 255
255 255 255
255 255 255
255 255 255
255 255 255
255 255 255
255 255 255
255 255 255
255 255 255
255 255 255
255 255 255
200 50 50
200 50 50
200 50 50
200 50 50
200 50 50
200 50 50
200 50 50
200 50 50
200 50 50
200 50 50
200 50 50
200 50 50
200 50 50
200 50 50
200 50 50
200 50 50
200 50 50
200 50 50
200 50 50
200 50 50
200 50 50
200 50 50
200 50 50
200 50 50
200 50 50
200 50 50
200 50 50
200 50 50
200 50 50
200 50 50
200 50 50
200 50 50
255 255 255
255 255 255
255 255 255
255 255 255
255 255 255
255 255 255
255 255 255
255 255 255
255 255 255
255 255 255
255 255 255
255 255 255
255 255 255
255 255 255
255 255 255
255 255 255
255 255 255
255 255 255
255 255 255
255 255 255
255 255 255
255 255 255
255 255 255
255 255 255
255 255 255
255 255 255
255 255 255
255 255 255
255 255 255
255 255 255
255 255 255
255 255 255
200 50 50
200 50 50
200 50 50
200 50 50
200 50 50
200 50 50
200 50 50
200 50 50
200 50 50
200 50 50
200 50 50
200 50 50
200 50 50
200 50 50
200 50 50
200 50 50
200 50 50
200 50 50
200 50 50
200 50 50
200 50 50
200 50 50
200 50 50
200 50 50
200 50 50
200 50 50
200 50 50
200 50 50
200 50 50
200 50 50
200 50 50
200 50 50
255 255 255
255 255 255
255 255 255
255 255 255
255 255 255
255 255 255
255 255 255
255 255 255
255 255 255
255 255 255
255 255 255
255 255 255
255 255 255
255 255 255
255 255 255
255 255 255
255 255 255
255 255 255
255 255 255
255 255 255
255 255 255
255 255 255
255 255 255
255 255 255
255 255 255
255 255 255
255 255 255
255 255 255
255 255 255
255 255 255
255 255 255
255 255 255
200 50 50
200 50 50
200 50 50
200 50 50
200 50 50
200 50 50
200 50 50
200 50 50
200 50 50
200 50 50
200 50 50
200 50 50
200 50 50
200 50 50
200 50 50
200 50 50
200 50 50
200 50 50
200 50 50
200 50 50
200 50 50
200 50 50
200 50 50
200 50 50
200 50 50
200 50 50
200 50 50
200 50 50
200 50 50
200 50 50
200 50 50
200 50 50
255 255 255
255 255 255
255 255 255
255 255 255
255 255 255
255 255 255
255 255 255
255 255 255
255 255 255
255 255 255
255 255 255
255 255 255
255 255 255
255 255 255
255 255 255
255 255 255
255 255 255
255 255 255
255 255 255
255 255 255
255 255 255
255 255 255
255 255 255
255 255 255
255 255 255
255 255 255
255 255 255
255 255 255
255 255 255
255 255 255
255 255 255
255 255 255
200 50 50
200 50 50
200 50 50
200 50 50
200 50 50
200 50 50
200 50 50
200 50 50
200 50 50
200 50 50
200 50 50
200 50 50
200 50 50
200 50 50
200 50 50
200 50 50
200 50 50
200 50 50
200 50 50
200 50 50
200 50 50
200 50 50
200 50 50
200 50 50
200 50 50
200 50 50
200 50 50
200 50 50
200 50 50
200 50 50
200 50 50
200 50 50
255 255 255
255 255 255
255 255 255
255 255 255
255 255 255
255 255 255
255 255 255
255 255 255
255 255 255
255 255 255
255 255 255
255 255 255
255 255 255
255 255 255
255 255 255
255 255 255
255 255 255
255 255 255
255 255 255
255 255 255
255 255 255
255 255 255
255 255 255
255 255 255
255 255 255
255 255 255
255 255 255
255 255 255
255 255 255
255 255 255
255 255 255
255 255 255
200 50 50
200 50 50
200 50 50
200 50 50
200 50 50
200 50 50
200 50 50
200 50 50
200 50 50
200 50 50
200 50 50
200 50 50
200 50 50
200 50 50
200 50 50
200 50 50
200 50 50
200 50 50
200 50 50
200 50 50
200 50 50
200 50 50
200 50 50
200 50 50
200 50 50
200 50 50
200 50 50
200 50 50
200 50 50
200 50 50
200 50 50
200 50 50
255 255 255
255 255 255
255 255 255
255 255 255
255 255 255
255 255 255
255 255 255
255 255 255
255 255 255
255 255 255
255 255 255
255 255 255
255 255 255
255 255 255
255 255 255
255 255 255
255 255 255
255 255 255
255 255 255
255 255 255
255 255 255
255 255 255
255 255 255
255 255 255
255 255 255
255 255 255
255 255 255
255 255 255
255 255 255
255 255 255
255 255 255
255 255 255
200 50 50
200 50 50
200 50 50
200 50 50
200 50 50
200 50 50
200 50 50
200 50 50
200 50 50
200 50 50
200 50 50
200 50 50
200 50 50
200 50 50
200 50 50
200 50 50
200 50 50
200 50 50
200 50 50
200 50 50
200 50 50
200 50 50
200 50 50
200 50 50
200 50 50
200 50 50
200 50 50
200 50 50
200 50 50
200 50 50
200 50 50
200 50 50
255 255 255
255 255 255
255 255 255
255 255 255
255 255 255
255 255 255
255 255 255
255 255 255
255 255 255
255 255 255
255 255 255
255 255 255
255 255 255
255 255 255
255 255 255
255 255 255
255 255 255
255 255 255
255 255 255
255 255 255
255 255 255
255 255 255
255 255 255
255 255 255
255 255 255
255 255 255
255 255 255
255 255 255
255 255 255
255 255 255
255 255 255
255 255 255
200 50 50
200 50 50
200 50 50
200 50 50
200 50 50
200 50 50
200 50 50
200 50 50
200 50 50
200 50 50
200 50 50
200 50 50
200 50 50
200 50 50
200 50 50
200 50 50
200 50 50
200 50 50
200 50 50
200 50 50
200 50 50
200 50 50
200 50 50
200 50 50
200 50 50
200 50 50
200 50 50
200 50 50
200 50 50
200 50 50
200 50 50
200 50 50
255 255 255
255 255 255
255 255 255
255 255 255
255 255 255
255 255 255
255 255 255
255 255 255
255 255 255
255 255 255
255 255 255
255 255 255
255 255 255
255 255 255
255 255 255
255 255 255
255 255 255
255 255 255
255 255 255
255 255 255
255 255 255
255 255 255
255 255 255
255 255 255
255 255 255
255 255 255
255 255 255
255 255 255
255 255 255
255 255 255
255 255 255
255 255 255
200 50 50
200 50 50
200 50 50
200 50 50
200 50 50
200 50 50
200 50 50
200 50 50
200 50 50
200 50 50
200 50 50
200 50 50
200 50 50
200 50 50
200 50 50
200 50 50
200 50 50
200 50 50
200 50 50
200 50 50
200 50 50
200 50 50
200 50 50
200 50 50
200 50 50
200 50 50
200 50 50
200 50 50
200 50 50
200 50 50
200 50 50
200 50 50
255 255 255
255 255 255
255 255 255
255 255 255
255 255 255
255 255 255
255 255 255
255 255 255
255 255 255
255 255 255
255 255 255
255 255 255
255 255 255
255 255 255
255 255 255
255 255 255
255 255 255
255 255 255
255 255 255
255 255 255
255 255 255
255 255 255
255 255 255
255 255 255
255 255 255
255 255 255
255 255 255
255 255 255
255 255 255
255 255 255
255 255 255
255 255 255
200 50 50
200 50 50
200 50 50
200 50 50
200 50 50
200 50 50
200 50 50
200 50 50
200 50 50
200 50 50
200 50 50
200 50 50
200 50 50
200 50 50
200 50 50
200 50 50
200 50 50
200 50 50
200 50 50
200 50 50
200 50 50
200 50 50
200 50 50
200 50 50
200 50 50
200 50 50
200 50 50
200 50 50
200 50 50
200 50 50
200 50 50
200 50 50
255 255 255
255 255 255
255 255 255
255 255 255
255 255 255
255 255 255
255 255 255
255 255 255
255 255 255
255 255 255
255 255 255
255 255 255
255 255 255
255 255 255
255 255 255
255 255 255
255 255 255
255 255 255
255 255 255
255 255 255
255 255 255
255 255 255
255 255 255
255 255 255
255 255 255
255 255 255
255 255 255
255 255 255
255 255 255
255 255 255
255 255 255
255 255 255
200 50 50
200 50 50
200 50 50
200 50 50
200 50 50
200 50 50
200 50 50
200 50 50
200 50 50
200 50 50
200 50 50
200 50 50
200 50 50
200 50 50
200 50 50
200 50 50
200 50 50
200 50 50
200 50 50
200 50 50
200 50 50
200 50 50
200 50 50
200 50 50
200 50 50
200 50 50
200 50 50
200 50 50
200 50 50
200 50 50
200 50 50
200 50 50
255 255 255
255 255 255
255 255 255
255 255 255
255 255 255
255 255 255
255 255 255
255 255 255
255 255 255
255 255 255
255 255 255
255 255 255
255 255 255
255 255 255
255 255 255
255 255 255
255 255 255
255 255 255
255 255 255
255 255 255
255 255 255
255 255 255
255 255 255
255 255 255
255 255 255
255 255 255
255 255 255
255 255 255
255 255 255
255 255 255
255 255 255
255 255 255
200 50 50
200 50 50
200 50 50
200 50 50
200 50 50
200 50 50
200 50 50
200 50 50
200 50 50
200 50 50
200 50 50
200 50 50
200 50 50
200 50 50
200 50 50
200 50 50
200 50 50
200 50 50
200 50 50
200 50 50
200 50 50
200 50 50
200 50 50
200 50 50
200 50 50
200 50 50
200 50 50
200 50 50
200 50 50
200 50 50
200 50 50
200 50 50
255 255 255
255 255 255
255 255 255
255 255 255
255 255 255
255 255 255
255 255 255
255 255 255
255 255 255
255 255 255
255 255 255
255 255 255
255 255 255
255 255 255
255 255 255
255 255 255
255 255 255
255 255 255
255 255 255
255 255 255
255 255 255
255 255 255
255 255 255
255 255 255
255 255 255
255 255 255
255 255 255
255 255 255
255 255 255
255 255 255
255 255 255
255 255 255
200 50 50
200 50 50
200 50 50
200 50 50
200 50 50
200 50 50
200 50 50
200 50 50
200 50 50
200 50 50
200 50 50
200 50 50
200 50 50
200 50 50
200 50 50
200 50 50
200 50 50
200 50 50
200 50 50
200 50 50
200 50 50
200 50 50
200 50 50
200 50 50
200 50 50
200 50 50
200 50 50
200 50 50
200 50 50
200 50 50
200 50 50
200 50 50
255 255 255
255 255 255
255 255 255
255 255 255
255 255 255
255 255 255
255 255 255
255 255 255
255 255 255
255 255 255
255 255 255
255 255 255
255 255 255
255 255 255
255 255 255
255 255 255
255 255 255
255 255 255
255 255 255
255 255 255
255 255 255
255 255 255
255 255 255
255 255 255
255 255 255
255 255 255
255 255 255
255 255 255
255 255 255
255 255 255
255 255 255
255 255 255
200 50 50
200 50 50
200 50 50
200 50 50
200 50 50
200 50 50
200 50 50
200 50 50
200 50 50
200 50 50
200 50 50
200 50 50
200 50 50
200 50 50
200 50 50
200 50 50
200 50 50
200 50 50
200 50 50
200 50 50
200 50 50
200 50 50
200 50 50
200 50 50
200 50 50
200 50 50
200 50 50
200 50 50
200 50 50
200 50 50
200 50 50
200 50 50
255 255 255
255 255 255
255 255 255
255 255 255
255 255 255
255 255 255
255 255 255
255 255 255
255 255 255
255 255 255
255 255 255
255 255 255
255 255 255
255 255 255
255 255 255
255 255 255
255 255 255
255 255 255
255 255 255
255 255 255
255 255 255
255 255 255
255 255 255
255 255 255
255 255 255
255 255 255
255 255 255
255 255 255
255 255 255
255 255 255
255 255 255
255 255 255
200 50 50
200 50 50
200 50 50
200 50 50
200 50 50
200 50 50
200 50 50
200 50 50
200 50 50
200 50 50
200 50 50
200 50 50
200 50 50
200 50 50
200 50 50
200 50 50
200 50 50
200 50 50
200 50 50
200 50 50
200 50 50
200 50 50
200 50 50
200 50 50
200 50 50
200 50 50
200 50 50
200 50 50
200 50 50
200 50 50
200 50 50
200 50 50
255 255 255
255 255 255
255 255 255
255 255 255
255 255 255
255 255 255
255 255 255
255 255 255
255 255 255
255 255 255
255 255 255
255 255 255
255 255 255
255 255 255
255 255 255
255 255 255
255 255 255
255 255 255
255 255 255
255 255 255
255 255 255
255 255 255
255 255 255
255 255 255
255 255 255
255 255 255
255 255 255
255 255 255
255 255 255
255 255 255
255 255 255
255 255 255
200 50 50
200 50 50
200 50 50
200 50 50
200 50 50
200 50 50
200 50 50
200 50 50
200 50 50
200 50 50
200 50 50
200 50 50
200 50 50
200 50 50
200 50 50
200 50 50
200 50 50
200 50 50
200 50 50
200 50 50
200 50 50
200 50 50
200 50 50
200 50 50
200 50 50
200 50 50
200 50 50
200 50 50
200 50 50
200 50 50
200 50 50
200 50 50
255 255 255
255 255 255
255 255 255
255 255 255
255 255 255
255 255 255
255 255 255
255 255 255
255 255 255
255 255 255
255 255 255
255 255 255
255 255 255
255 255 255
255 255 255
255 255 255
255 255 255
255 255 255
255 255 255
255 255 255
255 255 255
255 255 255
255 255 255
255 255 255
255 255 255
255 255 255
255 255 255
255 255 255
255 255 255
255 255 255
255 255 255
255 255 255
200 50 50
200 50 50
200 50 50
200 50 50
200 50 50
200 50 50
200 50 50
200 50 50
200 50 50
200 50 50
200 50 50
200 50 50
200 50 50
200 50 50
200 50 50
200 50 50
200 50 50
200 50 50
200 50 50
200 50 50
200 50 50
200 50 50
200 50 50
200 50 50
200 50 50
200 50 50
200 50 50
200 50 50
200 50 50
200 50 50
200 50 50
200 50 50
255 255 255
255 255 255
255 255 255
255 255 255
255 255 255
255 255 255
255 255 255
255 255 255
255 255 255
255 255 255
255 255 255
255 255 255
255 255 255
255 255 255
255 255 255
255 255 255
255 255 255
255 255 255
255 255 255
255 255 255
255 255 255
255 255 255
255 255 255
255 255 255
255 255 255
255 255 255
255 255 255
255 255 255
255 255 255
255 255 255
255 255 255
255 255 255
200 50 50
200 50 50
200 50 50
200 50 50
200 50 50
200 50 50
200 50 50
200 50 50
200 50 50
200 50 50
200 50 50
200 50 50
200 50 50
200 50 50
200 50 50
200 50 50
200 50 50
200 50 50
200 50 50
200 50 50
200 50 50
200 50 50
200 50 50
200 50 50
200 50 50
200 50 50
200 50 50
200 50 50
200 50 50
200 50 50
200 50 50
200 50 50
255 255 255
255 255 255
255 255 255
255 255 255
255 255 255
255 255 255
255 255 255
255 255 255
255 255 255
255 255 255
255 255 255
255 255 255
255 255 255
255 255 255
255 255 255
255 255 255
255 255 255
255 255 255
255 255 255
255 255 255
255 255 255
255 255 255
255 255 255
255 255 255
255 255 255
255 255 255
255 255 255
255 255 255
255 255 255
255 255 255
255 255 255
255 255 255
200 50 50
200 50 50
200 50 50
200 50 50
200 50 50
200 50 50
200 50 50
200 50 50
200 50 50
200 50 50
200 50 50
200 50 50
200 50 50
200 50 50
200 50 50
200 50 50
200 50 50
200 50 50
200 50 50
200 50 50
200 50 50
200 50 50
200 50 50
200 50 50
200 50 50
200 50 50
200 50 50
200 50 50
200 50 50
200 50 50
200 50 50
200 50 50
255 255 255
255 255 255
255 255 255
255 255 255
255 255 255
255 255 255
255 255 255
255 255 255
255 255 255
255 255 255
255 255 255
255 255 255
255 255 255
255 255 255
255 255 255
255 255 255
255 255 255
255 255 255
255 255 255
255 255 255
255 255 255
255 255 255
255 255 255
255 255 255
255 255 255
255 255 255
255 255 255
255 255 255
255 255 255
255 255 255
255 255 255
255 255 255
200 50 50
200 50 50
200 50 50
200 50 50
200 50 50
200 50 50
200 50 50
200 50 50
200 50 50
200 50 50
200 50 50
200 50 50
200 50 50
200 50 50
200 50 50
200 50 50
200 50 50
200 50 50
200 50 50
200 50 50
200 50 50
200 50 50
200 50 50
200 50 50
200 50 50
200 50 50
200 50 50
200 50 50
200 50 50
200 50 50
200 50 50
200 50 50
255 255 255
255 255 255
255 255 255
255 255 255
255 255 255
255 255 255
255 255 255
255 255 255
255 255 255
255 255 255
255 255 255
255 255 255
255 255 255
255 255 255
255 255 255
255 255 255
255 255 255
255 255 255
255 255 255
255 255 255
255 255 255
255 255 255
255 255 255
255 255 255
255 255 255
255 255 255
255 255 255
255 255 255
255 255 255
255 255 255
255 255 255
255 255 255
200 50 50
200 50 50
200 50 50
200 50 50
200 50 50
200 50 50
200 50 50
200 50 50
200 50 50
200 50 50
200 50 50
200 50 50
200 50 50
200 50 50
200 50 50
200 50 50
200 50 50
200 50 50
200 50 50
200 50 50
200 50 50
200 50 50
200 50 50
200 50 50
200 50 50
200 50 50
200 50 50
200 50 50
200 50 50
200 50 50
200 50 50
200 50 50
255 255 255
255 255 255
255 255 255
255 255 255
255 255 255
255 255 255
255 255 255
255 255 255
255 255 255
255 255 255
255 255 255
255 255 255
255 255 255
255 255 255
255 255 255
255 255 255
255 255 255
255 255 255
255 255 255
255 255 255
255 255 255
255 255 255
255 255 255
255 255 255
255 255 255
255 255 255
255 255 255
255 255 255
255 255 255
255 255 255
255 255 255
255 255 255
200 50 50
200 50 50
200 50 50
200 50 50
200 50 50
200 50 50
200 50 50
200 50 50
200 50 50
200 50 50
200 50 50
200 50 50
200 50 50
200 50 50
200 50 50
200 50 50
200 50 50
200 50 50
200 50 50
200 50 50
200 50 50
200 50 50
200 50 50
200 50 50
200 50 50
200 50 50
200 50 50
200 50 50
200 50 50
200 50 50
200 50 50
200 50 50
255 255 255
255 255 255
255 255 255
255 255 255
255 255 255
255 255 255
255 255 255
255 255 255
255 255 255
255 255 255
255 255 255
255 255 255
255 255 255
255 255 255
255 255 255
255 255 255
255 255 255
255 255 255
255 255 255
255 255 255
255 255 255
255 255 255
255 255 255
255 255 255
255 255 255
255 255 255
255 255 255
255 255 255
255 255 255
255 255 255
255 255 255
255 255 255
200 50 50
200 50 50
200 50 50
200 50 50
200 50 50
200 50 50
200 50 50
200 50 50
200 50 50
200 50 50
200 50 50
200 50 50
200 50 50
200 50 50
200 50 50
200 50 50
200 50 50
200 50 50
200 50 50
200 50 50
200 50 50
200 50 50
200 50 50
200 50 50
200 50 50
200 50 50
200 50 50
200 50 50
200 50 50
200 50 50
200 50 50
200 50 50
255 255 255
255 255 255
255 255 255
255 255 255
255 255 255
255 255 255
255 255 255
255 255 255
255 255 255
255 255 255
255 255 255
255 255 255
255 255 255
255 255 255
255 255 255
255 255 255
255 255 255
255 255 255
255 255 255
255 255 255
255 255 255
255 255 255
255 255 255
255 255 255
255 255 255
255 255 255
255 255 255
255 255 255
255 255 255
255 255 255
255 255 255
255 255 255
200 50 50
200 50 50
200 50 50
200 50 50
200 50 50
200 50 50
200 50 50
200 50 50
200 50 50
200 50 50
200 50 50
200 50 50
200 50 50
200 50 50
200 50 50
200 50 50
200 50 50
200 50 50
200 50 50
200 50 50
200 50 50
200 50 50
200 50 50
200 50 50
200 50 50
200 50 50
200 50 50
200 50 50
200 50 50
200 50 50
200 50 50
200 50 50
255 255 255
255 255 255
255 255 255
255 255 255
255 255 255
255 255 255
255 255 255
255 255 255
255 255 255
255 255 255
255 255 255
255 255 255
255 255 255
255 255 255
255 255 255
255 255 255
255 255 255
255 255 255
255 255 255
255 255 255
255 255 255
255 255 255
255 255 255
255 255 255
255 255 255
255 255 255
255 255 255
255 255 255
255 255 255
255 255 255
255 255 255
255 255 255
200 50 50
200 50 50
200 50 50
200 50 50
200 50 50
200 50 50
200 50 50
200 50 50
200 50 50
200 50 50
200 50 50
200 50 50
200 50 50
200 50 50
200 50 50
200 50 50
200 50 50
200 50 50
200 50 50
200 50 50
200 50 50
200 50 50
200 50 50
200 50 50
200 50 50
200 50 50
200 50 50
200 50 50
200 50 50
200 50 50
200 50 50
200 50 50
255 255 255
255 255 255
255 255 255
255 255 255
255 255 255
255 255 255
255 255 255
255 255 255
255 255 255
255 255 255
255 255 255
255 255 255
255 255 255
255 255 255
255 255 255
255 255 255
255 255 255
255 255 255
255 255 255
255 255 255
255 255 255
255 255 255
255 255 255
255 255 255
255 255 255
255 255 255
255 255 255
255 255 255
255 255 255
255 255 255
255 255 255
255 255 255
200 50 50
200 50 50
200 50 50
200 50 50
200 50 50
200 50 50
200 50 50
200 50 50
200 50 50
200 50 50
200 50 50
200 50 50
200 50 50
200 50 50
200 50 50
200 50 50
200 50 50
200 50 50
200 50 50
200 50 50
200 50 50
200 50 50
200 50 50
200 50 50
200 50 50
200 50 50
200 50 50
200 50 50
200 50 50
200 50 50
200 50 50
200 50 50
255 255 255
255 255 255
255 255 255
255 255 255
255 255 255
255 255 255
255 255 255
255 255 255
255 255 255
255 255 255
255 255 255
255 255 255
255 255 255
255 255 255
255 255 255
255 255 255
255 255 255
255 255 255
255 255 255
255 255 255
255 255 255
255 255 255
255 255 255
255 255 255
255 255 255
255 255 255
255 255 255
255 255 255
255 255 255
255 255 255
255 255 255
255 255 255
200 50 50
200 50 50
200 50 50
200 50 50
200 50 50
200 50 50
200 50 50
200 50 50
200 50 50
200 50 50
200 50 50
200 50 50
200 50 50
200 50 50
200 50 50
200 50 50
200 50 50
200 50 50
200 50 50
200 50 50
200 50 50
200 50 50
200 50 50
200 50 50
200 50 50
200 50 50
200 50 50
200 50 50
200 50 50
200 50 50
200 50 50
200 50 50
255 255 255
255 255 255
255 255 255
255 255 255
255 255 255
255 255 255
255 255 255
255 255 255
255 255 255
255 255 255
255 255 255
255 255 255
255 255 255
255 255 255
255 255 255
255 255 255
255 255 255
255 255 255
255 255 255
255 255 255
255 255 255
255 255 255
255 255 255
255 255 255
255 255 255
255 255 255
255 255 255
255 255 255
255 255 255
255 255 255
255 255 255
255 255 255
200 50 50
200 50 50
200 50 50
200 50 50
200 50 50
200 50 50
200 50 50
200 50 50
200 50 50
200 50 50
200 50 50
200 50 50
200 50 50
200 50 50
200 50 50
200 50 50
200 50 50
200 50 50
200 50 50
200 50 50
200 50 50
200 50 50
200 50 50
200 50 50
200 50 50
200 50 50
200 50 50
200 50 50
200 50 50
200 50 50
200 50 50
200 50 50
255 255 255
255 255 255
255 255 255
255 255 255
255 255 255
255 255 255
255 255 255
255 255 255
255 255 255
255 255 255
255 255 255
255 255 255
255 255 255
255 255 255
255 255 255
255 255 255
255 255 255
255 255 255
255 255 255
255 255 255
255 255 255
255 255 255
255 255 255
255 255 255
255 255 255
255 255 255
255 255 255
255 255 255
255 255 255
255 255 255
255 255 255
255 255 255
200 50 50
200 50 50
200 50 50
200 50 50
200 50 50
200 50 50
200 50 50
200 50 50
200 50 50
200 50 50
200 50 50
200 50 50
200 50 50
200 50 50
200 50 50
200 50 50
200 50 50
200 50 50
200 50 50
200 50 50
200 50 50
200 50 50
200 50 50
200 50 50
200 50 50
200 50 50
200 50 50
200 50 50
200 50 50
200 50 50
200 50 50
200 50 50
255 255 255
255 255 255
255 255 255
255 255 255
255 255 255
255 255 255
255 255 255
255 255 255
255 255 255
255 255 255
255 255 255
255 255 255
255 255 255
255 255 255
255 255 255
255 255 255
255 255 255
255 255 255
255 255 255
255 255 255
255 255 255
255 255 255
255 255 255
255 255 255
255 255 255
255 255 255
255 255 255
255 255 255
255 255 255
255 255 255
255 255 255
255 255 255
200 50 50
200 50 50
200 50 50
200 50 50
200 50 50
200 50 50
200 50 50
200 50 50
200 50 50
200 50 50
200 50 50
200 50 50
200 50 50
200 50 50
200 50 50
200 50 50
200 50 50
200 50 50
200 50 50
200 50 50
200 50 50
200 50 50
200 50 50
200 50 50
200 50 50
200 50 50
200 50 50
200 50 50
200 50 50
200 50 50
200 50 50
200 50 50
255 255 255
255 255 255
255 255 255
255 255 255
255 255 255
255 255 255
255 255 255
255 255 255
255 255 255
255 255 255
255 255 255
255 255 255
255 255 255
255 255 255
255 255 255
255 255 255
255 255 255
255 255 255
255 255 255
255 255 255
255 255 255
255 255 255
255 255 255
255 255 255
255 255 255
255 255 255
255 255 255
255 255 255
255 255 255
255 255 255
255 255 255
255 255 255
200 50 50
200 50 50
200 50 50
200 50 50
200 50 50
200 50 50
200 50 50
200 50 50
200 50 50
200 50 50
200 50 50
200 50 50
200 50 50
200 50 50
200 50 50
200 50 50
200 50 50
200 50 50
200 50 50
200 50 50
200 50 50
200 50 50
200 50 50
200 50 50
200 50 50
200 50 50
200 50 50
200 50 50
200 50 50
200 50 50
200 50 50
200 50 50
255 255 255
255 255 255
255 255 255
255 255 255
255 255 255
255 255 255
255 255 255
255 255 255
255 255 255
255 255 255
255 255 255
255 255 255
255 255 255
255 255 255
255 255 255
255 255 255
255 255 255
255 255 255
255 255 255
255 255 255
255 255 255
255 255 255
255 255 255
255 255 255
255 255 255
255 255 255
255 255 255
255 255 255
255 255 255
255 255 255
255 255 255
255 255 255
200 50 50
200 50 50
200 50 50
200 50 50
200 50 50
200 50 50
200 50 50
200 50 50
200 50 50
200 50 50
200 50 50
200 50 50
200 50 50
200 50 50
200 50 50
200 50 50
200 50 50
200 50 50
200 50 50
200 50 50
200 50 50
200 50 50
200 50 50
200 50 50
200 50 50
200 50 50
200 50 50
200 50 50
200 50 50
200 50 50
200 50 50
200 50 50
255 255 255
255 255 255
255 255 255
255 255 255
255 255 255
255 255 255
255 255 255
255 255 255
255 255 255
255 255 255
255 255 255
255 255 255
255 255 255
255 255 255
255 255 255
255 255 255
255 255 255
255 255 255
255 255 255
255 255 255
255 255 255
255 255 255
255 255 255
255 255 255
255 255 255
255 255 255
255 255 255
255 255 255
255 255 255
255 255 255
255 255 255
255 255 255
200 50 50
200 50 50
200 50 50
200 50 50
200 50 50
200 50 50
200 50 50
200 50 50
200 50 50
200 50 50
200 50 50
200 50 50
200 50 50
200 50 50
200 50 50
200 50 50
200 50 50
200 50 50
200 50 50
200 50 50
200 50 50
200 50 50
200 50 50
200 50 50
200 50 50
200 50 50
200 50 50
200 50 50
200 50 50
200 50 50
200 50 50
200 50 50
255 255 255
255 255 255
255 255 255
255 255 255
255 255 255
255 255 255
255 255 255
255 255 255
255 255 255
255 255 255
255 255 255
255 255 255
255 255 255
255 255 255
255 255 255
255 255 255
255 255 255
255 255 255
255 255 255
255 255 255
255 255 255
255 255 255
255 255 255
255 255 255
255 255 255
255 255 255
255 255 255
255 255 255
255 255 255
255 255 255
255 255 255
255 255 255
200 50 50
200 50 50
200 50 50
200 50 50
200 50 50
200 50 50
200 50 50
200 50 50
200 50 50
200 50 50
200 50 50
200 50 50
200 50 50
200 50 50
200 50 50
200 50 50
200 50 50
200 50 50
200 50 50
200 50 50
200 50 50
200 50 50
200 50 50
200 50 50
200 50 50
200 50 50
200 50 50
200 50 50
200 50 50
200 50 50
200 50 50
200 50 50
255 255 255
255 255 255
255 255 255
255 255 255
255 255 255
255 255 255
255 255 255
255 255 255
255 255 255
255 255 255
255 255 255
255 255 255
255 255 255
255 255 255
255 255 255
255 255 255
255 255 255
255 255 255
255 255 255
255 255 255
255 255 255
255 255 255
255 255 255
255 255 255
255 255 255
255 255 255
255 255 255
255 255 255
255 255 255
255 255 255
255 255 255
255 255 255
200 50 50
200 50 50
200 50 50
200 50 50
200 50 50
200 50 50
200 50 50
200 50 50
200 50 50
200 50 50
200 50 50
200 50 50
200 50 50
200 50 50
200 50 50
200 50 50
200 50 50
200 50 50
200 50 50
200 50 50
200 50 50
200 50 50
200 50 50
200 50 50
200 50 50
200 50 50
200 50 50
200 50 50
200 50 50
200 50 50
200 50 50
200 50 50
255 255 255
255 255 255
255 255 255
255 255 255
255 255 255
255 255 255
255 255 255
255 255 255
255 255 255
255 255 255
255 255 255
255 255 255
255 255 255
255 255 255
255 255 255
255 255 255
255 255 255
255 255 255
255 255 255
255 255 255
255 255 255
255 255 255
255 255 255
255 255 255
255 255 255
255 255 255
255 255 255
255 255 255
255 255 255
255 255 255
255 255 255
255 255 255
200 50 50
200 50 50
200 50 50
200 50 50
200 50 50
200 50 50
200 50 50
200 50 50
200 50 50
200 50 50
200 50 50
200 50 50
200 50 50
200 50 50
200 50 50
200 50 50
200 50 50
200 50 50
200 50 50
200 50 50
200 50 50
200 50 50
200 50 50
200 50 50
200 50 50
200 50 50
200 50 50
200 50 50
200 50 50
200 50 50
200 50 50
200 50 50
255 255 255
255 255 255
255 255 255
255 255 255
255 255 255
255 255 255
255 255 255
255 255 255
255 255 255
255 255 255
255 255 255
255 255 255
255 255 255
255 255 255
255 255 255
255 255 255
255 255 255
255 255 255
255 255 255
255 255 255
255 255 255
255 255 255
255 255 255
255 255 255
255 255 255
255 255 255
255 255 255
255 255 255
255 255 255
255 255 255
255 255 255
255 255 255
200 50 50
200 50 50
200 50 50
200 50 50
200 50 50
200 50 50
200 50 50
200 50 50
200 50 50
200 50 50
200 50 50
200 50 50
200 50 50
200 50 50
200 50 50
200 50 50
200 50 50
200 50 50
200 50 50
200 50 50
200 50 50
200 50 50
200 50 50
200 50 50
200 50 50
200 50 50
200 50 50
200 50 50
200 50 50
200 50 50
200 50 50
200 50 50
255 255 255
255 255 255
255 255 255
255 255 255
255 255 255
255 255 255
255 255 255
255 255 255
255 255 255
255 255 255
255 255 255
255 255 255
255 255 255
255 255 255
255 255 255
255 255 255
255 255 255
255 255 255
255 255 255
255 255 255
255 255 255
255 255 255
255 255 255
255 255 255
255 255 255
255 255 255
255 255 255
255 255 255
255 255 255
255 255 255
255 255 255
255 255 255
200 50 50
200 50 50
200 50 50
200 50 50
200 50 50
200 50 50
200 50 50
200 50 50
200 50 50
200 50 50
200 50 50
200 50 50
200 50 50
200 50 50
200 50 50
200 50 50
200 50 50
200 50 50
200 50 50
200 50 50
200 50 50
200 50 50
200 50 50
200 50 50
200 50 50
200 50 50
200 50 50
200 50 50
200 50 50
200 50 50
200 50 50
200 50 50
255 255 255
255 255 255
255 255 255
255 255 255
255 255 255
255 255 255
255 255 255
255 255 255
255 255 255
255 255 255
255 255 255
255 255 255
255 255 255
255 255 255
255 255 255
255 255 255
255 255 255
255 255 255
255 255 255
255 255 255
255 255 255
255 255 255
255 255 255
255 255 255
255 255 255
255 255 255
255 255 255
255 255 255
255 255 255
255 255 255
255 255 255
255 255 255
200 50 50
200 50 50
200 50 50
200 50 50
200 50 50
200 50 50
200 50 50
200 50 50
200 50 50
200 50 50
200 50 50
200 50 50
200 50 50
200 50 50
200 50 50
200 50 50
200 50 50
200 50 50
200 50 50
200 50 50
200 50 50
200 50 50
200 50 50
200 50 50
200 50 50
200 50 50
200 50 50
200 50 50
200 50 50
200 50 50
200 50 50
200 50 50
255 255 255
255 255 255
255 255 255
255 255 255
255 255 255
255 255 255
255 255 255
255 255 255
255 255 255
255 255 255
255 255 255
255 255 255
255 255 255
255 255 255
255 255 255
255 255 255
255 255 255
255 255 255
255 255 255
255 255 255
255 255 255
255 255 255
255 255 255
255 255 255
255 255 255
255 255 255
255 255 255
255 255 255
255 255 255
255 255 255
255 255 255
255 255 255
200 50 50
200 50 50
200 50 50
200 50 50
200 50 50
200 50 50
200 50 50
200 50 50
200 50 50
200 50 50
200 50 50
200 50 50
200 50 50
200 50 50
200 50 50
200 50 50
200 50 50
200 50 50
200 50 50
200 50 50
200 50 50
200 50 50
200 50 50
200 50 50
200 50 50
200 50 50
200 50 50
200 50 50
200 50 50
200 50 50
200 50 50
200 50 50
255 255 255
255 255 255
255 255 255
255 255 255
255 255 255
255 255 255
255 255 255
255 255 255
255 255 255
255 255 255
255 255 255
255 255 255
255 255 255
255 255 255
255 255 255
255 255 255
255 255 255
255 255 255
255 255 255
255 255 255
255 255 255
255 255 255
255 255 255
255 255 255
255 255 255
255 255 255
255 255 255
255 255 255
255 255 255
255 255 255
255 255 255
255 255 255
200 50 50
200 50 50
200 50 50
200 50 50
200 50 50
200 50 50
200 50 50
200 50 50
200 50 50
200 50 50
200 50 50
200 50 50
200 50 50
200 50 50
200 50 50
200 50 50
200 50 50
200 50 50
200 50 50
200 50 50
200 50 50
200 50 50
200 50 50
200 50 50
200 50 50
200 50 50
200 50 50
200 50 50
200 50 50
200 50 50
200 50 50
200 50 50
255 255 255
255 255 255
255 255 255
255 255 255
255 255 255
255 255 255
255 255 255
255 255 255
255 255 255
255 255 255
255 255 255
255 255 255
255 255 255
255 255 255
255 255 255
255 255 255
255 255 255
255 255 255
255 255 255
255 255 255
255 255 255
255 255 255
255 255 255
255 255 255
255 255 255
255 255 255
255 255 255
255 255 255
255 255 255
255 255 255
255 255 255
255 255 255
200 50 50
200 50 50
200 50 50
200 50 50
200 50 50
200 50 50
200 50 50
200 50 50
200 50 50
200 50 50
200 50 50
200 50 50
200 50 50
200 50 50
200 50 50
200 50 50
200 50 50
200 50 50
200 50 50
200 50 50
200 50 50
200 50 50
200 50 50
200 50 50
200 50 50
200 50 50
200 50 50
200 50 50
200 50 50
200 50 50
200 50 50
200 50 50
255 255 255
255 255 255
255 255 255
255 255 255
255 255 255
255 255 255
255 255 255
255 255 255
255 255 255
255 255 255
255 255 255
255 255 255
255 255 255
255 255 255
255 255 255
255 255 255
255 255 255
255 255 255
255 255 255
255 255 255
255 255 255
255 255 255
255 255 255
255 255 255
255 255 255
255 255 255
255 255 255
255 255 255
255 255 255
255 255 255
255 255 255
255 255 255
200 50 50
200 50 50
200 50 50
200 50 50
200 50 50
200 50 50
200 50 50
200 50 50
200 50 50
200 50 50
200 50 50
200 50 50
200 50 50
200 50 50
200 50 50
200 50 50
200 50 50
200 50 50
200 50 50
200 50 50
200 50 50
200 50 50
200 50 50
200 50 50
200 50 50
200 50 50
200 50 50
200 50 50
200 50 50
200 50 50
200 50 50
200 50 50
255 255 255
255 255 255
255 255 255
255 255 255
255 255 255
255 255 255
255 255 255
255 255 255
255 255 255
255 255 255
255 255 255
255 255 255
255 255 255
255 255 255
255 255 255
255 255 255
255 255 255
255 255 255
255 255 255
255 255 255
255 255 255
255 255 255
255 255 255
255 255 255
255 255 255
255 255 255
255 255 255
255 255 255
255 255 255
255 255 255
255 255 255
255 255 255
200 50 50
200 50 50
200 50 50
200 50 50
200 50 50
200 50 50
200 50 50
200 50 50
200 50 50
200 50 50
200 50 50
200 50 50
200 50 50
200 50 50
200 50 50
200 50 50
200 50 50
200 50 50
200 50 50
200 50 50
200 50 50
200 50 50
200 50 50
200 50 50
200 50 50
200 50 50
200 50 50
200 50 50
200 50 50
200 50 50
200 50 50
200 50 50
255 255 255
255 255 255
255 255 255
255 255 255
255 255 255
255 255 255
255 255 255
255 255 255
255 255 255
255 255 255
255 255 255
255 255 255
255 255 255
255 255 255
255 255 255
255 255 255
255 255 255
255 255 255
255 255 255
255 255 255
255 255 255
255 255 255
255 255 255
255 255 255
255 255 255
255 255 255
255 255 255
255 255 255
255 255 255
255 255 255
255 255 255
255 255 255
200 50 50
200 50 50
200 50 50
200 50 50
200 50 50
200 50 50
200 50 50
200 50 50
200 50 50
200 50 50
200 50 50
200 50 50
200 50 50
200 50 50
200 50 50
200 50 50
200 50 50
200 50 50
200 50 50
200 50 50
200 50 50
200 50 50
200 50 50
200 50 50
200 50 50
200 50 50
200 50 50
200 50 50
200 50 50
200 50 50
200 50 50
200 50 50
255 255 255
255 255 255
255 255 255
255 255 255
255 255 255
255 255 255
255 255 255
255 255 255
255 255 255
255 255 255
255 255 255
255 255 255
255 255 255
255 255 255
255 255 255
255 255 255
255 255 255
255 255 255
255 255 255
255 255 255
255 255 255
255 255 255
255 255 255
255 255 255
255 255 255
255 255 255
255 255 255
255 255 255
255 255 255
255 255 255
255 255 255
255 255 255
200 50 50
200 50 50
200 50 50
200 50 50
200 50 50
200 50 50
200 50 50
200 50 50
200 50 50
200 50 50
200 50 50
200 50 50
200 50 50
200 50 50
200 50 50
200 50 50
200 50 50
200 50 50
200 50 50
200 50 50
200 50 50
200 50 50
200 50 50
200 50 50
200 50 50
200 50 50
200 50 50
200 50 50
200 50 50
200 50 50
200 50 50
200 50 50
255 255 255
255 255 255
255 255 255
255 255 255
255 255 255
255 255 255
255 255 255
255 255 255
255 255 255
255 255 255
255 255 255
255 255 255
255 255 255
255 255 255
255 255 255
255 255 255
255 255 255
255 255 255
255 255 255
255 255 255
255 255 255
255 255 255
255 255 255
255 255 255
255 255 255
255 255 255
255 255 255
255 255 255
255 255 255
255 255 255
255 255 255
255 255 255
200 50 50
200 50 50
200 50 50
200 50 50
200 50 50
200 50 50
200 50 50
200 50 50
200 50 50
200 50 50
200 50 50
200 50 50
200 50 50
200 50 50
200 50 50
200 50 50
200 50 50
200 50 50
200 50 50
200 50 50
200 50 50
200 50 50
200 50 50
200 50 50
200 50 50
200 50 50
200 50 50
200 50 50
200 50 50
200 50 50
200 50 50
200 50 50
255 255 255
255 255 255
255 255 255
255 255 255
255 255 255
255 255 255
255 255 255
255 255 255
255 255 255
255 255 255
255 255 255
255 255 255
255 255 255
255 255 255
255 255 255
255 255 255
255 255 255
255 255 255
255 255 255
255 255 255
255 255 255
255 255 255
255 255 255
255 255 255
255 255 255
255 255 255
255 255 255
255 255 255
255 255 255
255 255 255
255 255 255
255 255 255
200 50 50
200 50 50
200 50 50
200 50 50
200 50 50
200 50 50
200 50 50
200 50 50
200 50 50
200 50 50
200 50 50
200 50 50
200 50 50
200 50 50
200 50 50
200 50 50
200 50 50
200 50 50
200 50 50
200 50 50
200 50 50
200 50 50
200 50 50
200 50 50
200 50 50
200 50 50
200 50 50
200 50 50
200 50 50
200 50 50
200 50 50
200 50 50
255 255 255
255 255 255
255 255 255
255 255 255
255 255 255
255 255 255
255 255 255
255 255 255
255 255 255
255 255 255
255 255 255
255 255 255
255 255 255
255 255 255
255 255 255
255 255 255
255 255 255
255 255 255
255 255 255
255 255 255
255 255 255
255 255 255
255 255 255
255 255 255
255 255 255
255 255 255
255 255 255
255 255 255
255 255 255
255 255 255
255 255 255
255 255 255
200 50 50
200 50 50
200 50 50
200 50 50
200 50 50
200 50 50
200 50 50
200 50 50
200 50 50
200 50 50
200 50 50
200 50 50
200 50 50
200 50 50
200 50 50
200 50 50
200 50 50
200 50 50
200 50 50
200 50 50
200 50 50
200 50 50
200 50 50
200 50 50
200 50 50
200 50 50
200 50 50
200 50 50
200 50 50
200 50 50
200 50 50
200 50 50
255 255 255
255 255 255
255 255 255
255 255 255
255 255 255
255 255 255
255 255 255
255 255 255
255 255 255
255 255 255
255 255 255
255 255 255
255 255 255
255 255 255
255 255 255
255 255 255
255 255 255
255 255 255
255 255 255
255 255 255
255 255 255
255 255 255
255 255 255
255 255 255
255 255 255
255 255 255
255 255 255
255 255 255
255 255 255
255 255 255
255 255 255
255 255 255
200 50 50
200 50 50
200 50 50
200 50 50
200 50 50
200 50 50
200 50 50
200 50 50
200 50 50
200 50 50
200 50 50
200 50 50
200 50 50
200 50 50
200 50 50
200 50 50
200 50 50
200 50 50
200 50 50
200 50 50
200 50 50
200 50 50
200 50 50
200 50 50
200 50 50
200 50 50
200 50 50
200 50 50
200 50 50
200 50 50
200 50 50
200 50 50
255 255 255
255 255 255
255 255 255
255 255 255
255 255 255
255 255 255
255 255 255
255 255 255
255 255 255
255 255 255
255 255 255
255 255 255
255 255 255
255 255 255
255 255 255
255 255 255
255 255 255
255 255 255
255 255 255
255 255 255
255 255 255
255 255 255
255 255 255
255 255 255
255 255 255
255 255 255
255 255 255
255 255 255
255 255 255
255 255 255
255 255 255
255 255 255
200 50 50
200 50 50
200 50 50
200 50 50
200 50 50
200 50 50
200 50 50
200 50 50
200 50 50
200 50 50
200 50 50
200 50 50
200 50 50
200 50 50
200 50 50
200 50 50
200 50 50
200 50 50
200 50 50
200 50 50
200 50 50
200 50 50
200 50 50
200 50 50
200 50 50
200 50 50
200 50 50
200 50 50
200 50 50
200 50 50
200 50 50
200 50 50
255 255 255
255 255 255
255 255 255
255 255 255
255 255 255
255 255 255
255 255 255
255 255 255
255 255 255
255 255 255
255 255 255
255 255 255
255 255 255
255 255 255
255 255 255
255 255 255
255 255 255
255 255 255
255 255 255
255 255 255
255 255 255
255 255 255
255 255 255
255 255 255
255 255 255
255 255 255
255 255 255
255 255 255
255 255 255
255 255 255
255 255 255
255 255 255
200 50 50
200 50 50
200 50 50
200 50 50
200 50 50
200 50 50
200 50 50
200 50 50
200 50 50
200 50 50
200 50 50
200 50 50
200 50 50
200 50 50
200 50 50
200 50 50
200 50 50
200 50 50
200 50 50
200 50 50
200 50 50
200 50 50
200 50 50
200 50 50
200 50 50
200 50 50
200 50 50
200 50 50
200 50 50
200 50 50
200 50 50
200 50 50
255 255 255
255 255 255
255 255 255
255 255 255
255 255 255
255 255 255
255 255 255
255 255 255
255 255 255
255 255 255
255 255 255
255 255 255
255 255 255
255 255 255
255 255 255
255 255 255
255 255 255
255 255 255
255 255 255
255 255 255
255 255 255
255 255 255
255 255 255
255 255 255
255 255 255
255 255 255
255 255 255
255 255 255
255 255 255
255 255 255
255 255 255
255 255 255
200 50 50
200 50 50
200 50 50
200 50 50
200 50 50
200 50 50
200 50 50
200 50 50
200 50 50
200 50 50
200 50 50
200 50 50
200 50 50
200 50 50
200 50 50
200 50 50
200 50 50
200 50 50
200 50 50
200 50 50
200 50 50
200 50 50
200 50 50
200 50 50
200 50 50
200 50 50
200 50 50
200 50 50
200 50 50
200 50 50
200 50 50
200 50 50
255 255 255
255 255 255
255 255 255
255 255 255
255 255 255
255 255 255
255 255 255
255 255 255
255 255 255
255 255 255
255 255 255
255 255 255
255 255 255
255 255 255
255 255 255
255 255 255
255 255 255
255 255 255
255 255 255
255 255 255
255 255 255
255 255 255
255 255 255
255 255 255
255 255 255
255 255 255
255 255 255
255 255 255
255 255 255
255 255 255
255 255 255
255 255 255
200 50 50
200 50 50
200 50 50
200 50 50
200 50 50
200 50 50
200 50 50
200 50 50
200 50 50
200 50 50
200 50 50
200 50 50
200 50 50
200 50 50
200 50 50
200 50 50
200 50 50
200 50 50
200 50 50
200 50 50
200 50 50
200 50 50
200 50 50
200 50 50
200 50 50
200 50 50
200 50 50
200 50 50
200 50 50
200 50 50
200 50 50
200 50 50
255 255 255
255 255 255
255 255 255
255 255 255
255 255 255
255 255 255
255 255 255
255 255 255
255 255 255
255 255 255
255 255 255
255 255 255
255 255 255
255 255 255
255 255 255
255 255 255
255 255 255
255 255 255
255 255 255
255 255 255
255 255 255
255 255 255
255 255 255
255 255 255
255 255 255
255 255 255
255 255 255
255 255 255
255 255 255
255 255 255
255 255 255
255 255 255
200 50 50
200 50 50
200 50 50
200 50 50
200 50 50
200 50 50
200 50 50
200 50 50
200 50 50
200 50 50
200 50 50
200 50 50
200 50 50
200 50 50
200 50 50
200 50 50
200 50 50
200 50 50
200 50 50
200 50 50
200 50 50
200 50 50
200 50 50
200 50 50
200 50 50
200 50 50
200 50 50
200 50 50
200 50 50
200 50 50
200 50 50
200 50 50
255 255 255
255 255 255
255 255 255
255 255 255
255 255 255
255 255 255
255 255 255
255 255 255
255 255 255
255 255 255
255 255 255
255 255 255
255 255 255
255 255 255
255 255 255
255 255 255
255 255 255
255 255 255
255 255 255
255 255 255
255 255 255
255 255 255
255 255 255
255 255 255
255 255 255
255 255 255
255 255 255
255 255 255
255 255 255
255 255 255
255 255 255
255 255 255
200 50 50
200 50 50
200 50 50
200 50 50
200 50 50
200 50 50
200 50 50
200 50 50
200 50 50
200 50 50
200 50 50
200 50 50
200 50 50
200 50 50
200 50 50
200 50 50
200 50 50
200 50 50
200 50 50
200 50 50
200 50 50
200 50 50
200 50 50
200 50 50
200 50 50
200 50 50
200 50 50
200 50 50
200 50 50
200 50 50
200 50 50
200 50 50
255 255 255
255 255 255
255 255 255
255 255 255
255 255 255
255 255 255
255 255 255
255 255 255
255 255 255
255 255 255
255 255 255
255 255 255
255 255 255
255 255 255
255 255 255
255 255 255
255 255 255
255 255 255
255 255 255
255 255 255
255 255 255
255 255 255
255 255 255
255 255 255
255 255 255
255 255 255
255 255 255
255 255 255
255 255 255
255 255 255
255 255 255
255 255 255
200 50 50
200 50 50
200 50 50
200 50 50
200 50 50
200 50 50
200 50 50
200 50 50
200 50 50
200 50 50
200 50 50
200 50 50
200 50 50
200 50 50
200 50 50
200 50 50
200 50 50
200 50 50
200 50 50
200 50 50
200 50 50
200 50 50
200 50 50
200 50 50
200 50 50
200 50 50
200 50 50
200 50 50
200 50 50
200 50 50
200 50 50
200 50 50
255 255 255
255 255 255
255 255 255
255 255 255
255 255 255
255 255 255
255 255 255
255 255 255
255 255 255
255 255 255
255 255 255
255 255 255
255 255 255
255 255 255
255 255 255
255 255 255
255 255 255
255 255 255
255 255 255
255 255 255
255 255 255
255 255 255
255 255 255
255 255 255
255 255 255
255 255 255
255 255 255
255 255 255
255 255 255
255 255 255
255 255 255
255 255 255
200 50 50
200 50 50
200 50 50
200 50 50
200 50 50
200 50 50
200 50 50
200 50 50
200 50 50
200 50 50
200 50 50
200 50 50
200 50 50
200 50 50
200 50 50
200 50 50
200 50 50
200 50 50
200 50 50
200 50 50
200 50 50
200 50 50
200 50 50
200 50 50
200 50 50
200 50 50
200 50 50
200 50 50
200 50 50
200 50 50
200 50 50
200 50 50
255 255 255
255 255 255
255 255 255
255 255 255
255 255 255
255 255 255
255 255 255
255 255 255
255 255 255
255 255 255
255 255 255
255 255 255
255 255 255
255 255 255
255 255 255
255 255 255
255 255 255
255 255 255
255 255 255
255 255 255
255 255 255
255 255 255
255 255 255
255 255 255
255 255 255
255 255 255
255 255 255
255 255 255
255 255 255
255 255 255
255 255 255
255 255 255
200 50 50
200 50 50
200 50 50
200 50 50
200 50 50
200 50 50
200 50 50
200 50 50
200 50 50
200 50 50
200 50 50
200 50 50
200 50 50
200 50 50
200 50 50
200 50 50
200 50 50
200 50 50
200 50 50
200 50 50
200 50 50
200 50 50
200 50 50
200 50 50
200 50 50
200 50 50
200 50 50
200 50 50
200 50 50
200 50 50
200 50 50
200 50 50
255 255 255
255 255 255
255 255 255
255 255 255
255 255 255
255 255 255
255 255 255
255 255 255
255 255 255
255 255 255
255 255 255
255 255 255
255 255 255
255 255 255
255 255 255
255 255 255
255 255 255
255 255 255
255 255 255
255 255 255
255 255 255
255 255 255
255 255 255
255 255 255
255 255 255
255 255 255
255 255 255
255 255 255
255 255 255
255 255 255
255 255 255
255 255 255
200 50 50
200 50 50
200 50 50
200 50 50
200 50 50
200 50 50
200 50 50
200 50 50
200 50 50
200 50 50
200 50 50
200 50 50
200 50 50
200 50 50
200 50 50
200 50 50
200 50 50
200 50 50
200 50 50
200 50 50
200 50 50
200 50 50
200 50 50
200 50 50
200 50 50
200 50 50
200 50 50
200 50 50
200 50 50
200 50 50
200 50 50
200 50 50
255 255 255
255 255 255
255 255 255
255 255 255
255 255 255
255 255 255
255 255 255
255 255 255
255 255 255
255 255 255
255 255 255
255 255 255
255 255 255
255 255 255
255 255 255
255 255 255
255 255 255
255 255 255
255 255 255
255 255 255
255 255 255
255 255 255
255 255 255
255 255 255
255 255 255
255 255 255
255 255 255
255 255 255
255 255 255
255 255 255
255 255 255
255 255 255
200 50 50
200 50 50
200 50 50
200 50 50
200 50 50
200 50 50
200 50 50
200 50 50
200 50 50
200 50 50
200 50 50
200 50 50
200 50 50
200 50 50
200 50 50
200 50 50
200 50 50
200 50 50
200 50 50
200 50 50
200 50 50
200 50 50
200 50 50
200 50 50
200 50 50
200 50 50
200 50 50
200 50 50
200 50 50
200 50 50
200 50 50
200 50 50
255 255 255
255 255 255
255 255 255
255 255 255
255 255 255
255 255 255
255 255 255
255 255 255
255 255 255
255 255 255
255 255 255
255 255 255
255 255 255
255 255 255
255 255 255
255 255 255
255 255 255
255 255 255
255 255 255
255 255 255
255 255 255
255 255 255
255 255 255
255 255 255
255 255 255
255 255 255
255 255 255
255 255 255
255 255 255
255 255 255
255 255 255
255 255 255
200 50 50
200 50 50
200 50 50
200 50 50
200 50 50
200 50 50
200 50 50
200 50 50
200 50 50
200 50 50
200 50 50
200 50 50
200 50 50
200 50 50
200 50 50
200 50 50
200 50 50
200 50 50
200 50 50
200 50 50
200 50 50
200 50 50
200 50 50
200 50 50
200 50 50
200 50 50
200 50 50
200 50 50
200 50 50
200 50 50
200 50 50
200 50 50
255 255 255
255 255 255
255 255 255
255 255 255
255 255 255
255 255 255
255 255 255
255 255 255
255 255 255
255 255 255
255 255 255
255 255 255
255 255 255
255 255 255
255 255 255
255 255 255
255 255 255
255 255 255
255 255 255
255 255 255
255 255 255
255 255 255
255 255 255
255 255 255
255 255 255
255 255 255
255 255 255
255 255 255
255 255 255
255 255 255
255 255 255
255 255 255
200 50 50
200 50 50
200 50 50
200 50 50
200 50 50
200 50 50
200 50 50
200 50 50
200 50 50
200 50 50
200 50 50
200 50 50
200 50 50
200 50 50
200 50 50
200 50 50
200 50 50
200 50 50
200 50 50
200 50 50
200 50 50
200 50 50
200 50 50
200 50 50
200 50 50
200 50 50
200 50 50
200 50 50
200 50 50
200 50 50
200 50 50
200 50 50
255 255 255
255 255 255
255 255 255
255 255 255
255 255 255
255 255 255
255 255 255
255 255 255
255 255 255
255 255 255
255 255 255
255 255 255
255 255 255
255 255 255
255 255 255
255 255 255
255 255 255
255 255 255
255 255 255
255 255 255
255 255 255
255 255 255
255 255 255
255 255 255
255 255 255
255 255 255
255 255 255
255 255 255
255 255 255
255 255 255
255 255 255
255 255 255
200 50 50
200 50 50
200 50 50
200 50 50
200 50 50
200 50 50
200 50 50
200 50 50
200 50 50
200 50 50
200 50 50
200 50 50
200 50 50
200 50 50
200 50 50
200 50 50
200 50 50
200 50 50
200 50 50
200 50 50
200 50 50
200 50 50
200 50 50
200 50 50
200 50 50
200 50 50
200 50 50
200 50 50
200 50 50
200 50 50
200 50 50
200 50 50
255 255 255
255 255 255
255 255 255
255 255 255
255 255 255
255 255 255
255 255 255
255 255 255
255 255 255
255 255 255
255 255 255
255 255 255
255 255 255
255 255 255
255 255 255
255 255 255
255 255 255
255 255 255
255 255 255
255 255 255
255 255 255
255 255 255
255 255 255
255 255 255
255 255 255
255 255 255
255 255 255
255 255 255
255 255 255
255 255 255
255 255 255
255 255 255
200 50 50
200 50 50
200 50 50
200 50 50
200 50 50
200 50 50
200 50 50
200 50 50
200 50 50
200 50 50
200 50 50
200 50 50
200 50 50
200 50 50
200 50 50
200 50 50
200 50 50
200 50 50
200 50 50
200 50 50
200 50 50
200 50 50
200 50 50
200 50 50
200 50 50
200 50 50
200 50 50
200 50 50
200 50 50
200 50 50
200 50 50
200 50 50
255 255 255
255 255 255
255 255 255
255 255 255
255 255 255
255 255 255
255 255 255
255 255 255
255 255 255
255 255 255
255 255 255
255 255 255
255 255 255
255 255 255
255 255 255
255 255 255
255 255 255
255 255 255
255 255 255
255 255 255
255 255 255
255 255 255
255 255 255
255 255 255
255 255 255
255 255 255
255 255 255
255 255 255
255 255 255
255 255 255
255 255 255
255 255 255
200 50 50
200 50 50
200 50 50
200 50 50
200 50 50
200 50 50
200 50 50
200 50 50
200 50 50
200 50 50
200 50 50
200 50 50
200 50 50
200 50 50
200 50 50
200 50 50
200 50 50
200 50 50
200 50 50
200 50 50
200 50 50
200 50 50
200 50 50
200 50 50
200 50 50
200 50 50
200 50 50
200 50 50
200 50 50
200 50 50
200 50 50
200 50 50
255 255 255
255 255 255
255 255 255
255 255 255
255 255 255
255 255 255
255 255 255
255 255 255
255 255 255
255 255 255
255 255 255
255 255 255
255 255 255
255 255 255
255 255 255
255 255 255
255 255 255
255 255 255
255 255 255
255 255 255
255 255 255
255 255 255
255 255 255
255 255 255
255 255 255
255 255 255
255 255 255
255 255 255
255 255 255
255 255 255
255 255 255
255 255 255
200 50 50
200 50 50
200 50 50
200 50 50
200 50 50
200 50 50
200 50 50
200 50 50
200 50 50
200 50 50
200 50 50
200 50 50
200 50 50
200 50 50
200 50 50
200 50 50
200 50 50
200 50 50
200 50 50
200 50 50
200 50 50
200 50 50
200 50 50
200 50 50
200 50 50
200 50 50
200 50 50
200 50 50
200 50 50
200 50 50
200 50 50
200 50 50
255 255 255
255 255 255
255 255 255
255 255 255
255 255 255
255 255 255
255 255 255
255 255 255
255 255 255
255 255 255
255 255 255
255 255 255
255 255 255
255 255 255
255 255 255
255 255 255
255 255 255
255 255 255
255 255 255
255 255 255
255 255 255
255 255 255
255 255 255
255 255 255
255 255 255
255 255 255
255 255 255
255 255 255
255 255 255
255 255 255
255 255 255
255 255 255
200 50 50
200 50 50
200 50 50
200 50 50
200 50 50
200 50 50
200 50 50
200 50 50
200 50 50
200 50 50
200 50 50
200 50 50
200 50 50
200 50 50
200 50 50
200 50 50
200 50 50
200 50 50
200 50 50
200 50 50
200 50 50
200 50 50
200 50 50
200 50 50
200 50 50
200 50 50
200 50 50
200 50 50
200 50 50
200 50 50
200 50 50
200 50 50
255 255 255
255 255 255
255 255 255
255 255 255
255 255 255
255 255 255
255 255 255
255 255 255
255 255 255
255 255 255
255 255 255
255 255 255
255 255 255
255 255 255
255 255 255
255 255 255
255 255 255
255 255 255
255 255 255
255 255 255
255 255 255
255 255 255
255 255 255
255 255 255
255 255 255
255 255 255
255 255 255
255 255 255
255 255 255
255 255 255
255 255 255
255 255 255
200 50 50
200 50 50
200 50 50
200 50 50
200 50 50
200 50 50
200 50 50
200 50 50
200 50 50
200 50 50
200 50 50
200 50 50
200 50 50
200 50 50
200 50 50
200 50 50
200 50 50
200 50 50
200 50 50
200 50 50
200 50 50
200 50 50
200 50 50
200 50 50
200 50 50
200 50 50
200 50 50
200 50 50
200 50 50
200 50 50
200 50 50
200 50 50
255 255 255
255 255 255
255 255 255
255 255 255
255 255 255
255 255 255
255 255 255
255 255 255
255 255 255
255 255 255
255 255 255
255 255 255
255 255 255
255 255 255
255 255 255
255 255 255
255 255 255
255 255 255
255 255 255
255 255 255
255 255 255
255 255 255
255 255 255
255 255 255
255 255 255
255 255 255
255 255 255
255 255 255
255 255 255
255 255 255
255 255 255
255 255 255
200 50 50
200 50 50
200 50 50
200 50 50
200 50 50
200 50 50
200 50 50
200 50 50
200 50 50
200 50 50
200 50 50
200 50 50
200 50 50
200 50 50
200 50 50
200 50 50
200 50 50
200 50 50
200 50 50
200 50 50
200 50 50
200 50 50
200 50 50
200 50 50
200 50 50
200 50 50
200 50 50
200 50 50
200 50 50
200 50 50
200 50 50
200 50 50
255 255 255
255 255 255
255 255 255
255 255 255
255 255 255
255 255 255
255 255 255
255 255 255
255 255 255
255 255 255
255 255 255
255 255 255
255 255 255
255 255 255
255 255 255
255 255 255
255 255 255
255 255 255
255 255 255
255 255 255
255 255 255
255 255 255
255 255 255
255 255 255
255 255 255
255 255 255
255 255 255
255 255 255
255 255 255
255 255 255
255 255 255
255 255 255
200 50 50
200 50 50
200 50 50
200 50 50
200 50 50
200 50 50
200 50 50
200 50 50
200 50 50
200 50 50
200 50 50
200 50 50
200 50 50
200 50 50
200 50 50
200 50 50
200 50 50
200 50 50
200 50 50
200 50 50
200 50 50
200 50 50
200 50 50
200 50 50
200 50 50
200 50 50
200 50 50
200 50 50
200 50 50
200 50 50
200 50 50
200 50 50
255 255 255
255 255 255
255 255 255
255 255 255
255 255 255
255 255 255
255 255 255
255 255 255
255 255 255
255 255 255
255 255 255
255 255 255
255 255 255
255 255 255
255 255 255
255 255 255
255 255 255
255 255 255
255 255 255
255 255 255
255 255 255
255 255 255
255 255 255
255 255 255
255 255 255
255 255 255
255 255 255
255 255 255
255 255 255
255 255 255
255 255 255
255 255 255
200 50 50
200 50 50
200 50 50
200 50 50
200 50 50
200 50 50
200 50 50
200 50 50
200 50 50
200 50 50
200 50 50
200 50 50
200 50 50
200 50 50
200 50 50
200 50 50
200 50 50
200 50 50
200 50 50
200 50 50
200 50 50
200 50 50
200 50 50
200 50 50
200 50 50
200 50 50
200 50 50
200 50 50
200 50 50
200 50 50
200 50 50
200 50 50
255 255 255
255 255 255
255 255 255
255 255 255
255 255 255
255 255 255
255 255 255
255 255 255
255 255 255
255 255 255
255 255 255
255 255 255
255 255 255
255 255 255
255 255 255
255 255 255
255 255 255
255 255 255
255 255 255
255 255 255
255 255 255
255 255 255
255 255 255
255 255 255
255 255 255
255 255 255
255 255 255
255 255 255
255 255 255
255 255 255
255 255 255
255 255 255
200 50 50
200 50 50
200 50 50
200 50 50
200 50 50
200 50 50
200 50 50
200 50 50
200 50 50
200 50 50
200 50 50
200 50 50
200 50 50
200 50 50
200 50 50
200 50 50
200 50 50
200 50 50
200 50 50
200 50 50
200 50 50
200 50 50
200 50 50
200 50 50
200 50 50
200 50 50
200 50 50
200 50 50
200 50 50
200 50 50
200 50 50
200 50 50
255 255 255
255 255 255
255 255 255
255 255 255
255 255 255
255 255 255
255 255 255
255 255 255
255 255 255
255 255 255
255 255 255
255 255 255
255 255 255
255 255 255
255 255 255
255 255 255
255 255 255
255 255 255
255 255 255
255 255 255
255 255 255
255 255 255
255 255 255
255 255 255
255 255 255
255 255 255
255 255 255
255 255 255
255 255 255
255 255 255
255 255 255
255 255 255
200 50 50
200 50 50
200 50 50
200 50 50
200 50 50
200 50 50
200 50 50
200 50 50
200 50 50
200 50 50
200 50 50
200 50 50
200 50 50
200 50 50
200 50 50
200 50 50
200 50 50
200 50 50
200 50 50
200 50 50
200 50 50
200 50 50
200 50 50
200 50 50
200 50 50
200 50 50
200 50 50
200 50 50
200 50 50
200 50 50
200 50 50
200 50 50
255 255 255
255 255 255
255 255 255
255 255 255
255 255 255
255 255 255
255 255 255
255 255 255
255 255 255
255 255 255
255 255 255
255 255 255
255 255 255
255 255 255
255 255 255
255 255 255
255 255 255
255 255 255
255 255 255
255 255 255
255 255 255
255 255 255
255 255 255
255 255 255
255 255 255
255 255 255
255 255 255
255 255 255
255 255 255
255 255 255
255 255 255
255 255 255
200 50 50
200 50 50
200 50 50
200 50 50
200 50 50
200 50 50
200 50 50
200 50 50
200 50 50
200 50 50
200 50 50
200 50 50
200 50 50
200 50 50
200 50 50
200 50 50
200 50 50
200 50 50
200 50 50
200 50 50
200 50 50
200 50 50
200 50 50
200 50 50
200 50 50
200 50 50
200 50 50
200 50 50
200 50 50
200 50 50
200 50 50
200 50 50
255 255 255
255 255 255
255 255 255
255 255 255
255 255 255
255 255 255
255 255 255
255 255 255
255 255 255
255 255 255
255 255 255
255 255 255
255 255 255
255 255 255
255 255 255
255 255 255
255 255 255
255 255 255
255 255 255
255 255 255
255 255 255
255 255 255
255 255 255
255 255 255
255 255 255
255 255 255
255 255 255
255 255 255
255 255 255
255 255 255
255 255 255
255 255 255
200 50 50
200 50 50
200 50 50
200 50 50
200 50 50
200 50 50
200 50 50
200 50 50
200 50 50
200 50 50
200 50 50
200 50 50
200 50 50
200 50 50
200 50 50
200 50 50
200 50 50
200 50 50
200 50 50
200 50 50
200 50 50
200 50 50
200 50 50
200 50 50
200 50 50
200 50 50
200 50 50
200 50 50
200 50 50
200 50 50
200 50 50
200 50 50
255 255 255
255 255 255
255 255 255
255 255 255
255 255 255
255 255 255
255 255 255
255 255 255
255 255 255
255 255 255
255 255 255
255 255 255
255 255 255
255 255 255
255 255 255
255 255 255
255 255 255
255 255 255
255 255 255
255 255 255
255 255 255
255 255 255
255 255 255
255 255 255
255 255 255
255 255 255
255 255 255
255 255 255
255 255 255
255 255 255
255 255 255
255 255 255
200 50 50
200 50 50
200 50 50
200 50 50
200 50 50
200 50 50
200 50 50
200 50 50
200 50 50
200 50 50
200 50 50
200 50 50
200 50 50
200 50 50
200 50 50
200 50 50
200 50 50
200 50 50
200 50 50
200 50 50
200 50 50
200 50 50
200 50 50
200 50 50
200 50 50
200 50 50
200 50 50
200 50 50
200 50 50
200 50 50
200 50 50
200 50 50
255 255 255
255 255 255
255 255 255
255 255 255
255 255 255
255 255 255
255 255 255
255 255 255
255 255 255
255 255 255
255 255 255
255 255 255
255 255 255
255 255 255
255 255 255
255 255 255
255 255 255
255 255 255
255 255 255
255 255 255
255 255 255
255 255 255
255 255 255
255 255 255
255 255 255
255 255 255
255 255 255
255 255 255
255 255 255
255 255 255
255 255 255
255 255 255
200 50 50
200 50 50
200 50 50
200 50 50
200 50 50
200 50 50
200 50 50
200 50 50
200 50 50
200 50 50
200 50 50
200 50 50
200 50 50
200 50 50
200 50 50
200 50 50
200 50 50
200 50 50
200 50 50
200 50 50
200 50 50
200 50 50
200 50 50
200 50 50
200 50 50
200 50 50
200 50 50
200 50 50
200 50 50
200 50 50
200 50 50
200 50 50
255 255 255
255 255 255
255 255 255
255 255 255
255 255 255
255 255 255
255 255 255
255 255 255
255 255 255
255 255 255
255 255 255
255 255 255
255 255 255
255 255 255
255 255 255
255 255 255
255 255 255
255 255 255
255 255 255
255 255 255
255 255 255
255 255 255
255 255 255
255 255 255
255 255 255
255 255 255
255 255 255
255 255 255
255 255 255
255 255 255
255 255 255
255 255 255
200 50 50
200 50 50
200 50 50
200 50 50
200 50 50
200 50 50
200 50 50
200 50 50
200 50 50
200 50 50
200 50 50
200 50 50
200 50 50
200 50 50
200 50 50
200 50 50
200 50 50
200 50 50
200 50 50
200 50 50
200 50 50
200 50 50
200 50 50
200 50 50
200 50 50
200 50 50
200 50 50
200 50 50
200 50 50
200 50 50
200 50 50
200 50 50
255 255 255
255 255 255
255 255 255
255 255 255
255 255 255
255 255 255
255 255 255
255 255 255
255 255 255
255 255 255
255 255 255
255 255 255
255 255 255
255 255 255
255 255 255
255 255 255
255 255 255
255 255 255
255 255 255
255 255 255
255 255 255
255 255 255
255 255 255
255 255 255
255 255 255
255 255 255
255 255 255
255 255 255
255 255 255
255 255 255
255 255 255
255 255 255
200 50 50
200 50 50
200 50 50
200 50 50
200 50 50
200 50 50
200 50 50
200 50 50
200 50 50
200 50 50
200 50 50
200 50 50
200 50 50
200 50 50
200 50 50
200 50 50
200 50 50
200 50 50
200 50 50
200 50 50
200 50 50
200 50 50
200 50 50
200 50 50
200 50 50
200 50 50
200 50 50
200 50 50
200 50 50
200 50 50
200 50 50
200 50 50
255 255 255
255 255 255
255 255 255
255 255 255
255 255 255
255 255 255
255 255 255
255 255 255
255 255 255
255 255 255
255 255 255
255 255 255
255 255 255
255 255 255
255 255 255
255 255 255
255 255 255
255 255 255
255 255 255
255 255 255
255 255 255
255 255 255
255 255 255
255 255 255
255 255 255
255 255 255
255 255 255
255 255 255
255 255 255
255 255 255
255 255 255
255 255 255
200 50 50
200 50 50
200 50 50
200 50 50
200 50 50
200 50 50
200 50 50
200 50 50
200 50 50
200 50 50
200 50 50
200 50 50
200 50 50
200 50 50
200 50 50
200 50 50
200 50 50
200 50 50
200 50 50
200 50 50
200 50 50
200 50 50
200 50 50
200 50 50
200 50 50
200 50 50
200 50 50
200 50 50
200 50 50
200 50 50
200 50 50
200 50 50
255 255 255
255 255 255
255 255 255
255 255 255
255 255 255
255 255 255
255 255 255
255 255 255
255 255 255
255 255 255
255 255 255
255 255 255
255 255 255
255 255 255
255 255 255
255 255 255
255 255 255
255 255 255
255 255 255
255 255 255
255 255 255
255 255 255
255 255 255
255 255 255
255 255 255
255 255 255
255 255 255
255 255 255
255 255 255
255 255 255
255 255 255
255 255 255
200 50 50
200 50 50
200 50 50
200 50 50
200 50 50
200 50 50
200 50 50
200 50 50
200 50 50
200 50 50
200 50 50
200 50 50
200 50 50
200 50 50
200 50 50
200 50 50
200 50 50
200 50 50
200 50 50
200 50 50
200 50 50
200 50 50
200 50 50
200 50 50
200 50 50
200 50 50
200 50 50
200 50 50
200 50 50
200 50 50
200 50 50
200 50 50
255 255 255
255 255 255
255 255 255
255 255 255
255 255 255
255 255 255
255 255 255
255 255 255
255 255 255
255 255 255
255 255 255
255 255 255
255 255 255
255 255 255
255 255 255
255 255 255
255 255 255
255 255 255
255 255 255
255 255 255
255 255 255
255 255 255
255 255 255
255 255 255
255 255 255
255 255 255
255 255 255
255 255 255
255 255 255
255 255 255
255 255 255
255 255 255
200 50 50
200 50 50
200 50 50
200 50 50
200 50 50
200 50 50
200 50 50
200 50 50
200 50 50
200 50 50
200 50 50
200 50 50
200 50 50
200 50 50
200 50 50
200 50 50
200 50 50
200 50 50
200 50 50
200 50 50
200 50 50
200 50 50
200 50 50
200 50 50
200 50 50
200 50 50
200 50 50
200 50 50
200 50 50
200 50 50
200 50 50
200 50 50
255 255 255
255 255 255
255 255 255
255 255 255
255 255 255
255 255 255
255 255 255
255 255 255
255 255 255
255 255 255
255 255 255
255 255 255
255 255 255
255 255 255
255 255 255
255 255 255
255 255 255
255 255 255
255 255 255
255 255 255
255 255 255
255 255 255
255 255 255
255 255 255
255 255 255
255 255 255
255 255 255
255 255 255
255 255 255
255 255 255
255 255 255
255 255 255
200 50 50
200 50 50
200 50 50
200 50 50
200 50 50
200 50 50
200 50 50
200 50 50
200 50 50
200 50 50
200 50 50
200 50 50
200 50 50
200 50 50
200 50 50
200 50 50
200 50 50
200 50 50
200 50 50
200 50 50
200 50 50
200 50 50
200 50 50
200 50 50
200 50 50
200 50 50
200 50 50
200 50 50
200 50 50
200 50 50
200 50 50
200 50 50
255 255 255
255 255 255
255 255 255
255 255 255
255 255 255
255 255 255
255 255 255
255 255 255
255 255 255
255 255 255
255 255 255
255 255 255
255 255 255
255 255 255
255 255 255
255 255 255
255 255 255
255 255 255
255 255 255
255 255 255
255 255 255
255 255 255
255 255 255
255 255 255
255 255 255
255 255 255
255 255 255
255 255 255
255 255 255
255 255 255
255 255 255
255 255 255
200 50 50
200 50 50
200 50 50
200 50 50
200 50 50
200 50 50
200 50 50
200 50 50
200 50 50
200 50 50
200 50 50
200 50 50
200 50 50
200 50 50
200 50 50
200 50 50
200 50 50
200 50 50
200 50 50
200 50 50
200 50 50
200 50 50
200 50 50
200 50 50
200 50 50
200 50 50
200 50 50
200 50 50
200 50 50
200 50 50
200 50 50
200 50 50
200 50 50
200 50 50
200 50 50
200 50 50
200 50 50
200 50 50
200 50 50
200 50 50
200 50 50
200 50 50
200 50 50
200 50 50
200 50 50
200 50 50
200 50 50
200 50 50
200 50 50
200 50 50
200 50 50
200 50 50
200 50 50
200 50 50
200 50 50
200 50 50
200 50 50
200 50 50
200 50 50
200 50 50
200 50 50
200 50 50
200 50 50
200 50 50
255 255 255
255 255 255
255 255 255
255 255 255
255 255 255
255 255 255
255 255 255
255 255 255
255 255 255
255 255 255
255 255 255
255 255 255
255 255 255
255 255 255
255 255 255
255 255 255
255 255 255
255 255 255
255 255 255
255 255 255
255 255 255
255 255 255
255 255 255
255 255 255
255 255 255
255 255 255
255 255 255
255 255 255
255 255 255
255 255 255
255 255 255
255 255 255
200 50 50
200 50 50
200 50 50
200 50 50
200 50 50
200 50 50
200 50 50
200 50 50
200 50 50
200 50 50
200 50 50
200 50 50
200 50 50
200 50 50
200 50 50
200 50 50
200 50 50
200 50 50
200 50 50
200 50 50
200 50 50
200 50 50
200 50 50
200 50 50
200 50 50
200 50 50
200 50 50
200 50 50
200 50 50
200 50 50
200 50 50
200 50 50
255 255 255
255 255 255
255 255 255
255 255 255
255 255 255
255 255 255
255 255 255
255 255 255
255 255 255
255 255 255
255 255 255
255 255 255
255 255 255
255 255 255
255 255 255
255 255 255
255 255 255
255 255 255
255 255 255
255 255 255
255 255 255
255 255 255
255 255 255
255 255 255
255 255 255
255 255 255
255 255 255
255 255 255
255 255 255
255 255 255
255 255 255
255 255 255
200 50 50
200 50 50
200 50 50
200 50 50
200 50 50
200 50 50
200 50 50
200 50 50
200 50 50
200 50 50
200 50 50
200 50 50
200 50 50
200 50 50
200 50 50
200 50 50
200 50 50
200 50 50
200 50 50
200 50 50
200 50 50
200 50 50
200 50 50
200 50 50
200 50 50
200 50 50
200 50 50
200 50 50
200 50 50
200 50 50
200 50 50
200 50 50
255 255 255
255 255 255
255 255 255
255 255 255
255 255 255
255 255 255
255 255 255
255 255 255
255 255 255
255 255 255
255 255 255
255 255 255
255 255 255
255 255 255
255 255 255
255 255 255
255 255 255
255 255 255
255 255 255
255 255 255
255 255 255
255 255 255
255 255 255
255 255 255
255 255 255
255 255 255
255 255 255
255 255 255
255 255 255
255 255 255
255 255 255
255 255 255
200 50 50
200 50 50
200 50 50
200 50 50
200 50 50
200 50 50
200 50 50
200 50 50
200 50 50
200 50 50
200 50 50
200 50 50
200 50 50
200 50 50
200 50 50
200 50 50
200 50 50
200 50 50
200 50 50
200 50 50
200 50 50
200 50 50
200 50 50
200 50 50
200 50 50
200 50 50
200 50 50
200 50 50
200 50 50
200 50 50
200 50 50
200 50 50
255 255 255
255 255 255
255 255 255
255 255 255
255 255 255
255 255 255
255 255 255
255 255 255
255 255 255
255 255 255
255 255 255
255 255 255
255 255 255
255 255 255
255 255 255
255 255 255
255 255 255
255 255 255
255 255 255
255 255 255
255 255 255
255 255 255
255 255 255
255 255 255
255 255 255
255 255 255
255 255 255
255 255 255
255 255 255
255 255 255
255 255 255
255 255 255
200 50 50
200 50 50
200 50 50
200 50 50
200 50 50
200 50 50
200 50 50
200 50 50
200 50 50
200 50 50
200 50 50
200 50 50
200 50 50
200 50 50
200 50 50
200 50 50
200 50 50
200 50 50
200 50 50
200 50 50
200 50 50
200 50 50
200 50 50
200 50 50
200 50 50
200 50 50
200 50 50
200 50 50
200 50 50
200 50 50
200 50 50
200 50 50
255 255 255
255 255 255
255 255 255
255 255 255
255 255 255
255 255 255
255 255 255
255 255 255
255 255 255
255 255 255
255 255 255
255 255 255
255 255 255
255 255 255
255 255 255
255 255 255
255 255 255
255 255 255
255 255 255
255 255 255
255 255 255
255 255 255
255 255 255
255 255 255
255 255 255
255 255 255
255 255 255
255 255 255
255 255 255
255 255 255
255 255 255
255 255 255
200 50 50
200 50 50
200 50 50
200 50 50
200 50 50
200 50 50
200 50 50
200 50 50
200 50 50
200 50 50
200 50 50
200 50 50
200 50 50
200 50 50
200 50 50
200 50 50
200 50 50
200 50 50
200 50 50
200 50 50
200 50 50
200 50 50
200 50 50
200 50 50
200 50 50
200 50 50
200 50 50
200 50 50
200 50 50
200 50 50
200 50 50
200 50 50
255 255 255
255 255 255
255 255 255
255 255 255
255 255 255
255 255 255
255 255 255
255 255 255
255 255 255
255 255 255
255 255 255
255 255 255
255 255 255
255 255 255
255 255 255
255 255 255
255 255 255
255 255 255
255 255 255
255 255 255
255 255 255
255 255 255
255 255 255
255 255 255
255 255 255
255 255 255
255 255 255
255 255 255
255 255 255
255 255 255
255 255 255
255 255 255
200 50 50
200 50 50
200 50 50
200 50 50
200 50 50
200 50 50
200 50 50
200 50 50
200 50 50
200 50 50
200 50 50
200 50 50
200 50 50
200 50 50
200 50 50
200 50 50
200 50 50
200 50 50
200 50 50
200 50 50
200 50 50
200 50 50
200 50 50
200 50 50
200 50 50
200 50 50
200 50 50
200 50 50
200 50 50
200 50 50
200 50 50
200 50 50
255 255 255
255 255 255
255 255 255
255 255 255
255 255 255
255 255 255
255 255 255
255 255 255
255 255 255
255 255 255
255 255 255
255 255 255
255 255 255
255 255 255
255 255 255
255 255 255
255 255 255
255 255 255
255 255 255
255 255 255
255 255 255
255 255 255
255 255 255
255 255 255
255 255 255
255 255 255
255 255 255
255 255 255
255 255 255
255 255 255
255 255 255
255 255 255
200 50 50
200 50 50
200 50 50
200 50 50
200 50 50
200 50 50
200 50 50
200 50 50
200 50 50
200 50 50
200 50 50
200 50 50
200 50 50
200 50 50
200 50 50
200 50 50
200 50 50
200 50 50
200 50 50
200 50 50
200 50 50
200 50 50
200 50 50
200 50 50
200 50 50
200 50 50
200 50 50
200 50 50
200 50 50
200 50 50
200 50 50
200 50 50
255 255 255
255 255 255
255 255 255
255 255 255
255 255 255
255 255 255
255 255 255
255 255 255
255 255 255
255 255 255
255 255 255
255 255 255
255 255 255
255 255 255
255 255 255
255 255 255
255 255 255
255 255 255
255 255 255
255 255 255
255 255 255
255 255 255
255 255 255
255 255 255
255 255 255
255 255 255
255 255 255
255 255 255
255 255 255
255 255 255
255 255 255
255 255 255
200 50 50
200 50 50
200 50 50
200 50 50
200 50 50
200 50 50
200 50 50
200 50 50
200 50 50
200 50 50
200 50 50
200 50 50
200 50 50
200 50 50
200 50 50
200 50 50
200 50 50
200 50 50
200 50 50
200 50 50
200 50 50
200 50 50
200 50 50
200 50 50
200 50 50
200 50 50
200 50 50
200 50 50
200 50 50
200 50 50
200 50 50
200 50 50
255 255 255
255 255 255
255 255 255
255 255 255
255 255 255
255 255 255
255 255 255
255 255 255
255 255 255
255 255 255
255 255 255
255 255 255
255 255 255
255 255 255
255 255 255
255 255 255
255 255 255
255 255 255
255 255 255
255 255 255
255 255 255
255 255 255
255 255 255
255 255 255
255 255 255
255 255 255
255 255 255
255 255 255
255 255 255
255 255 255
255 255 255
255 255 255
200 50 50
200 50 50
200 50 50
200 50 50
200 50 50
200 50 50
200 50 50
200 50 50
200 50 50
200 50 50
200 50 50
200 50 50
200 50 50
200 50 50
200 50 50
200 50 50
200 50 50
200 50 50
200 50 50
200 50 50
200 50 50
200 50 50
200 50 50
200 50 50
200 50 50
200 50 50
200 50 50
200 50 50
200 50 50
200 50 50
200 50 50
200 50 50
255 255 255
255 255 255
255 255 255
255 255 255
255 255 255
255 255 255
255 255 255
255 255 255
255 255 255
255 255 255
255 255 255
255 255 255
255 255 255
255 255 255
255 255 255
255 255 255
255 255 255
255 255 255
255 255 255
255 255 255
255 255 255
255 255 255
255 255 255
255 255 255
255 255 255
255 255 255
255 255 255
255 255 255
255 255 255
255 255 255
255 255 255
255 255 255
200 50 50
200 50 50
200 50 50
200 50 50
200 50 50
200 50 50
200 50 50
200 50 50
200 50 50
200 50 50
200 50 50
200 50 50
200 50 50
200 50 50
200 50 50
200 50 50
200 50 50
200 50 50
200 50 50
200 50 50
200 50 50
200 50 50
200 50 50
200 50 50
200 50 50
200 50 50
200 50 50
200 50 50
200 50 50
200 50 50
200 50 50
200 50 50
255 255 255
255 255 255
255 255 255
255 255 255
255 255 255
255 255 255
255 255 255
255 255 255
255 255 255
255 255 255
255 255 255
255 255 255
255 255 255
255 255 255
255 255 255
255 255 255
255 255 255
255 255 255
255 255 255
255 255 255
255 255 255
255 255 255
255 255 255
255 255 255
255 255 255
255 255 255
255 255 255
255 255 255
255 255 255
255 255 255
255 255 255
255 255 255
200 50 50
200 50 50
200 50 50
200 50 50
200 50 50
200 50 50
200 50 50
200 50 50
200 50 50
200 50 50
200 50 50
200 50 50
200 50 50
200 50 50
200 50 50
200 50 50
200 50 50
200 50 50
200 50 50
200 50 50
200 50 50
200 50 50
200 50 50
200 50 50
200 50 50
200 50 50
200 50 50
200 50 50
200 50 50
200 50 50
200 50 50
200 50 50
255 255 255
255 255 255
255 255 255
255 255 255
255 255 255
255 255 255
255 255 255
255 255 255
255 255 255
255 255 255
255 255 255
255 255 255
255 255 255
255 255 255
255 255 255
255 255 255
255 255 255
255 255 255
255 255 255
255 255 255
255 255 255
255 255 255
255 255 255
255 255 255
255 255 255
255 255 255
255 255 255
255 255 255
255 255 255
255 255 255
255 255 255
255 255 255
200 50 50
200 50 50
200 50 50
200 50 50
200 50 50
200 50 50
200 50 50
200 50 50
200 50 50
200 50 50
200 50 50
200 50 50
200 50 50
200 50 50
200 50 50
200 50 50
200 50 50
200 50 50
200 50 50
200 50 50
200 50 50
200 50 50
200 50 50
200 50 50
200 50 50
200 50 50
200 50 50
200 50 50
200 50 50
200 50 50
200 50 50
200 50 50
255 255 255
255 255 255
255 255 255
255 255 255
255 255 255
255 255 255
255 255 255
255 255 255
255 255 255
255 255 255
255 255 255
255 255 255
255 255 255
255 255 255
255 255 255
255 255 255
255 255 255
255 255 255
255 255 255
255 255 255
255 255 255
255 255 255
255 255 255
255 255 255
255 255 255
255 255 255
255 255 255
255 255 255
255 255 255
255 255 255
255 255 255
255 255 255
200 50 50
200 50 50
200 50 50
200 50 50
200 50 50
200 50 50
200 50 50
200 50 50
200 50 50
200 50 50
200 50 50
200 50 50
200 50 50
200 50 50
200 50 50
200 50 50
200 50 50
200 50 50
200 50 50
200 50 50
200 50 50
200 50 50
200 50 50
200 50 50
200 50 50
200 50 50
200 50 50
200 50 50
200 50 50
200 50 50
200 50 50
200 50 50
255 255 255
255 255 255
255 255 255
255 255 255
255 255 255
255 255 255
255 255 255
255 255 255
255 255 255
255 255 255
255 255 255
255 255 255
255 255 255
255 255 255
255 255 255
255 255 255
255 255 255
255 255 255
255 255 255
255 255 255
255 255 255
255 255 255
255 255 255
255 255 255
255 255 255
255 255 255
255 255 255
255 255 255
255 255 255
255 255 255
255 255 255
255 255 255
200 50 50
200 50 50
200 50 50
200 50 50
200 50 50
200 50 50
200 50 50
200 50 50
200 50 50
200 50 50
200 50 50
200 50 50
200 50 50
200 50 50
200 50 50
200 50 50
200 50 50
200 50 50
200 50 50
200 50 50
200 50 50
200 50 50
200 50 50
200 50 50
200 50 50
200 50 50
200 50 50
200 50 50
200 50 50
200 50 50
200 50 50
200 50 50
255 255 255
255 255 255
255 255 255
255 255 255
255 255 255
255 255 255
255 255 255
255 255 255
255 255 255
255 255 255
255 255 255
255 255 255
255 255 255
255 255 255
255 255 255
255 255 255
255 255 255
255 255 255
255 255 255
255 255 255
255 255 255
255 255 255
255 255 255
255 255 255
255 255 255
255 255 255
255 255 255
255 255 255
255 255 255
255 255 255
255 255 255
255 255 255
200 50 50
200 50 50
200 50 50
200 50 50
200 50 50
200 50 50
200 50 50
200 50 50
200 50 50
200 50 50
200 50 50
200 50 50
200 50 50
200 50 50
200 50 50
200 50 50
200 50 50
200 50 50
200 50 50
200 50 50
200 50 50
200 50 50
200 50 50
200 50 50
200 50 50
200 50 50
200 50 50
200 50 50
200 50 50
200 50 50
200 50 50
200 50 50
255 255 255
255 255 255
255 255 255
255 255 255
255 255 255
255 255 255
255 255 255
255 255 255
255 255 255
255 255 255
255 255 255
255 255 255
255 255 255
255 255 255
255 255 255
255 255 255
255 255 255
255 255 255
255 255 255
255 255 255
255 255 255
255 255 255
255 255 255
255 255 255
255 255 255
255 255 255
255 255 255
255 255 255
255 255 255
255 255 255
255 255 255
255 255 255
200 50 50
200 50 50
200 50 50
200 50 50
200 50 50
200 50 50
200 50 50
200 50 50
200 50 50
200 50 50
200 50 50
200 50 50
200 50 50
200 50 50
200 50 50
200 50 50
200 50 50
200 50 50
200 50 50
200 50 50
200 50 50
200 50 50
200 50 50
200 50 50
200 50 50
200 50 50
200 50 50
200 50 50
200 50 50
200 50 50
200 50 50
200 50 50
255 255 255
255 255 255
255 255 255
255 255 255
255 255 255
255 255 255
255 255 255
255 255 255
255 255 255
255 255 255
255 255 255
255 255 255
255 255 255
255 255 255
255 255 255
255 255 255
255 255 255
255 255 255
255 255 255
255 255 255
255 255 255
255 255 255
255 255 255
255 255 255
255 255 255
255 255 255
255 255 255
255 255 255
255 255 255
255 255 255
255 255 255
255 255 255
200 50 50
200 50 50
200 50 50
200 50 50
200 50 50
200 50 50
200 50 50
200 50 50
200 50 50
200 50 50
200 50 50
200 50 50
200 50 50
200 50 50
200 50 50
200 50 50
200 50 50
200 50 50
200 50 50
200 50 50
200 50 50
200 50 50
200 50 50
200 50 50
200 50 50
200 50 50
200 50 50
200 50 50
200 50 50
200 50 50
200 50 50
200 50 50
255 255 255
255 255 255
255 255 255
255 255 255
255 255 255
255 255 255
255 255 255
255 255 255
255 255 255
255 255 255
255 255 255
255 255 255
255 255 255
255 255 255
255 255 255
255 255 255
255 255 255
255 255 255
255 255 255
255 255 255
255 255 255
255 255 255
255 255 255
255 255 255
255 255 255
255 255 255
255 255 255
255 255 255
255 255 255
255 255 255
255 255 255
255 255 255
200 50 50
200 50 50
200 50 50
200 50 50
200 50 50
200 50 50
200 50 50
200 50 50
200 50 50
200 50 50
200 50 50
200 50 50
200 50 50
200 50 50
200 50 50
200 50 50
200 50 50
200 50 50
200 50 50
200 50 50
200 50 50
200 50 50
200 50 50
200 50 50
200 50 50
200 50 50
200 50 50
200 50 50
200 50 50
200 50 50
200 50 50
200 50 50
255 255 255
255 255 255
255 255 255
255 255 255
255 255 255
255 255 255
255 255 255
255 255 255
255 255 255
255 255 255
255 255 255
255 255 255
255 255 255
255 255 255
255 255 255
255 255 255
255 255 255
255 255 255
255 255 255
255 255 255
255 255 255
255 255 255
255 255 255
255 255 255
255 255 255
255 255 255
255 255 255
255 255 255
255 255 255
255 255 255
255 255 255
255 255 255
200 50 50
200 50 50
200 50 50
200 50 50
200 50 50
200 50 50
200 50 50
200 50 50
200 50 50
200 50 50
200 50 50
200 50 50
200 50 50
200 50 50
200 50 50
200 50 50
200 50 50
200 50 50
200 50 50
200 50 50
200 50 50
200 50 50
200 50 50
200 50 50
200 50 50
200 50 50
200 50 50
200 50 50
200 50 50
200 50 50
200 50 50
200 50 50
255 255 255
255 255 255
255 255 255
255 255 255
255 255 255
255 255 255
255 255 255
255 255 255
255 255 255
255 255 255
255 255 255
255 255 255
255 255 255
255 255 255
255 255 255
255 255 255
255 255 255
255 255 255
255 255 255
255 255 255
255 255 255
255 255 255
255 255 255
255 255 255
255 255 255
255 255 255
255 255 255
255 255 255
255 255 255
255 255 255
255 255 255
255 255 255
200 50 50
200 50 50
200 50 50
200 50 50
200 50 50
200 50 50
200 50 50
200 50 50
200 50 50
200 50 50
200 50 50
200 50 50
200 50 50
200 50 50
200 50 50
200 50 50
200 50 50
200 50 50
200 50 50
200 50 50
200 50 50
200 50 50
200 50 50
200 50 50
200 50 50
200 50 50
200 50 50
200 50 50
200 50 50
200 50 50
200 50 50
200 50 50
255 255 255
255 255 255
255 255 255
255 255 255
255 255 255
255 255 255
255 255 255
255 255 255
255 255 255
255 255 255
255 255 255
255 255 255
255 255 255
255 255 255
255 255 255
255 255 255
255 255 255
255 255 255
255 255 255
255 255 255
255 255 255
255 255 255
255 255 255
255 255 255
255 255 255
255 255 255
255 255 255
255 255 255
255 255 255
255 255 255
255 255 255
255 255 255
200 50 50
200 50 50
200 50 50
200 50 50
200 50 50
200 50 50
200 50 50
200 50 50
200 50 50
200 50 50
200 50 50
200 50 50
200 50 50
200 50 50
200 50 50
200 50 50
200 50 50
200 50 50
200 50 50
200 50 50
200 50 50
200 50 50
200 50 50
200 50 50
200 50 50
200 50 50
200 50 50
200 50 50
200 50 50
200 50 50
200 50 50
200 50 50
255 255 255
255 255 255
255 255 255
255 255 255
255 255 255
255 255 255
255 255 255
255 255 255
255 255 255
255 255 255
255 255 255
255 255 255
255 255 255
255 255 255
255 255 255
255 255 255
255 255 255
255 255 255
255 255 255
255 255 255
255 255 255
255 255 255
255 255 255
255 255 255
255 255 255
255 255 255
255 255 255
255 255 255
255 255 255
255 255 255
255 255 255
255 255 255
200 50 50
200 50 50
200 50 50
200 50 50
200 50 50
200 50 50
200 50 50
200 50 50
200 50 50
200 50 50
200 50 50
200 50 50
200 50 50
200 50 50
200 50 50
200 50 50
200 50 50
200 50 50
200 50 50
200 50 50
200 50 50
200 50 50
200 50 50
200 50 50
200 50 50
200 50 50
200 50 50
200 50 50
200 50 50
200 50 50
200 50 50
200 50 50
255 255 255
255 255 255
255 255 255
255 255 255
255 255 255
255 255 255
255 255 255
255 255 255
255 255 255
255 255 255
255 255 255
255 255 255
255 255 255
255 255 255
255 255 255
255 255 255
255 255 255
255 255 255
255 255 255
255 255 255
255 255 255
255 255 255
255 255 255
255 255 255
255 255 255
255 255 255
255 255 255
255 255 255
255 255 255
255 255 255
255 255 255
255 255 255
200 50 50
200 50 50
200 50 50
200 50 50
200 50 50
200 50 50
200 50 50
200 50 50
200 50 50
200 50 50
200 50 50
200 50 50
200 50 50
200 50 50
200 50 50
200 50 50
200 50 50
200 50 50
200 50 50
200 50 50
200 50 50
200 50 50
200 50 50
200 50 50
200 50 50
200 50 50
200 50 50
200 50 50
200 50 50
200 50 50
200 50 50
200 50 50
255 255 255
255 255 255
255 255 255
255 255 255
255 255 255
255 255 255
255 255 255
255 255 255
255 255 255
255 255 255
255 255 255
255 255 255
255 255 255
255 255 255
255 255 255
255 255 255
255 255 255
255 255 255
255 255 255
255 255 255
255 255 255
255 255 255
255 255 255
255 255 255
255 255 255
255 255 255
255 255 255
255 255 255
255 255 255
255 255 255
255 255 255
255 255 255
200 50 50
200 50 50
200 50 50
200 50 50
200 50 50
200 50 50
200 50 50
200 50 50
200 50 50
200 50 50
200 50 50
200 50 50
200 50 50
200 50 50
200 50 50
200 50 50
200 50 50
200 50 50
200 50 50
200 50 50
200 50 50
200 50 50
200 50 50
200 50 50
200 50 50
200 50 50
200 50 50
200 50 50
200 50 50
200 50 50
200 50 50
200 50 50
255 255 255
255 255 255
255 255 255
255 255 255
255 255 255
255 255 255
255 255 255
255 255 255
255 255 255
255 255 255
255 255 255
255 255 255
255 255 255
255 255 255
255 255 255
255 255 255
255 255 255
255 255 255
255 255 255
255 255 255
255 255 255
255 255 255
255 255 255
255 255 255
255 255 255
255 255 255
255 255 255
255 255 255
255 255 255
255 255 255
255 255 255
255 255 255
200 50 50
200 50 50
200 50 50
200 50 50
200 50 50
200 50 50
200 50 50
200 50 50
200 50 50
200 50 50
200 50 50
200 50 50
200 50 50
200 50 50
200 50 50
200 50 50
200 50 50
200 50 50
200 50 50
200 50 50
200 50 50
200 50 50
200 50 50
200 50 50
200 50 50
200 50 50
200 50 50
200 50 50
200 50 50
200 50 50
200 50 50
200 50 50
255 255 255
255 255 255
255 255 255
255 255 255
255 255 255
255 255 255
255 255 255
255 255 255
255 255 255
255 255 255
255 255 255
255 255 255
255 255 255
255 255 255
255 255 255
255 255 255
255 255 255
255 255 255
255 255 255
255 255 255
255 255 255
255 255 255
255 255 255
255 255 255
255 255 255
255 255 255
255 255 255
255 255 255
255 255 255
255 255 255
255 255 255
255 255 255
200 50 50
200 50 50
200 50 50
200 50 50
200 50 50
200 50 50
200 50 50
200 50 50
200 50 50
200 50 50
200 50 50
200 50 50
200 50 50
200 50 50
200 50 50
200 50 50
200 50 50
200 50 50
200 50 50
200 50 50
200 50 50
200 50 50
200 50 50
200 50 50
200 50 50
200 50 50
200 50 50
200 50 50
200 50 50
200 50 50
200 50 50
200 50 50
255 255 255
255 255 255
255 255 255
255 255 255
255 255 255
255 255 255
255 255 255
255 255 255
255 255 255
255 255 255
255 255 255
255 255 255
255 255 255
255 255 255
255 255 255
255 255 255
255 255 255
255 255 255
255 255 255
255 255 255
255 255 255
255 255 255
255 255 255
255 255 255
255 255 255
255 255 255
255 255 255
255 255 255
255 255 255
255 255 255
255 255 255
255 255 255
200 50 50
200 50 50
200 50 50
200 50 50
200 50 50
200 50 50
200 50 50
200 50 50
200 50 50
200 50 50
200 50 50
200 50 50
200 50 50
200 50 50
200 50 50
200 50 50
200 50 50
200 50 50
200 50 50
200 50 50
200 50 50
200 50 50
200 50 50
200 50 50
200 50 50
200 50 50
200 50 50
200 50 50
200 50 50
200 50 50
200 50 50
200 50 50
255 255 255
255 255 255
255 255 255
255 255 255
255 255 255
255 255 255
255 255 255
255 255 255
255 255 255
255 255 255
255 255 255
255 255 255
255 255 255
255 255 255
255 255 255
255 255 255
255 255 255
255 255 255
255 255 255
255 255 255
255 255 255
255 255 255
255 255 255
255 255 255
255 255 255
255 255 255
255 255 255
255 255 255
255 255 255
255 255 255
255 255 255
255 255 255
200 50 50
200 50 50
200 50 50
200 50 50
200 50 50
200 50 50
200 50 50
200 50 50
200 50 50
200 50 50
200 50 50
200 50 50
200 50 50
200 50 50
200 50 50
200 50 50
200 50 50
200 50 50
200 50 50
200 50 50
200 50 50
200 50 50
200 50 50
200 50 50
200 50 50
200 50 50
200 50 50
200 50 50
200 50 50
200 50 50
200 50 50
200 50 50
255 255 255
255 255 255
255 255 255
255 255 255
255 255 255
255 255 255
255 255 255
255 255 255
255 255 255
255 255 255
255 255 255
255 255 255
255 255 255
255 255 255
255 255 255
255 255 255
255 255 255
255 255 255
255 255 255
255 255 255
255 255 255
255 255 255
255 255 255
255 255 255
255 255 255
255 255 255
255 255 255
255 255 255
255 255 255
255 255 255
255 255 255
255 255 255
200 50 50
200 50 50
200 50 50
200 50 50
200 50 50
200 50 50
200 50 50
200 50 50
200 50 50
200 50 50
200 50 50
200 50 50
200 50 50
200 50 50
200 50 50
200 50 50
200 50 50
200 50 50
200 50 50
200 50 50
200 50 50
200 50 50
200 50 50
200 50 50
200 50 50
200 50 50
200 50 50
200 50 50
200 50 50
200 50 50
200 50 50
200 50 50
255 255 255
255 255 255
255 255 255
255 255 255
255 255 255
255 255 255
255 255 255
255 255 255
255 255 255
255 255 255
255 255 255
255 255 255
255 255 255
255 255 255
255 255 255
255 255 255
255 255 255
255 255 255
255 255 255
255 255 255
255 255 255
255 255 255
255 255 255
255 255 255
255 255 255
255 255 255
255 255 255
255 255 255
255 255 255
255 255 255
255 255 255
255 255 255
200 50 50
200 50 50
200 50 50
200 50 50
200 50 50
200 50 50
200 50 50
200 50 50
200 50 50
200 50 50
200 50 50
200 50 50
200 50 50
200 50 50
200 50 50
200 50 50
200 50 50
200 50 50
200 50 50
200 50 50
200 50 50
200 50 50
200 50 50
200 50 50
200 50 50
200 50 50
200 50 50
200 50 50
200 50 50
200 50 50
200 50 50
200 50 50
255 255 255
255 255 255
255 255 255
255 255 255
255 255 255
255 255 255
255 255 255
255 255 255
255 255 255
255 255 255
255 255 255
255 255 255
255 255 255
255 255 255
255 255 255
255 255 255
255 255 255
255 255 255
255 255 255
255 255 255
255 255 255
255 255 255
255 255 255
255 255 255
255 255 255
255 255 255
255 255 255
255 255 255
255 255 255
255 255 255
255 255 255
255 255 255
200 50 50
200 50 50
200 50 50
200 50 50
200 50 50
200 50 50
200 50 50
200 50 50
200 50 50
200 50 50
200 50 50
200 50 50
200 50 50
200 50 50
200 50 50
200 50 50
200 50 50
200 50 50
200 50 50
200 50 50
200 50 50
200 50 50
200 50 50
200 50 50
200 50 50
200 50 50
200 50 50
200 50 50
200 50 50
200 50 50
200 50 50
200 50 50
255 255 255
255 255 255
255 255 255
255 255 255
255 255 255
255 255 255
255 255 255
255 255 255
255 255 255
255 255 255
255 255 255
255 255 255
255 255 255
255 255 255
255 255 255
255 255 255
255 255 255
255 255 255
255 255 255
255 255 255
255 255 255
255 255 255
255 255 255
255 255 255
255 255 255
255 255 255
255 255 255
255 255 255
255 255 255
255 255 255
255 255 255
255 255 255
200 50 50
200 50 50
200 50 50
200 50 50
200 50 50
200 50 50
200 50 50
200 50 50
200 50 50
200 50 50
200 50 50
200 50 50
200 50 50
200 50 50
200 50 50
200 50 50
200 50 50
200 50 50
200 50 50
200 50 50
200 50 50
200 50 50
200 50 50
200 50 50
200 50 50
200 50 50
200 50 50
200 50 50
200 50 50
200 50 50
200 50 50
200 50 50
255 255 255
255 255 255
255 255 255
255 255 255
255 255 255
255 255 255
255 255 255
255 255 255
255 255 255
255 255 255
255 255 255
255 255 255
255 255 255
255 255 255
255 255 255
255 255 255
255 255 255
255 255 255
255 255 255
255 255 255
255 255 255
255 255 255
255 255 255
255 255 255
255 255 255
255 255 255
255 255 255
255 255 255
255 255 255
255 255 255
255 255 255
255 255 255
200 50 50
200 50 50
200 50 50
200 50 50
200 50 50
200 50 50
200 50 50
200 50 50
200 50 50
200 50 50
200 50 50
200 50 50
200 50 50
200 50 50
200 50 50
200 50 50
200 50 50
200 50 50
200 50 50
200 50 50
200 50 50
200 50 50
200 50 50
200 50 50
200 50 50
200 50 50
200 50 50
200 50 50
200 50 50
200 50 50
200 50 50
200 50 50
255 255 255
255 255 255
255 255 255
255 255 255
255 255 255
255 255 255
255 255 255
255 255 255
255 255 255
255 255 255
255 255 255
255 255 255
255 255 255
255 255 255
255 255 255
255 255 255
255 255 255
255 255 255
255 255 255
255 255 255
255 255 255
255 255 255
255 255 255
255 255 255
255 255 255
255 255 255
255 255 255
255 255 255
255 255 255
255 255 255
255 255 255
255 255 255
200 50 50
200 50 50
200 50 50
200 50 50
200 50 50
200 50 50
200 50 50
200 50 50
200 50 50
200 50 50
200 50 50
200 50 50
200 50 50
200 50 50
200 50 50
200 50 50
200 50 50
200 50 50
200 50 50
200 50 50
200 50 50
200 50 50
200 50 50
200 50 50
200 50 50
200 50 50
200 50 50
200 50 50
200 50 50
200 50 50
200 50 50
200 50 50
255 255 255
255 255 255
255 255 255
255 255 255
255 255 255
255 255 255
255 255 255
255 255 255
255 255 255
255 255 255
255 255 255
255 255 255
255 255 255
255 255 255
255 255 255
255 255 255
255 255 255
255 255 255
255 255 255
255 255 255
255 255 255
255 255 255
255 255 255
255 255 255
255 255 255
255 255 255
255 255 255
255 255 255
255 255 255
255 255 255
255 255 255
255 255 255
200 50 50
200 50 50
200 50 50
200 50 50
200 50 50
200 50 50
200 50 50
200 50 50
200 50 50
200 50 50
200 50 50
200 50 50
200 50 50
200 50 50
200 50 50
200 50 50
200 50 50
200 50 50
200 50 50
200 50 50
200 50 50
200 50 50
200 50 50
200 50 50
200 50 50
200 50 50
200 50 50
200 50 50
200 50 50
200 50 50
200 50 50
200 50 50
255 255 255
255 255 255
255 255 255
255 255 255
255 255 255
255 255 255
255 255 255
255 255 255
255 255 255
255 255 255
255 255 255
255 255 255
255 255 255
255 255 255
255 255 255
255 255 255
255 255 255
255 255 255
255 255 255
255 255 255
255 255 255
255 255 255
255 255 255
255 255 255
255 255 255
255 255 255
255 255 255
255 255 255
255 255 255
255 255 255
255 255 255
255 255 255
200 50 50
200 50 50
200 50 50
200 50 50
200 50 50
200 50 50
200 50 50
200 50 50
200 50 50
200 50 50
200 50 50
200 50 50
200 50 50
200 50 50
200 50 50
200 50 50
200 50 50
200 50 50
200 50 50
200 50 50
200 50 50
200 50 50
200 50 50
200 50 50
200 50 50
200 50 50
200 50 50
200 50 50
200 50 50
200 50 50
200 50 50
200 50 50
255 255 255
255 255 255
255 255 255
255 255 255
255 255 255
255 255 255
255 255 255
255 255 255
255 255 255
255 255 255
255 255 255
255 255 255
255 255 255
255 255 255
255 255 255
255 255 255
255 255 255
255 255 255
255 255 255
255 255 255
255 255 255
255 255 255
255 255 255
255 255 255
255 255 255
255 255 255
255 255 255
255 255 255
255 255 255
255 255 255
255 255 255
255 255 255
200 50 50
200 50 50
200 50 50
200 50 50
200 50 50
200 50 50
200 50 50
200 50 50
200 50 50
200 50 50
200 50 50
200 50 50
200 50 50
200 50 50
200 50 50
200 50 50
200 50 50
200 50 50
200 50 50
200 50 50
200 50 50
200 50 50
200 50 50
200 50 50
200 50 50
200 50 50
200 50 50
200 50 50
200 50 50
200 50 50
200 50 50
200 50 50
255 255 255
255 255 255
255 255 255
255 255 255
255 255 255
255 255 255
255 255 255
255 255 255
255 255 255
255 255 255
255 255 255
255 255 255
255 255 255
255 255 255
255 255 255
255 255 255
255 255 255
255 255 255
255 255 255
255 255 255
255 255 255
255 255 255
255 255 255
255 255 255
255 255 255
255 255 255
255 255 255
255 255 255
255 255 255
255 255 255
255 255 255
255 255 255
200 50 50
200 50 50
200 50 50
200 50 50
200 50 50
200 50 50
200 50 50
200 50 50
200 50 50
200 50 50
200 50 50
200 50 50
200 50 50
200 50 50
200 50 50
200 50 50
200 50 50
200 50 50
200 50 50
200 50 50
200 50 50
200 50 50
200 50 50
200 50 50
200 50 50
200 50 50
200 50 50
200 50 50
200 50 50
200 50 50
200 50 50
200 50 50
255 255 255
255 255 255
255 255 255
255 255 255
255 255 255
255 255 255
255 255 255
255 255 255
255 255 255
255 255 255
255 255 255
255 255 255
255 255 255
255 255 255
255 255 255
255 255 255
255 255 255
255 255 255
255 255 255
255 255 255
255 255 255
255 255 255
255 255 255
255 255 255
255 255 255
255 255 255
255 255 255
255 255 255
255 255 255
255 255 255
255 255 255
255 255 255
200 50 50
200 50 50
200 50 50
200 50 50
200 50 50
200 50 50
200 50 50
200 50 50
200 50 50
200 50 50
200 50 50
200 50 50
200 50 50
200 50 50
200 50 50
200 50 50
200 50 50
200 50 50
200 50 50
200 50 50
200 50 50
200 50 50
200 50 50
200 50 50
200 50 50
200 50 50
200 50 50
200 50 50
200 50 50
200 50 50
200 50 50
200 50 50
255 255 255
255 255 255
255 255 255
255 255 255
255 255 255
255 255 255
255 255 255
255 255 255
255 255 255
255 255 255
255 255 255
255 255 255
255 255 255
255 255 255
255 255 255
255 255 255
255 255 255
255 255 255
255 255 255
255 255 255
255 255 255
255 255 255
255 255 255
255 255 255
255 255 255
255 255 255
255 255 255
255 255 255
255 255 255
255 255 255
255 255 255
255 255 255
200 50 50
200 50 50
200 50 50
200 50 50
200 50 50
200 50 50
200 50 50
200 50 50
200 50 50
200 50 50
200 50 50
200 50 50
200 50 50
200 50 50
200 50 50
200 50 50
200 50 50
200 50 50
200 50 50
200 50 50
200 50 50
200 50 50
200 50 50
200 50 50
200 50 50
200 50 50
200 50 50
200 50 50
200 50 50
200 50 50
200 50 50
200 50 50
255 255 255
255 255 255
255 255 255
255 255 255
255 255 255
255 255 255
255 255 255
255 255 255
255 255 255
255 255 255
255 255 255
255 255 255
255 255 255
255 255 255
255 255 255
255 255 255
255 255 255
255 255 255
255 255 255
255 255 255
255 255 255
255 255 255
255 255 255
255 255 255
255 255 255
255 255 255
255 255 255
255 255 255
255 255 255
255 255 255
255 255 255
255 255 255
200 50 50
200 50 50
200 50 50
200 50 50
200 50 50
200 50 50
200 50 50
200 50 50
200 50 50
200 50 50
200 50 50
200 50 50
200 50 50
200 50 50
200 50 50
200 50 50
200 50 50
200 50 50
200 50 50
200 50 50
200 50 50
200 50 50
200 50 50
200 50 50
200 50 50
200 50 50
200 50 50
200 50 50
200 50 50
200 50 50
200 50 50
200 50 50
255 255 255
255 255 255
255 255 255
255 255 255
255 255 255
255 255 255
255 255 255
255 255 255
255 255 255
255 255 255
255 255 255
255 255 255
255 255 255
255 255 255
255 255 255
255 255 255
255 255 255
255 255 255
255 255 255
255 255 255
255 255 255
255 255 255
255 255 255
255 255 255
255 255 255
255 255 255
255 255 255
255 255 255
255 255 255
255 255 255
255 255 255
255 255 255
200 50 50
200 50 50
200 50 50
200 50 50
200 50 50
200 50 50
200 50 50
200 50 50
200 50 50
200 50 50
200 50 50
200 50 50
200 50 50
200 50 50
200 50 50
200 50 50
200 50 50
200 50 50
200 50 50
200 50 50
200 50 50
200 50 50
200 50 50
200 50 50
200 50 50
200 50 50
200 50 50
200 50 50
200 50 50
200 50 50
200 50 50
200 50 50
255 255 255
255 255 255
255 255 255
255 255 255
255 255 255
255 255 255
255 255 255
255 255 255
255 255 255
255 255 255
255 255 255
255 255 255
255 255 255
255 255 255
255 255 255
255 255 255
255 255 255
255 255 255
255 255 255
255 255 255
255 255 255
255 255 255
255 255 255
255 255 255
255 255 255
255 255 255
255 255 255
255 255 255
255 255 255
255 255 255
255 255 255
255 255 255
200 50 50
200 50 50
200 50 50
200 50 50
200 50 50
200 50 50
200 50 50
200 50 50
200 50 50
200 50 50
200 50 50
200 50 50
200 50 50
200 50 50
200 50 50
200 50 50
200 50 50
200 50 50
200 50 50
200 50 50
200 50 50
200 50 50
200 50 50
200 50 50
200 50 50
200 50 50
200 50 50
200 50 50
200 50 50
200 50 50
200 50 50
200 50 50
255 255 255
255 255 255
255 255 255
255 255 255
255 255 255
255 255 255
255 255 255
255 255 255
255 255 255
255 255 255
255 255 255
255 255 255
255 255 255
255 255 255
255 255 255
255 255 255
255 255 255
255 255 255
255 255 255
255 255 255
255 255 255
255 255 255
255 255 255
255 255 255
255 255 255
255 255 255
255 255 255
255 255 255
255 255 255
255 255 255
255 255 255
255 255 255
200 50 50
200 50 50
200 50 50
200 50 50
200 50 50
200 50 50
200 50 50
200 50 50
200 50 50
200 50 50
200 50 50
200 50 50
200 50 50
200 50 50
200 50 50
200 50 50
200 50 50
200 50 50
200 50 50
200 50 50
200 50 50
200 50 50
200 50 50
200 50 50
200 50 50
200 50 50
200 50 50
200 50 50
200 50 50
200 50 50
200 50 50
200 50 50
255 255 255
255 255 255
255 255 255
255 255 255
255 255 255
255 255 255
255 255 255
255 255 255
255 255 255
255 255 255
255 255 255
255 255 255
255 255 255
255 255 255
255 255 255
255 255 255
255 255 255
255 255 255
255 255 255
255 255 255
255 255 255
255 255 255
255 255 255
255 255 255
255 255 255
255 255 255
255 255 255
255 255 255
255 255 255
255 255 255
255 255 255
255 255 255
200 50 50
200 50 50
200 50 50
200 50 50
200 50 50
200 50 50
200 50 50
200 50 50
200 50 50
200 50 50
200 50 50
200 50 50
200 50 50
200 50 50
200 50 50
200 50 50
200 50 50
200 50 50
200 50 50
200 50 50
200 50 50
200 50 50
200 50 50
200 50 50
200 50 50
200 50 50
200 50 50
200 50 50
200 50 50
200 50 50
200 50 50
200 50 50
255 255 255
255 255 255
255 255 255
255 255 255
255 255 255
255 255 255
255 255 255
255 255 255
255 255 255
255 255 255
255 255 255
255 255 255
255 255 255
255 255 255
255 255 255
255 255 255
255 255 255
255 255 255
255 255 255
255 255 255
255 255 255
255 255 255
255 255 255
255 255 255
255 255 255
255 255 255
255 255 255
255 255 255
255 255 255
255 255 255
255 255 255
255 255 255
200 50 50
200 50 50
200 50 50
200 50 50
200 50 50
200 50 50
200 50 50
200 50 50
200 50 50
200 50 50
200 50 50
200 50 50
200 50 50
200 50 50
200 50 50
200 50 50
200 50 50
200 50 50
200 50 50
200 50 50
200 50 50
200 50 50
200 50 50
200 50 50
200 50 50
200 50 50
200 50 50
200 50 50
200 50 50
200 50 50
200 50 50
200 50 50
255 255 255
255 255 255
255 255 255
255 255 255
255 255 255
255 255 255
255 255 255
255 255 255
255 255 255
255 255 255
255 255 255
255 255 255
255 255 255
255 255 255
255 255 255
255 255 255
255 255 255
255 255 255
255 255 255
255 255 255
255 255 255
255 255 255
255 255 255
255 255 255
255 255 255
255 255 255
255 255 255
255 255 255
255 255 255
255 255 255
255 255 255
255 255 255
200 50 50
200 50 50
200 50 50
200 50 50
200 50 50
200 50 50
200 50 50
200 50 50
200 50 50
200 50 50
200 50 50
200 50 50
200 50 50
200 50 50
200 50 50
200 50 50
200 50 50
200 50 50
200 50 50
200 50 50
200 50 50
200 50 50
200 50 50
200 50 50
200 50 50
200 50 50
200 50 50
200 50 50
200 50 50
200 50 50
200 50 50
200 50 50
255 255 255
255 255 255
255 255 255
255 255 255
255 255 255
255 255 255
255 255 255
255 255 255
255 255 255
255 255 255
255 255 255
255 255 255
255 255 255
255 255 255
255 255 255
255 255 255
255 255 255
255 255 255
255 255 255
255 255 255
255 255 255
255 255 255
255 255 255
255 255 255
255 255 255
255 255 255
255 255 255
255 255 255
255 255 255
255 255 255
255 255 255
255 255 255
200 50 50
200 50 50
200 50 50
200 50 50
200 50 50
200 50 50
200 50 50
200 50 50
200 50 50
200 50 50
200 50 50
200 50 50
200 50 50
200 50 50
200 50 50
200 50 50
200 50 50
200 50 50
200 50 50
200 50 50
200 50 50
200 50 50
200 50 50
200 50 50
200 50 50
200 50 50
200 50 50
200 50 50
200 50 50
200 50 50
200 50 50
200 50 50
255 255 255
255 255 255
255 255 255
255 255 255
255 255 255
255 255 255
255 255 255
255 255 255
255 255 255
255 255 255
255 255 255
255 255 255
255 255 255
255 255 255
255 255 255
255 255 255
255 255 255
255 255 255
255 255 255
255 255 255
255 255 255
255 255 255
255 255 255
255 255 255
255 255 255
255 255 255
255 255 255
255 255 255
255 255 255
255 255 255
255 255 255
255 255 255
200 50 50
200 50 50
200 50 50
200 50 50
200 50 50
200 50 50
200 50 50
200 50 50
200 50 50
200 50 50
200 50 50
200 50 50
200 50 50
200 50 50
200 50 50
200 50 50
200 50 50
200 50 50
200 50 50
200 50 50
200 50 50
200 50 50
200 50 50
200 50 50
200 50 50
200 50 50
200 50 50
200 50 50
200 50 50
200 50 50
200 50 50
200 50 50
255 255 255
255 255 255
255 255 255
255 255 255
255 255 255
255 255 255
255 255 255
255 255 255
255 255 255
255 255 255
255 255 255
255 255 255
255 255 255
255 255 255
255 255 255
255 255 255
255 255 255
255 255 255
255 255 255
255 255 255
255 255 255
255 255 255
255 255 255
255 255 255
255 255 255
255 255 255
255 255 255
255 255 255
255 255 255
255 255 255
255 255 255
255 255 255
200 50 50
200 50 50
200 50 50
200 50 50
200 50 50
200 50 50
200 50 50
200 50 50
200 50 50
200 50 50
200 50 50
200 50 50
200 50 50
200 50 50
200 50 50
200 50 50
200 50 50
200 50 50
200 50 50
200 50 50
200 50 50
200 50 50
200 50 50
200 50 50
200 50 50
200 50 50
200 50 50
200 50 50
200 50 50
200 50 50
200 50 50
200 50 50
255 255 255
255 255 255
255 255 255
255 255 255
255 255 255
255 255 255
255 255 255
255 255 255
255 255 255
255 255 255
255 255 255
255 255 255
255 255 255
255 255 255
255 255 255
255 255 255
255 255 255
255 255 255
255 255 255
255 255 255
255 255 255
255 255 255
255 255 255
255 255 255
255 255 255
255 255 255
255 255 255
255 255 255
255 255 255
255 255 255
255 255 255
255 255 255
200 50 50
200 50 50
200 50 50
200 50 50
200 50 50
200 50 50
200 50 50
200 50 50
200 50 50
200 50 50
200 50 50
200 50 50
200 50 50
200 50 50
200 50 50
200 50 50
200 50 50
200 50 50
200 50 50
200 50 50
200 50 50
200 50 50
200 50 50
200 50 50
200 50 50
200 50 50
200 50 50
200 50 50
200 50 50
200 50 50
200 50 50
200 50 50
255 255 255
255 255 255
255 255 255
255 255 255
255 255 255
255 255 255
255 255 255
255 255 255
255 255 255
255 255 255
255 255 255
255 255 255
255 255 255
255 255 255
255 255 255
255 255 255
255 255 255
255 255 255
255 255 255
255 255 255
255 255 255
255 255 255
255 255 255
255 255 255
255 255 255
255 255 255
255 255 255
255 255 255
255 255 255
255 255 255
255 255 255
255 255 255
200 50 50
200 50 50
200 50 50
200 50 50
200 50 50
200 50 50
200 50 50
200 50 50
200 50 50
200 50 50
200 50 50
200 50 50
200 50 50
200 50 50
200 50 50
200 50 50
200 50 50
200 50 50
200 50 50
200 50 50
200 50 50
200 50 50
200 50 50
200 50 50
200 50 50
200 50 50
200 50 50
200 50 50
200 50 50
200 50 50
200 50 50
200 50 50
255 255 255
255 255 255
255 255 255
255 255 255
255 255 255
255 255 255
255 255 255
255 255 255
255 255 255
255 255 255
255 255 255
255 255 255
255 255 255
255 255 255
255 255 255
255 255 255
255 255 255
255 255 255
255 255 255
255 255 255
255 255 255
255 255 255
255 255 255
255 255 255
255 255 255
255 255 255
255 255 255
255 255 255
255 255 255
255 255 255
255 255 255
255 255 255
200 50 50
200 50 50
200 50 50
200 50 50
200 50 50
200 50 50
200 50 50
200 50 50
200 50 50
200 50 50
200 50 50
200 50 50
200 50 50
200 50 50
200 50 50
200 50 50
200 50 50
200 50 50
200 50 50
200 50 50
200 50 50
200 50 50
200 50 50
200 50 50
200 50 50
200 50 50
200 50 50
200 50 50
200 50 50
200 50 50
200 50 50
200 50 50
255 255 255
255 255 255
255 255 255
255 255 255
255 255 255
255 255 255
255 255 255
255 255 255
255 255 255
255 255 255
255 255 255
255 255 255
255 255 255
255 255 255
255 255 255
255 255 255
255 255 255
255 255 255
255 255 255
255 255 255
255 255 255
255 255 255
255 255 255
255 255 255
255 255 255
255 255 255
255 255 255
255 255 255
255 255 255
255 255 255
255 255 255
255 255 255
200 50 50
200 50 50
200 50 50
200 50 50
200 50 50
200 50 50
200 50 50
200 50 50
200 50 50
200 50 50
200 50 50
200 50 50
200 50 50
200 50 50
200 50 50
200 50 50
200 50 50
200 50 50
200 50 50
200 50 50
200 50 50
200 50 50
200 50 50
200 50 50
200 50 50
200 50 50
200 50 50
200 50 50
200 50 50
200 50 50
200 50 50
200 50 50
255 255 255
255 255 255
255 255 255
255 255 255
255 255 255
255 255 255
255 255 255
255 255 255
255 255 255
255 255 255
255 255 255
255 255 255
255 255 255
255 255 255
255 255 255
255 255 255
255 255 255
255 255 255
255 255 255
255 255 255
255 255 255
255 255 255
255 255 255
255 255 255
255 255 255
255 255 255
255 255 255
255 255 255
255 255 255
255 255 255
255 255 255
255 255 255
200 50 50
200 50 50
200 50 50
200 50 50
200 50 50
200 50 50
200 50 50
200 50 50
200 50 50
200 50 50
200 50 50
200 50 50
200 50 50
200 50 50
200 50 50
200 50 50
200 50 50
200 50 50
200 50 50
200 50 50
200 50 50
200 50 50
200 50 50
200 50 50
200 50 50
200 50 50
200 50 50
200 50 50
200 50 50
200 50 50
200 50 50
200 50 50
255 255 255
255 255 255
255 255 255
255 255 255
255 255 255
255 255 255
255 255 255
255 255 255
255 255 255
255 255 255
255 255 255
255 255 255
255 255 255
255 255 255
255 255 255
255 255 255
255 255 255
255 255 255
255 255 255
255 255 255
255 255 255
255 255 255
255 255 255
255 255 255
255 255 255
255 255 255
255 255 255
255 255 255
255 255 255
255 255 255
255 255 255
255 255 255
200 50 50
200 50 50
200 50 50
200 50 50
200 50 50
200 50 50
200 50 50
200 50 50
200 50 50
200 50 50
200 50 50
200 50 50
200 50 50
200 50 50
200 50 50
200 50 50
200 50 50
200 50 50
200 50 50
200 50 50
200 50 50
200 50 50
200 50 50
200 50 50
200 50 50
200 50 50
200 50 50
200 50 50
200 50 50
200 50 50
200 50 50
200 50 50
255 255 255
255 255 255
255 255 255
255 255 255
255 255 255
255 255 255
255 255 255
255 255 255
255 255 255
255 255 255
255 255 255
255 255 255
255 255 255
255 255 255
255 255 255
255 255 255
255 255 255
255 255 255
255 255 255
255 255 255
255 255 255
255 255 255
255 255 255
255 255 255
255 255 255
255 255 255
255 255 255
255 255 255
255 255 255
255 255 255
255 255 255
255 255 255
200 50 50
200 50 50
200 50 50
200 50 50
200 50 50
200 50 50
200 50 50
200 50 50
200 50 50
200 50 50
200 50 50
200 50 50
200 50 50
200 50 50
200 50 50
200 50 50
200 50 50
200 50 50
200 50 50
200 50 50
200 50 50
200 50 50
200 50 50
200 50 50
200 50 50
200 50 50
200 50 50
200 50 50
200 50 50
200 50 50
200 50 50
200 50 50
255 255 255
255 255 255
255 255 255
255 255 255
255 255 255
255 255 255
255 255 255
255 255 255
255 255 255
255 255 255
255 255 255
255 255 255
255 255 255
255 255 255
255 255 255
255 255 255
255 255 255
255 255 255
255 255 255
255 255 255
255 255 255
255 255 255
255 255 255
255 255 255
255 255 255
255 255 255
255 255 255
255 255 255
255 255 255
255 255 255
255 255 255
255 255 255
200 50 50
200 50 50
200 50 50
200 50 50
200 50 50
200 50 50
200 50 50
200 50 50
200 50 50
200 50 50
200 50 50
200 50 50
200 50 50
200 50 50
200 50 50
200 50 50
200 50 50
200 50 50
200 50 50
200 50 50
200 50 50
200 50 50
200 50 50
200 50 50
200 50 50
200 50 50
200 50 50
200 50 50
200 50 50
200 50 50
200 50 50
200 50 50
255 255 255
255 255 255
255 255 255
255 255 255
255 255 255
255 255 255
255 255 255
255 255 255
255 255 255
255 255 255
255 255 255
255 255 255
255 255 255
255 255 255
255 255 255
255 255 255
255 255 255
255 255 255
255 255 255
255 255 255
255 255 255
255 255 255
255 255 255
255 255 255
255 255 255
255 255 255
255 255 255
255 255 255
255 255 255
255 255 255
255 255 255
255 255 255
200 50 50
200 50 50
200 50 50
200 50 50
200 50 50
200 50 50
200 50 50
200 50 50
200 50 50
200 50 50
200 50 50
200 50 50
200 50 50
200 50 50
200 50 50
200 50 50
200 50 50
200 50 50
200 50 50
200 50 50
200 50 50
200 50 50
200 50 50
200 50 50
200 50 50
200 50 50
200 50 50
200 50 50
200 50 50
200 50 50
200 50 50
200 50 50
255 255 255
255 255 255
255 255 255
255 255 255
255 255 255
255 255 255
255 255 255
255 255 255
255 255 255
255 255 255
255 255 255
255 255 255
255 255 255
255 255 255
255 255 255
255 255 255
255 255 255
255 255 255
255 255 255
255 255 255
255 255 255
255 255 255
255 255 255
255 255 255
255 255 255
255 255 255
255 255 255
255 255 255
255 255 255
255 255 255
255 255 255
255 255 255
200 50 50
200 50 50
200 50 50
200 50 50
200 50 50
200 50 50
200 50 50
200 50 50
200 50 50
200 50 50
200 50 50
200 50 50
200 50 50
200 50 50
200 50 50
200 50 50
200 50 50
200 50 50
200 50 50
200 50 50
200 50 50
200 50 50
200 50 50
200 50 50
200 50 50
200 50 50
200 50 50
200 50 50
200 50 50
200 50 50
200 50 50
200 50 50
255 255 255
255 255 255
255 255 255
255 255 255
255 255 255
255 255 255
255 255 255
255 255 255
255 255 255
255 255 255
255 255 255
255 255 255
255 255 255
255 255 255
255 255 255
255 255 255
255 255 255
255 255 255
255 255 255
255 255 255
255 255 255
255 255 255
255 255 255
255 255 255
255 255 255
255 255 255
255 255 255
255 255 255
255 255 255
255 255 255
255 255 255
255 255 255
200 50 50
200 50 50
200 50 50
200 50 50
200 50 50
200 50 50
200 50 50
200 50 50
200 50 50
200 50 50
200 50 50
200 50 50
200 50 50
200 50 50
200 50 50
200 50 50
200 50 50
200 50 50
200 50 50
200 50 50
200 50 50
200 50 50
200 50 50
200 50 50
200 50 50
200 50 50
200 50 50
200 50 50
200 50 50
200 50 50
200 50 50
200 50 50
255 255 255
255 255 255
255 255 255
255 255 255
255 255 255
255 255 255
255 255 255
255 255 255
255 255 255
255 255 255
255 255 255
255 255 255
255 255 255
255 255 255
255 255 255
255 255 255
255 255 255
255 255 255
255 255 255
255 255 255
255 255 255
255 255 255
255 255 255
255 255 255
255 255 255
255 255 255
255 255 255
255 255 255
255 255 255
255 255 255
255 255 255
255 255 255
200 50 50
200 50 50
200 50 50
200 50 50
200 50 50
200 50 50
200 50 50
200 50 50
200 50 50
200 50 50
200 50 50
200 50 50
200 50 50
200 50 50
200 50 50
200 50 50
200 50 50
200 50 50
200 50 50
200 50 50
200 50 50
200 50 50
200 50 50
200 50 50
200 50 50
200 50 50
200 50 50
200 50 50
200 50 50
200 50 50
200 50 50
200 50 50
255 255 255
255 255 255
255 255 255
255 255 255
255 255 255
255 255 255
255 255 255
255 255 255
255 255 255
255 255 255
255 255 255
255 255 255
255 255 255
255 255 255
255 255 255
255 255 255
255 255 255
255 255 255
255 255 255
255 255 255
255 255 255
255 255 255
255 255 255
255 255 255
255 255 255
255 255 255
255 255 255
255 255 255
255 255 255
255 255 255
255 255 255
255 255 255
200 50 50
200 50 50
200 50 50
200 50 50
200 50 50
200 50 50
200 50 50
200 50 50
200 50 50
200 50 50
200 50 50
200 50 50
200 50 50
200 50 50
200 50 50
200 50 50
200 50 50
200 50 50
200 50 50
200 50 50
200 50 50
200 50 50
200 50 50
200 50 50
200 50 50
200 50 50
200 50 50
200 50 50
200 50 50
200 50 50
200 50 50
200 50 50
255 255 255
255 255 255
255 255 255
255 255 255
255 255 255
255 255 255
255 255 255
255 255 255
255 255 255
255 255 255
255 255 255
255 255 255
255 255 255
255 255 255
255 255 255
255 255 255
255 255 255
255 255 255
255 255 255
255 255 255
255 255 255
255 255 255
255 255 255
255 255 255
255 255 255
255 255 255
255 255 255
255 255 255
255 255 255
255 255 255
255 255 255
255 255 255
200 50 50
200 50 50
200 50 50
200 50 50
200 50 50
200 50 50
200 50 50
200 50 50
200 50 50
200 50 50
200 50 50
200 50 50
200 50 50
200 50 50
200 50 50
200 50 50
200 50 50
200 50 50
200 50 50
200 50 50
200 50 50
200 50 50
200 50 50
200 50 50
200 50 50
200 50 50
200 50 50
200 50 50
200 50 50
200 50 50
200 50 50
200 50 50
255 255 255
255 255 255
255 255 255
255 255 255
255 255 255
255 255 255
255 255 255
255 255 255
255 255 255
255 255 255
255 255 255
255 255 255
255 255 255
255 255 255
255 255 255
255 255 255
255 255 255
255 255 255
255 255 255
255 255 255
255 255 255
255 255 255
255 255 255
255 255 255
255 255 255
255 255 255
255 255 255
255 255 255
255 255 255
255 255 255
255 255 255
255 255 255
200 50 50
200 50 50
200 50 50
200 50 50
200 50 50
200 50 50
200 50 50
200 50 50
200 50 50
200 50 50
200 50 50
200 50 50
200 50 50
200 50 50
200 50 50
200 50 50
200 50 50
200 50 50
200 50 50
200 50 50
200 50 50
200 50 50
200 50 50
200 50 50
200 50 50
200 50 50
200 50 50
200 50 50
200 50 50
200 50 50
200 50 50
200 50 50
255 255 255
255 255 255
255 255 255
255 255 255
255 255 255
255 255 255
255 255 255
255 255 255
255 255 255
255 255 255
255 255 255
255 255 255
255 255 255
255 255 255
255 255 255
255 255 255
255 255 255
255 255 255
255 255 255
255 255 255
255 255 255
255 255 255
255 255 255
255 255 255
255 255 255
255 255 255
255 255 255
255 255 255
255 255 255
255 255 255
255 255 255
255 255 255
200 50 50
200 50 50
200 50 50
200 50 50
200 50 50
200 50 50
200 50 50
200 50 50
200 50 50
200 50 50
200 50 50
200 50 50
200 50 50
200 50 50
200 50 50
200 50 50
200 50 50
200 50 50
200 50 50
200 50 50
200 50 50
200 50 50
200 50 50
200 50 50
200 50 50
200 50 50
200 50 50
200 50 50
200 50 50
200 50 50
200 50 50
200 50 50
255 255 255
255 255 255
255 255 255
255 255 255
255 255 255
255 255 255
255 255 255
255 255 255
255 255 255
255 255 255
255 255 255
255 255 255
255 255 255
255 255 255
255 255 255
255 255 255
255 255 255
255 255 255
255 255 255
255 255 255
255 255 255
255 255 255
255 255 255
255 255 255
255 255 255
255 255 255
255 255 255
255 255 255
255 255 255
255 255 255
255 255 255
255 255 255
200 50 50
200 50 50
200 50 50
200 50 50
200 50 50
200 50 50
200 50 50
200 50 50
200 50 50
200 50 50
200 50 50
200 50 50
200 50 50
200 50 50
200 50 50
200 50 50
200 50 50
200 50 50
200 50 50
200 50 50
200 50 50
200 50 50
200 50 50
200 50 50
200 50 50
200 50 50
200 50 50
200 50 50
200 50 50
200 50 50
200 50 50
200 50 50
255 255 255
255 255 255
255 255 255
255 255 255
255 255 255
255 255 255
255 255 255
255 255 255
255 255 255
255 255 255
255 255 255
255 255 255
255 255 255
255 255 255
255 255 255
255 255 255
255 255 255
255 255 255
255 255 255
255 255 255
255 255 255
255 255 255
255 255 255
255 255 255
255 255 255
255 255 255
255 255 255
255 255 255
255 255 255
255 255 255
255 255 255
255 255 255
200 50 50
200 50 50
200 50 50
200 50 50
200 50 50
200 50 50
200 50 50
200 50 50
200 50 50
200 50 50
200 50 50
200 50 50
200 50 50
200 50 50
200 50 50
200 50 50
200 50 50
200 50 50
200 50 50
200 50 50
200 50 50
200 50 50
200 50 50
200 50 50
200 50 50
200 50 50
200 50 50
200 50 50
200 50 50
200 50 50
200 50 50
200 50 50
255 255 255
255 255 255
255 255 255
255 255 255
255 255 255
255 255 255
255 255 255
255 255 255
255 255 255
255 255 255
255 255 255
255 255 255
255 255 255
255 255 255
255 255 255
255 255 255
255 255 255
255 255 255
255 255 255
255 255 255
255 255 255
255 255 255
255 255 255
255 255 255
255 255 255
255 255 255
255 255 255
255 255 255
255 255 255
255 255 255
255 255 255
255 255 255
200 50 50
200 50 50
200 50 50
200 50 50
200 50 50
200 50 50
200 50 50
200 50 50
200 50 50
200 50 50
200 50 50
200 50 50
200 50 50
200 50 50
200 50 50
200 50 50
200 50 50
200 50 50
200 50 50
200 50 50
200 50 50
200 50 50
200 50 50
200 50 50
200 50 50
200 50 50
200 50 50
200 50 50
200 50 50
200 50 50
200 50 50
200 50 50
255 255 255
255 255 255
255 255 255
255 255 255
255 255 255
255 255 255
255 255 255
255 255 255
255 255 255
255 255 255
255 255 255
255 255 255
255 255 255
255 255 255
255 255 255
255 255 255
255 255 255
255 255 255
255 255 255
255 255 255
255 255 255
255 255 255
255 255 255
255 255 255
255 255 255
255 255 255
255 255 255
255 255 255
255 255 255
255 255 255
255 255 255
255 255 255
200 50 50
200 50 50
200 50 50
200 50 50
200 50 50
200 50 50
200 50 50
200 50 50
200 50 50
200 50 50
200 50 50
200 50 50
200 50 50
200 50 50
200 50 50
200 50 50
200 50 50
200 50 50
200 50 50
200 50 50
200 50 50
200 50 50
200 50 50
200 50 50
200 50 50
200 50 50
200 50 50
200 50 50
200 50 50
200 50 50
200 50 50
200 50 50
255 255 255
255 255 255
255 255 255
255 255 255
255 255 255
255 255 255
255 255 255
255 255 255
255 255 255
255 255 255
255 255 255
255 255 255
255 255 255
255 255 255
255 255 255
255 255 255
255 255 255
255 255 255
255 255 255
255 255 255
255 255 255
255 255 255
255 255 255
255 255 255
255 255 255
255 255 255
255 255 255
255 255 255
255 255 255
255 255 255
255 255 255
255 255 255
200 50 50
200 50 50
200 50 50
200 50 50
200 50 50
200 50 50
200 50 50
200 50 50
200 50 50
200 50 50
200 50 50
200 50 50
200 50 50
200 50 50
200 50 50
200 50 50
200 50 50
200 50 50
200 50 50
200 50 50
200 50 50
200 50 50
200 50 50
200 50 50
200 50 50
200 50 50
200 50 50
200 50 50
200 50 50
200 50 50
200 50 50
200 50 50
255 255 255
255 255 255
255 255 255
255 255 255
255 255 255
255 255 255
255 255 255
255 255 255
255 255 255
255 255 255
255 255 255
255 255 255
255 255 255
255 255 255
255 255 255
255 255 255
255 255 255
255 255 255
255 255 255
255 255 255
255 255 255
255 255 255
255 255 255
255 255 255
255 255 255
255 255 255
255 255 255
255 255 255
255 255 255
255 255 255
255 255 255
255 255 255
200 50 50
200 50 50
200 50 50
200 50 50
200 50 50
200 50 50
200 50 50
200 50 50
200 50 50
200 50 50
200 50 50
200 50 50
200 50 50
200 50 50
200 50 50
200 50 50
200 50 50
200 50 50
200 50 50
200 50 50
200 50 50
200 50 50
200 50 50
200 50 50
200 50 50
200 50 50
200 50 50
200 50 50
200 50 50
200 50 50
200 50 50
200 50 50
255 255 255
255 255 255
255 255 255
255 255 255
255 255 255
255 255 255
255 255 255
255 255 255
255 255 255
255 255 255
255 255 255
255 255 255
255 255 255
255 255 255
255 255 255
255 255 255
255 255 255
255 255 255
255 255 255
255 255 255
255 255 255
255 255 255
255 255 255
255 255 255
255 255 255
255 255 255
255 255 255
255 255 255
255 255 255
255 255 255
255 255 255
255 255 255
200 50 50
200 50 50
200 50 50
200 50 50
200 50 50
200 50 50
200 50 50
200 50 50
200 50 50
200 50 50
200 50 50
200 50 50
200 50 50
200 50 50
200 50 50
200 50 50
200 50 50
200 50 50
200 50 50
200 50 50
200 50 50
200 50 50
200 50 50
200 50 50
200 50 50
200 50 50
200 50 50
200 50 50
200 50 50
200 50 50
200 50 50
200 50 50
255 255 255
255 255 255
255 255 255
255 255 255
255 255 255
255 255 255
255 255 255
255 255 255
255 255 255
255 255 255
255 255 255
255 255 255
255 255 255
255 255 255
255 255 255
255 255 255
255 255 255
255 255 255
255 255 255
255 255 255
255 255 255
255 255 255
255 255 255
255 255 255
255 255 255
255 255 255
255 255 255
255 255 255
255 255 255
255 255 255
255 255 255
255 255 255
200 50 50
200 50 50
200 50 50
200 50 50
200 50 50
200 50 50
200 50 50
200 50 50
200 50 50
200 50 50
200 50 50
200 50 50
200 50 50
200 50 50
200 50 50
200 50 50
200 50 50
200 50 50
200 50 50
200 50 50
200 50 50
200 50 50
200 50 50
200 50 50
200 50 50
200 50 50
200 50 50
200 50 50
200 50 50
200 50 50
200 50 50
200 50 50
255 255 255
255 255 255
255 255 255
255 255 255
255 255 255
255 255 255
255 255 255
255 255 255
255 255 255
255 255 255
255 255 255
255 255 255
255 255 255
255 255 255
255 255 255
255 255 255
255 255 255
255 255 255
255 255 255
255 255 255
255 255 255
255 255 255
255 255 255
255 255 255
255 255 255
255 255 255
255 255 255
255 255 255
255 255 255
255 255 255
255 255 255
255 255 255
200 50 50
200 50 50
200 50 50
200 50 50
200 50 50
200 50 50
200 50 50
200 50 50
200 50 50
200 50 50
200 50 50
200 50 50
200 50 50
200 50 50
200 50 50
200 50 50
200 50 50
200 50 50
200 50 50
200 50 50
200 50 50
200 50 50
200 50 50
200 50 50
200 50 50
200 50 50
200 50 50
200 50 50
200 50 50
200 50 50
200 50 50
200 50 50
255 255 255
255 255 255
255 255 255
255 255 255
255 255 255
255 255 255
255 255 255
255 255 255
255 255 255
255 255 255
255 255 255
255 255 255
255 255 255
255 255 255
255 255 255
255 255 255
255 255 255
255 255 255
255 255 255
255 255 255
255 255 255
255 255 255
255 255 255
255 255 255
255 255 255
255 255 255
255 255 255
255 255 255
255 255 255
255 255 255
255 255 255
255 255 255
200 50 50
200 50 50
200 50 50
200 50 50
200 50 50
200 50 50
200 50 50
200 50 50
200 50 50
200 50 50
200 50 50
200 50 50
200 50 50
200 50 50
200 50 50
200 50 50
200 50 50
200 50 50
200 50 50
200 50 50
200 50 50
200 50 50
200 50 50
200 50 50
200 50 50
200 50 50
200 50 50
200 50 50
200 50 50
200 50 50
200 50 50
200 50 50
255 255 255
255 255 255
255 255 255
255 255 255
255 255 255
255 255 255
255 255 255
255 255 255
255 255 255
255 255 255
255 255 255
255 255 255
255 255 255
255 255 255
255 255 255
255 255 255
255 255 255
255 255 255
255 255 255
255 255 255
255 255 255
255 255 255
255 255 255
255 255 255
255 255 255
255 255 255
255 255 255
255 255 255
255 255 255
255 255 255
255 255 255
255 255 255
200 50 50
200 50 50
200 50 50
200 50 50
200 50 50
200 50 50
200 50 50
200 50 50
200 50 50
200 50 50
200 50 50
200 50 50
200 50 50
200 50 50
200 50 50
200 50 50
200 50 50
200 50 50
200 50 50
200 50 50
200 50 50
200 50 50
200 50 50
200 50 50
200 50 50
200 50 50
200 50 50
200 50 50
200 50 50
200 50 50
200 50 50
200 50 50
255 255 255
255 255 255
255 255 255
255 255 255
255 255 255
255 255 255
255 255 255
255 255 255
255 255 255
255 255 255
255 255 255
255 255 255
255 255 255
255 255 255
255 255 255
255 255 255
255 255 255
255 255 255
255 255 255
255 255 255
255 255 255
255 255 255
255 255 255
255 255 255
255 255 255
255 255 255
255 255 255
255 255 255
255 255 255
255 255 255
255 255 255
255 255 255
200 50 50
200 50 50
200 50 50
200 50 50
200 50 50
200 50 50
200 50 50
200 50 50
200 50 50
200 50 50
200 50 50
200 50 50
200 50 50
200 50 50
200 50 50
200 50 50
200 50 50
200 50 50
200 50 50
200 50 50
200 50 50
200 50 50
200 50 50
200 50 50
200 50 50
200 50 50
200 50 50
200 50 50
200 50 50
200 50 50
200 50 50
200 50 50
255 255 255
255 255 255
255 255 255
255 255 255
255 255 255
255 255 255
255 255 255
255 255 255
255 255 255
255 255 255
255 255 255
255 255 255
255 255 255
255 255 255
255 255 255
255 255 255
255 255 255
255 255 255
255 255 255
255 255 255
255 255 255
255 255 255
255 255 255
255 255 255
255 255 255
255 255 255
255 255 255
255 255 255
255 255 255
255 255 255
255 255 255
255 255 255
200 50 50
200 50 50
200 50 50
200 50 50
200 50 50
200 50 50
200 50 50
200 50 50
200 50 50
200 50 50
200 50 50
200 50 50
200 50 50
200 50 50
200 50 50
200 50 50
200 50 50
200 50 50
200 50 50
200 50 50
200 50 50
200 50 50
200 50 50
200 50 50
200 50 50
200 50 50
200 50 50
200 50 50
200 50 50
200 50 50
200 50 50
200 50 50
255 255 255
255 255 255
255 255 255
255 255 255
255 255 255
255 255 255
255 255 255
255 255 255
255 255 255
255 255 255
255 255 255
255 255 255
255 255 255
255 255 255
255 255 255
255 255 255
255 255 255
255 255 255
255 255 255
255 255 255
255 255 255
255 255 255
255 255 255
255 255 255
255 255 255
255 255 255
255 255 255
255 255 255
255 255 255
255 255 255
255 255 255
255 255 255
200 50 50
200 50 50
200 50 50
200 50 50
200 50 50
200 50 50
200 50 50
200 50 50
200 50 50
200 50 50
200 50 50
200 50 50
200 50 50
200 50 50
200 50 50
200 50 50
200 50 50
200 50 50
200 50 50
200 50 50
200 50 50
200 50 50
200 50 50
200 50 50
200 50 50
200 50 50
200 50 50
200 50 50
200 50 50
200 50 50
200 50 50
200 50 50
255 255 255
255 255 255
255 255 255
255 255 255
255 255 255
255 255 255
255 255 255
255 255 255
255 255 255
255 255 255
255 255 255
255 255 255
255 255 255
255 255 255
255 255 255
255 255 255
255 255 255
255 255 255
255 255 255
255 255 255
255 255 255
255 255 255
255 255 255
255 255 255
255 255 255
255 255 255
255 255 255
255 255 255
255 255 255
255 255 255
255 255 255
255 255 255
200 50 50
200 50 50
200 50 50
200 50 50
200 50 50
200 50 50
200 50 50
200 50 50
200 50 50
200 50 50
200 50 50
200 50 50
200 50 50
200 50 50
200 50 50
200 50 50
200 50 50
200 50 50
200 50 50
200 50 50
200 50 50
200 50 50
200 50 50
200 50 50
200 50 50
200 50 50
200 50 50
200 50 50
200 50 50
200 50 50
200 50 50
200 50 50
255 255 255
255 255 255
255 255 255
255 255 255
255 255 255
255 255 255
255 255 255
255 255 255
255 255 255
255 255 255
255 255 255
255 255 255
255 255 255
255 255 255
255 255 255
255 255 255
255 255 255
255 255 255
255 255 255
255 255 255
255 255 255
255 255 255
255 255 255
255 255 255
255 255 255
255 255 255
255 255 255
255 255 255
255 255 255
255 255 255
255 255 255
255 255 255
200 50 50
200 50 50
200 50 50
200 50 50
200 50 50
200 50 50
200 50 50
200 50 50
200 50 50
200 50 50
200 50 50
200 50 50
200 50 50
200 50 50
200 50 50
200 50 50
200 50 50
200 50 50
200 50 50
200 50 50
200 50 50
200 50 50
200 50 50
200 50 50
200 50 50
200 50 50
200 50 50
200 50 50
200 50 50
200 50 50
200 50 50
200 50 50
255 255 255
255 255 255
255 255 255
255 255 255
255 255 255
255 255 255
255 255 255
255 255 255
255 255 255
255 255 255
255 255 255
255 255 255
255 255 255
255 255 255
255 255 255
255 255 255
255 255 255
255 255 255
255 255 255
255 255 255
255 255 255
255 255 255
255 255 255
255 255 255
255 255 255
255 255 255
255 255 255
255 255 255
255 255 255
255 255 255
255 255 255
255 255 255
200 50 50
200 50 50
200 50 50
200 50 50
200 50 50
200 50 50
200 50 50
200 50 50
200 50 50
200 50 50
200 50 50
200 50 50
200 50 50
200 50 50
200 50 50
200 50 50
200 50 50
200 50 50
200 50 50
200 50 50
200 50 50
200 50 50
200 50 50
200 50 50
200 50 50
200 50 50
200 50 50
200 50 50
200 50 50
200 50 50
200 50 50
200 50 50
255 255 255
255 255 255
255 255 255
255 255 255
255 255 255
255 255 255
255 255 255
255 255 255
255 255 255
255 255 255
255 255 255
255 255 255
255 255 255
255 255 255
255 255 255
255 255 255
255 255 255
255 255 255
255 255 255
255 255 255
255 255 255
255 255 255
255 255 255
255 255 255
255 255 255
255 255 255
255 255 255
255 255 255
255 255 255
255 255 255
255 255 255
255 255 255
200 50 50
200 50 50
200 50 50
200 50 50
200 50 50
200 50 50
200 50 50
200 50 50
200 50 50
200 50 50
200 50 50
200 50 50
200 50 50
200 50 50
200 50 50
200 50 50
200 50 50
200 50 50
200 50 50
200 50 50
200 50 50
200 50 50
200 50 50
200 50 50
200 50 50
200 50 50
200 50 50
200 50 50
200 50 50
200 50 50
200 50 50
200 50 50
255 255 255
255 255 255
255 255 255
255 255 255
255 255 255
255 255 255
255 255 255
255 255 255
255 255 255
255 255 255
255 255 255
255 255 255
255 255 255
255 255 255
255 255 255
255 255 255
255 255 255
255 255 255
255 255 255
255 255 255
255 255 255
255 255 255
255 255 255
255 255 255
255 255 255
255 255 255
255 255 255
255 255 255
255 255 255
255 255 255
255 255 255
255 255 255
200 50 50
200 50 50
200 50 50
200 50 50
200 50 50
200 50 50
200 50 50
200 50 50
200 50 50
200 50 50
200 50 50
200 50 50
200 50 50
200 50 50
200 50 50
200 50 50
200 50 50
200 50 50
200 50 50
200 50 50
200 50 50
200 50 50
200 50 50
200 50 50
200 50 50
200 50 50
200 50 50
200 50 50
200 50 50
200 50 50
200 50 50
200 50 50
255 255 255
255 255 255
255 255 255
255 255 255
255 255 255
255 255 255
255 255 255
255 255 255
255 255 255
255 255 255
255 255 255
255 255 255
255 255 255
255 255 255
255 255 255
255 255 255
255 255 255
255 255 255
255 255 255
255 255 255
255 255 255
255 255 255
255 255 255
255 255 255
255 255 255
255 255 255
255 255 255
255 255 255
255 255 255
255 255 255
255 255 255
255 255 255
200 50 50
200 50 50
200 50 50
200 50 50
200 50 50
200 50 50
200 50 50
200 50 50
200 50 50
200 50 50
200 50 50
200 50 50
200 50 50
200 50 50
200 50 50
200 50 50
200 50 50
200 50 50
200 50 50
200 50 50
200 50 50
200 50 50
200 50 50
200 50 50
200 50 50
200 50 50
200 50 50
200 50 50
200 50 50
200 50 50
200 50 50
200 50 50
255 255 255
255 255 255
255 255 255
255 255 255
255 255 255
255 255 255
255 255 255
255 255 255
255 255 255
255 255 255
255 255 255
255 255 255
255 255 255
255 255 255
255 255 255
255 255 255
255 255 255
255 255 255
255 255 255
255 255 255
255 255 255
255 255 255
255 255 255
255 255 255
255 255 255
255 255 255
255 255 255
255 255 255
255 255 255
255 255 255
255 255 255
255 255 255
200 50 50
200 50 50
200 50 50
200 50 50
200 50 50
200 50 50
200 50 50
200 50 50
200 50 50
200 50 50
200 50 50
200 50 50
200 50 50
200 50 50
200 50 50
200 50 50
200 50 50
200 50 50
200 50 50
200 50 50
200 50 50
200 50 50
200 50 50
200 50 50
200 50 50
200 50 50
200 50 50
200 50 50
200 50 50
200 50 50
200 50 50
200 50 50
255 255 255
255 255 255
255 255 255
255 255 255
255 255 255
255 255 255
255 255 255
255 255 255
255 255 255
255 255 255
255 255 255
255 255 255
255 255 255
255 255 255
255 255 255
255 255 255
255 255 255
255 255 255
255 255 255
255 255 255
255 255 255
255 255 255
255 255 255
255 255 255
255 255 255
255 255 255
255 255 255
255 255 255
255 255 255
255 255 255
255 255 255
255 255 255
200 50 50
200 50 50
200 50 50
200 50 50
200 50 50
200 50 50
200 50 50
200 50 50
200 50 50
200 50 50
200 50 50
200 50 50
200 50 50
200 50 50
200 50 50
200 50 50
200 50 50
200 50 50
200 50 50
200 50 50
200 50 50
200 50 50
200 50 50
200 50 50
200 50 50
200 50 50
200 50 50
200 50 50
200 50 50
200 50 50
200 50 50
200 50 50
255 255 255
255 255 255
255 255 255
255 255 255
255 255 255
255 255 255
255 255 255
255 255 255
255 255 255
255 255 255
255 255 255
255 255 255
255 255 255
255 255 255
255 255 255
255 255 255
255 255 255
255 255 255
255 255 255
255 255 255
255 255 255
255 255 255
255 255 255
255 255 255
255 255 255
255 255 255
255 255 255
255 255 255
255 255 255
255 255 255
255 255 255
255 255 255
200 50 50
200 50 50
200 50 50
200 50 50
200 50 50
200 50 50
200 50 50
200 50 50
200 50 50
200 50 50
200 50 50
200 50 50
200 50 50
200 50 50
200 50 50
200 50 50
200 50 50
200 50 50
200 50 50
200 50 50
200 50 50
200 50 50
200 50 50
200 50 50
200 50 50
200 50 50
200 50 50
200 50 50
200 50 50
200 50 50
200 50 50
200 50 50
255 255 255
255 255 255
255 255 255
255 255 255
255 255 255
255 255 255
255 255 255
255 255 255
255 255 255
255 255 255
255 255 255
255 255 255
255 255 255
255 255 255
255 255 255
255 255 255
255 255 255
255 255 255
255 255 255
255 255 255
255 255 255
255 255 255
255 255 255
255 255 255
255 255 255
255 255 255
255 255 255
255 255 255
255 255 255
255 255 255
255 255 255
255 255 255
200 50 50
200 50 50
200 50 50
200 50 50
200 50 50
200 50 50
200 50 50
200 50 50
200 50 50
200 50 50
200 50 50
200 50 50
200 50 50
200 50 50
200 50 50
200 50 50
200 50 50
200 50 50
200 50 50
200 50 50
200 50 50
200 50 50
200 50 50
200 50 50
200 50 50
200 50 50
200 50 50
200 50 50
200 50 50
200 50 50
200 50 50
200 50 50
255 255 255
255 255 255
255 255 255
255 255 255
255 255 255
255 255 255
255 255 255
255 255 255
255 255 255
255 255 255
255 255 255
255 255 255
255 255 255
255 255 255
255 255 255
255 255 255
255 255 255
255 255 255
255 255 255
255 255 255
255 255 255
255 255 255
255 255 255
255 255 255
255 255 255
255 255 255
255 255 255
255 255 255
255 255 255
255 255 255
255 255 255
255 255 255
200 50 50
200 50 50
200 50 50
200 50 50
200 50 50
200 50 50
200 50 50
200 50 50
200 50 50
200 50 50
200 50 50
200 50 50
200 50 50
200 50 50
200 50 50
200 50 50
200 50 50
200 50 50
200 50 50
200 50 50
200 50 50
200 50 50
200 50 50
200 50 50
200 50 50
200 50 50
200 50 50
200 50 50
200 50 50
200 50 50
200 50 50
200 50 50
255 255 255
255 255 255
255 255 255
255 255 255
255 255 255
255 255 255
255 255 255
255 255 255
255 255 255
255 255 255
255 255 255
255 255 255
255 255 255
255 255 255
255 255 255
255 255 255
255 255 255
255 255 255
255 255 255
255 255 255
255 255 255
255 255 255
255 255 255
255 255 255
255 255 255
255 255 255
255 255 255
255 255 255
255 255 255
255 255 255
255 255 255
255 255 255
200 50 50
200 50 50
200 50 50
200 50 50
200 50 50
200 50 50
200 50 50
200 50 50
200 50 50
200 50 50
200 50 50
200 50 50
200 50 50
200 50 50
200 50 50
200 50 50
200 50 50
200 50 50
200 50 50
200 50 50
200 50 50
200 50 50
200 50 50
200 50 50
200 50 50
200 50 50
200 50 50
200 50 50
200 50 50
200 50 50
200 50 50
200 50 50
255 255 255
255 255 255
255 255 255
255 255 255
255 255 255
255 255 255
255 255 255
255 255 255
255 255 255
255 255 255
255 255 255
255 255 255
255 255 255
255 255 255
255 255 255
255 255 255
255 255 255
255 255 255
255 255 255
255 255 255
255 255 255
255 255 255
255 255 255
255 255 255
255 255 255
255 255 255
255 255 255
255 255 255
255 255 255
255 255 255
255 255 255
255 255 255
200 50 50
200 50 50
200 50 50
200 50 50
200 50 50
200 50 50
200 50 50
200 50 50
200 50 50
200 50 50
200 50 50
200 50 50
200 50 50
200 50 50
200 50 50
200 50 50
200 50 50
200 50 50
200 50 50
200 50 50
200 50 50
200 50 50
200 50 50
200 50 50
200 50 50
200 50 50
200 50 50
200 50 50
200 50 50
200 50 50
200 50 50
200 50 50
255 255 255
255 255 255
255 255 255
255 255 255
255 255 255
255 255 255
255 255 255
255 255 255
255 255 255
255 255 255
255 255 255
255 255 255
255 255 255
255 255 255
255 255 255
255 255 255
255 255 255
255 255 255
255 255 255
255 255 255
255 255 255
255 255 255
255 255 255
255 255 255
255 255 255
255 255 255
255 255 255
255 255 255
255 255 255
255 255 255
255 255 255
255 255 255
200 50 50
200 50 50
200 50 50
200 50 50
200 50 50
200 50 50
200 50 50
200 50 50
200 50 50
200 50 50
200 50 50
200 50 50
200 50 50
200 50 50
200 50 50
200 50 50
200 50 50
200 50 50
200 50 50
200 50 50
200 50 50
200 50 50
200 50 50
200 50 50
200 50 50
200 50 50
200 50 50
200 50 50
200 50 50
200 50 50
200 50 50
200 50 50
255 255 255
255 255 255
255 255 255
255 255 255
255 255 255
255 255 255
255 255 255
255 255 255
255 255 255
255 255 255
255 255 255
255 255 255
255 255 255
255 255 255
255 255 255
255 255 255
255 255 255
255 255 255
255 255 255
255 255 255
255 255 255
255 255 255
255 255 255
255 255 255
255 255 255
255 255 255
255 255 255
255 255 255
255 255 255
255 255 255
255 255 255
255 255 255
200 50 50
200 50 50
200 50 50
200 50 50
200 50 50
200 50 50
200 50 50
200 50 50
200 50 50
200 50 50
200 50 50
200 50 50
200 50 50
200 50 50
200 50 50
200 50 50
200 50 50
200 50 50
200 50 50
200 50 50
200 50 50
200 50 50
200 50 50
200 50 50
200 50 50
200 50 50
200 50 50
200 50 50
200 50 50
200 50 50
200 50 50
200 50 50
255 255 255
255 255 255
255 255 255
255 255 255
255 255 255
255 255 255
255 255 255
255 255 255
255 255 255
255 255 255
255 255 255
255 255 255
255 255 255
255 255 255
255 255 255
255 255 255
255 255 255
255 255 255
255 255 255
255 255 255
255 255 255
255 255 255
255 255 255
255 255 255
255 255 255
255 255 255
255 255 255
255 255 255
255 255 255
255 255 255
255 255 255
255 255 255
200 50 50
200 50 50
200 50 50
200 50 50
200 50 50
200 50 50
200 50 50
200 50 50
200 50 50
200 50 50
200 50 50
200 50 50
200 50 50
200 50 50
200 50 50
200 50 50
200 50 50
200 50 50
200 50 50
200 50 50
200 50 50
200 50 50
200 50 50
200 50 50
200 50 50
200 50 50
200 50 50
200 50 50
200 50 50
200 50 50
200 50 50
200 50 50
255 255 255
255 255 255
255 255 255
255 255 255
255 255 255
255 255 255
255 255 255
255 255 255
255 255 255
255 255 255
255 255 255
255 255 255
255 255 255
255 255 255
255 255 255
255 255 255
255 255 255
255 255 255
255 255 255
255 255 255
255 255 255
255 255 255
255 255 255
255 255 255
255 255 255
255 255 255
255 255 255
255 255 255
255 255 255
255 255 255
255 255 255
255 255 255
200 50 50
200 50 50
200 50 50
200 50 50
200 50 50
200 50 50
200 50 50
200 50 50
200 50 50
200 50 50
200 50 50
200 50 50
200 50 50
200 50 50
200 50 50
200 50 50
200 50 50
200 50 50
200 50 50
200 50 50
200 50 50
200 50 50
200 50 50
200 50 50
200 50 50
200 50 50
200 50 50
200 50 50
200 50 50
200 50 50
200 50 50
200 50 50
255 255 255
255 255 255
255 255 255
255 255 255
255 255 255
255 255 255
255 255 255
255 255 255
255 255 255
255 255 255
255 255 255
255 255 255
255 255 255
255 255 255
255 255 255
255 255 255
255 255 255
255 255 255
255 255 255
255 255 255
255 255 255
255 255 255
255 255 255
255 255 255
255 255 255
255 255 255
255 255 255
255 255 255
255 255 255
255 255 255
255 255 255
255 255 255
200 50 50
200 50 50
200 50 50
200 50 50
200 50 50
200 50 50
200 50 50
200 50 50
200 50 50
200 50 50
200 50 50
200 50 50
200 50 50
200 50 50
200 50 50
200 50 50
200 50 50
200 50 50
200 50 50
200 50 50
200 50 50
200 50 50
200 50 50
200 50 50
200 50 50
200 50 50
200 50 50
200 50 50
200 50 50
200 50 50
200 50 50
200 50 50
255 255 255
255 255 255
255 255 255
255 255 255
255 255 255
255 255 255
255 255 255
255 255 255
255 255 255
255 255 255
255 255 255
255 255 255
255 255 255
255 255 255
255 255 255
255 255 255
255 255 255
255 255 255
255 255 255
255 255 255
255 255 255
255 255 255
255 255 255
255 255 255
255 255 255
255 255 255
255 255 255
255 255 255
255 255 255
255 255 255
255 255 255
255 255 255
200 50 50
200 50 50
200 50 50
200 50 50
200 50 50
200 50 50
200 50 50
200 50 50
200 50 50
200 50 50
200 50 50
200 50 50
200 50 50
200 50 50
200 50 50
200 50 50
200 50 50
200 50 50
200 50 50
200 50 50
200 50 50
200 50 50
200 50 50
200 50 50
200 50 50
200 50 50
200 50 50
200 50 50
200 50 50
200 50 50
200 50 50
200 50 50
255 255 255
255 255 255
255 255 255
255 255 255
255 255 255
255 255 255
255 255 255
255 255 255
255 255 255
255 255 255
255 255 255
255 255 255
255 255 255
255 255 255
255 255 255
255 255 255
255 255 255
255 255 255
255 255 255
255 255 255
255 255 255
255 255 255
255 255 255
255 255 255
255 255 255
255 255 255
255 255 255
255 255 255
255 255 255
255 255 255
255 255 255
255 255 255
200 50 50
200 50 50
200 50 50
200 50 50
200 50 50
200 50 50
200 50 50
200 50 50
200 50 50
200 50 50
200 50 50
200 50 50
200 50 50
200 50 50
200 50 50
200 50 50
200 50 50
200 50 50
200 50 50
200 50 50
200 50 50
200 50 50
200 50 50
200 50 50
200 50 50
200 50 50
200 50 50
200 50 50
200 50 50
200 50 50
200 50 50
200 50 50
255 255 255
255 255 255
255 255 255
255 255 255
255 255 255
255 255 255
255 255 255
255 255 255
255 255 255
255 255 255
255 255 255
255 255 255
255 255 255
255 255 255
255 255 255
255 255 255
255 255 255
255 255 255
255 255 255
255 255 255
255 255 255
255 255 255
255 255 255
255 255 255
255 255 255
255 255 255
255 255 255
255 255 255
255 255 255
255 255 255
255 255 255
255 255 255
200 50 50
200 50 50
200 50 50
200 50 50
200 50 50
200 50 50
200 50 50
200 50 50
200 50 50
200 50 50
200 50 50
200 50 50
200 50 50
200 50 50
200 50 50
200 50 50
200 50 50
200 50 50
200 50 50
200 50 50
200 50 50
200 50 50
200 50 50
200 50 50
200 50 50
200 50 50
200 50 50
200 50 50
200 50 50
200 50 50
200 50 50
200 50 50
255 255 255
255 255 255
255 255 255
255 255 255
255 255 255
255 255 255
255 255 255
255 255 255
255 255 255
255 255 255
255 255 255
255 255 255
255 255 255
255 255 255
255 255 255
255 255 255
255 255 255
255 255 255
255 255 255
255 255 255
255 255 255
255 255 255
255 255 255
255 255 255
255 255 255
255 255 255
255 255 255
255 255 255
255 255 255
255 255 255
255 255 255
255 255 255
200 50 50
200 50 50
200 50 50
200 50 50
200 50 50
200 50 50
200 50 50
200 50 50
200 50 50
200 50 50
200 50 50
200 50 50
200 50 50
200 50 50
200 50 50
200 50 50
200 50 50
200 50 50
200 50 50
200 50 50
200 50 50
200 50 50
200 50 50
200 50 50
200 50 50
200 50 50
200 50 50
200 50 50
200 50 50
200 50 50
200 50 50
200 50 50
255 255 255
255 255 255
255 255 255
255 255 255
255 255 255
255 255 255
255 255 255
255 255 255
255 255 255
255 255 255
255 255 255
255 255 255
255 255 255
255 255 255
255 255 255
255 255 255
255 255 255
255 255 255
255 255 255
255 255 255
255 255 255
255 255 255
255 255 255
255 255 255
255 255 255
255 255 255
255 255 255
255 255 255
255 255 255
255 255 255
255 255 255
255 255 255
200 50 50
200 50 50
200 50 50
200 50 50
200 50 50
200 50 50
200 50 50
200 50 50
200 50 50
200 50 50
200 50 50
200 50 50
200 50 50
200 50 50
200 50 50
200 50 50
200 50 50
200 50 50
200 50 50
200 50 50
200 50 50
200 50 50
200 50 50
200 50 50
200 50 50
200 50 50
200 50 50
200 50 50
200 50 50
200 50 50
200 50 50
200 50 50
255 255 255
255 255 255
255 255 255
255 255 255
255 255 255
255 255 255
255 255 255
255 255 255
255 255 255
255 255 255
255 255 255
255 255 255
255 255 255
255 255 255
255 255 255
255 255 255
255 255 255
255 255 255
255 255 255
255 255 255
255 255 255
255 255 255
255 255 255
255 255 255
255 255 255
255 255 255
255 255 255
255 255 255
255 255 255
255 255 255
255 255 255
255 255 255
200 50 50
200 50 50
200 50 50
200 50 50
200 50 50
200 50 50
200 50 50
200 50 50
200 50 50
200 50 50
200 50 50
200 50 50
200 50 50
200 50 50
200 50 50
200 50 50
200 50 50
200 50 50
200 50 50
200 50 50
200 50 50
200 50 50
200 50 50
200 50 50
200 50 50
200 50 50
200 50 50
200 50 50
200 50 50
200 50 50
200 50 50
200 50 50
255 255 255
255 255 255
255 255 255
255 255 255
255 255 255
255 255 255
255 255 255
255 255 255
255 255 255
255 255 255
255 255 255
255 255 255
255 255 255
255 255 255
255 255 255
255 255 255
255 255 255
255 255 255
255 255 255
255 255 255
255 255 255
255 255 255
255 255 255
255 255 255
255 255 255
255 255 255
255 255 255
255 255 255
255 255 255
255 255 255
255 255 255
255 255 255
200 50 50
200 50 50
200 50 50
200 50 50
200 50 50
200 50 50
200 50 50
200 50 50
200 50 50
200 50 50
200 50 50
200 50 50
200 50 50
200 50 50
200 50 50
200 50 50
200 50 50
200 50 50
200 50 50
200 50 50
200 50 50
200 50 50
200 50 50
200 50 50
200 50 50
200 50 50
200 50 50
200 50 50
200 50 50
200 50 50
200 50 50
200 50 50
255 255 255
255 255 255
255 255 255
255 255 255
255 255 255
255 255 255
255 255 255
255 255 255
255 255 255
255 255 255
255 255 255
255 255 255
255 255 255
255 255 255
255 255 255
255 255 255
255 255 255
255 255 255
255 255 255
255 255 255
255 255 255
255 255 255
255 255 255
255 255 255
255 255 255
255 255 255
255 255 255
255 255 255
255 255 255
255 255 255
255 255 255
255 255 255
200 50 50
200 50 50
200 50 50
200 50 50
200 50 50
200 50 50
200 50 50
200 50 50
200 50 50
200 50 50
200 50 50
200 50 50
200 50 50
200 50 50
200 50 50
200 50 50
200 50 50
200 50 50
200 50 50
200 50 50
200 50 50
200 50 50
200 50 50
200 50 50
200 50 50
200 50 50
200 50 50
200 50 50
200 50 50
200 50 50
200 50 50
200 50 50
255 255 255
255 255 255
255 255 255
255 255 255
255 255 255
255 255 255
255 255 255
255 255 255
255 255 255
255 255 255
255 255 255
255 255 255
255 255 255
255 255 255
255 255 255
255 255 255
255 255 255
255 255 255
255 255 255
255 255 255
255 255 255
255 255 255
255 255 255
255 255 255
255 255 255
255 255 255
255 255 255
255 255 255
255 255 255
255 255 255
255 255 255
255 255 255
200 50 50
200 50 50
200 50 50
200 50 50
200 50 50
200 50 50
200 50 50
200 50 50
200 50 50
200 50 50
200 50 50
200 50 50
200 50 50
200 50 50
200 50 50
200 50 50
200 50 50
200 50 50
200 50 50
200 50 50
200 50 50
200 50 50
200 50 50
200 50 50
200 50 50
200 50 50
200 50 50
200 50 50
200 50 50
200 50 50
200 50 50
200 50 50
255 255 255
255 255 255
255 255 255
255 255 255
255 255 255
255 255 255
255 255 255
255 255 255
255 255 255
255 255 255
255 255 255
255 255 255
255 255 255
255 255 255
255 255 255
255 255 255
255 255 255
255 255 255
255 255 255
255 255 255
255 255 255
255 255 255
255 255 255
255 255 255
255 255 255
255 255 255
255 255 255
255 255 255
255 255 255
255 255 255
255 255 255
255 255 255
200 50 50
200 50 50
200 50 50
200 50 50
200 50 50
200 50 50
200 50 50
200 50 50
200 50 50
200 50 50
200 50 50
200 50 50
200 50 50
200 50 50
200 50 50
200 50 50
200 50 50
200 50 50
200 50 50
200 50 50
200 50 50
200 50 50
200 50 50
200 50 50
200 50 50
200 50 50
200 50 50
200 50 50
200 50 50
200 50 50
200 50 50
200 50 50
255 255 255
255 255 255
255 255 255
255 255 255
255 255 255
255 255 255
255 255 255
255 255 255
255 255 255
255 255 255
255 255 255
255 255 255
255 255 255
255 255 255
255 255 255
255 255 255
255 255 255
255 255 255
255 255 255
255 255 255
255 255 255
255 255 255
255 255 255
255 255 255
255 255 255
255 255 255
255 255 255
255 255 255
255 255 255
255 255 255
255 255 255
255 255 255
200 50 50
200 50 50
200 50 50
200 50 50
200 50 50
200 50 50
200 50 50
200 50 50
200 50 50
200 50 50
200 50 50
200 50 50
200 50 50
200 50 50
200 50 50
200 50 50
200 50 50
200 50 50
200 50 50
200 50 50
200 50 50
200 50 50
200 50 50
200 50 50
200 50 50
200 50 50
200 50 50
200 50 50
200 50 50
200 50 50
200 50 50
200 50 50
255 255 255
255 255 255
255 255 255
255 255 255
255 255 255
255 255 255
255 255 255
255 255 255
255 255 255
255 255 255
255 255 255
255 255 255
255 255 255
255 255 255
255 255 255
255 255 255
255 255 255
255 255 255
255 255 255
255 255 255
255 255 255
255 255 255
255 255 255
255 255 255
255 255 255
255 255 255
255 255 255
255 255 255
255 255 255
255 255 255
255 255 255
255 255 255
200 50 50
200 50 50
200 50 50
200 50 50
200 50 50
200 50 50
200 50 50
200 50 50
200 50 50
200 50 50
200 50 50
200 50 50
200 50 50
200 50 50
200 50 50
200 50 50
200 50 50
200 50 50
200 50 50
200 50 50
200 50 50
200 50 50
200 50 50
200 50 50
200 50 50
200 50 50
200 50 50
200 50 50
200 50 50
200 50 50
200 50 50
200 50 50
255 255 255
255 255 255
255 255 255
255 255 255
255 255 255
255 255 255
255 255 255
255 255 255
255 255 255
255 255 255
255 255 255
255 255 255
255 255 255
255 255 255
255 255 255
255 255 255
255 255 255
255 255 255
255 255 255
255 255 255
255 255 255
255 255 255
255 255 255
255 255 255
255 255 255
255 255 255
255 255 255
255 255 255
255 255 255
255 255 255
255 255 255
255 255 255
200 50 50
200 50 50
200 50 50
200 50 50
200 50 50
200 50 50
200 50 50
200 50 50
200 50 50
200 50 50
200 50 50
200 50 50
200 50 50
200 50 50
200 50 50
200 50 50
200 50 50
200 50 50
200 50 50
200 50 50
200 50 50
200 50 50
200 50 50
200 50 50
200 50 50
200 50 50
200 50 50
200 50 50
200 50 50
200 50 50
200 50 50
200 50 50
255 255 255
255 255 255
255 255 255
255 255 255
255 255 255
255 255 255
255 255 255
255 255 255
255 255 255
255 255 255
255 255 255
255 255 255
255 255 255
255 255 255
255 255 255
255 255 255
255 255 255
255 255 255
255 255 255
255 255 255
255 255 255
255 255 255
255 255 255
255 255 255
255 255 255
255 255 255
255 255 255
255 255 255
255 255 255
255 255 255
255 255 255
255 255 255
200 50 50
200 50 50
200 50 50
200 50 50
200 50 50
200 50 50
200 50 50
200 50 50
200 50 50
200 50 50
200 50 50
200 50 50
200 50 50
200 50 50
200 50 50
200 50 50
200 50 50
200 50 50
200 50 50
200 50 50
200 50 50
200 50 50
200 50 50
200 50 50
200 50 50
200 50 50
200 50 50
200 50 50
200 50 50
200 50 50
200 50 50
200 50 50
255 255 255
255 255 255
255 255 255
255 255 255
255 255 255
255 255 255
255 255 255
255 255 255
255 255 255
255 255 255
255 255 255
255 255 255
255 255 255
255 255 255
255 255 255
255 255 255
255 255 255
255 255 255
255 255 255
255 255 255
255 255 255
255 255 255
255 255 255
255 255 255
255 255 255
255 255 255
255 255 255
255 255 255
255 255 255
255 255 255
255 255 255
255 255 255
200 50 50
200 50 50
200 50 50
200 50 50
200 50 50
200 50 50
200 50 50
200 50 50
200 50 50
200 50 50
200 50 50
200 50 50
200 50 50
200 50 50
200 50 50
200 50 50
200 50 50
200 50 50
200 50 50
200 50 50
200 50 50
200 50 50
200 50 50
200 50 50
200 50 50
200 50 50
200 50 50
200 50 50
200 50 50
200 50 50
200 50 50
200 50 50
255 255 255
255 255 255
255 255 255
255 255 255
255 255 255
255 255 255
255 255 255
255 255 255
255 255 255
255 255 255
255 255 255
255 255 255
255 255 255
255 255 255
255 255 255
255 255 255
255 255 255
255 255 255
255 255 255
255 255 255
255 255 255
255 255 255
255 255 255
255 255 255
255 255 255
255 255 255
255 255 255
255 255 255
255 255 255
255 255 255
255 255 255
255 255 255
200 50 50
200 50 50
200 50 50
200 50 50
200 50 50
200 50 50
200 50 50
200 50 50
200 50 50
200 50 50
200 50 50
200 50 50
200 50 50
200 50 50
200 50 50
200 50 50
200 50 50
200 50 50
200 50 50
200 50 50
200 50 50
200 50 50
200 50 50
200 50 50
200 50 50
200 50 50
200 50 50
200 50 50
200 50 50
200 50 50
200 50 50
200 50 50
255 255 255
255 255 255
255 255 255
255 255 255
255 255 255
255 255 255
255 255 255
255 255 255
255 255 255
255 255 255
255 255 255
255 255 255
255 255 255
255 255 255
255 255 255
255 255 255
255 255 255
255 255 255
255 255 255
255 255 255
255 255 255
255 255 255
255 255 255
255 255 255
255 255 255
255 255 255
255 255 255
255 255 255
255 255 255
255 255 255
255 255 255
255 255 255
200 50 50
200 50 50
200 50 50
200 50 50
200 50 50
200 50 50
200 50 50
200 50 50
200 50 50
200 50 50
200 50 50
200 50 50
200 50 50
200 50 50
200 50 50
200 50 50
200 50 50
200 50 50
200 50 50
200 50 50
200 50 50
200 50 50
200 50 50
200 50 50
200 50 50
200 50 50
200 50 50
200 50 50
200 50 50
200 50 50
200 50 50
200 50 50
255 255 255
255 255 255
255 255 255
255 255 255
255 255 255
255 255 255
255 255 255
255 255 255
255 255 255
255 255 255
255 255 255
255 255 255
255 255 255
255 255 255
255 255 255
255 255 255
255 255 255
255 255 255
255 255 255
255 255 255
255 255 255
255 255 255
255 255 255
255 255 255
255 255 255
255 255 255
255 255 255
255 255 255
255 255 255
255 255 255
255 255 255
255 255 255
200 50 50
200 50 50
200 50 50
200 50 50
200 50 50
200 50 50
200 50 50
200 50 50
200 50 50
200 50 50
200 50 50
200 50 50
200 50 50
200 50 50
200 50 50
200 50 50
200 50 50
200 50 50
200 50 50
200 50 50
200 50 50
200 50 50
200 50 50
200 50 50
200 50 50
200 50 50
200 50 50
200 50 50
200 50 50
200 50 50
200 50 50
200 50 50
255 255 255
255 255 255
255 255 255
255 255 255
255 255 255
255 255 255
255 255 255
255 255 255
255 255 255
255 255 255
255 255 255
255 255 255
255 255 255
255 255 255
255 255 255
255 255 255
255 255 255
255 255 255
255 255 255
255 255 255
255 255 255
255 255 255
255 255 255
255 255 255
255 255 255
255 255 255
255 255 255
255 255 255
255 255 255
255 255 255
255 255 255
255 255 255
200 50 50
200 50 50
200 50 50
200 50 50
200 50 50
200 50 50
200 50 50
200 50 50
200 50 50
200 50 50
200 50 50
200 50 50
200 50 50
200 50 50
200 50 50
200 50 50
200 50 50
200 50 50
200 50 50
200 50 50
200 50 50
200 50 50
200 50 50
200 50 50
200 50 50
200 50 50
200 50 50
200 50 50
200 50 50
200 50 50
200 50 50
200 50 50
255 255 255
255 255 255
255 255 255
255 255 255
255 255 255
255 255 255
255 255 255
255 255 255
255 255 255
255 255 255
255 255 255
255 255 255
255 255 255
255 255 255
255 255 255
255 255 255
255 255 255
255 255 255
255 255 255
255 255 255
255 255 255
255 255 255
255 255 255
255 255 255
255 255 255
255 255 255
255 255 255
255 255 255
255 255 255
255 255 255
255 255 255
255 255 255
200 50 50
200 50 50
200 50 50
200 50 50
200 50 50
200 50 50
200 50 50
200 50 50
200 50 50
200 50 50
200 50 50
200 50 50
200 50 50
200 50 50
200 50 50
200 50 50
200 50 50
200 50 50
200 50 50
200 50 50
200 50 50
200 50 50
200 50 50
200 50 50
200 50 50
200 50 50
200 50 50
200 50 50
200 50 50
200 50 50
200 50 50
200 50 50
255 255 255
255 255 255
255 255 255
255 255 255
255 255 255
255 255 255
255 255 255
255 255 255
255 255 255
255 255 255
255 255 255
255 255 255
255 255 255
255 255 255
255 255 255
255 255 255
255 255 255
255 255 255
255 255 255
255 255 255
255 255 255
255 255 255
255 255 255
255 255 255
255 255 255
255 255 255
255 255 255
255 255 255
255 255 255
255 255 255
255 255 255
255 255 255
200 50 50
200 50 50
200 50 50
200 50 50
200 50 50
200 50 50
200 50 50
200 50 50
200 50 50
200 50 50
200 50 50
200 50 50
200 50 50
200 50 50
200 50 50
200 50 50
200 50 50
200 50 50
200 50 50
200 50 50
200 50 50
200 50 50
200 50 50
200 50 50
200 50 50
200 50 50
200 50 50
200 50 50
200 50 50
200 50 50
200 50 50
200 50 50
255 255 255
255 255 255
255 255 255
255 255 255
255 255 255
255 255 255
255 255 255
255 255 255
255 255 255
255 255 255
255 255 255
255 255 255
255 255 255
255 255 255
255 255 255
255 255 255
255 255 255
255 255 255
255 255 255
255 255 255
255 255 255
255 255 255
255 255 255
255 255 255
255 255 255
255 255 255
255 255 255
255 255 255
255 255 255
255 255 255
255 255 255
255 255 255
200 50 50
200 50 50
200 50 50
200 50 50
200 50 50
200 50 50
200 50 50
200 50 50
200 50 50
200 50 50
200 50 50
200 50 50
200 50 50
200 50 50
200 50 50
200 50 50
200 50 50
200 50 50
200 50 50
200 50 50
200 50 50
200 50 50
200 50 50
200 50 50
200 50 50
200 50 50
200 50 50
200 50 50
200 50 50
200 50 50
200 50 50
200 50 50
255 255 255
255 255 255
255 255 255
255 255 255
255 255 255
255 255 255
255 255 255
255 255 255
255 255 255
255 255 255
255 255 255
255 255 255
255 255 255
255 255 255
255 255 255
255 255 255
255 255 255
255 255 255
255 255 255
255 255 255
255 255 255
255 255 255
255 255 255
255 255 255
255 255 255
255 255 255
255 255 255
255 255 255
255 255 255
255 255 255
255 255 255
255 255 255
200 50 50
200 50 50
200 50 50
200 50 50
200 50 50
200 50 50
200 50 50
200 50 50
200 50 50
200 50 50
200 50 50
200 50 50
200 50 50
200 50 50
200 50 50
200 50 50
200 50 50
200 50 50
200 50 50
200 50 50
200 50 50
200 50 50
200 50 50
200 50 50
200 50 50
200 50 50
200 50 50
200 50 50
200 50 50
200 50 50
200 50 50
200 50 50
255 255 255
255 255 255
255 255 255
255 255 255
255 255 255
255 255 255
255 255 255
255 255 255
255 255 255
255 255 255
255 255 255
255 255 255
255 255 255
255 255 255
255 255 255
255 255 255
255 255 255
255 255 255
255 255 255
255 255 255
255 255 255
255 255 255
255 255 255
255 255 255
255 255 255
255 255 255
255 255 255
255 255 255
255 255 255
255 255 255
255 255 255
255 255 255
200 50 50
200 50 50
200 50 50
200 50 50
200 50 50
200 50 50
200 50 50
200 50 50
200 50 50
200 50 50
200 50 50
200 50 50
200 50 50
200 50 50
200 50 50
200 50 50
200 50 50
200 50 50
200 50 50
200 50 50
200 50 50
200 50 50
200 50 50
200 50 50
200 50 50
200 50 50
200 50 50
200 50 50
200 50 50
200 50 50
200 50 50
200 50 50
255 255 255
255 255 255
255 255 255
255 255 255
255 255 255
255 255 255
255 255 255
255 255 255
255 255 255
255 255 255
255 255 255
255 255 255
255 255 255
255 255 255
255 255 255
255 255 255
255 255 255
255 255 255
255 255 255
255 255 255
255 255 255
255 255 255
255 255 255
255 255 255
255 255 255
255 255 255
255 255 255
255 255 255
255 255 255
255 255 255
255 255 255
255 255 255
200 50 50
200 50 50
200 50 50
200 50 50
200 50 50
200 50 50
200 50 50
200 50 50
200 50 50
200 50 50
200 50 50
200 50 50
200 50 50
200 50 50
200 50 50
200 50 50
200 50 50
200 50 50
200 50 50
200 50 50
200 50 50
200 50 50
200 50 50
200 50 50
200 50 50
200 50 50
200 50 50
200 50 50
200 50 50
200 50 50
200 50 50
200 50 50
255 255 255
255 255 255
255 255 255
255 255 255
255 255 255
255 255 255
255 255 255
255 255 255
255 255 255
255 255 255
255 255 255
255 255 255
255 255 255
255 255 255
255 255 255
255 255 255
255 255 255
255 255 255
255 255 255
255 255 255
255 255 255
255 255 255
255 255 255
255 255 255
255 255 255
255 255 255
255 255 255
255 255 255
255 255 255
255 255 255
255 255 255
255 255 255
200 50 50
200 50 50
200 50 50
200 50 50
200 50 50
200 50 50
200 50 50
200 50 50
200 50 50
200 50 50
200 50 50
200 50 50
200 50 50
200 50 50
200 50 50
200 50 50
200 50 50
200 50 50
200 50 50
200 50 50
200 50 50
200 50 50
200 50 50
200 50 50
200 50 50
200 50 50
200 50 50
200 50 50
200 50 50
200 50 50
200 50 50
200 50 50
255 255 255
255 255 255
255 255 255
255 255 255
255 255 255
255 255 255
255 255 255
255 255 255
255 255 255
255 255 255
255 255 255
255 255 255
255 255 255
255 255 255
255 255 255
255 255 255
255 255 255
255 255 255
255 255 255
255 255 255
255 255 255
255 255 255
255 255 255
255 255 255
255 255 255
255 255 255
255 255 255
255 255 255
255 255 255
255 255 255
255 255 255
255 255 255
200 50 50
200 50 50
200 50 50
200 50 50
200 50 50
200 50 50
200 50 50
200 50 50
200 50 50
200 50 50
200 50 50
200 50 50
200 50 50
200 50 50
200 50 50
200 50 50
200 50 50
200 50 50
200 50 50
200 50 50
200 50 50
200 50 50
200 50 50
200 50 50
200 50 50
200 50 50
200 50 50
200 50 50
200 50 50
200 50 50
200 50 50
200 50 50
255 255 255
255 255 255
255 255 255
255 255 255
255 255 255
255 255 255
255 255 255
255 255 255
255 255 255
255 255 255
255 255 255
255 255 255
255 255 255
255 255 255
255 255 255
255 255 255
255 255 255
255 255 255
255 255 255
255 255 255
255 255 255
255 255 255
255 255 255
255 255 255
255 255 255
255 255 255
255 255 255
255 255 255
255 255 255
255 255 255
255 255 255
255 255 255
200 50 50
200 50 50
200 50 50
200 50 50
200 50 50
200 50 50
200 50 50
200 50 50
200 50 50
200 50 50
200 50 50
200 50 50
200 50 50
200 50 50
200 50 50
200 50 50
200 50 50
200 50 50
200 50 50
200 50 50
200 50 50
200 50 50
200 50 50
200 50 50
200 50 50
200 50 50
200 50 50
200 50 50
200 50 50
200 50 50
200 50 50
200 50 50
255 255 255
255 255 255
255 255 255
255 255 255
255 255 255
255 255 255
255 255 255
255 255 255
255 255 255
255 255 255
255 255 255
255 255 255
255 255 255
255 255 255
255 255 255
255 255 255
255 255 255
255 255 255
255 255 255
255 255 255
255 255 255
255 255 255
255 255 255
255 255 255
255 255 255
255 255 255
255 255 255
255 255 255
255 255 255
255 255 255
255 255 255
255 255 255
200 50 50
200 50 50
200 50 50
200 50 50
200 50 50
200 50 50
200 50 50
200 50 50
200 50 50
200 50 50
200 50 50
200 50 50
200 50 50
200 50 50
200 50 50
200 50 50
200 50 50
200 50 50
200 50 50
200 50 50
200 50 50
200 50 50
200 50 50
200 50 50
200 50 50
200 50 50
200 50 50
200 50 50
200 50 50
200 50 50
200 50 50
200 50 50
255 255 255
255 255 255
255 255 255
255 255 255
255 255 255
255 255 255
255 255 255
255 255 255
255 255 255
255 255 255
255 255 255
255 255 255
255 255 255
255 255 255
255 255 255
255 255 255
255 255 255
255 255 255
255 255 255
255 255 255
255 255 255
255 255 255
255 255 255
255 255 255
255 255 255
255 255 255
255 255 255
255 255 255
255 255 255
255 255 255
255 255 255
255 255 255
